P3
118 195
255
0 0 0 0 0 0 0 0 0 0 0 0 0 0 0 0 0 0 0 0 0 0 0 0 0 0 0 0 0 0 0 0 0
0 0 0 0 0 0 0 0 0 0 0 0 0 0 0 0 0 0 0 0 0 0 0 0 0 0 0 0 0 0 0 0 0
0 0 0 0 0 0 0 0 0 0 0 0 0 0 0 0 0 0 0 0 0 0 0 0 0 0 0 0 0 0 0 0 0
0 0 0 0 0 0 0 0 0 0 0 0 0 0 0 0 0 0 0 0 0 0 0 0 0 0 0 0 0 0 0 0 0
0 0 0 0 0 0 0 0 0 0 0 0 0 0 0 0 0 0 0 0 0 0 0 0 0 0 0 0 0 0 0 0 0
0 0 0 0 0 0 0 0 0 0 0 0 0 0 0 0 0 0 0 0 0 0 0 0 0 0 0 0 0 0 0 0 0
0 0 0 0 0 0 0 0 0 0 0 0 0 0 0 0 0 0 0 0 0 0 0 0 0 0 0 0 0 0 0 0 0
0 0 0 0 0 0 0 0 0 0 0 0 0 0 0 0 0 0 0 0 0 0 0 0 0 0 0 0 0 0 0 0 0
0 0 0 0 0 0 0 0 0 0 0 0 0 0 0 0 0 0 0 0 0 0 0 0 0 0 0 0 0 0 0 0 0
0 0 0 0 0 0 0 0 0 0 0 0 0 0 0 0 0 0 0 0 0 0 0 0 0 0 0 0 0 0 0 0 0
0 0 0 0 0 0 0 0 0 0 0 0 0 0 0 0 0 0 0 0 0 0 0 0 0 0 0 0 0 0 0 0 0
0 0 0 0 0 0 0 0 0 0 0 0 0 0 0 0 0 0 0 0 0 0 0 0 0 0 0 0 0 0 0 0 0
0 0 0 0 0 0 0 0 0 0 0 0 0 0 0 0 0 0 0 0 0 0 0 0 0 0 0 0 0 0 0 0 0
0 7 0 0 7 0 0 7 0 0 7 0 4 8 4 4 8 4 4 8 4 4 8 4 11 14 8 11 14 8
11 14 8 11 14 8 20 24 18 20 24 18 20 24 18 20 24 18 33 43 29 33 43 29
33 43 29 33 43 29 42 49 36 42 49 36 42 49 36 42 49 36 45 50 42
45 50 42 45 50 42 45 50 42 50 58 47 50 58 47 50 58 47 50 58 47
62 67 60 62 67 60 62 67 60 62 67 60 60 64 57 60 64 57 60 64 57
60 64 57 51 61 50 51 61 50 51 61 50 51 61 50 45 52 42 45 52 42
45 52 42 45 52 42 33 41 29 33 41 29 33 41 29 33 41 29 24 28 21
24 28 21 24 28 21 24 28 21 10 13 10 10 13 10 10 13 10 10 13 10 0 10 0
0 10 0 0 10 0 0 10 0 0 0 0 0 0 0 0 0 0 0 0 0 0 0 0 0 0 0 0 0 0 0 0 0
0 0 0 0 0 0 0 0 0 0 0 0 0 0 0 0 0 0 0 0 0 0 0 0 0 0 0 0 0 0 0 0 0
0 0 0 0 0 0 0 0 0 0 0 0 0 0 0 0 0 0 0 0 0 0 0 0 0 0 0 0 0 0 0 0 0
0 0 0 0 0 0 0 0 0 0 0 0 0 0 0 0 0 0 0 0 0 0 0 0 0 0 0 0 0 0 0 0 0
0 0 0 0 0 0 0 0 0 0 0 0 0 0 0 0 0 0 0 0 0 0 0 0 0 0 0 0 0 0 0 0 0
0 0 0 0 0 0 0 7 0 0 7 0 0 7 0 0 7 0 4 8 4 4 8 4 4 8 4 4 8 4 11 14 8
11 14 8 11 14 8 11 14 8 20 24 18 20 24 18 20 24 18 20 24 18 33 43 29
33 43 29 33 43 29 33 43 29 42 49 36 42 49 36 42 49 36 42 49 36
45 50 42 45 50 42 45 50 42 45 50 42 50 58 47 50 58 47 50 58 47
50 58 47 62 67 60 62 67 60 62 67 60 62 67 60 60 64 57 60 64 57
60 64 57 60 64 57 51 61 50 51 61 50 51 61 50 51 61 50 45 52 42
45 52 42 45 52 42 45 52 42 33 41 29 33 41 29 33 41 29 33 41 29
24 28 21 24 28 21 24 28 21 24 28 21 10 13 10 10 13 10 10 13 10
10 13 10 0 10 0 0 10 0 0 10 0 0 10 0 0 0 0 0 0 0 0 0 0 0 0 0 0 0 0
0 0 0 0 0 0 0 0 0 0 0 0 0 0 0 0 0 0 0 0 0 0 0 0 0 0 0 0 0 0 0 0 0
0 0 0 0 0 0 0 0 0 0 0 0 0 0 0 0 0 0 0 0 0 0 0 0 0 0 0 0 0 0 0 0 0
0 0 0 0 0 0 0 0 0 0 0 0 0 0 0 0 0 0 0 0 0 0 0 0 0 0 0 0 0 0 0 0 0
0 0 0 0 0 0 0 0 0 0 0 0 0 0 0 0 0 0 0 0 0 0 0 0 0 0 0 0 0 0 0 0 0
0 0 0 0 0 0 0 0 0 0 0 0 0 0 0 0 7 0 0 7 0 0 7 0 0 7 0 4 8 4 4 8 4
4 8 4 4 8 4 11 14 8 11 14 8 11 14 8 11 14 8 20 24 18 20 24 18
20 24 18 20 24 18 33 43 29 33 43 29 33 43 29 33 43 29 42 49 36
42 49 36 42 49 36 42 49 36 45 50 42 45 50 42 45 50 42 45 50 42
50 58 47 50 58 47 50 58 47 50 58 47 62 67 60 62 67 60 62 67 60
62 67 60 60 64 57 60 64 57 60 64 57 60 64 57 51 61 50 51 61 50
51 61 50 51 61 50 45 52 42 45 52 42 45 52 42 45 52 42 33 41 29
33 41 29 33 41 29 33 41 29 24 28 21 24 28 21 24 28 21 24 28 21
10 13 10 10 13 10 10 13 10 10 13 10 0 10 0 0 10 0 0 10 0 0 10 0 0 0 0
0 0 0 0 0 0 0 0 0 0 0 0 0 0 0 0 0 0 0 0 0 0 0 0 0 0 0 0 0 0 0 0 0
0 0 0 0 0 0 0 0 0 0 0 0 0 0 0 0 0 0 0 0 0 0 0 0 0 0 0 0 0 0 0 0 0
0 0 0 0 0 0 0 0 0 0 0 0 0 0 0 0 0 0 0 0 0 0 0 0 0 0 0 0 0 0 0 0 0
0 0 0 0 0 0 0 0 0 0 0 0 0 0 0 0 0 0 0 0 0 0 0 0 0 0 0 0 0 0 0 0 0
0 0 0 0 0 0 0 0 0 0 0 0 0 0 0 0 0 0 0 0 0 0 0 0 0 0 0 0 7 0 0 7 0
0 7 0 0 7 0 4 8 4 4 8 4 4 8 4 4 8 4 11 14 8 11 14 8 11 14 8 11 14 8
20 24 18 20 24 18 20 24 18 20 24 18 33 43 29 33 43 29 33 43 29
33 43 29 42 49 36 42 49 36 42 49 36 42 49 36 45 50 42 45 50 42
45 50 42 45 50 42 50 58 47 50 58 47 50 58 47 50 58 47 62 67 60
62 67 60 62 67 60 62 67 60 60 64 57 60 64 57 60 64 57 60 64 57
51 61 50 51 61 50 51 61 50 51 61 50 45 52 42 45 52 42 45 52 42
45 52 42 33 41 29 33 41 29 33 41 29 33 41 29 24 28 21 24 28 21
24 28 21 24 28 21 10 13 10 10 13 10 10 13 10 10 13 10 0 10 0 0 10 0
0 10 0 0 10 0 0 0 0 0 0 0 0 0 0 0 0 0 0 0 0 0 0 0 0 0 0 0 0 0 0 0 0
0 0 0 0 0 0 0 0 0 0 0 0 0 0 0 0 0 0 0 0 0 0 0 0 0 0 0 0 0 0 0 0 0
0 0 0 0 0 0 0 0 0 0 0 0 0 0 0 0 0 0 0 0 0 0 0 0 0 0 0 0 0 0 0 0 0
0 0 0 0 0 0 0 0 0 0 0 0 0 0 0 0 0 0 0 0 0 6 9 3 6 9 3 6 9 3 6 9 3
22 30 15 22 30 15 22 30 15 22 30 15 37 54 27 37 54 27 37 54 27
37 54 27 47 73 36 47 73 36 47 73 36 47 73 36 56 83 44 56 83 44
56 83 44 56 83 44 65 85 53 65 85 53 65 85 53 65 85 53 73 88 60
73 88 60 73 88 60 73 88 60 77 92 66 77 92 66 77 92 66 77 92 66
79 99 69 79 99 69 79 99 69 79 99 69 82 98 74 82 98 74 82 98 74
82 98 74 82 90 75 82 90 75 82 90 75 82 90 75 82 94 75 82 94 75
82 94 75 82 94 75 81 88 75 81 88 75 81 88 75 81 88 75 70 78 64
70 78 64 70 78 64 70 78 64 73 87 66 73 87 66 73 87 66 73 87 66
82 98 76 82 98 76 82 98 76 82 98 76 89 110 83 89 110 83 89 110 83
89 110 83 90 126 84 90 126 84 90 126 84 90 126 84 90 128 83 90 128 83
90 128 83 90 128 83 76 107 71 76 107 71 76 107 71 76 107 71 69 86 63
69 86 63 69 86 63 69 86 63 58 63 54 58 63 54 58 63 54 58 63 54
43 49 40 43 49 40 43 49 40 43 49 40 16 20 13 16 20 13 16 20 13
16 20 13 0 9 0 0 9 0 0 9 0 0 9 0 0 0 0 0 0 0 0 0 0 0 0 0 0 0 0 0 0 0
0 0 0 0 0 0 0 0 0 0 0 0 0 0 0 0 0 0 0 0 0 0 0 0 0 0 0 0 0 0 0 0 0
0 0 0 6 9 3 6 9 3 6 9 3 6 9 3 22 30 15 22 30 15 22 30 15 22 30 15
37 54 27 37 54 27 37 54 27 37 54 27 47 73 36 47 73 36 47 73 36
47 73 36 56 83 44 56 83 44 56 83 44 56 83 44 65 85 53 65 85 53
65 85 53 65 85 53 73 88 60 73 88 60 73 88 60 73 88 60 77 92 66
77 92 66 77 92 66 77 92 66 79 99 69 79 99 69 79 99 69 79 99 69
82 98 74 82 98 74 82 98 74 82 98 74 82 90 75 82 90 75 82 90 75
82 90 75 82 94 75 82 94 75 82 94 75 82 94 75 81 88 75 81 88 75
81 88 75 81 88 75 70 78 64 70 78 64 70 78 64 70 78 64 73 87 66
73 87 66 73 87 66 73 87 66 82 98 76 82 98 76 82 98 76 82 98 76
89 110 83 89 110 83 89 110 83 89 110 83 90 126 84 90 126 84 90 126 84
90 126 84 90 128 83 90 128 83 90 128 83 90 128 83 76 107 71 76 107 71
76 107 71 76 107 71 69 86 63 69 86 63 69 86 63 69 86 63 58 63 54
58 63 54 58 63 54 58 63 54 43 49 40 43 49 40 43 49 40 43 49 40
16 20 13 16 20 13 16 20 13 16 20 13 0 9 0 0 9 0 0 9 0 0 9 0 0 0 0
0 0 0 0 0 0 0 0 0 0 0 0 0 0 0 0 0 0 0 0 0 0 0 0 0 0 0 0 0 0 0 0 0
0 0 0 0 0 0 0 0 0 0 0 0 0 0 0 0 0 0 6 9 3 6 9 3 6 9 3 6 9 3 22 30 15
22 30 15 22 30 15 22 30 15 37 54 27 37 54 27 37 54 27 37 54 27
47 73 36 47 73 36 47 73 36 47 73 36 56 83 44 56 83 44 56 83 44
56 83 44 65 85 53 65 85 53 65 85 53 65 85 53 73 88 60 73 88 60
73 88 60 73 88 60 77 92 66 77 92 66 77 92 66 77 92 66 79 99 69
79 99 69 79 99 69 79 99 69 82 98 74 82 98 74 82 98 74 82 98 74
82 90 75 82 90 75 82 90 75 82 90 75 82 94 75 82 94 75 82 94 75
82 94 75 81 88 75 81 88 75 81 88 75 81 88 75 70 78 64 70 78 64
70 78 64 70 78 64 73 87 66 73 87 66 73 87 66 73 87 66 82 98 76
82 98 76 82 98 76 82 98 76 89 110 83 89 110 83 89 110 83 89 110 83
90 126 84 90 126 84 90 126 84 90 126 84 90 128 83 90 128 83 90 128 83
90 128 83 76 107 71 76 107 71 76 107 71 76 107 71 69 86 63 69 86 63
69 86 63 69 86 63 58 63 54 58 63 54 58 63 54 58 63 54 43 49 40
43 49 40 43 49 40 43 49 40 16 20 13 16 20 13 16 20 13 16 20 13 0 9 0
0 9 0 0 9 0 0 9 0 0 0 0 0 0 0 0 0 0 0 0 0 0 0 0 0 0 0 0 0 0 0 0 0
0 0 0 0 0 0 0 0 0 0 0 0 0 0 0 0 0 0 0 0 0 0 0 0 0 0 0 0 0 0 6 9 3
6 9 3 6 9 3 6 9 3 22 30 15 22 30 15 22 30 15 22 30 15 37 54 27
37 54 27 37 54 27 37 54 27 47 73 36 47 73 36 47 73 36 47 73 36
56 83 44 56 83 44 56 83 44 56 83 44 65 85 53 65 85 53 65 85 53
65 85 53 73 88 60 73 88 60 73 88 60 73 88 60 77 92 66 77 92 66
77 92 66 77 92 66 79 99 69 79 99 69 79 99 69 79 99 69 82 98 74
82 98 74 82 98 74 82 98 74 82 90 75 82 90 75 82 90 75 82 90 75
82 94 75 82 94 75 82 94 75 82 94 75 81 88 75 81 88 75 81 88 75
81 88 75 70 78 64 70 78 64 70 78 64 70 78 64 73 87 66 73 87 66
73 87 66 73 87 66 82 98 76 82 98 76 82 98 76 82 98 76 89 110 83
89 110 83 89 110 83 89 110 83 90 126 84 90 126 84 90 126 84 90 126 84
90 128 83 90 128 83 90 128 83 90 128 83 76 107 71 76 107 71 76 107 71
76 107 71 69 86 63 69 86 63 69 86 63 69 86 63 58 63 54 58 63 54
58 63 54 58 63 54 43 49 40 43 49 40 43 49 40 43 49 40 16 20 13
16 20 13 16 20 13 16 20 13 0 9 0 0 9 0 0 9 0 0 9 0 0 0 0 0 0 0 0 0 0
0 0 0 0 0 0 0 0 0 0 0 0 0 0 0 0 0 0 0 0 0 0 0 0 0 0 0 0 0 0 0 0 0
31 46 22 31 46 22 31 46 22 31 46 22 60 83 46 60 83 46 60 83 46
60 83 46 77 97 63 77 97 63 77 97 63 77 97 63 79 115 66 79 115 66
79 115 66 79 115 66 70 98 58 70 98 58 70 98 58 70 98 58 54 72 43
54 72 43 54 72 43 54 72 43 40 50 31 40 50 31 40 50 31 40 50 31
29 40 22 29 40 22 29 40 22 29 40 22 27 34 19 27 34 19 27 34 19
27 34 19 23 33 16 23 33 16 23 33 16 23 33 16 24 31 16 24 31 16
24 31 16 24 31 16 19 25 13 19 25 13 19 25 13 19 25 13 16 25 11
16 25 11 16 25 11 16 25 11 15 20 9 15 20 9 15 20 9 15 20 9 15 21 10
15 21 10 15 21 10 15 21 10 15 19 9 15 19 9 15 19 9 15 19 9 15 19 10
15 19 10 15 19 10 15 19 10 19 23 14 19 23 14 19 23 14 19 23 14
26 31 21 26 31 21 26 31 21 26 31 21 40 46 35 40 46 35 40 46 35
40 46 35 54 69 49 54 69 49 54 69 49 54 69 49 73 92 68 73 92 68
73 92 68 73 92 68 90 111 84 90 111 84 90 111 84 90 111 84 108 118 102
108 118 102 108 118 102 108 118 102 105 109 99 105 109 99 105 109 99
105 109 99 51 55 46 51 55 46 51 55 46 51 55 46 8 10 6 8 10 6 8 10 6
8 10 6 0 0 0 0 0 0 0 0 0 0 0 0 0 0 0 0 0 0 0 0 0 0 0 0 0 0 0 0 0 0
31 46 22 31 46 22 31 46 22 31 46 22 60 83 46 60 83 46 60 83 46
60 83 46 77 97 63 77 97 63 77 97 63 77 97 63 79 115 66 79 115 66
79 115 66 79 115 66 70 98 58 70 98 58 70 98 58 70 98 58 54 72 43
54 72 43 54 72 43 54 72 43 40 50 31 40 50 31 40 50 31 40 50 31
29 40 22 29 40 22 29 40 22 29 40 22 27 34 19 27 34 19 27 34 19
27 34 19 23 33 16 23 33 16 23 33 16 23 33 16 24 31 16 24 31 16
24 31 16 24 31 16 19 25 13 19 25 13 19 25 13 19 25 13 16 25 11
16 25 11 16 25 11 16 25 11 15 20 9 15 20 9 15 20 9 15 20 9 15 21 10
15 21 10 15 21 10 15 21 10 15 19 9 15 19 9 15 19 9 15 19 9 15 19 10
15 19 10 15 19 10 15 19 10 19 23 14 19 23 14 19 23 14 19 23 14
26 31 21 26 31 21 26 31 21 26 31 21 40 46 35 40 46 35 40 46 35
40 46 35 54 69 49 54 69 49 54 69 49 54 69 49 73 92 68 73 92 68
73 92 68 73 92 68 90 111 84 90 111 84 90 111 84 90 111 84 108 118 102
108 118 102 108 118 102 108 118 102 105 109 99 105 109 99 105 109 99
105 109 99 51 55 46 51 55 46 51 55 46 51 55 46 8 10 6 8 10 6 8 10 6
8 10 6 0 0 0 0 0 0 0 0 0 0 0 0 0 0 0 0 0 0 0 0 0 0 0 0 0 0 0 0 0 0
31 46 22 31 46 22 31 46 22 31 46 22 60 83 46 60 83 46 60 83 46
60 83 46 77 97 63 77 97 63 77 97 63 77 97 63 79 115 66 79 115 66
79 115 66 79 115 66 70 98 58 70 98 58 70 98 58 70 98 58 54 72 43
54 72 43 54 72 43 54 72 43 40 50 31 40 50 31 40 50 31 40 50 31
29 40 22 29 40 22 29 40 22 29 40 22 27 34 19 27 34 19 27 34 19
27 34 19 23 33 16 23 33 16 23 33 16 23 33 16 24 31 16 24 31 16
24 31 16 24 31 16 19 25 13 19 25 13 19 25 13 19 25 13 16 25 11
16 25 11 16 25 11 16 25 11 15 20 9 15 20 9 15 20 9 15 20 9 15 21 10
15 21 10 15 21 10 15 21 10 15 19 9 15 19 9 15 19 9 15 19 9 15 19 10
15 19 10 15 19 10 15 19 10 19 23 14 19 23 14 19 23 14 19 23 14
26 31 21 26 31 21 26 31 21 26 31 21 40 46 35 40 46 35 40 46 35
40 46 35 54 69 49 54 69 49 54 69 49 54 69 49 73 92 68 73 92 68
73 92 68 73 92 68 90 111 84 90 111 84 90 111 84 90 111 84 108 118 102
108 118 102 108 118 102 108 118 102 105 109 99 105 109 99 105 109 99
105 109 99 51 55 46 51 55 46 51 55 46 51 55 46 8 10 6 8 10 6 8 10 6
8 10 6 0 0 0 0 0 0 0 0 0 0 0 0 0 0 0 0 0 0 0 0 0 0 0 0 0 0 0 0 0 0
31 46 22 31 46 22 31 46 22 31 46 22 60 83 46 60 83 46 60 83 46
60 83 46 77 97 63 77 97 63 77 97 63 77 97 63 79 115 66 79 115 66
79 115 66 79 115 66 70 98 58 70 98 58 70 98 58 70 98 58 54 72 43
54 72 43 54 72 43 54 72 43 40 50 31 40 50 31 40 50 31 40 50 31
29 40 22 29 40 22 29 40 22 29 40 22 27 34 19 27 34 19 27 34 19
27 34 19 23 33 16 23 33 16 23 33 16 23 33 16 24 31 16 24 31 16
24 31 16 24 31 16 19 25 13 19 25 13 19 25 13 19 25 13 16 25 11
16 25 11 16 25 11 16 25 11 15 20 9 15 20 9 15 20 9 15 20 9 15 21 10
15 21 10 15 21 10 15 21 10 15 19 9 15 19 9 15 19 9 15 19 9 15 19 10
15 19 10 15 19 10 15 19 10 19 23 14 19 23 14 19 23 14 19 23 14
26 31 21 26 31 21 26 31 21 26 31 21 40 46 35 40 46 35 40 46 35
40 46 35 54 69 49 54 69 49 54 69 49 54 69 49 73 92 68 73 92 68
73 92 68 73 92 68 90 111 84 90 111 84 90 111 84 90 111 84 108 118 102
108 118 102 108 118 102 108 118 102 105 109 99 105 109 99 105 109 99
105 109 99 51 55 46 51 55 46 51 55 46 51 55 46 8 10 6 8 10 6 8 10 6
8 10 6 0 0 0 0 0 0 0 0 0 0 0 0 0 0 0 0 0 0 7 9 7 7 9 7 7 9 7 7 9 7
64 90 51 64 90 51 64 90 51 64 90 51 57 86 46 57 86 46 57 86 46
57 86 46 33 101 26 33 101 26 33 101 26 33 101 26 27 122 18 27 122 18
27 122 18 27 122 18 23 118 15 23 118 15 23 118 15 23 118 15 24 108 15
24 108 15 24 108 15 24 108 15 21 93 13 21 93 13 21 93 13 21 93 13
17 108 10 17 108 10 17 108 10 17 108 10 12 173 6 12 173 6 12 173 6
12 173 6 16 132 9 16 132 9 16 132 9 16 132 9 21 41 14 21 41 14
21 41 14 21 41 14 18 25 12 18 25 12 18 25 12 18 25 12 17 23 11
17 23 11 17 23 11 17 23 11 18 26 12 18 26 12 18 26 12 18 26 12
14 71 8 14 71 8 14 71 8 14 71 8 12 112 6 12 112 6 12 112 6 12 112 6
12 122 5 12 122 5 12 122 5 12 122 5 12 62 7 12 62 7 12 62 7 12 62 7
13 16 8 13 16 8 13 16 8 13 16 8 12 15 7 12 15 7 12 15 7 12 15 7
11 24 6 11 24 6 11 24 6 11 24 6 10 52 5 10 52 5 10 52 5 10 52 5
10 48 5 10 48 5 10 48 5 10 48 5 13 17 9 13 17 9 13 17 9 13 17 9
44 47 39 44 47 39 44 47 39 44 47 39 97 101 91 97 101 91 97 101 91
97 101 91 54 56 53 54 56 53 54 56 53 54 56 53 0 16 0 0 16 0 0 16 0
0 16 0 0 0 0 0 0 0 7 9 7 7 9 7 7 9 7 7 9 7 64 90 51 64 90 51 64 90 51
64 90 51 57 86 46 57 86 46 57 86 46 57 86 46 33 101 26 33 101 26
33 101 26 33 101 26 27 122 18 27 122 18 27 122 18 27 122 18 23 118 15
23 118 15 23 118 15 23 118 15 24 108 15 24 108 15 24 108 15 24 108 15
21 93 13 21 93 13 21 93 13 21 93 13 17 108 10 17 108 10 17 108 10
17 108 10 12 173 6 12 173 6 12 173 6 12 173 6 16 132 9 16 132 9
16 132 9 16 132 9 21 41 14 21 41 14 21 41 14 21 41 14 18 25 12
18 25 12 18 25 12 18 25 12 17 23 11 17 23 11 17 23 11 17 23 11
18 26 12 18 26 12 18 26 12 18 26 12 14 71 8 14 71 8 14 71 8 14 71 8
12 112 6 12 112 6 12 112 6 12 112 6 12 122 5 12 122 5 12 122 5
12 122 5 12 62 7 12 62 7 12 62 7 12 62 7 13 16 8 13 16 8 13 16 8
13 16 8 12 15 7 12 15 7 12 15 7 12 15 7 11 24 6 11 24 6 11 24 6
11 24 6 10 52 5 10 52 5 10 52 5 10 52 5 10 48 5 10 48 5 10 48 5
10 48 5 13 17 9 13 17 9 13 17 9 13 17 9 44 47 39 44 47 39 44 47 39
44 47 39 97 101 91 97 101 91 97 101 91 97 101 91 54 56 53 54 56 53
54 56 53 54 56 53 0 16 0 0 16 0 0 16 0 0 16 0 0 0 0 0 0 0 7 9 7 7 9 7
7 9 7 7 9 7 64 90 51 64 90 51 64 90 51 64 90 51 57 86 46 57 86 46
57 86 46 57 86 46 33 101 26 33 101 26 33 101 26 33 101 26 27 122 18
27 122 18 27 122 18 27 122 18 23 118 15 23 118 15 23 118 15 23 118 15
24 108 15 24 108 15 24 108 15 24 108 15 21 93 13 21 93 13 21 93 13
21 93 13 17 108 10 17 108 10 17 108 10 17 108 10 12 173 6 12 173 6
12 173 6 12 173 6 16 132 9 16 132 9 16 132 9 16 132 9 21 41 14
21 41 14 21 41 14 21 41 14 18 25 12 18 25 12 18 25 12 18 25 12
17 23 11 17 23 11 17 23 11 17 23 11 18 26 12 18 26 12 18 26 12
18 26 12 14 71 8 14 71 8 14 71 8 14 71 8 12 112 6 12 112 6 12 112 6
12 112 6 12 122 5 12 122 5 12 122 5 12 122 5 12 62 7 12 62 7 12 62 7
12 62 7 13 16 8 13 16 8 13 16 8 13 16 8 12 15 7 12 15 7 12 15 7
12 15 7 11 24 6 11 24 6 11 24 6 11 24 6 10 52 5 10 52 5 10 52 5
10 52 5 10 48 5 10 48 5 10 48 5 10 48 5 13 17 9 13 17 9 13 17 9
13 17 9 44 47 39 44 47 39 44 47 39 44 47 39 97 101 91 97 101 91
97 101 91 97 101 91 54 56 53 54 56 53 54 56 53 54 56 53 0 16 0 0 16 0
0 16 0 0 16 0 0 0 0 0 0 0 7 9 7 7 9 7 7 9 7 7 9 7 64 90 51 64 90 51
64 90 51 64 90 51 57 86 46 57 86 46 57 86 46 57 86 46 33 101 26
33 101 26 33 101 26 33 101 26 27 122 18 27 122 18 27 122 18 27 122 18
23 118 15 23 118 15 23 118 15 23 118 15 24 108 15 24 108 15 24 108 15
24 108 15 21 93 13 21 93 13 21 93 13 21 93 13 17 108 10 17 108 10
17 108 10 17 108 10 12 173 6 12 173 6 12 173 6 12 173 6 16 132 9
16 132 9 16 132 9 16 132 9 21 41 14 21 41 14 21 41 14 21 41 14
18 25 12 18 25 12 18 25 12 18 25 12 17 23 11 17 23 11 17 23 11
17 23 11 18 26 12 18 26 12 18 26 12 18 26 12 14 71 8 14 71 8 14 71 8
14 71 8 12 112 6 12 112 6 12 112 6 12 112 6 12 122 5 12 122 5
12 122 5 12 122 5 12 62 7 12 62 7 12 62 7 12 62 7 13 16 8 13 16 8
13 16 8 13 16 8 12 15 7 12 15 7 12 15 7 12 15 7 11 24 6 11 24 6
11 24 6 11 24 6 10 52 5 10 52 5 10 52 5 10 52 5 10 48 5 10 48 5
10 48 5 10 48 5 13 17 9 13 17 9 13 17 9 13 17 9 44 47 39 44 47 39
44 47 39 44 47 39 97 101 91 97 101 91 97 101 91 97 101 91 54 56 53
54 56 53 54 56 53 54 56 53 0 16 0 0 16 0 0 16 0 0 16 0 0 0 0 0 0 0
16 18 16 16 18 16 16 18 16 16 18 16 59 89 48 59 89 48 59 89 48
59 89 48 16 138 9 16 138 9 16 138 9 16 138 9 6 250 0 6 250 0 6 250 0
6 250 0 6 255 0 6 255 0 6 255 0 6 255 0 6 255 0 6 255 0 6 255 0
6 255 0 6 255 0 6 255 0 6 255 0 6 255 0 6 255 0 6 255 0 6 255 0
6 255 0 6 255 0 6 255 0 6 255 0 6 255 0 6 255 0 6 255 0 6 255 0
6 255 0 6 255 0 6 255 0 6 255 0 6 255 0 7 246 1 7 246 1 7 246 1
7 246 1 9 206 3 9 206 3 9 206 3 9 206 3 8 211 2 8 211 2 8 211 2
8 211 2 6 249 0 6 249 0 6 249 0 6 249 0 6 255 0 6 255 0 6 255 0
6 255 0 6 255 0 6 255 0 6 255 0 6 255 0 6 255 0 6 255 0 6 255 0
6 255 0 6 255 0 6 255 0 6 255 0 6 255 0 6 240 1 6 240 1 6 240 1
6 240 1 7 232 1 7 232 1 7 232 1 7 232 1 6 254 0 6 254 0 6 254 0
6 254 0 6 255 0 6 255 0 6 255 0 6 255 0 6 255 0 6 255 0 6 255 0
6 255 0 6 238 0 6 238 0 6 238 0 6 238 0 7 204 1 7 204 1 7 204 1
7 204 1 61 73 57 61 73 57 61 73 57 61 73 57 56 58 54 56 58 54
56 58 54 56 58 54 0 11 0 0 11 0 0 11 0 0 11 0 0 0 0 0 0 0 16 18 16
16 18 16 16 18 16 16 18 16 59 89 48 59 89 48 59 89 48 59 89 48
16 138 9 16 138 9 16 138 9 16 138 9 6 250 0 6 250 0 6 250 0 6 250 0
6 255 0 6 255 0 6 255 0 6 255 0 6 255 0 6 255 0 6 255 0 6 255 0
6 255 0 6 255 0 6 255 0 6 255 0 6 255 0 6 255 0 6 255 0 6 255 0
6 255 0 6 255 0 6 255 0 6 255 0 6 255 0 6 255 0 6 255 0 6 255 0
6 255 0 6 255 0 6 255 0 6 255 0 7 246 1 7 246 1 7 246 1 7 246 1
9 206 3 9 206 3 9 206 3 9 206 3 8 211 2 8 211 2 8 211 2 8 211 2
6 249 0 6 249 0 6 249 0 6 249 0 6 255 0 6 255 0 6 255 0 6 255 0
6 255 0 6 255 0 6 255 0 6 255 0 6 255 0 6 255 0 6 255 0 6 255 0
6 255 0 6 255 0 6 255 0 6 255 0 6 240 1 6 240 1 6 240 1 6 240 1
7 232 1 7 232 1 7 232 1 7 232 1 6 254 0 6 254 0 6 254 0 6 254 0
6 255 0 6 255 0 6 255 0 6 255 0 6 255 0 6 255 0 6 255 0 6 255 0
6 238 0 6 238 0 6 238 0 6 238 0 7 204 1 7 204 1 7 204 1 7 204 1
61 73 57 61 73 57 61 73 57 61 73 57 56 58 54 56 58 54 56 58 54
56 58 54 0 11 0 0 11 0 0 11 0 0 11 0 0 0 0 0 0 0 16 18 16 16 18 16
16 18 16 16 18 16 59 89 48 59 89 48 59 89 48 59 89 48 16 138 9
16 138 9 16 138 9 16 138 9 6 250 0 6 250 0 6 250 0 6 250 0 6 255 0
6 255 0 6 255 0 6 255 0 6 255 0 6 255 0 6 255 0 6 255 0 6 255 0
6 255 0 6 255 0 6 255 0 6 255 0 6 255 0 6 255 0 6 255 0 6 255 0
6 255 0 6 255 0 6 255 0 6 255 0 6 255 0 6 255 0 6 255 0 6 255 0
6 255 0 6 255 0 6 255 0 7 246 1 7 246 1 7 246 1 7 246 1 9 206 3
9 206 3 9 206 3 9 206 3 8 211 2 8 211 2 8 211 2 8 211 2 6 249 0
6 249 0 6 249 0 6 249 0 6 255 0 6 255 0 6 255 0 6 255 0 6 255 0
6 255 0 6 255 0 6 255 0 6 255 0 6 255 0 6 255 0 6 255 0 6 255 0
6 255 0 6 255 0 6 255 0 6 240 1 6 240 1 6 240 1 6 240 1 7 232 1
7 232 1 7 232 1 7 232 1 6 254 0 6 254 0 6 254 0 6 254 0 6 255 0
6 255 0 6 255 0 6 255 0 6 255 0 6 255 0 6 255 0 6 255 0 6 238 0
6 238 0 6 238 0 6 238 0 7 204 1 7 204 1 7 204 1 7 204 1 61 73 57
61 73 57 61 73 57 61 73 57 56 58 54 56 58 54 56 58 54 56 58 54 0 11 0
0 11 0 0 11 0 0 11 0 0 0 0 0 0 0 16 18 16 16 18 16 16 18 16 16 18 16
59 89 48 59 89 48 59 89 48 59 89 48 16 138 9 16 138 9 16 138 9
16 138 9 6 250 0 6 250 0 6 250 0 6 250 0 6 255 0 6 255 0 6 255 0
6 255 0 6 255 0 6 255 0 6 255 0 6 255 0 6 255 0 6 255 0 6 255 0
6 255 0 6 255 0 6 255 0 6 255 0 6 255 0 6 255 0 6 255 0 6 255 0
6 255 0 6 255 0 6 255 0 6 255 0 6 255 0 6 255 0 6 255 0 6 255 0
6 255 0 7 246 1 7 246 1 7 246 1 7 246 1 9 206 3 9 206 3 9 206 3
9 206 3 8 211 2 8 211 2 8 211 2 8 211 2 6 249 0 6 249 0 6 249 0
6 249 0 6 255 0 6 255 0 6 255 0 6 255 0 6 255 0 6 255 0 6 255 0
6 255 0 6 255 0 6 255 0 6 255 0 6 255 0 6 255 0 6 255 0 6 255 0
6 255 0 6 240 1 6 240 1 6 240 1 6 240 1 7 232 1 7 232 1 7 232 1
7 232 1 6 254 0 6 254 0 6 254 0 6 254 0 6 255 0 6 255 0 6 255 0
6 255 0 6 255 0 6 255 0 6 255 0 6 255 0 6 238 0 6 238 0 6 238 0
6 238 0 7 204 1 7 204 1 7 204 1 7 204 1 61 73 57 61 73 57 61 73 57
61 73 57 56 58 54 56 58 54 56 58 54 56 58 54 0 11 0 0 11 0 0 11 0
0 11 0 0 0 0 0 0 0 7 7 7 7 7 7 7 7 7 7 7 7 67 101 55 67 101 55
67 101 55 67 101 55 63 89 55 63 89 55 63 89 55 63 89 55 42 63 36
42 63 36 42 63 36 42 63 36 29 111 21 29 111 21 29 111 21 29 111 21
17 162 10 17 162 10 17 162 10 17 162 10 9 228 3 9 228 3 9 228 3
9 228 3 6 255 0 6 255 0 6 255 0 6 255 0 6 255 0 6 255 0 6 255 0
6 255 0 6 255 0 6 255 0 6 255 0 6 255 0 6 255 0 6 255 0 6 255 0
6 255 0 6 255 0 6 255 0 6 255 0 6 255 0 6 255 0 6 255 0 6 255 0
6 255 0 6 255 0 6 255 0 6 255 0 6 255 0 6 255 0 6 255 0 6 255 0
6 255 0 6 255 0 6 255 0 6 255 0 6 255 0 6 255 0 6 255 0 6 255 0
6 255 0 6 255 0 6 255 0 6 255 0 6 255 0 6 255 0 6 255 0 6 255 0
6 255 0 6 255 0 6 255 0 6 255 0 6 255 0 6 255 0 6 255 0 6 255 0
6 255 0 6 255 0 6 255 0 6 255 0 6 255 0 6 255 0 6 255 0 6 255 0
6 255 0 6 248 0 6 248 0 6 248 0 6 248 0 9 152 5 9 152 5 9 152 5
9 152 5 39 61 33 39 61 33 39 61 33 39 61 33 61 65 53 61 65 53
61 65 53 61 65 53 15 16 11 15 16 11 15 16 11 15 16 11 0 0 0 0 0 0
0 0 0 0 0 0 0 0 0 0 0 0 7 7 7 7 7 7 7 7 7 7 7 7 67 101 55 67 101 55
67 101 55 67 101 55 63 89 55 63 89 55 63 89 55 63 89 55 42 63 36
42 63 36 42 63 36 42 63 36 29 111 21 29 111 21 29 111 21 29 111 21
17 162 10 17 162 10 17 162 10 17 162 10 9 228 3 9 228 3 9 228 3
9 228 3 6 255 0 6 255 0 6 255 0 6 255 0 6 255 0 6 255 0 6 255 0
6 255 0 6 255 0 6 255 0 6 255 0 6 255 0 6 255 0 6 255 0 6 255 0
6 255 0 6 255 0 6 255 0 6 255 0 6 255 0 6 255 0 6 255 0 6 255 0
6 255 0 6 255 0 6 255 0 6 255 0 6 255 0 6 255 0 6 255 0 6 255 0
6 255 0 6 255 0 6 255 0 6 255 0 6 255 0 6 255 0 6 255 0 6 255 0
6 255 0 6 255 0 6 255 0 6 255 0 6 255 0 6 255 0 6 255 0 6 255 0
6 255 0 6 255 0 6 255 0 6 255 0 6 255 0 6 255 0 6 255 0 6 255 0
6 255 0 6 255 0 6 255 0 6 255 0 6 255 0 6 255 0 6 255 0 6 255 0
6 255 0 6 248 0 6 248 0 6 248 0 6 248 0 9 152 5 9 152 5 9 152 5
9 152 5 39 61 33 39 61 33 39 61 33 39 61 33 61 65 53 61 65 53
61 65 53 61 65 53 15 16 11 15 16 11 15 16 11 15 16 11 0 0 0 0 0 0
0 0 0 0 0 0 0 0 0 0 0 0 7 7 7 7 7 7 7 7 7 7 7 7 67 101 55 67 101 55
67 101 55 67 101 55 63 89 55 63 89 55 63 89 55 63 89 55 42 63 36
42 63 36 42 63 36 42 63 36 29 111 21 29 111 21 29 111 21 29 111 21
17 162 10 17 162 10 17 162 10 17 162 10 9 228 3 9 228 3 9 228 3
9 228 3 6 255 0 6 255 0 6 255 0 6 255 0 6 255 0 6 255 0 6 255 0
6 255 0 6 255 0 6 255 0 6 255 0 6 255 0 6 255 0 6 255 0 6 255 0
6 255 0 6 255 0 6 255 0 6 255 0 6 255 0 6 255 0 6 255 0 6 255 0
6 255 0 6 255 0 6 255 0 6 255 0 6 255 0 6 255 0 6 255 0 6 255 0
6 255 0 6 255 0 6 255 0 6 255 0 6 255 0 6 255 0 6 255 0 6 255 0
6 255 0 6 255 0 6 255 0 6 255 0 6 255 0 6 255 0 6 255 0 6 255 0
6 255 0 6 255 0 6 255 0 6 255 0 6 255 0 6 255 0 6 255 0 6 255 0
6 255 0 6 255 0 6 255 0 6 255 0 6 255 0 6 255 0 6 255 0 6 255 0
6 255 0 6 248 0 6 248 0 6 248 0 6 248 0 9 152 5 9 152 5 9 152 5
9 152 5 39 61 33 39 61 33 39 61 33 39 61 33 61 65 53 61 65 53
61 65 53 61 65 53 15 16 11 15 16 11 15 16 11 15 16 11 0 0 0 0 0 0
0 0 0 0 0 0 0 0 0 0 0 0 7 7 7 7 7 7 7 7 7 7 7 7 67 101 55 67 101 55
67 101 55 67 101 55 63 89 55 63 89 55 63 89 55 63 89 55 42 63 36
42 63 36 42 63 36 42 63 36 29 111 21 29 111 21 29 111 21 29 111 21
17 162 10 17 162 10 17 162 10 17 162 10 9 228 3 9 228 3 9 228 3
9 228 3 6 255 0 6 255 0 6 255 0 6 255 0 6 255 0 6 255 0 6 255 0
6 255 0 6 255 0 6 255 0 6 255 0 6 255 0 6 255 0 6 255 0 6 255 0
6 255 0 6 255 0 6 255 0 6 255 0 6 255 0 6 255 0 6 255 0 6 255 0
6 255 0 6 255 0 6 255 0 6 255 0 6 255 0 6 255 0 6 255 0 6 255 0
6 255 0 6 255 0 6 255 0 6 255 0 6 255 0 6 255 0 6 255 0 6 255 0
6 255 0 6 255 0 6 255 0 6 255 0 6 255 0 6 255 0 6 255 0 6 255 0
6 255 0 6 255 0 6 255 0 6 255 0 6 255 0 6 255 0 6 255 0 6 255 0
6 255 0 6 255 0 6 255 0 6 255 0 6 255 0 6 255 0 6 255 0 6 255 0
6 255 0 6 248 0 6 248 0 6 248 0 6 248 0 9 152 5 9 152 5 9 152 5
9 152 5 39 61 33 39 61 33 39 61 33 39 61 33 61 65 53 61 65 53
61 65 53 61 65 53 15 16 11 15 16 11 15 16 11 15 16 11 0 0 0 0 0 0
0 0 0 0 0 0 0 0 0 0 0 0 2 2 2 2 2 2 2 2 2 2 2 2 66 101 53 66 101 53
66 101 53 66 101 53 80 102 69 80 102 69 80 102 69 80 102 69 97 111 88
97 111 88 97 111 88 97 111 88 98 130 89 98 130 89 98 130 89 98 130 89
92 124 83 92 124 83 92 124 83 92 124 83 70 97 63 70 97 63 70 97 63
70 97 63 38 100 32 38 100 32 38 100 32 38 100 32 19 148 12 19 148 12
19 148 12 19 148 12 12 187 5 12 187 5 12 187 5 12 187 5 8 232 2
8 232 2 8 232 2 8 232 2 6 254 0 6 254 0 6 254 0 6 254 0 6 255 0
6 255 0 6 255 0 6 255 0 6 255 0 6 255 0 6 255 0 6 255 0 6 255 0
6 255 0 6 255 0 6 255 0 6 255 0 6 255 0 6 255 0 6 255 0 6 255 0
6 255 0 6 255 0 6 255 0 6 255 0 6 255 0 6 255 0 6 255 0 6 255 0
6 255 0 6 255 0 6 255 0 7 228 1 7 228 1 7 228 1 7 228 1 9 197 2
9 197 2 9 197 2 9 197 2 10 165 4 10 165 4 10 165 4 10 165 4 17 105 11
17 105 11 17 105 11 17 105 11 28 51 19 28 51 19 28 51 19 28 51 19
36 42 27 36 42 27 36 42 27 36 42 27 30 35 23 30 35 23 30 35 23
30 35 23 18 24 11 18 24 11 18 24 11 18 24 11 8 9 4 8 9 4 8 9 4 8 9 4
0 0 0 0 0 0 0 0 0 0 0 0 0 0 0 0 0 0 2 2 2 2 2 2 2 2 2 2 2 2 66 101 53
66 101 53 66 101 53 66 101 53 80 102 69 80 102 69 80 102 69 80 102 69
97 111 88 97 111 88 97 111 88 97 111 88 98 130 89 98 130 89 98 130 89
98 130 89 92 124 83 92 124 83 92 124 83 92 124 83 70 97 63 70 97 63
70 97 63 70 97 63 38 100 32 38 100 32 38 100 32 38 100 32 19 148 12
19 148 12 19 148 12 19 148 12 12 187 5 12 187 5 12 187 5 12 187 5
8 232 2 8 232 2 8 232 2 8 232 2 6 254 0 6 254 0 6 254 0 6 254 0
6 255 0 6 255 0 6 255 0 6 255 0 6 255 0 6 255 0 6 255 0 6 255 0
6 255 0 6 255 0 6 255 0 6 255 0 6 255 0 6 255 0 6 255 0 6 255 0
6 255 0 6 255 0 6 255 0 6 255 0 6 255 0 6 255 0 6 255 0 6 255 0
6 255 0 6 255 0 6 255 0 6 255 0 7 228 1 7 228 1 7 228 1 7 228 1
9 197 2 9 197 2 9 197 2 9 197 2 10 165 4 10 165 4 10 165 4 10 165 4
17 105 11 17 105 11 17 105 11 17 105 11 28 51 19 28 51 19 28 51 19
28 51 19 36 42 27 36 42 27 36 42 27 36 42 27 30 35 23 30 35 23
30 35 23 30 35 23 18 24 11 18 24 11 18 24 11 18 24 11 8 9 4 8 9 4
8 9 4 8 9 4 0 0 0 0 0 0 0 0 0 0 0 0 0 0 0 0 0 0 2 2 2 2 2 2 2 2 2
2 2 2 66 101 53 66 101 53 66 101 53 66 101 53 80 102 69 80 102 69
80 102 69 80 102 69 97 111 88 97 111 88 97 111 88 97 111 88 98 130 89
98 130 89 98 130 89 98 130 89 92 124 83 92 124 83 92 124 83 92 124 83
70 97 63 70 97 63 70 97 63 70 97 63 38 100 32 38 100 32 38 100 32
38 100 32 19 148 12 19 148 12 19 148 12 19 148 12 12 187 5 12 187 5
12 187 5 12 187 5 8 232 2 8 232 2 8 232 2 8 232 2 6 254 0 6 254 0
6 254 0 6 254 0 6 255 0 6 255 0 6 255 0 6 255 0 6 255 0 6 255 0
6 255 0 6 255 0 6 255 0 6 255 0 6 255 0 6 255 0 6 255 0 6 255 0
6 255 0 6 255 0 6 255 0 6 255 0 6 255 0 6 255 0 6 255 0 6 255 0
6 255 0 6 255 0 6 255 0 6 255 0 6 255 0 6 255 0 7 228 1 7 228 1
7 228 1 7 228 1 9 197 2 9 197 2 9 197 2 9 197 2 10 165 4 10 165 4
10 165 4 10 165 4 17 105 11 17 105 11 17 105 11 17 105 11 28 51 19
28 51 19 28 51 19 28 51 19 36 42 27 36 42 27 36 42 27 36 42 27
30 35 23 30 35 23 30 35 23 30 35 23 18 24 11 18 24 11 18 24 11
18 24 11 8 9 4 8 9 4 8 9 4 8 9 4 0 0 0 0 0 0 0 0 0 0 0 0 0 0 0 0 0 0
2 2 2 2 2 2 2 2 2 2 2 2 66 101 53 66 101 53 66 101 53 66 101 53
80 102 69 80 102 69 80 102 69 80 102 69 97 111 88 97 111 88 97 111 88
97 111 88 98 130 89 98 130 89 98 130 89 98 130 89 92 124 83 92 124 83
92 124 83 92 124 83 70 97 63 70 97 63 70 97 63 70 97 63 38 100 32
38 100 32 38 100 32 38 100 32 19 148 12 19 148 12 19 148 12 19 148 12
12 187 5 12 187 5 12 187 5 12 187 5 8 232 2 8 232 2 8 232 2 8 232 2
6 254 0 6 254 0 6 254 0 6 254 0 6 255 0 6 255 0 6 255 0 6 255 0
6 255 0 6 255 0 6 255 0 6 255 0 6 255 0 6 255 0 6 255 0 6 255 0
6 255 0 6 255 0 6 255 0 6 255 0 6 255 0 6 255 0 6 255 0 6 255 0
6 255 0 6 255 0 6 255 0 6 255 0 6 255 0 6 255 0 6 255 0 6 255 0
7 228 1 7 228 1 7 228 1 7 228 1 9 197 2 9 197 2 9 197 2 9 197 2
10 165 4 10 165 4 10 165 4 10 165 4 17 105 11 17 105 11 17 105 11
17 105 11 28 51 19 28 51 19 28 51 19 28 51 19 36 42 27 36 42 27
36 42 27 36 42 27 30 35 23 30 35 23 30 35 23 30 35 23 18 24 11
18 24 11 18 24 11 18 24 11 8 9 4 8 9 4 8 9 4 8 9 4 0 0 0 0 0 0 0 0 0
0 0 0 0 0 0 0 0 0 2 2 2 2 2 2 2 2 2 2 2 2 65 100 52 65 100 52
65 100 52 65 100 52 85 108 73 85 108 73 85 108 73 85 108 73 83 103 71
83 103 71 83 103 71 83 103 71 70 105 56 70 105 56 70 105 56 70 105 56
70 116 56 70 116 56 70 116 56 70 116 56 77 106 66 77 106 66 77 106 66
77 106 66 84 101 75 84 101 75 84 101 75 84 101 75 87 106 79 87 106 79
87 106 79 87 106 79 83 99 76 83 99 76 83 99 76 83 99 76 78 94 70
78 94 70 78 94 70 78 94 70 71 99 63 71 99 63 71 99 63 71 99 63
64 88 57 64 88 57 64 88 57 64 88 57 49 79 40 49 79 40 49 79 40
49 79 40 43 74 35 43 74 35 43 74 35 43 74 35 40 68 33 40 68 33
40 68 33 40 68 33 39 73 30 39 73 30 39 73 30 39 73 30 34 69 26
34 69 26 34 69 26 34 69 26 30 48 23 30 48 23 30 48 23 30 48 23
37 51 27 37 51 27 37 51 27 37 51 27 39 46 28 39 46 28 39 46 28
39 46 28 33 40 23 33 40 23 33 40 23 33 40 23 27 32 17 27 32 17
27 32 17 27 32 17 20 25 12 20 25 12 20 25 12 20 25 12 15 19 8 15 19 8
15 19 8 15 19 8 12 16 6 12 16 6 12 16 6 12 16 6 14 19 7 14 19 7
14 19 7 14 19 7 8 11 5 8 11 5 8 11 5 8 11 5 255 255 255 255 255 255
255 255 255 255 255 255 0 0 0 0 0 0 2 2 2 2 2 2 2 2 2 2 2 2 65 100 52
65 100 52 65 100 52 65 100 52 85 108 73 85 108 73 85 108 73 85 108 73
83 103 71 83 103 71 83 103 71 83 103 71 70 105 56 70 105 56 70 105 56
70 105 56 70 116 56 70 116 56 70 116 56 70 116 56 77 106 66 77 106 66
77 106 66 77 106 66 84 101 75 84 101 75 84 101 75 84 101 75 87 106 79
87 106 79 87 106 79 87 106 79 83 99 76 83 99 76 83 99 76 83 99 76
78 94 70 78 94 70 78 94 70 78 94 70 71 99 63 71 99 63 71 99 63
71 99 63 64 88 57 64 88 57 64 88 57 64 88 57 49 79 40 49 79 40
49 79 40 49 79 40 43 74 35 43 74 35 43 74 35 43 74 35 40 68 33
40 68 33 40 68 33 40 68 33 39 73 30 39 73 30 39 73 30 39 73 30
34 69 26 34 69 26 34 69 26 34 69 26 30 48 23 30 48 23 30 48 23
30 48 23 37 51 27 37 51 27 37 51 27 37 51 27 39 46 28 39 46 28
39 46 28 39 46 28 33 40 23 33 40 23 33 40 23 33 40 23 27 32 17
27 32 17 27 32 17 27 32 17 20 25 12 20 25 12 20 25 12 20 25 12
15 19 8 15 19 8 15 19 8 15 19 8 12 16 6 12 16 6 12 16 6 12 16 6
14 19 7 14 19 7 14 19 7 14 19 7 8 11 5 8 11 5 8 11 5 8 11 5
255 255 255 255 255 255 255 255 255 255 255 255 0 0 0 0 0 0 2 2 2
2 2 2 2 2 2 2 2 2 65 100 52 65 100 52 65 100 52 65 100 52 85 108 73
85 108 73 85 108 73 85 108 73 83 103 71 83 103 71 83 103 71 83 103 71
70 105 56 70 105 56 70 105 56 70 105 56 70 116 56 70 116 56 70 116 56
70 116 56 77 106 66 77 106 66 77 106 66 77 106 66 84 101 75 84 101 75
84 101 75 84 101 75 87 106 79 87 106 79 87 106 79 87 106 79 83 99 76
83 99 76 83 99 76 83 99 76 78 94 70 78 94 70 78 94 70 78 94 70
71 99 63 71 99 63 71 99 63 71 99 63 64 88 57 64 88 57 64 88 57
64 88 57 49 79 40 49 79 40 49 79 40 49 79 40 43 74 35 43 74 35
43 74 35 43 74 35 40 68 33 40 68 33 40 68 33 40 68 33 39 73 30
39 73 30 39 73 30 39 73 30 34 69 26 34 69 26 34 69 26 34 69 26
30 48 23 30 48 23 30 48 23 30 48 23 37 51 27 37 51 27 37 51 27
37 51 27 39 46 28 39 46 28 39 46 28 39 46 28 33 40 23 33 40 23
33 40 23 33 40 23 27 32 17 27 32 17 27 32 17 27 32 17 20 25 12
20 25 12 20 25 12 20 25 12 15 19 8 15 19 8 15 19 8 15 19 8 12 16 6
12 16 6 12 16 6 12 16 6 14 19 7 14 19 7 14 19 7 14 19 7 8 11 5 8 11 5
8 11 5 8 11 5 255 255 255 255 255 255 255 255 255 255 255 255 0 0 0
0 0 0 2 2 2 2 2 2 2 2 2 2 2 2 65 100 52 65 100 52 65 100 52 65 100 52
85 108 73 85 108 73 85 108 73 85 108 73 83 103 71 83 103 71 83 103 71
83 103 71 70 105 56 70 105 56 70 105 56 70 105 56 70 116 56 70 116 56
70 116 56 70 116 56 77 106 66 77 106 66 77 106 66 77 106 66 84 101 75
84 101 75 84 101 75 84 101 75 87 106 79 87 106 79 87 106 79 87 106 79
83 99 76 83 99 76 83 99 76 83 99 76 78 94 70 78 94 70 78 94 70
78 94 70 71 99 63 71 99 63 71 99 63 71 99 63 64 88 57 64 88 57
64 88 57 64 88 57 49 79 40 49 79 40 49 79 40 49 79 40 43 74 35
43 74 35 43 74 35 43 74 35 40 68 33 40 68 33 40 68 33 40 68 33
39 73 30 39 73 30 39 73 30 39 73 30 34 69 26 34 69 26 34 69 26
34 69 26 30 48 23 30 48 23 30 48 23 30 48 23 37 51 27 37 51 27
37 51 27 37 51 27 39 46 28 39 46 28 39 46 28 39 46 28 33 40 23
33 40 23 33 40 23 33 40 23 27 32 17 27 32 17 27 32 17 27 32 17
20 25 12 20 25 12 20 25 12 20 25 12 15 19 8 15 19 8 15 19 8 15 19 8
12 16 6 12 16 6 12 16 6 12 16 6 14 19 7 14 19 7 14 19 7 14 19 7
8 11 5 8 11 5 8 11 5 8 11 5 255 255 255 255 255 255 255 255 255
255 255 255 0 0 0 0 0 0 3 3 2 3 3 2 3 3 2 3 3 2 63 95 49 63 95 49
63 95 49 63 95 49 81 109 69 81 109 69 81 109 69 81 109 69 84 103 73
84 103 73 84 103 73 84 103 73 69 99 55 69 99 55 69 99 55 69 99 55
57 101 42 57 101 42 57 101 42 57 101 42 47 72 35 47 72 35 47 72 35
47 72 35 40 57 30 40 57 30 40 57 30 40 57 30 39 54 30 39 54 30
39 54 30 39 54 30 41 54 33 41 54 33 41 54 33 41 54 33 43 59 35
43 59 35 43 59 35 43 59 35 44 65 35 44 65 35 44 65 35 44 65 35
44 60 37 44 60 37 44 60 37 44 60 37 45 55 38 45 55 38 45 55 38
45 55 38 42 53 36 42 53 36 42 53 36 42 53 36 40 48 33 40 48 33
40 48 33 40 48 33 34 51 28 34 51 28 34 51 28 34 51 28 27 45 22
27 45 22 27 45 22 27 45 22 20 31 15 20 31 15 20 31 15 20 31 15
19 35 13 19 35 13 19 35 13 19 35 13 20 27 13 20 27 13 20 27 13
20 27 13 16 21 10 16 21 10 16 21 10 16 21 10 15 18 8 15 18 8 15 18 8
15 18 8 14 18 8 14 18 8 14 18 8 14 18 8 13 17 7 13 17 7 13 17 7
13 17 7 12 16 6 12 16 6 12 16 6 12 16 6 14 19 7 14 19 7 14 19 7
14 19 7 8 11 5 8 11 5 8 11 5 8 11 5 255 255 255 255 255 255
255 255 255 255 255 255 0 0 0 0 0 0 3 3 2 3 3 2 3 3 2 3 3 2 63 95 49
63 95 49 63 95 49 63 95 49 81 109 69 81 109 69 81 109 69 81 109 69
84 103 73 84 103 73 84 103 73 84 103 73 69 99 55 69 99 55 69 99 55
69 99 55 57 101 42 57 101 42 57 101 42 57 101 42 47 72 35 47 72 35
47 72 35 47 72 35 40 57 30 40 57 30 40 57 30 40 57 30 39 54 30
39 54 30 39 54 30 39 54 30 41 54 33 41 54 33 41 54 33 41 54 33
43 59 35 43 59 35 43 59 35 43 59 35 44 65 35 44 65 35 44 65 35
44 65 35 44 60 37 44 60 37 44 60 37 44 60 37 45 55 38 45 55 38
45 55 38 45 55 38 42 53 36 42 53 36 42 53 36 42 53 36 40 48 33
40 48 33 40 48 33 40 48 33 34 51 28 34 51 28 34 51 28 34 51 28
27 45 22 27 45 22 27 45 22 27 45 22 20 31 15 20 31 15 20 31 15
20 31 15 19 35 13 19 35 13 19 35 13 19 35 13 20 27 13 20 27 13
20 27 13 20 27 13 16 21 10 16 21 10 16 21 10 16 21 10 15 18 8 15 18 8
15 18 8 15 18 8 14 18 8 14 18 8 14 18 8 14 18 8 13 17 7 13 17 7
13 17 7 13 17 7 12 16 6 12 16 6 12 16 6 12 16 6 14 19 7 14 19 7
14 19 7 14 19 7 8 11 5 8 11 5 8 11 5 8 11 5 255 255 255 255 255 255
255 255 255 255 255 255 0 0 0 0 0 0 3 3 2 3 3 2 3 3 2 3 3 2 63 95 49
63 95 49 63 95 49 63 95 49 81 109 69 81 109 69 81 109 69 81 109 69
84 103 73 84 103 73 84 103 73 84 103 73 69 99 55 69 99 55 69 99 55
69 99 55 57 101 42 57 101 42 57 101 42 57 101 42 47 72 35 47 72 35
47 72 35 47 72 35 40 57 30 40 57 30 40 57 30 40 57 30 39 54 30
39 54 30 39 54 30 39 54 30 41 54 33 41 54 33 41 54 33 41 54 33
43 59 35 43 59 35 43 59 35 43 59 35 44 65 35 44 65 35 44 65 35
44 65 35 44 60 37 44 60 37 44 60 37 44 60 37 45 55 38 45 55 38
45 55 38 45 55 38 42 53 36 42 53 36 42 53 36 42 53 36 40 48 33
40 48 33 40 48 33 40 48 33 34 51 28 34 51 28 34 51 28 34 51 28
27 45 22 27 45 22 27 45 22 27 45 22 20 31 15 20 31 15 20 31 15
20 31 15 19 35 13 19 35 13 19 35 13 19 35 13 20 27 13 20 27 13
20 27 13 20 27 13 16 21 10 16 21 10 16 21 10 16 21 10 15 18 8 15 18 8
15 18 8 15 18 8 14 18 8 14 18 8 14 18 8 14 18 8 13 17 7 13 17 7
13 17 7 13 17 7 12 16 6 12 16 6 12 16 6 12 16 6 14 19 7 14 19 7
14 19 7 14 19 7 8 11 5 8 11 5 8 11 5 8 11 5 255 255 255 255 255 255
255 255 255 255 255 255 0 0 0 0 0 0 3 3 2 3 3 2 3 3 2 3 3 2 63 95 49
63 95 49 63 95 49 63 95 49 81 109 69 81 109 69 81 109 69 81 109 69
84 103 73 84 103 73 84 103 73 84 103 73 69 99 55 69 99 55 69 99 55
69 99 55 57 101 42 57 101 42 57 101 42 57 101 42 47 72 35 47 72 35
47 72 35 47 72 35 40 57 30 40 57 30 40 57 30 40 57 30 39 54 30
39 54 30 39 54 30 39 54 30 41 54 33 41 54 33 41 54 33 41 54 33
43 59 35 43 59 35 43 59 35 43 59 35 44 65 35 44 65 35 44 65 35
44 65 35 44 60 37 44 60 37 44 60 37 44 60 37 45 55 38 45 55 38
45 55 38 45 55 38 42 53 36 42 53 36 42 53 36 42 53 36 40 48 33
40 48 33 40 48 33 40 48 33 34 51 28 34 51 28 34 51 28 34 51 28
27 45 22 27 45 22 27 45 22 27 45 22 20 31 15 20 31 15 20 31 15
20 31 15 19 35 13 19 35 13 19 35 13 19 35 13 20 27 13 20 27 13
20 27 13 20 27 13 16 21 10 16 21 10 16 21 10 16 21 10 15 18 8 15 18 8
15 18 8 15 18 8 14 18 8 14 18 8 14 18 8 14 18 8 13 17 7 13 17 7
13 17 7 13 17 7 12 16 6 12 16 6 12 16 6 12 16 6 14 19 7 14 19 7
14 19 7 14 19 7 8 11 5 8 11 5 8 11 5 8 11 5 255 255 255 255 255 255
255 255 255 255 255 255 0 0 0 0 0 0 5 5 5 5 5 5 5 5 5 5 5 5 67 102 52
67 102 52 67 102 52 67 102 52 81 108 68 81 108 68 81 108 68 81 108 68
80 100 68 80 100 68 80 100 68 80 100 68 67 99 53 67 99 53 67 99 53
67 99 53 56 101 42 56 101 42 56 101 42 56 101 42 45 69 34 45 69 34
45 69 34 45 69 34 34 49 26 34 49 26 34 49 26 34 49 26 26 37 19
26 37 19 26 37 19 26 37 19 21 31 15 21 31 15 21 31 15 21 31 15
19 31 13 19 31 13 19 31 13 19 31 13 18 36 12 18 36 12 18 36 12
18 36 12 17 28 12 17 28 12 17 28 12 17 28 12 17 24 11 17 24 11
17 24 11 17 24 11 16 23 10 16 23 10 16 23 10 16 23 10 15 23 10
15 23 10 15 23 10 15 23 10 14 24 9 14 24 9 14 24 9 14 24 9 12 28 8
12 28 8 12 28 8 12 28 8 10 20 6 10 20 6 10 20 6 10 20 6 12 25 7
12 25 7 12 25 7 12 25 7 14 22 8 14 22 8 14 22 8 14 22 8 14 20 8
14 20 8 14 20 8 14 20 8 13 18 7 13 18 7 13 18 7 13 18 7 9 20 5 9 20 5
9 20 5 9 20 5 13 17 7 13 17 7 13 17 7 13 17 7 12 16 7 12 16 7 12 16 7
12 16 7 14 19 7 14 19 7 14 19 7 14 19 7 8 11 5 8 11 5 8 11 5 8 11 5
128 128 128 128 128 128 128 128 128 128 128 128 0 0 0 0 0 0 5 5 5
5 5 5 5 5 5 5 5 5 67 102 52 67 102 52 67 102 52 67 102 52 81 108 68
81 108 68 81 108 68 81 108 68 80 100 68 80 100 68 80 100 68 80 100 68
67 99 53 67 99 53 67 99 53 67 99 53 56 101 42 56 101 42 56 101 42
56 101 42 45 69 34 45 69 34 45 69 34 45 69 34 34 49 26 34 49 26
34 49 26 34 49 26 26 37 19 26 37 19 26 37 19 26 37 19 21 31 15
21 31 15 21 31 15 21 31 15 19 31 13 19 31 13 19 31 13 19 31 13
18 36 12 18 36 12 18 36 12 18 36 12 17 28 12 17 28 12 17 28 12
17 28 12 17 24 11 17 24 11 17 24 11 17 24 11 16 23 10 16 23 10
16 23 10 16 23 10 15 23 10 15 23 10 15 23 10 15 23 10 14 24 9 14 24 9
14 24 9 14 24 9 12 28 8 12 28 8 12 28 8 12 28 8 10 20 6 10 20 6
10 20 6 10 20 6 12 25 7 12 25 7 12 25 7 12 25 7 14 22 8 14 22 8
14 22 8 14 22 8 14 20 8 14 20 8 14 20 8 14 20 8 13 18 7 13 18 7
13 18 7 13 18 7 9 20 5 9 20 5 9 20 5 9 20 5 13 17 7 13 17 7 13 17 7
13 17 7 12 16 7 12 16 7 12 16 7 12 16 7 14 19 7 14 19 7 14 19 7
14 19 7 8 11 5 8 11 5 8 11 5 8 11 5 128 128 128 128 128 128
128 128 128 128 128 128 0 0 0 0 0 0 5 5 5 5 5 5 5 5 5 5 5 5 67 102 52
67 102 52 67 102 52 67 102 52 81 108 68 81 108 68 81 108 68 81 108 68
80 100 68 80 100 68 80 100 68 80 100 68 67 99 53 67 99 53 67 99 53
67 99 53 56 101 42 56 101 42 56 101 42 56 101 42 45 69 34 45 69 34
45 69 34 45 69 34 34 49 26 34 49 26 34 49 26 34 49 26 26 37 19
26 37 19 26 37 19 26 37 19 21 31 15 21 31 15 21 31 15 21 31 15
19 31 13 19 31 13 19 31 13 19 31 13 18 36 12 18 36 12 18 36 12
18 36 12 17 28 12 17 28 12 17 28 12 17 28 12 17 24 11 17 24 11
17 24 11 17 24 11 16 23 10 16 23 10 16 23 10 16 23 10 15 23 10
15 23 10 15 23 10 15 23 10 14 24 9 14 24 9 14 24 9 14 24 9 12 28 8
12 28 8 12 28 8 12 28 8 10 20 6 10 20 6 10 20 6 10 20 6 12 25 7
12 25 7 12 25 7 12 25 7 14 22 8 14 22 8 14 22 8 14 22 8 14 20 8
14 20 8 14 20 8 14 20 8 13 18 7 13 18 7 13 18 7 13 18 7 9 20 5 9 20 5
9 20 5 9 20 5 13 17 7 13 17 7 13 17 7 13 17 7 12 16 7 12 16 7 12 16 7
12 16 7 14 19 7 14 19 7 14 19 7 14 19 7 8 11 5 8 11 5 8 11 5 8 11 5
128 128 128 128 128 128 128 128 128 128 128 128 0 0 0 0 0 0 5 5 5
5 5 5 5 5 5 5 5 5 67 102 52 67 102 52 67 102 52 67 102 52 81 108 68
81 108 68 81 108 68 81 108 68 80 100 68 80 100 68 80 100 68 80 100 68
67 99 53 67 99 53 67 99 53 67 99 53 56 101 42 56 101 42 56 101 42
56 101 42 45 69 34 45 69 34 45 69 34 45 69 34 34 49 26 34 49 26
34 49 26 34 49 26 26 37 19 26 37 19 26 37 19 26 37 19 21 31 15
21 31 15 21 31 15 21 31 15 19 31 13 19 31 13 19 31 13 19 31 13
18 36 12 18 36 12 18 36 12 18 36 12 17 28 12 17 28 12 17 28 12
17 28 12 17 24 11 17 24 11 17 24 11 17 24 11 16 23 10 16 23 10
16 23 10 16 23 10 15 23 10 15 23 10 15 23 10 15 23 10 14 24 9 14 24 9
14 24 9 14 24 9 12 28 8 12 28 8 12 28 8 12 28 8 10 20 6 10 20 6
10 20 6 10 20 6 12 25 7 12 25 7 12 25 7 12 25 7 14 22 8 14 22 8
14 22 8 14 22 8 14 20 8 14 20 8 14 20 8 14 20 8 13 18 7 13 18 7
13 18 7 13 18 7 9 20 5 9 20 5 9 20 5 9 20 5 13 17 7 13 17 7 13 17 7
13 17 7 12 16 7 12 16 7 12 16 7 12 16 7 14 19 7 14 19 7 14 19 7
14 19 7 8 11 5 8 11 5 8 11 5 8 11 5 128 128 128 128 128 128
128 128 128 128 128 128 0 0 0 0 0 0 5 5 3 5 5 3 5 5 3 5 5 3 74 111 59
74 111 59 74 111 59 74 111 59 81 111 66 81 111 66 81 111 66 81 111 66
69 97 53 69 97 53 69 97 53 69 97 53 64 101 48 64 101 48 64 101 48
64 101 48 60 107 45 60 107 45 60 107 45 60 107 45 49 75 36 49 75 36
49 75 36 49 75 36 36 55 26 36 55 26 36 55 26 36 55 26 26 39 18
26 39 18 26 39 18 26 39 18 20 27 14 20 27 14 20 27 14 20 27 14
17 26 11 17 26 11 17 26 11 17 26 11 15 30 10 15 30 10 15 30 10
15 30 10 14 24 9 14 24 9 14 24 9 14 24 9 14 21 9 14 21 9 14 21 9
14 21 9 13 18 8 13 18 8 13 18 8 13 18 8 12 19 8 12 19 8 12 19 8
12 19 8 12 20 8 12 20 8 12 20 8 12 20 8 11 23 7 11 23 7 11 23 7
11 23 7 10 18 6 10 18 6 10 18 6 10 18 6 10 32 6 10 32 6 10 32 6
10 32 6 10 33 6 10 33 6 10 33 6 10 33 6 14 23 8 14 23 8 14 23 8
14 23 8 13 19 7 13 19 7 13 19 7 13 19 7 10 19 5 10 19 5 10 19 5
10 19 5 13 17 7 13 17 7 13 17 7 13 17 7 12 16 6 12 16 6 12 16 6
12 16 6 14 19 7 14 19 7 14 19 7 14 19 7 8 11 5 8 11 5 8 11 5 8 11 5
128 128 128 128 128 128 128 128 128 128 128 128 0 0 0 0 0 0 5 5 3
5 5 3 5 5 3 5 5 3 74 111 59 74 111 59 74 111 59 74 111 59 81 111 66
81 111 66 81 111 66 81 111 66 69 97 53 69 97 53 69 97 53 69 97 53
64 101 48 64 101 48 64 101 48 64 101 48 60 107 45 60 107 45 60 107 45
60 107 45 49 75 36 49 75 36 49 75 36 49 75 36 36 55 26 36 55 26
36 55 26 36 55 26 26 39 18 26 39 18 26 39 18 26 39 18 20 27 14
20 27 14 20 27 14 20 27 14 17 26 11 17 26 11 17 26 11 17 26 11
15 30 10 15 30 10 15 30 10 15 30 10 14 24 9 14 24 9 14 24 9 14 24 9
14 21 9 14 21 9 14 21 9 14 21 9 13 18 8 13 18 8 13 18 8 13 18 8
12 19 8 12 19 8 12 19 8 12 19 8 12 20 8 12 20 8 12 20 8 12 20 8
11 23 7 11 23 7 11 23 7 11 23 7 10 18 6 10 18 6 10 18 6 10 18 6
10 32 6 10 32 6 10 32 6 10 32 6 10 33 6 10 33 6 10 33 6 10 33 6
14 23 8 14 23 8 14 23 8 14 23 8 13 19 7 13 19 7 13 19 7 13 19 7
10 19 5 10 19 5 10 19 5 10 19 5 13 17 7 13 17 7 13 17 7 13 17 7
12 16 6 12 16 6 12 16 6 12 16 6 14 19 7 14 19 7 14 19 7 14 19 7
8 11 5 8 11 5 8 11 5 8 11 5 128 128 128 128 128 128 128 128 128
128 128 128 0 0 0 0 0 0 5 5 3 5 5 3 5 5 3 5 5 3 74 111 59 74 111 59
74 111 59 74 111 59 81 111 66 81 111 66 81 111 66 81 111 66 69 97 53
69 97 53 69 97 53 69 97 53 64 101 48 64 101 48 64 101 48 64 101 48
60 107 45 60 107 45 60 107 45 60 107 45 49 75 36 49 75 36 49 75 36
49 75 36 36 55 26 36 55 26 36 55 26 36 55 26 26 39 18 26 39 18
26 39 18 26 39 18 20 27 14 20 27 14 20 27 14 20 27 14 17 26 11
17 26 11 17 26 11 17 26 11 15 30 10 15 30 10 15 30 10 15 30 10
14 24 9 14 24 9 14 24 9 14 24 9 14 21 9 14 21 9 14 21 9 14 21 9
13 18 8 13 18 8 13 18 8 13 18 8 12 19 8 12 19 8 12 19 8 12 19 8
12 20 8 12 20 8 12 20 8 12 20 8 11 23 7 11 23 7 11 23 7 11 23 7
10 18 6 10 18 6 10 18 6 10 18 6 10 32 6 10 32 6 10 32 6 10 32 6
10 33 6 10 33 6 10 33 6 10 33 6 14 23 8 14 23 8 14 23 8 14 23 8
13 19 7 13 19 7 13 19 7 13 19 7 10 19 5 10 19 5 10 19 5 10 19 5
13 17 7 13 17 7 13 17 7 13 17 7 12 16 6 12 16 6 12 16 6 12 16 6
14 19 7 14 19 7 14 19 7 14 19 7 8 11 5 8 11 5 8 11 5 8 11 5
128 128 128 128 128 128 128 128 128 128 128 128 0 0 0 0 0 0 5 5 3
5 5 3 5 5 3 5 5 3 74 111 59 74 111 59 74 111 59 74 111 59 81 111 66
81 111 66 81 111 66 81 111 66 69 97 53 69 97 53 69 97 53 69 97 53
64 101 48 64 101 48 64 101 48 64 101 48 60 107 45 60 107 45 60 107 45
60 107 45 49 75 36 49 75 36 49 75 36 49 75 36 36 55 26 36 55 26
36 55 26 36 55 26 26 39 18 26 39 18 26 39 18 26 39 18 20 27 14
20 27 14 20 27 14 20 27 14 17 26 11 17 26 11 17 26 11 17 26 11
15 30 10 15 30 10 15 30 10 15 30 10 14 24 9 14 24 9 14 24 9 14 24 9
14 21 9 14 21 9 14 21 9 14 21 9 13 18 8 13 18 8 13 18 8 13 18 8
12 19 8 12 19 8 12 19 8 12 19 8 12 20 8 12 20 8 12 20 8 12 20 8
11 23 7 11 23 7 11 23 7 11 23 7 10 18 6 10 18 6 10 18 6 10 18 6
10 32 6 10 32 6 10 32 6 10 32 6 10 33 6 10 33 6 10 33 6 10 33 6
14 23 8 14 23 8 14 23 8 14 23 8 13 19 7 13 19 7 13 19 7 13 19 7
10 19 5 10 19 5 10 19 5 10 19 5 13 17 7 13 17 7 13 17 7 13 17 7
12 16 6 12 16 6 12 16 6 12 16 6 14 19 7 14 19 7 14 19 7 14 19 7
8 11 5 8 11 5 8 11 5 8 11 5 128 128 128 128 128 128 128 128 128
128 128 128 0 0 0 0 0 0 5 6 5 5 6 5 5 6 5 5 6 5 73 105 58 73 105 58
73 105 58 73 105 58 84 112 68 84 112 68 84 112 68 84 112 68 72 103 55
72 103 55 72 103 55 72 103 55 68 110 51 68 110 51 68 110 51 68 110 51
61 110 45 61 110 45 61 110 45 61 110 45 46 75 33 46 75 33 46 75 33
46 75 33 37 59 25 37 59 25 37 59 25 37 59 25 32 48 22 32 48 22
32 48 22 32 48 22 27 36 18 27 36 18 27 36 18 27 36 18 23 35 15
23 35 15 23 35 15 23 35 15 20 37 13 20 37 13 20 37 13 20 37 13
18 31 12 18 31 12 18 31 12 18 31 12 16 27 11 16 27 11 16 27 11
16 27 11 15 20 10 15 20 10 15 20 10 15 20 10 13 23 9 13 23 9 13 23 9
13 23 9 13 21 8 13 21 8 13 21 8 13 21 8 12 24 7 12 24 7 12 24 7
12 24 7 11 22 7 11 22 7 11 22 7 11 22 7 11 37 6 11 37 6 11 37 6
11 37 6 11 37 6 11 37 6 11 37 6 11 37 6 12 34 7 12 34 7 12 34 7
12 34 7 16 22 9 16 22 9 16 22 9 16 22 9 14 18 7 14 18 7 14 18 7
14 18 7 13 17 7 13 17 7 13 17 7 13 17 7 12 16 6 12 16 6 12 16 6
12 16 6 15 20 8 15 20 8 15 20 8 15 20 8 10 14 6 10 14 6 10 14 6
10 14 6 128 128 128 128 128 128 128 128 128 128 128 128 0 0 0 0 0 0
5 6 5 5 6 5 5 6 5 5 6 5 73 105 58 73 105 58 73 105 58 73 105 58
84 112 68 84 112 68 84 112 68 84 112 68 72 103 55 72 103 55 72 103 55
72 103 55 68 110 51 68 110 51 68 110 51 68 110 51 61 110 45 61 110 45
61 110 45 61 110 45 46 75 33 46 75 33 46 75 33 46 75 33 37 59 25
37 59 25 37 59 25 37 59 25 32 48 22 32 48 22 32 48 22 32 48 22
27 36 18 27 36 18 27 36 18 27 36 18 23 35 15 23 35 15 23 35 15
23 35 15 20 37 13 20 37 13 20 37 13 20 37 13 18 31 12 18 31 12
18 31 12 18 31 12 16 27 11 16 27 11 16 27 11 16 27 11 15 20 10
15 20 10 15 20 10 15 20 10 13 23 9 13 23 9 13 23 9 13 23 9 13 21 8
13 21 8 13 21 8 13 21 8 12 24 7 12 24 7 12 24 7 12 24 7 11 22 7
11 22 7 11 22 7 11 22 7 11 37 6 11 37 6 11 37 6 11 37 6 11 37 6
11 37 6 11 37 6 11 37 6 12 34 7 12 34 7 12 34 7 12 34 7 16 22 9
16 22 9 16 22 9 16 22 9 14 18 7 14 18 7 14 18 7 14 18 7 13 17 7
13 17 7 13 17 7 13 17 7 12 16 6 12 16 6 12 16 6 12 16 6 15 20 8
15 20 8 15 20 8 15 20 8 10 14 6 10 14 6 10 14 6 10 14 6 128 128 128
128 128 128 128 128 128 128 128 128 0 0 0 0 0 0 5 6 5 5 6 5 5 6 5
5 6 5 73 105 58 73 105 58 73 105 58 73 105 58 84 112 68 84 112 68
84 112 68 84 112 68 72 103 55 72 103 55 72 103 55 72 103 55 68 110 51
68 110 51 68 110 51 68 110 51 61 110 45 61 110 45 61 110 45 61 110 45
46 75 33 46 75 33 46 75 33 46 75 33 37 59 25 37 59 25 37 59 25
37 59 25 32 48 22 32 48 22 32 48 22 32 48 22 27 36 18 27 36 18
27 36 18 27 36 18 23 35 15 23 35 15 23 35 15 23 35 15 20 37 13
20 37 13 20 37 13 20 37 13 18 31 12 18 31 12 18 31 12 18 31 12
16 27 11 16 27 11 16 27 11 16 27 11 15 20 10 15 20 10 15 20 10
15 20 10 13 23 9 13 23 9 13 23 9 13 23 9 13 21 8 13 21 8 13 21 8
13 21 8 12 24 7 12 24 7 12 24 7 12 24 7 11 22 7 11 22 7 11 22 7
11 22 7 11 37 6 11 37 6 11 37 6 11 37 6 11 37 6 11 37 6 11 37 6
11 37 6 12 34 7 12 34 7 12 34 7 12 34 7 16 22 9 16 22 9 16 22 9
16 22 9 14 18 7 14 18 7 14 18 7 14 18 7 13 17 7 13 17 7 13 17 7
13 17 7 12 16 6 12 16 6 12 16 6 12 16 6 15 20 8 15 20 8 15 20 8
15 20 8 10 14 6 10 14 6 10 14 6 10 14 6 128 128 128 128 128 128
128 128 128 128 128 128 0 0 0 0 0 0 5 6 5 5 6 5 5 6 5 5 6 5 73 105 58
73 105 58 73 105 58 73 105 58 84 112 68 84 112 68 84 112 68 84 112 68
72 103 55 72 103 55 72 103 55 72 103 55 68 110 51 68 110 51 68 110 51
68 110 51 61 110 45 61 110 45 61 110 45 61 110 45 46 75 33 46 75 33
46 75 33 46 75 33 37 59 25 37 59 25 37 59 25 37 59 25 32 48 22
32 48 22 32 48 22 32 48 22 27 36 18 27 36 18 27 36 18 27 36 18
23 35 15 23 35 15 23 35 15 23 35 15 20 37 13 20 37 13 20 37 13
20 37 13 18 31 12 18 31 12 18 31 12 18 31 12 16 27 11 16 27 11
16 27 11 16 27 11 15 20 10 15 20 10 15 20 10 15 20 10 13 23 9 13 23 9
13 23 9 13 23 9 13 21 8 13 21 8 13 21 8 13 21 8 12 24 7 12 24 7
12 24 7 12 24 7 11 22 7 11 22 7 11 22 7 11 22 7 11 37 6 11 37 6
11 37 6 11 37 6 11 37 6 11 37 6 11 37 6 11 37 6 12 34 7 12 34 7
12 34 7 12 34 7 16 22 9 16 22 9 16 22 9 16 22 9 14 18 7 14 18 7
14 18 7 14 18 7 13 17 7 13 17 7 13 17 7 13 17 7 12 16 6 12 16 6
12 16 6 12 16 6 15 20 8 15 20 8 15 20 8 15 20 8 10 14 6 10 14 6
10 14 6 10 14 6 128 128 128 128 128 128 128 128 128 128 128 128 0 0 0
0 0 0 10 14 8 10 14 8 10 14 8 10 14 8 71 99 58 71 99 58 71 99 58
71 99 58 84 113 68 84 113 68 84 113 68 84 113 68 74 101 57 74 101 57
74 101 57 74 101 57 70 117 52 70 117 52 70 117 52 70 117 52 59 109 43
59 109 43 59 109 43 59 109 43 44 76 30 44 76 30 44 76 30 44 76 30
39 66 26 39 66 26 39 66 26 39 66 26 36 54 24 36 54 24 36 54 24
36 54 24 32 47 22 32 47 22 32 47 22 32 47 22 29 47 19 29 47 19
29 47 19 29 47 19 26 52 17 26 52 17 26 52 17 26 52 17 24 45 15
24 45 15 24 45 15 24 45 15 21 35 14 21 35 14 21 35 14 21 35 14
19 26 12 19 26 12 19 26 12 19 26 12 17 28 11 17 28 11 17 28 11
17 28 11 16 29 10 16 29 10 16 29 10 16 29 10 15 26 9 15 26 9 15 26 9
15 26 9 14 27 8 14 27 8 14 27 8 14 27 8 22 38 13 22 38 13 22 38 13
22 38 13 21 38 12 21 38 12 21 38 12 21 38 12 22 34 13 22 34 13
22 34 13 22 34 13 25 32 15 25 32 15 25 32 15 25 32 15 22 27 13
22 27 13 22 27 13 22 27 13 28 34 18 28 34 18 28 34 18 28 34 18
36 43 24 36 43 24 36 43 24 36 43 24 51 60 36 51 60 36 51 60 36
51 60 36 41 47 30 41 47 30 41 47 30 41 47 30 5 9 5 5 9 5 5 9 5 5 9 5
0 0 0 0 0 0 10 14 8 10 14 8 10 14 8 10 14 8 71 99 58 71 99 58
71 99 58 71 99 58 84 113 68 84 113 68 84 113 68 84 113 68 74 101 57
74 101 57 74 101 57 74 101 57 70 117 52 70 117 52 70 117 52 70 117 52
59 109 43 59 109 43 59 109 43 59 109 43 44 76 30 44 76 30 44 76 30
44 76 30 39 66 26 39 66 26 39 66 26 39 66 26 36 54 24 36 54 24
36 54 24 36 54 24 32 47 22 32 47 22 32 47 22 32 47 22 29 47 19
29 47 19 29 47 19 29 47 19 26 52 17 26 52 17 26 52 17 26 52 17
24 45 15 24 45 15 24 45 15 24 45 15 21 35 14 21 35 14 21 35 14
21 35 14 19 26 12 19 26 12 19 26 12 19 26 12 17 28 11 17 28 11
17 28 11 17 28 11 16 29 10 16 29 10 16 29 10 16 29 10 15 26 9 15 26 9
15 26 9 15 26 9 14 27 8 14 27 8 14 27 8 14 27 8 22 38 13 22 38 13
22 38 13 22 38 13 21 38 12 21 38 12 21 38 12 21 38 12 22 34 13
22 34 13 22 34 13 22 34 13 25 32 15 25 32 15 25 32 15 25 32 15
22 27 13 22 27 13 22 27 13 22 27 13 28 34 18 28 34 18 28 34 18
28 34 18 36 43 24 36 43 24 36 43 24 36 43 24 51 60 36 51 60 36
51 60 36 51 60 36 41 47 30 41 47 30 41 47 30 41 47 30 5 9 5 5 9 5
5 9 5 5 9 5 0 0 0 0 0 0 10 14 8 10 14 8 10 14 8 10 14 8 71 99 58
71 99 58 71 99 58 71 99 58 84 113 68 84 113 68 84 113 68 84 113 68
74 101 57 74 101 57 74 101 57 74 101 57 70 117 52 70 117 52 70 117 52
70 117 52 59 109 43 59 109 43 59 109 43 59 109 43 44 76 30 44 76 30
44 76 30 44 76 30 39 66 26 39 66 26 39 66 26 39 66 26 36 54 24
36 54 24 36 54 24 36 54 24 32 47 22 32 47 22 32 47 22 32 47 22
29 47 19 29 47 19 29 47 19 29 47 19 26 52 17 26 52 17 26 52 17
26 52 17 24 45 15 24 45 15 24 45 15 24 45 15 21 35 14 21 35 14
21 35 14 21 35 14 19 26 12 19 26 12 19 26 12 19 26 12 17 28 11
17 28 11 17 28 11 17 28 11 16 29 10 16 29 10 16 29 10 16 29 10
15 26 9 15 26 9 15 26 9 15 26 9 14 27 8 14 27 8 14 27 8 14 27 8
22 38 13 22 38 13 22 38 13 22 38 13 21 38 12 21 38 12 21 38 12
21 38 12 22 34 13 22 34 13 22 34 13 22 34 13 25 32 15 25 32 15
25 32 15 25 32 15 22 27 13 22 27 13 22 27 13 22 27 13 28 34 18
28 34 18 28 34 18 28 34 18 36 43 24 36 43 24 36 43 24 36 43 24
51 60 36 51 60 36 51 60 36 51 60 36 41 47 30 41 47 30 41 47 30
41 47 30 5 9 5 5 9 5 5 9 5 5 9 5 0 0 0 0 0 0 10 14 8 10 14 8 10 14 8
10 14 8 71 99 58 71 99 58 71 99 58 71 99 58 84 113 68 84 113 68
84 113 68 84 113 68 74 101 57 74 101 57 74 101 57 74 101 57 70 117 52
70 117 52 70 117 52 70 117 52 59 109 43 59 109 43 59 109 43 59 109 43
44 76 30 44 76 30 44 76 30 44 76 30 39 66 26 39 66 26 39 66 26
39 66 26 36 54 24 36 54 24 36 54 24 36 54 24 32 47 22 32 47 22
32 47 22 32 47 22 29 47 19 29 47 19 29 47 19 29 47 19 26 52 17
26 52 17 26 52 17 26 52 17 24 45 15 24 45 15 24 45 15 24 45 15
21 35 14 21 35 14 21 35 14 21 35 14 19 26 12 19 26 12 19 26 12
19 26 12 17 28 11 17 28 11 17 28 11 17 28 11 16 29 10 16 29 10
16 29 10 16 29 10 15 26 9 15 26 9 15 26 9 15 26 9 14 27 8 14 27 8
14 27 8 14 27 8 22 38 13 22 38 13 22 38 13 22 38 13 21 38 12 21 38 12
21 38 12 21 38 12 22 34 13 22 34 13 22 34 13 22 34 13 25 32 15
25 32 15 25 32 15 25 32 15 22 27 13 22 27 13 22 27 13 22 27 13
28 34 18 28 34 18 28 34 18 28 34 18 36 43 24 36 43 24 36 43 24
36 43 24 51 60 36 51 60 36 51 60 36 51 60 36 41 47 30 41 47 30
41 47 30 41 47 30 5 9 5 5 9 5 5 9 5 5 9 5 0 0 0 0 0 0 26 32 22
26 32 22 26 32 22 26 32 22 77 102 66 77 102 66 77 102 66 77 102 66
93 117 82 93 117 82 93 117 82 93 117 82 85 110 72 85 110 72 85 110 72
85 110 72 81 117 64 81 117 64 81 117 64 81 117 64 68 112 52 68 112 52
68 112 52 68 112 52 55 90 40 55 90 40 55 90 40 55 90 40 51 83 36
51 83 36 51 83 36 51 83 36 45 66 32 45 66 32 45 66 32 45 66 32
42 62 29 42 62 29 42 62 29 42 62 29 39 57 27 39 57 27 39 57 27
39 57 27 37 67 25 37 67 25 37 67 25 37 67 25 34 61 24 34 61 24
34 61 24 34 61 24 32 47 22 32 47 22 32 47 22 32 47 22 30 41 22
30 41 22 30 41 22 30 41 22 29 45 21 29 45 21 29 45 21 29 45 21
29 47 21 29 47 21 29 47 21 29 47 21 29 42 21 29 42 21 29 42 21
29 42 21 32 48 24 32 48 24 32 48 24 32 48 24 45 57 30 45 57 30
45 57 30 45 57 30 34 60 24 34 60 24 34 60 24 34 60 24 33 68 22
33 68 22 33 68 22 33 68 22 51 74 37 51 74 37 51 74 37 51 74 37
64 74 46 64 74 46 64 74 46 64 74 46 70 82 52 70 82 52 70 82 52
70 82 52 79 91 59 79 91 59 79 91 59 79 91 59 82 94 63 82 94 63
82 94 63 82 94 63 80 91 61 80 91 61 80 91 61 80 91 61 5 8 3 5 8 3
5 8 3 5 8 3 0 0 0 0 0 0 26 32 22 26 32 22 26 32 22 26 32 22 77 102 66
77 102 66 77 102 66 77 102 66 93 117 82 93 117 82 93 117 82 93 117 82
85 110 72 85 110 72 85 110 72 85 110 72 81 117 64 81 117 64 81 117 64
81 117 64 68 112 52 68 112 52 68 112 52 68 112 52 55 90 40 55 90 40
55 90 40 55 90 40 51 83 36 51 83 36 51 83 36 51 83 36 45 66 32
45 66 32 45 66 32 45 66 32 42 62 29 42 62 29 42 62 29 42 62 29
39 57 27 39 57 27 39 57 27 39 57 27 37 67 25 37 67 25 37 67 25
37 67 25 34 61 24 34 61 24 34 61 24 34 61 24 32 47 22 32 47 22
32 47 22 32 47 22 30 41 22 30 41 22 30 41 22 30 41 22 29 45 21
29 45 21 29 45 21 29 45 21 29 47 21 29 47 21 29 47 21 29 47 21
29 42 21 29 42 21 29 42 21 29 42 21 32 48 24 32 48 24 32 48 24
32 48 24 45 57 30 45 57 30 45 57 30 45 57 30 34 60 24 34 60 24
34 60 24 34 60 24 33 68 22 33 68 22 33 68 22 33 68 22 51 74 37
51 74 37 51 74 37 51 74 37 64 74 46 64 74 46 64 74 46 64 74 46
70 82 52 70 82 52 70 82 52 70 82 52 79 91 59 79 91 59 79 91 59
79 91 59 82 94 63 82 94 63 82 94 63 82 94 63 80 91 61 80 91 61
80 91 61 80 91 61 5 8 3 5 8 3 5 8 3 5 8 3 0 0 0 0 0 0 26 32 22
26 32 22 26 32 22 26 32 22 77 102 66 77 102 66 77 102 66 77 102 66
93 117 82 93 117 82 93 117 82 93 117 82 85 110 72 85 110 72 85 110 72
85 110 72 81 117 64 81 117 64 81 117 64 81 117 64 68 112 52 68 112 52
68 112 52 68 112 52 55 90 40 55 90 40 55 90 40 55 90 40 51 83 36
51 83 36 51 83 36 51 83 36 45 66 32 45 66 32 45 66 32 45 66 32
42 62 29 42 62 29 42 62 29 42 62 29 39 57 27 39 57 27 39 57 27
39 57 27 37 67 25 37 67 25 37 67 25 37 67 25 34 61 24 34 61 24
34 61 24 34 61 24 32 47 22 32 47 22 32 47 22 32 47 22 30 41 22
30 41 22 30 41 22 30 41 22 29 45 21 29 45 21 29 45 21 29 45 21
29 47 21 29 47 21 29 47 21 29 47 21 29 42 21 29 42 21 29 42 21
29 42 21 32 48 24 32 48 24 32 48 24 32 48 24 45 57 30 45 57 30
45 57 30 45 57 30 34 60 24 34 60 24 34 60 24 34 60 24 33 68 22
33 68 22 33 68 22 33 68 22 51 74 37 51 74 37 51 74 37 51 74 37
64 74 46 64 74 46 64 74 46 64 74 46 70 82 52 70 82 52 70 82 52
70 82 52 79 91 59 79 91 59 79 91 59 79 91 59 82 94 63 82 94 63
82 94 63 82 94 63 80 91 61 80 91 61 80 91 61 80 91 61 5 8 3 5 8 3
5 8 3 5 8 3 0 0 0 0 0 0 26 32 22 26 32 22 26 32 22 26 32 22 77 102 66
77 102 66 77 102 66 77 102 66 93 117 82 93 117 82 93 117 82 93 117 82
85 110 72 85 110 72 85 110 72 85 110 72 81 117 64 81 117 64 81 117 64
81 117 64 68 112 52 68 112 52 68 112 52 68 112 52 55 90 40 55 90 40
55 90 40 55 90 40 51 83 36 51 83 36 51 83 36 51 83 36 45 66 32
45 66 32 45 66 32 45 66 32 42 62 29 42 62 29 42 62 29 42 62 29
39 57 27 39 57 27 39 57 27 39 57 27 37 67 25 37 67 25 37 67 25
37 67 25 34 61 24 34 61 24 34 61 24 34 61 24 32 47 22 32 47 22
32 47 22 32 47 22 30 41 22 30 41 22 30 41 22 30 41 22 29 45 21
29 45 21 29 45 21 29 45 21 29 47 21 29 47 21 29 47 21 29 47 21
29 42 21 29 42 21 29 42 21 29 42 21 32 48 24 32 48 24 32 48 24
32 48 24 45 57 30 45 57 30 45 57 30 45 57 30 34 60 24 34 60 24
34 60 24 34 60 24 33 68 22 33 68 22 33 68 22 33 68 22 51 74 37
51 74 37 51 74 37 51 74 37 64 74 46 64 74 46 64 74 46 64 74 46
70 82 52 70 82 52 70 82 52 70 82 52 79 91 59 79 91 59 79 91 59
79 91 59 82 94 63 82 94 63 82 94 63 82 94 63 80 91 61 80 91 61
80 91 61 80 91 61 5 8 3 5 8 3 5 8 3 5 8 3 0 0 0 0 5 0 40 49 34
40 49 34 40 49 34 40 49 34 69 88 58 69 88 58 69 88 58 69 88 58
77 95 65 77 95 65 77 95 65 77 95 65 89 108 76 89 108 76 89 108 76
89 108 76 99 116 82 99 116 82 99 116 82 99 116 82 101 114 84
101 114 84 101 114 84 101 114 84 94 110 77 94 110 77 94 110 77
94 110 77 86 103 68 86 103 68 86 103 68 86 103 68 77 93 63 77 93 63
77 93 63 77 93 63 76 91 61 76 91 61 76 91 61 76 91 61 72 88 59
72 88 59 72 88 59 72 88 59 76 95 58 76 95 58 76 95 58 76 95 58
76 93 58 76 93 58 76 93 58 76 93 58 70 89 57 70 89 57 70 89 57
70 89 57 68 78 58 68 78 58 68 78 58 68 78 58 69 87 58 69 87 58
69 87 58 69 87 58 75 88 58 75 88 58 75 88 58 75 88 58 71 85 60
71 85 60 71 85 60 71 85 60 74 93 61 74 93 61 74 93 61 74 93 61
83 95 63 83 95 63 83 95 63 83 95 63 60 97 48 60 97 48 60 97 48
60 97 48 54 94 41 54 94 41 54 94 41 54 94 41 64 97 50 64 97 50
64 97 50 64 97 50 81 93 62 81 93 62 81 93 62 81 93 62 79 90 61
79 90 61 79 90 61 79 90 61 77 89 59 77 89 59 77 89 59 77 89 59
75 86 57 75 86 57 75 86 57 75 86 57 74 85 56 74 85 56 74 85 56
74 85 56 18 22 14 18 22 14 18 22 14 18 22 14 0 0 0 0 5 0 40 49 34
40 49 34 40 49 34 40 49 34 69 88 58 69 88 58 69 88 58 69 88 58
77 95 65 77 95 65 77 95 65 77 95 65 89 108 76 89 108 76 89 108 76
89 108 76 99 116 82 99 116 82 99 116 82 99 116 82 101 114 84
101 114 84 101 114 84 101 114 84 94 110 77 94 110 77 94 110 77
94 110 77 86 103 68 86 103 68 86 103 68 86 103 68 77 93 63 77 93 63
77 93 63 77 93 63 76 91 61 76 91 61 76 91 61 76 91 61 72 88 59
72 88 59 72 88 59 72 88 59 76 95 58 76 95 58 76 95 58 76 95 58
76 93 58 76 93 58 76 93 58 76 93 58 70 89 57 70 89 57 70 89 57
70 89 57 68 78 58 68 78 58 68 78 58 68 78 58 69 87 58 69 87 58
69 87 58 69 87 58 75 88 58 75 88 58 75 88 58 75 88 58 71 85 60
71 85 60 71 85 60 71 85 60 74 93 61 74 93 61 74 93 61 74 93 61
83 95 63 83 95 63 83 95 63 83 95 63 60 97 48 60 97 48 60 97 48
60 97 48 54 94 41 54 94 41 54 94 41 54 94 41 64 97 50 64 97 50
64 97 50 64 97 50 81 93 62 81 93 62 81 93 62 81 93 62 79 90 61
79 90 61 79 90 61 79 90 61 77 89 59 77 89 59 77 89 59 77 89 59
75 86 57 75 86 57 75 86 57 75 86 57 74 85 56 74 85 56 74 85 56
74 85 56 18 22 14 18 22 14 18 22 14 18 22 14 0 0 0 0 5 0 40 49 34
40 49 34 40 49 34 40 49 34 69 88 58 69 88 58 69 88 58 69 88 58
77 95 65 77 95 65 77 95 65 77 95 65 89 108 76 89 108 76 89 108 76
89 108 76 99 116 82 99 116 82 99 116 82 99 116 82 101 114 84
101 114 84 101 114 84 101 114 84 94 110 77 94 110 77 94 110 77
94 110 77 86 103 68 86 103 68 86 103 68 86 103 68 77 93 63 77 93 63
77 93 63 77 93 63 76 91 61 76 91 61 76 91 61 76 91 61 72 88 59
72 88 59 72 88 59 72 88 59 76 95 58 76 95 58 76 95 58 76 95 58
76 93 58 76 93 58 76 93 58 76 93 58 70 89 57 70 89 57 70 89 57
70 89 57 68 78 58 68 78 58 68 78 58 68 78 58 69 87 58 69 87 58
69 87 58 69 87 58 75 88 58 75 88 58 75 88 58 75 88 58 71 85 60
71 85 60 71 85 60 71 85 60 74 93 61 74 93 61 74 93 61 74 93 61
83 95 63 83 95 63 83 95 63 83 95 63 60 97 48 60 97 48 60 97 48
60 97 48 54 94 41 54 94 41 54 94 41 54 94 41 64 97 50 64 97 50
64 97 50 64 97 50 81 93 62 81 93 62 81 93 62 81 93 62 79 90 61
79 90 61 79 90 61 79 90 61 77 89 59 77 89 59 77 89 59 77 89 59
75 86 57 75 86 57 75 86 57 75 86 57 74 85 56 74 85 56 74 85 56
74 85 56 18 22 14 18 22 14 18 22 14 18 22 14 0 0 0 0 5 0 40 49 34
40 49 34 40 49 34 40 49 34 69 88 58 69 88 58 69 88 58 69 88 58
77 95 65 77 95 65 77 95 65 77 95 65 89 108 76 89 108 76 89 108 76
89 108 76 99 116 82 99 116 82 99 116 82 99 116 82 101 114 84
101 114 84 101 114 84 101 114 84 94 110 77 94 110 77 94 110 77
94 110 77 86 103 68 86 103 68 86 103 68 86 103 68 77 93 63 77 93 63
77 93 63 77 93 63 76 91 61 76 91 61 76 91 61 76 91 61 72 88 59
72 88 59 72 88 59 72 88 59 76 95 58 76 95 58 76 95 58 76 95 58
76 93 58 76 93 58 76 93 58 76 93 58 70 89 57 70 89 57 70 89 57
70 89 57 68 78 58 68 78 58 68 78 58 68 78 58 69 87 58 69 87 58
69 87 58 69 87 58 75 88 58 75 88 58 75 88 58 75 88 58 71 85 60
71 85 60 71 85 60 71 85 60 74 93 61 74 93 61 74 93 61 74 93 61
83 95 63 83 95 63 83 95 63 83 95 63 60 97 48 60 97 48 60 97 48
60 97 48 54 94 41 54 94 41 54 94 41 54 94 41 64 97 50 64 97 50
64 97 50 64 97 50 81 93 62 81 93 62 81 93 62 81 93 62 79 90 61
79 90 61 79 90 61 79 90 61 77 89 59 77 89 59 77 89 59 77 89 59
75 86 57 75 86 57 75 86 57 75 86 57 74 85 56 74 85 56 74 85 56
74 85 56 18 22 14 18 22 14 18 22 14 18 22 14 0 0 0 0 0 0 41 48 36
41 48 36 41 48 36 41 48 36 61 82 52 61 82 52 61 82 52 61 82 52
49 70 39 49 70 39 49 70 39 49 70 39 57 77 45 57 77 45 57 77 45
57 77 45 70 89 54 70 89 54 70 89 54 70 89 54 80 94 60 80 94 60
80 94 60 80 94 60 78 95 59 78 95 59 78 95 59 78 95 59 76 94 58
76 94 58 76 94 58 76 94 58 74 91 58 74 91 58 74 91 58 74 91 58
73 90 58 73 90 58 73 90 58 73 90 58 74 93 59 74 93 59 74 93 59
74 93 59 80 95 61 80 95 61 80 95 61 80 95 61 78 96 60 78 96 60
78 96 60 78 96 60 71 93 57 71 93 57 71 93 57 71 93 57 68 83 56
68 83 56 68 83 56 68 83 56 68 89 55 68 89 55 68 89 55 68 89 55
69 93 54 69 93 54 69 93 54 69 93 54 64 84 51 64 84 51 64 84 51
64 84 51 60 84 48 60 84 48 60 84 48 60 84 48 76 93 57 76 93 57
76 93 57 76 93 57 54 91 40 54 91 40 54 91 40 54 91 40 49 89 36
49 89 36 49 89 36 49 89 36 49 88 36 49 88 36 49 88 36 49 88 36
50 86 37 50 86 37 50 86 37 50 86 37 51 81 38 51 81 38 51 81 38
51 81 38 46 75 34 46 75 34 46 75 34 46 75 34 55 69 42 55 69 42
55 69 42 55 69 42 57 66 43 57 66 43 57 66 43 57 66 43 16 19 12
16 19 12 16 19 12 16 19 12 0 0 0 0 0 0 41 48 36 41 48 36 41 48 36
41 48 36 61 82 52 61 82 52 61 82 52 61 82 52 49 70 39 49 70 39
49 70 39 49 70 39 57 77 45 57 77 45 57 77 45 57 77 45 70 89 54
70 89 54 70 89 54 70 89 54 80 94 60 80 94 60 80 94 60 80 94 60
78 95 59 78 95 59 78 95 59 78 95 59 76 94 58 76 94 58 76 94 58
76 94 58 74 91 58 74 91 58 74 91 58 74 91 58 73 90 58 73 90 58
73 90 58 73 90 58 74 93 59 74 93 59 74 93 59 74 93 59 80 95 61
80 95 61 80 95 61 80 95 61 78 96 60 78 96 60 78 96 60 78 96 60
71 93 57 71 93 57 71 93 57 71 93 57 68 83 56 68 83 56 68 83 56
68 83 56 68 89 55 68 89 55 68 89 55 68 89 55 69 93 54 69 93 54
69 93 54 69 93 54 64 84 51 64 84 51 64 84 51 64 84 51 60 84 48
60 84 48 60 84 48 60 84 48 76 93 57 76 93 57 76 93 57 76 93 57
54 91 40 54 91 40 54 91 40 54 91 40 49 89 36 49 89 36 49 89 36
49 89 36 49 88 36 49 88 36 49 88 36 49 88 36 50 86 37 50 86 37
50 86 37 50 86 37 51 81 38 51 81 38 51 81 38 51 81 38 46 75 34
46 75 34 46 75 34 46 75 34 55 69 42 55 69 42 55 69 42 55 69 42
57 66 43 57 66 43 57 66 43 57 66 43 16 19 12 16 19 12 16 19 12
16 19 12 0 0 0 0 0 0 41 48 36 41 48 36 41 48 36 41 48 36 61 82 52
61 82 52 61 82 52 61 82 52 49 70 39 49 70 39 49 70 39 49 70 39
57 77 45 57 77 45 57 77 45 57 77 45 70 89 54 70 89 54 70 89 54
70 89 54 80 94 60 80 94 60 80 94 60 80 94 60 78 95 59 78 95 59
78 95 59 78 95 59 76 94 58 76 94 58 76 94 58 76 94 58 74 91 58
74 91 58 74 91 58 74 91 58 73 90 58 73 90 58 73 90 58 73 90 58
74 93 59 74 93 59 74 93 59 74 93 59 80 95 61 80 95 61 80 95 61
80 95 61 78 96 60 78 96 60 78 96 60 78 96 60 71 93 57 71 93 57
71 93 57 71 93 57 68 83 56 68 83 56 68 83 56 68 83 56 68 89 55
68 89 55 68 89 55 68 89 55 69 93 54 69 93 54 69 93 54 69 93 54
64 84 51 64 84 51 64 84 51 64 84 51 60 84 48 60 84 48 60 84 48
60 84 48 76 93 57 76 93 57 76 93 57 76 93 57 54 91 40 54 91 40
54 91 40 54 91 40 49 89 36 49 89 36 49 89 36 49 89 36 49 88 36
49 88 36 49 88 36 49 88 36 50 86 37 50 86 37 50 86 37 50 86 37
51 81 38 51 81 38 51 81 38 51 81 38 46 75 34 46 75 34 46 75 34
46 75 34 55 69 42 55 69 42 55 69 42 55 69 42 57 66 43 57 66 43
57 66 43 57 66 43 16 19 12 16 19 12 16 19 12 16 19 12 0 0 0 0 0 0
41 48 36 41 48 36 41 48 36 41 48 36 61 82 52 61 82 52 61 82 52
61 82 52 49 70 39 49 70 39 49 70 39 49 70 39 57 77 45 57 77 45
57 77 45 57 77 45 70 89 54 70 89 54 70 89 54 70 89 54 80 94 60
80 94 60 80 94 60 80 94 60 78 95 59 78 95 59 78 95 59 78 95 59
76 94 58 76 94 58 76 94 58 76 94 58 74 91 58 74 91 58 74 91 58
74 91 58 73 90 58 73 90 58 73 90 58 73 90 58 74 93 59 74 93 59
74 93 59 74 93 59 80 95 61 80 95 61 80 95 61 80 95 61 78 96 60
78 96 60 78 96 60 78 96 60 71 93 57 71 93 57 71 93 57 71 93 57
68 83 56 68 83 56 68 83 56 68 83 56 68 89 55 68 89 55 68 89 55
68 89 55 69 93 54 69 93 54 69 93 54 69 93 54 64 84 51 64 84 51
64 84 51 64 84 51 60 84 48 60 84 48 60 84 48 60 84 48 76 93 57
76 93 57 76 93 57 76 93 57 54 91 40 54 91 40 54 91 40 54 91 40
49 89 36 49 89 36 49 89 36 49 89 36 49 88 36 49 88 36 49 88 36
49 88 36 50 86 37 50 86 37 50 86 37 50 86 37 51 81 38 51 81 38
51 81 38 51 81 38 46 75 34 46 75 34 46 75 34 46 75 34 55 69 42
55 69 42 55 69 42 55 69 42 57 66 43 57 66 43 57 66 43 57 66 43
16 19 12 16 19 12 16 19 12 16 19 12 0 0 0 0 0 0 23 28 21 23 28 21
23 28 21 23 28 21 74 95 67 74 95 67 74 95 67 74 95 67 36 56 28
36 56 28 36 56 28 36 56 28 33 48 25 33 48 25 33 48 25 33 48 25
40 68 30 40 68 30 40 68 30 40 68 30 43 85 32 43 85 32 43 85 32
43 85 32 45 78 34 45 78 34 45 78 34 45 78 34 46 67 34 46 67 34
46 67 34 46 67 34 46 65 35 46 65 35 46 65 35 46 65 35 47 64 35
47 64 35 47 64 35 47 64 35 48 76 36 48 76 36 48 76 36 48 76 36
53 84 39 53 84 39 53 84 39 53 84 39 49 83 36 49 83 36 49 83 36
49 83 36 48 73 35 48 73 35 48 73 35 48 73 35 46 62 34 46 62 34
46 62 34 46 62 34 45 64 33 45 64 33 45 64 33 45 64 33 43 66 32
43 66 32 43 66 32 43 66 32 41 59 30 41 59 30 41 59 30 41 59 30
38 59 28 38 59 28 38 59 28 38 59 28 42 78 30 42 78 30 42 78 30
42 78 30 33 64 24 33 64 24 33 64 24 33 64 24 31 61 22 31 61 22
31 61 22 31 61 22 26 54 19 26 54 19 26 54 19 26 54 19 21 53 15
21 53 15 21 53 15 21 53 15 18 52 13 18 52 13 18 52 13 18 52 13
17 44 12 17 44 12 17 44 12 17 44 12 28 46 21 28 46 21 28 46 21
28 46 21 33 43 25 33 43 25 33 43 25 33 43 25 4 7 3 4 7 3 4 7 3 4 7 3
0 0 0 0 0 0 23 28 21 23 28 21 23 28 21 23 28 21 74 95 67 74 95 67
74 95 67 74 95 67 36 56 28 36 56 28 36 56 28 36 56 28 33 48 25
33 48 25 33 48 25 33 48 25 40 68 30 40 68 30 40 68 30 40 68 30
43 85 32 43 85 32 43 85 32 43 85 32 45 78 34 45 78 34 45 78 34
45 78 34 46 67 34 46 67 34 46 67 34 46 67 34 46 65 35 46 65 35
46 65 35 46 65 35 47 64 35 47 64 35 47 64 35 47 64 35 48 76 36
48 76 36 48 76 36 48 76 36 53 84 39 53 84 39 53 84 39 53 84 39
49 83 36 49 83 36 49 83 36 49 83 36 48 73 35 48 73 35 48 73 35
48 73 35 46 62 34 46 62 34 46 62 34 46 62 34 45 64 33 45 64 33
45 64 33 45 64 33 43 66 32 43 66 32 43 66 32 43 66 32 41 59 30
41 59 30 41 59 30 41 59 30 38 59 28 38 59 28 38 59 28 38 59 28
42 78 30 42 78 30 42 78 30 42 78 30 33 64 24 33 64 24 33 64 24
33 64 24 31 61 22 31 61 22 31 61 22 31 61 22 26 54 19 26 54 19
26 54 19 26 54 19 21 53 15 21 53 15 21 53 15 21 53 15 18 52 13
18 52 13 18 52 13 18 52 13 17 44 12 17 44 12 17 44 12 17 44 12
28 46 21 28 46 21 28 46 21 28 46 21 33 43 25 33 43 25 33 43 25
33 43 25 4 7 3 4 7 3 4 7 3 4 7 3 0 0 0 0 0 0 23 28 21 23 28 21
23 28 21 23 28 21 74 95 67 74 95 67 74 95 67 74 95 67 36 56 28
36 56 28 36 56 28 36 56 28 33 48 25 33 48 25 33 48 25 33 48 25
40 68 30 40 68 30 40 68 30 40 68 30 43 85 32 43 85 32 43 85 32
43 85 32 45 78 34 45 78 34 45 78 34 45 78 34 46 67 34 46 67 34
46 67 34 46 67 34 46 65 35 46 65 35 46 65 35 46 65 35 47 64 35
47 64 35 47 64 35 47 64 35 48 76 36 48 76 36 48 76 36 48 76 36
53 84 39 53 84 39 53 84 39 53 84 39 49 83 36 49 83 36 49 83 36
49 83 36 48 73 35 48 73 35 48 73 35 48 73 35 46 62 34 46 62 34
46 62 34 46 62 34 45 64 33 45 64 33 45 64 33 45 64 33 43 66 32
43 66 32 43 66 32 43 66 32 41 59 30 41 59 30 41 59 30 41 59 30
38 59 28 38 59 28 38 59 28 38 59 28 42 78 30 42 78 30 42 78 30
42 78 30 33 64 24 33 64 24 33 64 24 33 64 24 31 61 22 31 61 22
31 61 22 31 61 22 26 54 19 26 54 19 26 54 19 26 54 19 21 53 15
21 53 15 21 53 15 21 53 15 18 52 13 18 52 13 18 52 13 18 52 13
17 44 12 17 44 12 17 44 12 17 44 12 28 46 21 28 46 21 28 46 21
28 46 21 33 43 25 33 43 25 33 43 25 33 43 25 4 7 3 4 7 3 4 7 3 4 7 3
0 0 0 0 0 0 23 28 21 23 28 21 23 28 21 23 28 21 74 95 67 74 95 67
74 95 67 74 95 67 36 56 28 36 56 28 36 56 28 36 56 28 33 48 25
33 48 25 33 48 25 33 48 25 40 68 30 40 68 30 40 68 30 40 68 30
43 85 32 43 85 32 43 85 32 43 85 32 45 78 34 45 78 34 45 78 34
45 78 34 46 67 34 46 67 34 46 67 34 46 67 34 46 65 35 46 65 35
46 65 35 46 65 35 47 64 35 47 64 35 47 64 35 47 64 35 48 76 36
48 76 36 48 76 36 48 76 36 53 84 39 53 84 39 53 84 39 53 84 39
49 83 36 49 83 36 49 83 36 49 83 36 48 73 35 48 73 35 48 73 35
48 73 35 46 62 34 46 62 34 46 62 34 46 62 34 45 64 33 45 64 33
45 64 33 45 64 33 43 66 32 43 66 32 43 66 32 43 66 32 41 59 30
41 59 30 41 59 30 41 59 30 38 59 28 38 59 28 38 59 28 38 59 28
42 78 30 42 78 30 42 78 30 42 78 30 33 64 24 33 64 24 33 64 24
33 64 24 31 61 22 31 61 22 31 61 22 31 61 22 26 54 19 26 54 19
26 54 19 26 54 19 21 53 15 21 53 15 21 53 15 21 53 15 18 52 13
18 52 13 18 52 13 18 52 13 17 44 12 17 44 12 17 44 12 17 44 12
28 46 21 28 46 21 28 46 21 28 46 21 33 43 25 33 43 25 33 43 25
33 43 25 4 7 3 4 7 3 4 7 3 4 7 3 0 0 0 0 0 0 8 8 8 8 8 8 8 8 8 8 8 8
93 115 84 93 115 84 93 115 84 93 115 84 51 70 44 51 70 44 51 70 44
51 70 44 29 47 23 29 47 23 29 47 23 29 47 23 23 49 17 23 49 17
23 49 17 23 49 17 24 57 17 24 57 17 24 57 17 24 57 17 24 50 18
24 50 18 24 50 18 24 50 18 24 35 18 24 35 18 24 35 18 24 35 18
24 37 18 24 37 18 24 37 18 24 37 18 25 41 19 25 41 19 25 41 19
25 41 19 26 48 19 26 48 19 26 48 19 26 48 19 27 57 20 27 57 20
27 57 20 27 57 20 27 55 20 27 55 20 27 55 20 27 55 20 26 46 19
26 46 19 26 46 19 26 46 19 24 30 17 24 30 17 24 30 17 24 30 17
22 30 16 22 30 16 22 30 16 22 30 16 20 34 15 20 34 15 20 34 15
20 34 15 18 30 14 18 30 14 18 30 14 18 30 14 17 27 13 17 27 13
17 27 13 17 27 13 16 41 11 16 41 11 16 41 11 16 41 11 14 33 10
14 33 10 14 33 10 14 33 10 12 29 8 12 29 8 12 29 8 12 29 8 8 24 6
8 24 6 8 24 6 8 24 6 7 25 5 7 25 5 7 25 5 7 25 5 6 26 4 6 26 4 6 26 4
6 26 4 8 26 6 8 26 6 8 26 6 8 26 6 19 25 13 19 25 13 19 25 13
19 25 13 12 15 8 12 15 8 12 15 8 12 15 8 3 6 3 3 6 3 3 6 3 3 6 3
0 0 0 0 0 0 8 8 8 8 8 8 8 8 8 8 8 8 93 115 84 93 115 84 93 115 84
93 115 84 51 70 44 51 70 44 51 70 44 51 70 44 29 47 23 29 47 23
29 47 23 29 47 23 23 49 17 23 49 17 23 49 17 23 49 17 24 57 17
24 57 17 24 57 17 24 57 17 24 50 18 24 50 18 24 50 18 24 50 18
24 35 18 24 35 18 24 35 18 24 35 18 24 37 18 24 37 18 24 37 18
24 37 18 25 41 19 25 41 19 25 41 19 25 41 19 26 48 19 26 48 19
26 48 19 26 48 19 27 57 20 27 57 20 27 57 20 27 57 20 27 55 20
27 55 20 27 55 20 27 55 20 26 46 19 26 46 19 26 46 19 26 46 19
24 30 17 24 30 17 24 30 17 24 30 17 22 30 16 22 30 16 22 30 16
22 30 16 20 34 15 20 34 15 20 34 15 20 34 15 18 30 14 18 30 14
18 30 14 18 30 14 17 27 13 17 27 13 17 27 13 17 27 13 16 41 11
16 41 11 16 41 11 16 41 11 14 33 10 14 33 10 14 33 10 14 33 10
12 29 8 12 29 8 12 29 8 12 29 8 8 24 6 8 24 6 8 24 6 8 24 6 7 25 5
7 25 5 7 25 5 7 25 5 6 26 4 6 26 4 6 26 4 6 26 4 8 26 6 8 26 6 8 26 6
8 26 6 19 25 13 19 25 13 19 25 13 19 25 13 12 15 8 12 15 8 12 15 8
12 15 8 3 6 3 3 6 3 3 6 3 3 6 3 0 0 0 0 0 0 8 8 8 8 8 8 8 8 8 8 8 8
93 115 84 93 115 84 93 115 84 93 115 84 51 70 44 51 70 44 51 70 44
51 70 44 29 47 23 29 47 23 29 47 23 29 47 23 23 49 17 23 49 17
23 49 17 23 49 17 24 57 17 24 57 17 24 57 17 24 57 17 24 50 18
24 50 18 24 50 18 24 50 18 24 35 18 24 35 18 24 35 18 24 35 18
24 37 18 24 37 18 24 37 18 24 37 18 25 41 19 25 41 19 25 41 19
25 41 19 26 48 19 26 48 19 26 48 19 26 48 19 27 57 20 27 57 20
27 57 20 27 57 20 27 55 20 27 55 20 27 55 20 27 55 20 26 46 19
26 46 19 26 46 19 26 46 19 24 30 17 24 30 17 24 30 17 24 30 17
22 30 16 22 30 16 22 30 16 22 30 16 20 34 15 20 34 15 20 34 15
20 34 15 18 30 14 18 30 14 18 30 14 18 30 14 17 27 13 17 27 13
17 27 13 17 27 13 16 41 11 16 41 11 16 41 11 16 41 11 14 33 10
14 33 10 14 33 10 14 33 10 12 29 8 12 29 8 12 29 8 12 29 8 8 24 6
8 24 6 8 24 6 8 24 6 7 25 5 7 25 5 7 25 5 7 25 5 6 26 4 6 26 4 6 26 4
6 26 4 8 26 6 8 26 6 8 26 6 8 26 6 19 25 13 19 25 13 19 25 13
19 25 13 12 15 8 12 15 8 12 15 8 12 15 8 3 6 3 3 6 3 3 6 3 3 6 3
0 0 0 0 0 0 8 8 8 8 8 8 8 8 8 8 8 8 93 115 84 93 115 84 93 115 84
93 115 84 51 70 44 51 70 44 51 70 44 51 70 44 29 47 23 29 47 23
29 47 23 29 47 23 23 49 17 23 49 17 23 49 17 23 49 17 24 57 17
24 57 17 24 57 17 24 57 17 24 50 18 24 50 18 24 50 18 24 50 18
24 35 18 24 35 18 24 35 18 24 35 18 24 37 18 24 37 18 24 37 18
24 37 18 25 41 19 25 41 19 25 41 19 25 41 19 26 48 19 26 48 19
26 48 19 26 48 19 27 57 20 27 57 20 27 57 20 27 57 20 27 55 20
27 55 20 27 55 20 27 55 20 26 46 19 26 46 19 26 46 19 26 46 19
24 30 17 24 30 17 24 30 17 24 30 17 22 30 16 22 30 16 22 30 16
22 30 16 20 34 15 20 34 15 20 34 15 20 34 15 18 30 14 18 30 14
18 30 14 18 30 14 17 27 13 17 27 13 17 27 13 17 27 13 16 41 11
16 41 11 16 41 11 16 41 11 14 33 10 14 33 10 14 33 10 14 33 10
12 29 8 12 29 8 12 29 8 12 29 8 8 24 6 8 24 6 8 24 6 8 24 6 7 25 5
7 25 5 7 25 5 7 25 5 6 26 4 6 26 4 6 26 4 6 26 4 8 26 6 8 26 6 8 26 6
8 26 6 19 25 13 19 25 13 19 25 13 19 25 13 12 15 8 12 15 8 12 15 8
12 15 8 3 6 3 3 6 3 3 6 3 3 6 3 0 0 0 0 0 0 9 9 9 9 9 9 9 9 9 9 9 9
98 115 88 98 115 88 98 115 88 98 115 88 83 103 72 83 103 72 83 103 72
83 103 72 65 86 56 65 86 56 65 86 56 65 86 56 45 70 35 45 70 35
45 70 35 45 70 35 34 70 24 34 70 24 34 70 24 34 70 24 27 50 19
27 50 19 27 50 19 27 50 19 22 33 15 22 33 15 22 33 15 22 33 15
20 33 14 20 33 14 20 33 14 20 33 14 19 29 13 19 29 13 19 29 13
19 29 13 18 33 13 18 33 13 18 33 13 18 33 13 18 41 12 18 41 12
18 41 12 18 41 12 16 34 11 16 34 11 16 34 11 16 34 11 13 26 9 13 26 9
13 26 9 13 26 9 9 11 6 9 11 6 9 11 6 9 11 6 7 11 5 7 11 5 7 11 5
7 11 5 7 13 5 7 13 5 7 13 5 7 13 5 6 12 4 6 12 4 6 12 4 6 12 4 6 12 4
6 12 4 6 12 4 6 12 4 6 21 4 6 21 4 6 21 4 6 21 4 5 19 3 5 19 3 5 19 3
5 19 3 4 16 3 4 16 3 4 16 3 4 16 3 4 17 3 4 17 3 4 17 3 4 17 3 3 16 2
3 16 2 3 16 2 3 16 2 2 18 1 2 18 1 2 18 1 2 18 1 6 18 3 6 18 3 6 18 3
6 18 3 13 17 7 13 17 7 13 17 7 13 17 7 9 11 6 9 11 6 9 11 6 9 11 6
23 23 23 23 23 23 23 23 23 23 23 23 0 0 0 0 0 0 9 9 9 9 9 9 9 9 9
9 9 9 98 115 88 98 115 88 98 115 88 98 115 88 83 103 72 83 103 72
83 103 72 83 103 72 65 86 56 65 86 56 65 86 56 65 86 56 45 70 35
45 70 35 45 70 35 45 70 35 34 70 24 34 70 24 34 70 24 34 70 24
27 50 19 27 50 19 27 50 19 27 50 19 22 33 15 22 33 15 22 33 15
22 33 15 20 33 14 20 33 14 20 33 14 20 33 14 19 29 13 19 29 13
19 29 13 19 29 13 18 33 13 18 33 13 18 33 13 18 33 13 18 41 12
18 41 12 18 41 12 18 41 12 16 34 11 16 34 11 16 34 11 16 34 11
13 26 9 13 26 9 13 26 9 13 26 9 9 11 6 9 11 6 9 11 6 9 11 6 7 11 5
7 11 5 7 11 5 7 11 5 7 13 5 7 13 5 7 13 5 7 13 5 6 12 4 6 12 4 6 12 4
6 12 4 6 12 4 6 12 4 6 12 4 6 12 4 6 21 4 6 21 4 6 21 4 6 21 4 5 19 3
5 19 3 5 19 3 5 19 3 4 16 3 4 16 3 4 16 3 4 16 3 4 17 3 4 17 3 4 17 3
4 17 3 3 16 2 3 16 2 3 16 2 3 16 2 2 18 1 2 18 1 2 18 1 2 18 1 6 18 3
6 18 3 6 18 3 6 18 3 13 17 7 13 17 7 13 17 7 13 17 7 9 11 6 9 11 6
9 11 6 9 11 6 23 23 23 23 23 23 23 23 23 23 23 23 0 0 0 0 0 0 9 9 9
9 9 9 9 9 9 9 9 9 98 115 88 98 115 88 98 115 88 98 115 88 83 103 72
83 103 72 83 103 72 83 103 72 65 86 56 65 86 56 65 86 56 65 86 56
45 70 35 45 70 35 45 70 35 45 70 35 34 70 24 34 70 24 34 70 24
34 70 24 27 50 19 27 50 19 27 50 19 27 50 19 22 33 15 22 33 15
22 33 15 22 33 15 20 33 14 20 33 14 20 33 14 20 33 14 19 29 13
19 29 13 19 29 13 19 29 13 18 33 13 18 33 13 18 33 13 18 33 13
18 41 12 18 41 12 18 41 12 18 41 12 16 34 11 16 34 11 16 34 11
16 34 11 13 26 9 13 26 9 13 26 9 13 26 9 9 11 6 9 11 6 9 11 6 9 11 6
7 11 5 7 11 5 7 11 5 7 11 5 7 13 5 7 13 5 7 13 5 7 13 5 6 12 4 6 12 4
6 12 4 6 12 4 6 12 4 6 12 4 6 12 4 6 12 4 6 21 4 6 21 4 6 21 4 6 21 4
5 19 3 5 19 3 5 19 3 5 19 3 4 16 3 4 16 3 4 16 3 4 16 3 4 17 3 4 17 3
4 17 3 4 17 3 3 16 2 3 16 2 3 16 2 3 16 2 2 18 1 2 18 1 2 18 1 2 18 1
6 18 3 6 18 3 6 18 3 6 18 3 13 17 7 13 17 7 13 17 7 13 17 7 9 11 6
9 11 6 9 11 6 9 11 6 23 23 23 23 23 23 23 23 23 23 23 23 0 0 0 0 0 0
9 9 9 9 9 9 9 9 9 9 9 9 98 115 88 98 115 88 98 115 88 98 115 88
83 103 72 83 103 72 83 103 72 83 103 72 65 86 56 65 86 56 65 86 56
65 86 56 45 70 35 45 70 35 45 70 35 45 70 35 34 70 24 34 70 24
34 70 24 34 70 24 27 50 19 27 50 19 27 50 19 27 50 19 22 33 15
22 33 15 22 33 15 22 33 15 20 33 14 20 33 14 20 33 14 20 33 14
19 29 13 19 29 13 19 29 13 19 29 13 18 33 13 18 33 13 18 33 13
18 33 13 18 41 12 18 41 12 18 41 12 18 41 12 16 34 11 16 34 11
16 34 11 16 34 11 13 26 9 13 26 9 13 26 9 13 26 9 9 11 6 9 11 6
9 11 6 9 11 6 7 11 5 7 11 5 7 11 5 7 11 5 7 13 5 7 13 5 7 13 5 7 13 5
6 12 4 6 12 4 6 12 4 6 12 4 6 12 4 6 12 4 6 12 4 6 12 4 6 21 4 6 21 4
6 21 4 6 21 4 5 19 3 5 19 3 5 19 3 5 19 3 4 16 3 4 16 3 4 16 3 4 16 3
4 17 3 4 17 3 4 17 3 4 17 3 3 16 2 3 16 2 3 16 2 3 16 2 2 18 1 2 18 1
2 18 1 2 18 1 6 18 3 6 18 3 6 18 3 6 18 3 13 17 7 13 17 7 13 17 7
13 17 7 9 11 6 9 11 6 9 11 6 9 11 6 23 23 23 23 23 23 23 23 23
23 23 23 0 0 0 0 0 0 9 9 9 9 9 9 9 9 9 9 9 9 94 106 83 94 106 83
94 106 83 94 106 83 86 102 75 86 102 75 86 102 75 86 102 75 73 97 62
73 97 62 73 97 62 73 97 62 50 76 39 50 76 39 50 76 39 50 76 39
38 76 27 38 76 27 38 76 27 38 76 27 28 48 19 28 48 19 28 48 19
28 48 19 24 39 16 24 39 16 24 39 16 24 39 16 21 36 15 21 36 15
21 36 15 21 36 15 20 29 14 20 29 14 20 29 14 20 29 14 19 30 13
19 30 13 19 30 13 19 30 13 18 40 12 18 40 12 18 40 12 18 40 12
16 33 10 16 33 10 16 33 10 16 33 10 13 24 9 13 24 9 13 24 9 13 24 9
10 15 7 10 15 7 10 15 7 10 15 7 8 13 5 8 13 5 8 13 5 8 13 5 6 11 4
6 11 4 6 11 4 6 11 4 5 11 3 5 11 3 5 11 3 5 11 3 4 13 3 4 13 3 4 13 3
4 13 3 4 20 3 4 20 3 4 20 3 4 20 3 5 21 2 5 21 2 5 21 2 5 21 2 4 15 2
4 15 2 4 15 2 4 15 2 4 19 2 4 19 2 4 19 2 4 19 2 3 16 1 3 16 1 3 16 1
3 16 1 2 18 1 2 18 1 2 18 1 2 18 1 7 18 4 7 18 4 7 18 4 7 18 4
14 19 7 14 19 7 14 19 7 14 19 7 9 11 6 9 11 6 9 11 6 9 11 6 28 28 28
28 28 28 28 28 28 28 28 28 0 0 0 0 0 0 9 9 9 9 9 9 9 9 9 9 9 9
94 106 83 94 106 83 94 106 83 94 106 83 86 102 75 86 102 75 86 102 75
86 102 75 73 97 62 73 97 62 73 97 62 73 97 62 50 76 39 50 76 39
50 76 39 50 76 39 38 76 27 38 76 27 38 76 27 38 76 27 28 48 19
28 48 19 28 48 19 28 48 19 24 39 16 24 39 16 24 39 16 24 39 16
21 36 15 21 36 15 21 36 15 21 36 15 20 29 14 20 29 14 20 29 14
20 29 14 19 30 13 19 30 13 19 30 13 19 30 13 18 40 12 18 40 12
18 40 12 18 40 12 16 33 10 16 33 10 16 33 10 16 33 10 13 24 9 13 24 9
13 24 9 13 24 9 10 15 7 10 15 7 10 15 7 10 15 7 8 13 5 8 13 5 8 13 5
8 13 5 6 11 4 6 11 4 6 11 4 6 11 4 5 11 3 5 11 3 5 11 3 5 11 3 4 13 3
4 13 3 4 13 3 4 13 3 4 20 3 4 20 3 4 20 3 4 20 3 5 21 2 5 21 2 5 21 2
5 21 2 4 15 2 4 15 2 4 15 2 4 15 2 4 19 2 4 19 2 4 19 2 4 19 2 3 16 1
3 16 1 3 16 1 3 16 1 2 18 1 2 18 1 2 18 1 2 18 1 7 18 4 7 18 4 7 18 4
7 18 4 14 19 7 14 19 7 14 19 7 14 19 7 9 11 6 9 11 6 9 11 6 9 11 6
28 28 28 28 28 28 28 28 28 28 28 28 0 0 0 0 0 0 9 9 9 9 9 9 9 9 9
9 9 9 94 106 83 94 106 83 94 106 83 94 106 83 86 102 75 86 102 75
86 102 75 86 102 75 73 97 62 73 97 62 73 97 62 73 97 62 50 76 39
50 76 39 50 76 39 50 76 39 38 76 27 38 76 27 38 76 27 38 76 27
28 48 19 28 48 19 28 48 19 28 48 19 24 39 16 24 39 16 24 39 16
24 39 16 21 36 15 21 36 15 21 36 15 21 36 15 20 29 14 20 29 14
20 29 14 20 29 14 19 30 13 19 30 13 19 30 13 19 30 13 18 40 12
18 40 12 18 40 12 18 40 12 16 33 10 16 33 10 16 33 10 16 33 10
13 24 9 13 24 9 13 24 9 13 24 9 10 15 7 10 15 7 10 15 7 10 15 7
8 13 5 8 13 5 8 13 5 8 13 5 6 11 4 6 11 4 6 11 4 6 11 4 5 11 3 5 11 3
5 11 3 5 11 3 4 13 3 4 13 3 4 13 3 4 13 3 4 20 3 4 20 3 4 20 3 4 20 3
5 21 2 5 21 2 5 21 2 5 21 2 4 15 2 4 15 2 4 15 2 4 15 2 4 19 2 4 19 2
4 19 2 4 19 2 3 16 1 3 16 1 3 16 1 3 16 1 2 18 1 2 18 1 2 18 1 2 18 1
7 18 4 7 18 4 7 18 4 7 18 4 14 19 7 14 19 7 14 19 7 14 19 7 9 11 6
9 11 6 9 11 6 9 11 6 28 28 28 28 28 28 28 28 28 28 28 28 0 0 0 0 0 0
9 9 9 9 9 9 9 9 9 9 9 9 94 106 83 94 106 83 94 106 83 94 106 83
86 102 75 86 102 75 86 102 75 86 102 75 73 97 62 73 97 62 73 97 62
73 97 62 50 76 39 50 76 39 50 76 39 50 76 39 38 76 27 38 76 27
38 76 27 38 76 27 28 48 19 28 48 19 28 48 19 28 48 19 24 39 16
24 39 16 24 39 16 24 39 16 21 36 15 21 36 15 21 36 15 21 36 15
20 29 14 20 29 14 20 29 14 20 29 14 19 30 13 19 30 13 19 30 13
19 30 13 18 40 12 18 40 12 18 40 12 18 40 12 16 33 10 16 33 10
16 33 10 16 33 10 13 24 9 13 24 9 13 24 9 13 24 9 10 15 7 10 15 7
10 15 7 10 15 7 8 13 5 8 13 5 8 13 5 8 13 5 6 11 4 6 11 4 6 11 4
6 11 4 5 11 3 5 11 3 5 11 3 5 11 3 4 13 3 4 13 3 4 13 3 4 13 3 4 20 3
4 20 3 4 20 3 4 20 3 5 21 2 5 21 2 5 21 2 5 21 2 4 15 2 4 15 2 4 15 2
4 15 2 4 19 2 4 19 2 4 19 2 4 19 2 3 16 1 3 16 1 3 16 1 3 16 1 2 18 1
2 18 1 2 18 1 2 18 1 7 18 4 7 18 4 7 18 4 7 18 4 14 19 7 14 19 7
14 19 7 14 19 7 9 11 6 9 11 6 9 11 6 9 11 6 28 28 28 28 28 28
28 28 28 28 28 28 0 0 0 0 0 0 9 10 9 9 10 9 9 10 9 9 10 9 89 102 78
89 102 78 89 102 78 89 102 78 86 100 75 86 100 75 86 100 75 86 100 75
78 107 67 78 107 67 78 107 67 78 107 67 58 87 45 58 87 45 58 87 45
58 87 45 46 91 32 46 91 32 46 91 32 46 91 32 34 55 23 34 55 23
34 55 23 34 55 23 29 48 20 29 48 20 29 48 20 29 48 20 26 44 17
26 44 17 26 44 17 26 44 17 23 36 16 23 36 16 23 36 16 23 36 16
21 34 15 21 34 15 21 34 15 21 34 15 20 45 13 20 45 13 20 45 13
20 45 13 18 38 11 18 38 11 18 38 11 18 38 11 15 27 10 15 27 10
15 27 10 15 27 10 13 19 9 13 19 9 13 19 9 13 19 9 12 19 8 12 19 8
12 19 8 12 19 8 11 22 7 11 22 7 11 22 7 11 22 7 10 20 6 10 20 6
10 20 6 10 20 6 6 18 4 6 18 4 6 18 4 6 18 4 11 24 6 11 24 6 11 24 6
11 24 6 15 21 9 15 21 9 15 21 9 15 21 9 7 20 4 7 20 4 7 20 4 7 20 4
12 19 7 12 19 7 12 19 7 12 19 7 4 19 2 4 19 2 4 19 2 4 19 2 4 19 2
4 19 2 4 19 2 4 19 2 9 17 5 9 17 5 9 17 5 9 17 5 15 20 8 15 20 8
15 20 8 15 20 8 10 11 6 10 11 6 10 11 6 10 11 6 32 32 32 32 32 32
32 32 32 32 32 32 0 0 0 0 0 0 9 10 9 9 10 9 9 10 9 9 10 9 89 102 78
89 102 78 89 102 78 89 102 78 86 100 75 86 100 75 86 100 75 86 100 75
78 107 67 78 107 67 78 107 67 78 107 67 58 87 45 58 87 45 58 87 45
58 87 45 46 91 32 46 91 32 46 91 32 46 91 32 34 55 23 34 55 23
34 55 23 34 55 23 29 48 20 29 48 20 29 48 20 29 48 20 26 44 17
26 44 17 26 44 17 26 44 17 23 36 16 23 36 16 23 36 16 23 36 16
21 34 15 21 34 15 21 34 15 21 34 15 20 45 13 20 45 13 20 45 13
20 45 13 18 38 11 18 38 11 18 38 11 18 38 11 15 27 10 15 27 10
15 27 10 15 27 10 13 19 9 13 19 9 13 19 9 13 19 9 12 19 8 12 19 8
12 19 8 12 19 8 11 22 7 11 22 7 11 22 7 11 22 7 10 20 6 10 20 6
10 20 6 10 20 6 6 18 4 6 18 4 6 18 4 6 18 4 11 24 6 11 24 6 11 24 6
11 24 6 15 21 9 15 21 9 15 21 9 15 21 9 7 20 4 7 20 4 7 20 4 7 20 4
12 19 7 12 19 7 12 19 7 12 19 7 4 19 2 4 19 2 4 19 2 4 19 2 4 19 2
4 19 2 4 19 2 4 19 2 9 17 5 9 17 5 9 17 5 9 17 5 15 20 8 15 20 8
15 20 8 15 20 8 10 11 6 10 11 6 10 11 6 10 11 6 32 32 32 32 32 32
32 32 32 32 32 32 0 0 0 0 0 0 9 10 9 9 10 9 9 10 9 9 10 9 89 102 78
89 102 78 89 102 78 89 102 78 86 100 75 86 100 75 86 100 75 86 100 75
78 107 67 78 107 67 78 107 67 78 107 67 58 87 45 58 87 45 58 87 45
58 87 45 46 91 32 46 91 32 46 91 32 46 91 32 34 55 23 34 55 23
34 55 23 34 55 23 29 48 20 29 48 20 29 48 20 29 48 20 26 44 17
26 44 17 26 44 17 26 44 17 23 36 16 23 36 16 23 36 16 23 36 16
21 34 15 21 34 15 21 34 15 21 34 15 20 45 13 20 45 13 20 45 13
20 45 13 18 38 11 18 38 11 18 38 11 18 38 11 15 27 10 15 27 10
15 27 10 15 27 10 13 19 9 13 19 9 13 19 9 13 19 9 12 19 8 12 19 8
12 19 8 12 19 8 11 22 7 11 22 7 11 22 7 11 22 7 10 20 6 10 20 6
10 20 6 10 20 6 6 18 4 6 18 4 6 18 4 6 18 4 11 24 6 11 24 6 11 24 6
11 24 6 15 21 9 15 21 9 15 21 9 15 21 9 7 20 4 7 20 4 7 20 4 7 20 4
12 19 7 12 19 7 12 19 7 12 19 7 4 19 2 4 19 2 4 19 2 4 19 2 4 19 2
4 19 2 4 19 2 4 19 2 9 17 5 9 17 5 9 17 5 9 17 5 15 20 8 15 20 8
15 20 8 15 20 8 10 11 6 10 11 6 10 11 6 10 11 6 32 32 32 32 32 32
32 32 32 32 32 32 0 0 0 0 0 0 9 10 9 9 10 9 9 10 9 9 10 9 89 102 78
89 102 78 89 102 78 89 102 78 86 100 75 86 100 75 86 100 75 86 100 75
78 107 67 78 107 67 78 107 67 78 107 67 58 87 45 58 87 45 58 87 45
58 87 45 46 91 32 46 91 32 46 91 32 46 91 32 34 55 23 34 55 23
34 55 23 34 55 23 29 48 20 29 48 20 29 48 20 29 48 20 26 44 17
26 44 17 26 44 17 26 44 17 23 36 16 23 36 16 23 36 16 23 36 16
21 34 15 21 34 15 21 34 15 21 34 15 20 45 13 20 45 13 20 45 13
20 45 13 18 38 11 18 38 11 18 38 11 18 38 11 15 27 10 15 27 10
15 27 10 15 27 10 13 19 9 13 19 9 13 19 9 13 19 9 12 19 8 12 19 8
12 19 8 12 19 8 11 22 7 11 22 7 11 22 7 11 22 7 10 20 6 10 20 6
10 20 6 10 20 6 6 18 4 6 18 4 6 18 4 6 18 4 11 24 6 11 24 6 11 24 6
11 24 6 15 21 9 15 21 9 15 21 9 15 21 9 7 20 4 7 20 4 7 20 4 7 20 4
12 19 7 12 19 7 12 19 7 12 19 7 4 19 2 4 19 2 4 19 2 4 19 2 4 19 2
4 19 2 4 19 2 4 19 2 9 17 5 9 17 5 9 17 5 9 17 5 15 20 8 15 20 8
15 20 8 15 20 8 10 11 6 10 11 6 10 11 6 10 11 6 32 32 32 32 32 32
32 32 32 32 32 32 0 0 0 0 0 0 10 12 10 10 12 10 10 12 10 10 12 10
88 104 79 88 104 79 88 104 79 88 104 79 88 102 76 88 102 76 88 102 76
88 102 76 83 114 69 83 114 69 83 114 69 83 114 69 67 106 52 67 106 52
67 106 52 67 106 52 62 106 44 62 106 44 62 106 44 62 106 44 44 70 30
44 70 30 44 70 30 44 70 30 40 66 27 40 66 27 40 66 27 40 66 27
37 63 25 37 63 25 37 63 25 37 63 25 33 53 22 33 53 22 33 53 22
33 53 22 30 49 20 30 49 20 30 49 20 30 49 20 28 61 18 28 61 18
28 61 18 28 61 18 25 52 16 25 52 16 25 52 16 25 52 16 22 34 14
22 34 14 22 34 14 22 34 14 20 28 13 20 28 13 20 28 13 20 28 13
18 31 12 18 31 12 18 31 12 18 31 12 17 33 10 17 33 10 17 33 10
17 33 10 15 26 9 15 26 9 15 26 9 15 26 9 13 28 8 13 28 8 13 28 8
13 28 8 18 23 11 18 23 11 18 23 11 18 23 11 16 21 10 16 21 10
16 21 10 16 21 10 11 20 6 11 20 6 11 20 6 11 20 6 15 18 8 15 18 8
15 18 8 15 18 8 7 20 4 7 20 4 7 20 4 7 20 4 11 17 6 11 17 6 11 17 6
11 17 6 12 16 6 12 16 6 12 16 6 12 16 6 16 22 8 16 22 8 16 22 8
16 22 8 10 11 6 10 11 6 10 11 6 10 11 6 36 36 36 36 36 36 36 36 36
36 36 36 0 0 0 0 0 0 10 12 10 10 12 10 10 12 10 10 12 10 88 104 79
88 104 79 88 104 79 88 104 79 88 102 76 88 102 76 88 102 76 88 102 76
83 114 69 83 114 69 83 114 69 83 114 69 67 106 52 67 106 52 67 106 52
67 106 52 62 106 44 62 106 44 62 106 44 62 106 44 44 70 30 44 70 30
44 70 30 44 70 30 40 66 27 40 66 27 40 66 27 40 66 27 37 63 25
37 63 25 37 63 25 37 63 25 33 53 22 33 53 22 33 53 22 33 53 22
30 49 20 30 49 20 30 49 20 30 49 20 28 61 18 28 61 18 28 61 18
28 61 18 25 52 16 25 52 16 25 52 16 25 52 16 22 34 14 22 34 14
22 34 14 22 34 14 20 28 13 20 28 13 20 28 13 20 28 13 18 31 12
18 31 12 18 31 12 18 31 12 17 33 10 17 33 10 17 33 10 17 33 10
15 26 9 15 26 9 15 26 9 15 26 9 13 28 8 13 28 8 13 28 8 13 28 8
18 23 11 18 23 11 18 23 11 18 23 11 16 21 10 16 21 10 16 21 10
16 21 10 11 20 6 11 20 6 11 20 6 11 20 6 15 18 8 15 18 8 15 18 8
15 18 8 7 20 4 7 20 4 7 20 4 7 20 4 11 17 6 11 17 6 11 17 6 11 17 6
12 16 6 12 16 6 12 16 6 12 16 6 16 22 8 16 22 8 16 22 8 16 22 8
10 11 6 10 11 6 10 11 6 10 11 6 36 36 36 36 36 36 36 36 36 36 36 36
0 0 0 0 0 0 10 12 10 10 12 10 10 12 10 10 12 10 88 104 79 88 104 79
88 104 79 88 104 79 88 102 76 88 102 76 88 102 76 88 102 76 83 114 69
83 114 69 83 114 69 83 114 69 67 106 52 67 106 52 67 106 52 67 106 52
62 106 44 62 106 44 62 106 44 62 106 44 44 70 30 44 70 30 44 70 30
44 70 30 40 66 27 40 66 27 40 66 27 40 66 27 37 63 25 37 63 25
37 63 25 37 63 25 33 53 22 33 53 22 33 53 22 33 53 22 30 49 20
30 49 20 30 49 20 30 49 20 28 61 18 28 61 18 28 61 18 28 61 18
25 52 16 25 52 16 25 52 16 25 52 16 22 34 14 22 34 14 22 34 14
22 34 14 20 28 13 20 28 13 20 28 13 20 28 13 18 31 12 18 31 12
18 31 12 18 31 12 17 33 10 17 33 10 17 33 10 17 33 10 15 26 9 15 26 9
15 26 9 15 26 9 13 28 8 13 28 8 13 28 8 13 28 8 18 23 11 18 23 11
18 23 11 18 23 11 16 21 10 16 21 10 16 21 10 16 21 10 11 20 6 11 20 6
11 20 6 11 20 6 15 18 8 15 18 8 15 18 8 15 18 8 7 20 4 7 20 4 7 20 4
7 20 4 11 17 6 11 17 6 11 17 6 11 17 6 12 16 6 12 16 6 12 16 6
12 16 6 16 22 8 16 22 8 16 22 8 16 22 8 10 11 6 10 11 6 10 11 6
10 11 6 36 36 36 36 36 36 36 36 36 36 36 36 0 0 0 0 0 0 10 12 10
10 12 10 10 12 10 10 12 10 88 104 79 88 104 79 88 104 79 88 104 79
88 102 76 88 102 76 88 102 76 88 102 76 83 114 69 83 114 69 83 114 69
83 114 69 67 106 52 67 106 52 67 106 52 67 106 52 62 106 44 62 106 44
62 106 44 62 106 44 44 70 30 44 70 30 44 70 30 44 70 30 40 66 27
40 66 27 40 66 27 40 66 27 37 63 25 37 63 25 37 63 25 37 63 25
33 53 22 33 53 22 33 53 22 33 53 22 30 49 20 30 49 20 30 49 20
30 49 20 28 61 18 28 61 18 28 61 18 28 61 18 25 52 16 25 52 16
25 52 16 25 52 16 22 34 14 22 34 14 22 34 14 22 34 14 20 28 13
20 28 13 20 28 13 20 28 13 18 31 12 18 31 12 18 31 12 18 31 12
17 33 10 17 33 10 17 33 10 17 33 10 15 26 9 15 26 9 15 26 9 15 26 9
13 28 8 13 28 8 13 28 8 13 28 8 18 23 11 18 23 11 18 23 11 18 23 11
16 21 10 16 21 10 16 21 10 16 21 10 11 20 6 11 20 6 11 20 6 11 20 6
15 18 8 15 18 8 15 18 8 15 18 8 7 20 4 7 20 4 7 20 4 7 20 4 11 17 6
11 17 6 11 17 6 11 17 6 12 16 6 12 16 6 12 16 6 12 16 6 16 22 8
16 22 8 16 22 8 16 22 8 10 11 6 10 11 6 10 11 6 10 11 6 36 36 36
36 36 36 36 36 36 36 36 36 0 0 0 0 0 0 13 13 13 13 13 13 13 13 13
13 13 13 87 109 78 87 109 78 87 109 78 87 109 78 84 101 71 84 101 71
84 101 71 84 101 71 87 120 72 87 120 72 87 120 72 87 120 72 73 115 55
73 115 55 73 115 55 73 115 55 73 99 52 73 99 52 73 99 52 73 99 52
52 83 35 52 83 35 52 83 35 52 83 35 49 79 33 49 79 33 49 79 33
49 79 33 48 79 32 48 79 32 48 79 32 48 79 32 43 70 29 43 70 29
43 70 29 43 70 29 40 64 26 40 64 26 40 64 26 40 64 26 48 72 32
48 72 32 48 72 32 48 72 32 35 67 23 35 67 23 35 67 23 35 67 23
30 43 20 30 43 20 30 43 20 30 43 20 27 41 18 27 41 18 27 41 18
27 41 18 25 45 16 25 45 16 25 45 16 25 45 16 23 43 14 23 43 14
23 43 14 23 43 14 21 29 13 21 29 13 21 29 13 21 29 13 21 38 13
21 38 13 21 38 13 21 38 13 23 30 14 23 30 14 23 30 14 23 30 14
16 21 10 16 21 10 16 21 10 16 21 10 14 20 8 14 20 8 14 20 8 14 20 8
15 18 8 15 18 8 15 18 8 15 18 8 12 18 7 12 18 7 12 18 7 12 18 7
13 17 7 13 17 7 13 17 7 13 17 7 12 16 7 12 16 7 12 16 7 12 16 7
17 22 9 17 22 9 17 22 9 17 22 9 10 12 6 10 12 6 10 12 6 10 12 6
85 85 85 85 85 85 85 85 85 85 85 85 0 0 0 0 0 0 13 13 13 13 13 13
13 13 13 13 13 13 87 109 78 87 109 78 87 109 78 87 109 78 84 101 71
84 101 71 84 101 71 84 101 71 87 120 72 87 120 72 87 120 72 87 120 72
73 115 55 73 115 55 73 115 55 73 115 55 73 99 52 73 99 52 73 99 52
73 99 52 52 83 35 52 83 35 52 83 35 52 83 35 49 79 33 49 79 33
49 79 33 49 79 33 48 79 32 48 79 32 48 79 32 48 79 32 43 70 29
43 70 29 43 70 29 43 70 29 40 64 26 40 64 26 40 64 26 40 64 26
48 72 32 48 72 32 48 72 32 48 72 32 35 67 23 35 67 23 35 67 23
35 67 23 30 43 20 30 43 20 30 43 20 30 43 20 27 41 18 27 41 18
27 41 18 27 41 18 25 45 16 25 45 16 25 45 16 25 45 16 23 43 14
23 43 14 23 43 14 23 43 14 21 29 13 21 29 13 21 29 13 21 29 13
21 38 13 21 38 13 21 38 13 21 38 13 23 30 14 23 30 14 23 30 14
23 30 14 16 21 10 16 21 10 16 21 10 16 21 10 14 20 8 14 20 8 14 20 8
14 20 8 15 18 8 15 18 8 15 18 8 15 18 8 12 18 7 12 18 7 12 18 7
12 18 7 13 17 7 13 17 7 13 17 7 13 17 7 12 16 7 12 16 7 12 16 7
12 16 7 17 22 9 17 22 9 17 22 9 17 22 9 10 12 6 10 12 6 10 12 6
10 12 6 85 85 85 85 85 85 85 85 85 85 85 85 0 0 0 0 0 0 13 13 13
13 13 13 13 13 13 13 13 13 87 109 78 87 109 78 87 109 78 87 109 78
84 101 71 84 101 71 84 101 71 84 101 71 87 120 72 87 120 72 87 120 72
87 120 72 73 115 55 73 115 55 73 115 55 73 115 55 73 99 52 73 99 52
73 99 52 73 99 52 52 83 35 52 83 35 52 83 35 52 83 35 49 79 33
49 79 33 49 79 33 49 79 33 48 79 32 48 79 32 48 79 32 48 79 32
43 70 29 43 70 29 43 70 29 43 70 29 40 64 26 40 64 26 40 64 26
40 64 26 48 72 32 48 72 32 48 72 32 48 72 32 35 67 23 35 67 23
35 67 23 35 67 23 30 43 20 30 43 20 30 43 20 30 43 20 27 41 18
27 41 18 27 41 18 27 41 18 25 45 16 25 45 16 25 45 16 25 45 16
23 43 14 23 43 14 23 43 14 23 43 14 21 29 13 21 29 13 21 29 13
21 29 13 21 38 13 21 38 13 21 38 13 21 38 13 23 30 14 23 30 14
23 30 14 23 30 14 16 21 10 16 21 10 16 21 10 16 21 10 14 20 8 14 20 8
14 20 8 14 20 8 15 18 8 15 18 8 15 18 8 15 18 8 12 18 7 12 18 7
12 18 7 12 18 7 13 17 7 13 17 7 13 17 7 13 17 7 12 16 7 12 16 7
12 16 7 12 16 7 17 22 9 17 22 9 17 22 9 17 22 9 10 12 6 10 12 6
10 12 6 10 12 6 85 85 85 85 85 85 85 85 85 85 85 85 0 0 0 0 0 0
13 13 13 13 13 13 13 13 13 13 13 13 87 109 78 87 109 78 87 109 78
87 109 78 84 101 71 84 101 71 84 101 71 84 101 71 87 120 72 87 120 72
87 120 72 87 120 72 73 115 55 73 115 55 73 115 55 73 115 55 73 99 52
73 99 52 73 99 52 73 99 52 52 83 35 52 83 35 52 83 35 52 83 35
49 79 33 49 79 33 49 79 33 49 79 33 48 79 32 48 79 32 48 79 32
48 79 32 43 70 29 43 70 29 43 70 29 43 70 29 40 64 26 40 64 26
40 64 26 40 64 26 48 72 32 48 72 32 48 72 32 48 72 32 35 67 23
35 67 23 35 67 23 35 67 23 30 43 20 30 43 20 30 43 20 30 43 20
27 41 18 27 41 18 27 41 18 27 41 18 25 45 16 25 45 16 25 45 16
25 45 16 23 43 14 23 43 14 23 43 14 23 43 14 21 29 13 21 29 13
21 29 13 21 29 13 21 38 13 21 38 13 21 38 13 21 38 13 23 30 14
23 30 14 23 30 14 23 30 14 16 21 10 16 21 10 16 21 10 16 21 10
14 20 8 14 20 8 14 20 8 14 20 8 15 18 8 15 18 8 15 18 8 15 18 8
12 18 7 12 18 7 12 18 7 12 18 7 13 17 7 13 17 7 13 17 7 13 17 7
12 16 7 12 16 7 12 16 7 12 16 7 17 22 9 17 22 9 17 22 9 17 22 9
10 12 6 10 12 6 10 12 6 10 12 6 85 85 85 85 85 85 85 85 85 85 85 85
0 0 0 0 0 0 11 16 10 11 16 10 11 16 10 11 16 10 88 107 79 88 107 79
88 107 79 88 107 79 81 100 68 81 100 68 81 100 68 81 100 68 83 120 68
83 120 68 83 120 68 83 120 68 72 115 54 72 115 54 72 115 54 72 115 54
74 93 52 74 93 52 74 93 52 74 93 52 53 82 37 53 82 37 53 82 37
53 82 37 52 81 35 52 81 35 52 81 35 52 81 35 58 85 40 58 85 40
58 85 40 58 85 40 47 74 32 47 74 32 47 74 32 47 74 32 44 68 30
44 68 30 44 68 30 44 68 30 57 70 39 57 70 39 57 70 39 57 70 39
49 67 32 49 67 32 49 67 32 49 67 32 35 50 23 35 50 23 35 50 23
35 50 23 32 50 21 32 50 21 32 50 21 32 50 21 29 48 19 29 48 19
29 48 19 29 48 19 29 46 18 29 46 18 29 46 18 29 46 18 25 38 15
25 38 15 25 38 15 25 38 15 31 41 19 31 41 19 31 41 19 31 41 19
29 36 17 29 36 17 29 36 17 29 36 17 16 21 10 16 21 10 16 21 10
16 21 10 15 19 9 15 19 9 15 19 9 15 19 9 15 18 8 15 18 8 15 18 8
15 18 8 14 18 8 14 18 8 14 18 8 14 18 8 13 17 7 13 17 7 13 17 7
13 17 7 12 16 6 12 16 6 12 16 6 12 16 6 16 21 8 16 21 8 16 21 8
16 21 8 9 10 5 9 10 5 9 10 5 9 10 5 102 102 102 102 102 102
102 102 102 102 102 102 0 0 0 0 0 0 11 16 10 11 16 10 11 16 10
11 16 10 88 107 79 88 107 79 88 107 79 88 107 79 81 100 68 81 100 68
81 100 68 81 100 68 83 120 68 83 120 68 83 120 68 83 120 68 72 115 54
72 115 54 72 115 54 72 115 54 74 93 52 74 93 52 74 93 52 74 93 52
53 82 37 53 82 37 53 82 37 53 82 37 52 81 35 52 81 35 52 81 35
52 81 35 58 85 40 58 85 40 58 85 40 58 85 40 47 74 32 47 74 32
47 74 32 47 74 32 44 68 30 44 68 30 44 68 30 44 68 30 57 70 39
57 70 39 57 70 39 57 70 39 49 67 32 49 67 32 49 67 32 49 67 32
35 50 23 35 50 23 35 50 23 35 50 23 32 50 21 32 50 21 32 50 21
32 50 21 29 48 19 29 48 19 29 48 19 29 48 19 29 46 18 29 46 18
29 46 18 29 46 18 25 38 15 25 38 15 25 38 15 25 38 15 31 41 19
31 41 19 31 41 19 31 41 19 29 36 17 29 36 17 29 36 17 29 36 17
16 21 10 16 21 10 16 21 10 16 21 10 15 19 9 15 19 9 15 19 9 15 19 9
15 18 8 15 18 8 15 18 8 15 18 8 14 18 8 14 18 8 14 18 8 14 18 8
13 17 7 13 17 7 13 17 7 13 17 7 12 16 6 12 16 6 12 16 6 12 16 6
16 21 8 16 21 8 16 21 8 16 21 8 9 10 5 9 10 5 9 10 5 9 10 5
102 102 102 102 102 102 102 102 102 102 102 102 0 0 0 0 0 0 11 16 10
11 16 10 11 16 10 11 16 10 88 107 79 88 107 79 88 107 79 88 107 79
81 100 68 81 100 68 81 100 68 81 100 68 83 120 68 83 120 68 83 120 68
83 120 68 72 115 54 72 115 54 72 115 54 72 115 54 74 93 52 74 93 52
74 93 52 74 93 52 53 82 37 53 82 37 53 82 37 53 82 37 52 81 35
52 81 35 52 81 35 52 81 35 58 85 40 58 85 40 58 85 40 58 85 40
47 74 32 47 74 32 47 74 32 47 74 32 44 68 30 44 68 30 44 68 30
44 68 30 57 70 39 57 70 39 57 70 39 57 70 39 49 67 32 49 67 32
49 67 32 49 67 32 35 50 23 35 50 23 35 50 23 35 50 23 32 50 21
32 50 21 32 50 21 32 50 21 29 48 19 29 48 19 29 48 19 29 48 19
29 46 18 29 46 18 29 46 18 29 46 18 25 38 15 25 38 15 25 38 15
25 38 15 31 41 19 31 41 19 31 41 19 31 41 19 29 36 17 29 36 17
29 36 17 29 36 17 16 21 10 16 21 10 16 21 10 16 21 10 15 19 9 15 19 9
15 19 9 15 19 9 15 18 8 15 18 8 15 18 8 15 18 8 14 18 8 14 18 8
14 18 8 14 18 8 13 17 7 13 17 7 13 17 7 13 17 7 12 16 6 12 16 6
12 16 6 12 16 6 16 21 8 16 21 8 16 21 8 16 21 8 9 10 5 9 10 5 9 10 5
9 10 5 102 102 102 102 102 102 102 102 102 102 102 102 0 0 0 0 0 0
11 16 10 11 16 10 11 16 10 11 16 10 88 107 79 88 107 79 88 107 79
88 107 79 81 100 68 81 100 68 81 100 68 81 100 68 83 120 68 83 120 68
83 120 68 83 120 68 72 115 54 72 115 54 72 115 54 72 115 54 74 93 52
74 93 52 74 93 52 74 93 52 53 82 37 53 82 37 53 82 37 53 82 37
52 81 35 52 81 35 52 81 35 52 81 35 58 85 40 58 85 40 58 85 40
58 85 40 47 74 32 47 74 32 47 74 32 47 74 32 44 68 30 44 68 30
44 68 30 44 68 30 57 70 39 57 70 39 57 70 39 57 70 39 49 67 32
49 67 32 49 67 32 49 67 32 35 50 23 35 50 23 35 50 23 35 50 23
32 50 21 32 50 21 32 50 21 32 50 21 29 48 19 29 48 19 29 48 19
29 48 19 29 46 18 29 46 18 29 46 18 29 46 18 25 38 15 25 38 15
25 38 15 25 38 15 31 41 19 31 41 19 31 41 19 31 41 19 29 36 17
29 36 17 29 36 17 29 36 17 16 21 10 16 21 10 16 21 10 16 21 10
15 19 9 15 19 9 15 19 9 15 19 9 15 18 8 15 18 8 15 18 8 15 18 8
14 18 8 14 18 8 14 18 8 14 18 8 13 17 7 13 17 7 13 17 7 13 17 7
12 16 6 12 16 6 12 16 6 12 16 6 16 21 8 16 21 8 16 21 8 16 21 8
9 10 5 9 10 5 9 10 5 9 10 5 102 102 102 102 102 102 102 102 102
102 102 102 0 0 0 0 0 0 8 14 8 8 14 8 8 14 8 8 14 8 89 106 81
89 106 81 89 106 81 89 106 81 79 97 67 79 97 67 79 97 67 79 97 67
87 119 70 87 119 70 87 119 70 87 119 70 85 108 62 85 108 62 85 108 62
85 108 62 74 90 52 74 90 52 74 90 52 74 90 52 54 79 37 54 79 37
54 79 37 54 79 37 52 77 35 52 77 35 52 77 35 52 77 35 67 82 46
67 82 46 67 82 46 67 82 46 48 74 32 48 74 32 48 74 32 48 74 32
45 68 30 45 68 30 45 68 30 45 68 30 59 69 39 59 69 39 59 69 39
59 69 39 47 65 31 47 65 31 47 65 31 47 65 31 37 53 24 37 53 24
37 53 24 37 53 24 34 50 22 34 50 22 34 50 22 34 50 22 31 46 20
31 46 20 31 46 20 31 46 20 33 49 20 33 49 20 33 49 20 33 49 20
27 39 17 27 39 17 27 39 17 27 39 17 31 42 19 31 42 19 31 42 19
31 42 19 30 37 18 30 37 18 30 37 18 30 37 18 16 21 9 16 21 9 16 21 9
16 21 9 15 19 9 15 19 9 15 19 9 15 19 9 15 18 8 15 18 8 15 18 8
15 18 8 14 18 8 14 18 8 14 18 8 14 18 8 13 17 7 13 17 7 13 17 7
13 17 7 13 17 7 13 17 7 13 17 7 13 17 7 20 27 12 20 27 12 20 27 12
20 27 12 13 18 8 13 18 8 13 18 8 13 18 8 64 64 64 64 64 64 64 64 64
64 64 64 0 0 0 0 0 0 8 14 8 8 14 8 8 14 8 8 14 8 89 106 81 89 106 81
89 106 81 89 106 81 79 97 67 79 97 67 79 97 67 79 97 67 87 119 70
87 119 70 87 119 70 87 119 70 85 108 62 85 108 62 85 108 62 85 108 62
74 90 52 74 90 52 74 90 52 74 90 52 54 79 37 54 79 37 54 79 37
54 79 37 52 77 35 52 77 35 52 77 35 52 77 35 67 82 46 67 82 46
67 82 46 67 82 46 48 74 32 48 74 32 48 74 32 48 74 32 45 68 30
45 68 30 45 68 30 45 68 30 59 69 39 59 69 39 59 69 39 59 69 39
47 65 31 47 65 31 47 65 31 47 65 31 37 53 24 37 53 24 37 53 24
37 53 24 34 50 22 34 50 22 34 50 22 34 50 22 31 46 20 31 46 20
31 46 20 31 46 20 33 49 20 33 49 20 33 49 20 33 49 20 27 39 17
27 39 17 27 39 17 27 39 17 31 42 19 31 42 19 31 42 19 31 42 19
30 37 18 30 37 18 30 37 18 30 37 18 16 21 9 16 21 9 16 21 9 16 21 9
15 19 9 15 19 9 15 19 9 15 19 9 15 18 8 15 18 8 15 18 8 15 18 8
14 18 8 14 18 8 14 18 8 14 18 8 13 17 7 13 17 7 13 17 7 13 17 7
13 17 7 13 17 7 13 17 7 13 17 7 20 27 12 20 27 12 20 27 12 20 27 12
13 18 8 13 18 8 13 18 8 13 18 8 64 64 64 64 64 64 64 64 64 64 64 64
0 0 0 0 0 0 8 14 8 8 14 8 8 14 8 8 14 8 89 106 81 89 106 81 89 106 81
89 106 81 79 97 67 79 97 67 79 97 67 79 97 67 87 119 70 87 119 70
87 119 70 87 119 70 85 108 62 85 108 62 85 108 62 85 108 62 74 90 52
74 90 52 74 90 52 74 90 52 54 79 37 54 79 37 54 79 37 54 79 37
52 77 35 52 77 35 52 77 35 52 77 35 67 82 46 67 82 46 67 82 46
67 82 46 48 74 32 48 74 32 48 74 32 48 74 32 45 68 30 45 68 30
45 68 30 45 68 30 59 69 39 59 69 39 59 69 39 59 69 39 47 65 31
47 65 31 47 65 31 47 65 31 37 53 24 37 53 24 37 53 24 37 53 24
34 50 22 34 50 22 34 50 22 34 50 22 31 46 20 31 46 20 31 46 20
31 46 20 33 49 20 33 49 20 33 49 20 33 49 20 27 39 17 27 39 17
27 39 17 27 39 17 31 42 19 31 42 19 31 42 19 31 42 19 30 37 18
30 37 18 30 37 18 30 37 18 16 21 9 16 21 9 16 21 9 16 21 9 15 19 9
15 19 9 15 19 9 15 19 9 15 18 8 15 18 8 15 18 8 15 18 8 14 18 8
14 18 8 14 18 8 14 18 8 13 17 7 13 17 7 13 17 7 13 17 7 13 17 7
13 17 7 13 17 7 13 17 7 20 27 12 20 27 12 20 27 12 20 27 12 13 18 8
13 18 8 13 18 8 13 18 8 64 64 64 64 64 64 64 64 64 64 64 64 0 0 0
0 0 0 8 14 8 8 14 8 8 14 8 8 14 8 89 106 81 89 106 81 89 106 81
89 106 81 79 97 67 79 97 67 79 97 67 79 97 67 87 119 70 87 119 70
87 119 70 87 119 70 85 108 62 85 108 62 85 108 62 85 108 62 74 90 52
74 90 52 74 90 52 74 90 52 54 79 37 54 79 37 54 79 37 54 79 37
52 77 35 52 77 35 52 77 35 52 77 35 67 82 46 67 82 46 67 82 46
67 82 46 48 74 32 48 74 32 48 74 32 48 74 32 45 68 30 45 68 30
45 68 30 45 68 30 59 69 39 59 69 39 59 69 39 59 69 39 47 65 31
47 65 31 47 65 31 47 65 31 37 53 24 37 53 24 37 53 24 37 53 24
34 50 22 34 50 22 34 50 22 34 50 22 31 46 20 31 46 20 31 46 20
31 46 20 33 49 20 33 49 20 33 49 20 33 49 20 27 39 17 27 39 17
27 39 17 27 39 17 31 42 19 31 42 19 31 42 19 31 42 19 30 37 18
30 37 18 30 37 18 30 37 18 16 21 9 16 21 9 16 21 9 16 21 9 15 19 9
15 19 9 15 19 9 15 19 9 15 18 8 15 18 8 15 18 8 15 18 8 14 18 8
14 18 8 14 18 8 14 18 8 13 17 7 13 17 7 13 17 7 13 17 7 13 17 7
13 17 7 13 17 7 13 17 7 20 27 12 20 27 12 20 27 12 20 27 12 13 18 8
13 18 8 13 18 8 13 18 8 64 64 64 64 64 64 64 64 64 64 64 64 0 0 0
0 0 0 16 25 13 16 25 13 16 25 13 16 25 13 90 108 83 90 108 83
90 108 83 90 108 83 73 90 60 73 90 60 73 90 60 73 90 60 91 114 72
91 114 72 91 114 72 91 114 72 85 99 61 85 99 61 85 99 61 85 99 61
76 90 53 76 90 53 76 90 53 76 90 53 56 76 40 56 76 40 56 76 40
56 76 40 52 73 36 52 73 36 52 73 36 52 73 36 67 82 46 67 82 46
67 82 46 67 82 46 52 71 36 52 71 36 52 71 36 52 71 36 45 72 31
45 72 31 45 72 31 45 72 31 58 70 39 58 70 39 58 70 39 58 70 39
48 65 32 48 65 32 48 65 32 48 65 32 37 53 25 37 53 25 37 53 25
37 53 25 34 46 22 34 46 22 34 46 22 34 46 22 31 40 20 31 40 20
31 40 20 31 40 20 38 48 24 38 48 24 38 48 24 38 48 24 31 44 20
31 44 20 31 44 20 31 44 20 33 41 20 33 41 20 33 41 20 33 41 20
29 35 17 29 35 17 29 35 17 29 35 17 18 22 10 18 22 10 18 22 10
18 22 10 20 25 12 20 25 12 20 25 12 20 25 12 25 30 16 25 30 16
25 30 16 25 30 16 30 36 19 30 36 19 30 36 19 30 36 19 37 44 25
37 44 25 37 44 25 37 44 25 49 58 34 49 58 34 49 58 34 49 58 34
59 70 42 59 70 42 59 70 42 59 70 42 50 58 37 50 58 37 50 58 37
50 58 37 3 6 3 3 6 3 3 6 3 3 6 3 0 0 0 0 0 0 16 25 13 16 25 13
16 25 13 16 25 13 90 108 83 90 108 83 90 108 83 90 108 83 73 90 60
73 90 60 73 90 60 73 90 60 91 114 72 91 114 72 91 114 72 91 114 72
85 99 61 85 99 61 85 99 61 85 99 61 76 90 53 76 90 53 76 90 53
76 90 53 56 76 40 56 76 40 56 76 40 56 76 40 52 73 36 52 73 36
52 73 36 52 73 36 67 82 46 67 82 46 67 82 46 67 82 46 52 71 36
52 71 36 52 71 36 52 71 36 45 72 31 45 72 31 45 72 31 45 72 31
58 70 39 58 70 39 58 70 39 58 70 39 48 65 32 48 65 32 48 65 32
48 65 32 37 53 25 37 53 25 37 53 25 37 53 25 34 46 22 34 46 22
34 46 22 34 46 22 31 40 20 31 40 20 31 40 20 31 40 20 38 48 24
38 48 24 38 48 24 38 48 24 31 44 20 31 44 20 31 44 20 31 44 20
33 41 20 33 41 20 33 41 20 33 41 20 29 35 17 29 35 17 29 35 17
29 35 17 18 22 10 18 22 10 18 22 10 18 22 10 20 25 12 20 25 12
20 25 12 20 25 12 25 30 16 25 30 16 25 30 16 25 30 16 30 36 19
30 36 19 30 36 19 30 36 19 37 44 25 37 44 25 37 44 25 37 44 25
49 58 34 49 58 34 49 58 34 49 58 34 59 70 42 59 70 42 59 70 42
59 70 42 50 58 37 50 58 37 50 58 37 50 58 37 3 6 3 3 6 3 3 6 3 3 6 3
0 0 0 0 0 0 16 25 13 16 25 13 16 25 13 16 25 13 90 108 83 90 108 83
90 108 83 90 108 83 73 90 60 73 90 60 73 90 60 73 90 60 91 114 72
91 114 72 91 114 72 91 114 72 85 99 61 85 99 61 85 99 61 85 99 61
76 90 53 76 90 53 76 90 53 76 90 53 56 76 40 56 76 40 56 76 40
56 76 40 52 73 36 52 73 36 52 73 36 52 73 36 67 82 46 67 82 46
67 82 46 67 82 46 52 71 36 52 71 36 52 71 36 52 71 36 45 72 31
45 72 31 45 72 31 45 72 31 58 70 39 58 70 39 58 70 39 58 70 39
48 65 32 48 65 32 48 65 32 48 65 32 37 53 25 37 53 25 37 53 25
37 53 25 34 46 22 34 46 22 34 46 22 34 46 22 31 40 20 31 40 20
31 40 20 31 40 20 38 48 24 38 48 24 38 48 24 38 48 24 31 44 20
31 44 20 31 44 20 31 44 20 33 41 20 33 41 20 33 41 20 33 41 20
29 35 17 29 35 17 29 35 17 29 35 17 18 22 10 18 22 10 18 22 10
18 22 10 20 25 12 20 25 12 20 25 12 20 25 12 25 30 16 25 30 16
25 30 16 25 30 16 30 36 19 30 36 19 30 36 19 30 36 19 37 44 25
37 44 25 37 44 25 37 44 25 49 58 34 49 58 34 49 58 34 49 58 34
59 70 42 59 70 42 59 70 42 59 70 42 50 58 37 50 58 37 50 58 37
50 58 37 3 6 3 3 6 3 3 6 3 3 6 3 0 0 0 0 0 0 16 25 13 16 25 13
16 25 13 16 25 13 90 108 83 90 108 83 90 108 83 90 108 83 73 90 60
73 90 60 73 90 60 73 90 60 91 114 72 91 114 72 91 114 72 91 114 72
85 99 61 85 99 61 85 99 61 85 99 61 76 90 53 76 90 53 76 90 53
76 90 53 56 76 40 56 76 40 56 76 40 56 76 40 52 73 36 52 73 36
52 73 36 52 73 36 67 82 46 67 82 46 67 82 46 67 82 46 52 71 36
52 71 36 52 71 36 52 71 36 45 72 31 45 72 31 45 72 31 45 72 31
58 70 39 58 70 39 58 70 39 58 70 39 48 65 32 48 65 32 48 65 32
48 65 32 37 53 25 37 53 25 37 53 25 37 53 25 34 46 22 34 46 22
34 46 22 34 46 22 31 40 20 31 40 20 31 40 20 31 40 20 38 48 24
38 48 24 38 48 24 38 48 24 31 44 20 31 44 20 31 44 20 31 44 20
33 41 20 33 41 20 33 41 20 33 41 20 29 35 17 29 35 17 29 35 17
29 35 17 18 22 10 18 22 10 18 22 10 18 22 10 20 25 12 20 25 12
20 25 12 20 25 12 25 30 16 25 30 16 25 30 16 25 30 16 30 36 19
30 36 19 30 36 19 30 36 19 37 44 25 37 44 25 37 44 25 37 44 25
49 58 34 49 58 34 49 58 34 49 58 34 59 70 42 59 70 42 59 70 42
59 70 42 50 58 37 50 58 37 50 58 37 50 58 37 3 6 3 3 6 3 3 6 3 3 6 3
0 0 0 0 0 0 39 55 33 39 55 33 39 55 33 39 55 33 94 114 88 94 114 88
94 114 88 94 114 88 111 130 106 111 130 106 111 130 106 111 130 106
106 133 93 106 133 93 106 133 93 106 133 93 96 109 77 96 109 77
96 109 77 96 109 77 86 98 65 86 98 65 86 98 65 86 98 65 74 88 56
74 88 56 74 88 56 74 88 56 68 83 51 68 83 51 68 83 51 68 83 51
76 88 53 76 88 53 76 88 53 76 88 53 67 83 48 67 83 48 67 83 48
67 83 48 61 83 43 61 83 43 61 83 43 61 83 43 65 77 44 65 77 44
65 77 44 65 77 44 61 74 42 61 74 42 61 74 42 61 74 42 52 65 37
52 65 37 52 65 37 52 65 37 53 64 37 53 64 37 53 64 37 53 64 37
49 61 35 49 61 35 49 61 35 49 61 35 52 64 35 52 64 35 52 64 35
52 64 35 52 62 35 52 62 35 52 62 35 52 62 35 57 67 39 57 67 39
57 67 39 57 67 39 58 68 40 58 68 40 58 68 40 58 68 40 60 70 42
60 70 42 60 70 42 60 70 42 56 75 40 56 75 40 56 75 40 56 75 40
60 79 43 60 79 43 60 79 43 60 79 43 71 81 53 71 81 53 71 81 53
71 81 53 75 86 57 75 86 57 75 86 57 75 86 57 77 88 59 77 88 59
77 88 59 77 88 59 77 88 59 77 88 59 77 88 59 77 88 59 78 89 59
78 89 59 78 89 59 78 89 59 13 16 10 13 16 10 13 16 10 13 16 10 0 0 0
0 0 0 39 55 33 39 55 33 39 55 33 39 55 33 94 114 88 94 114 88
94 114 88 94 114 88 111 130 106 111 130 106 111 130 106 111 130 106
106 133 93 106 133 93 106 133 93 106 133 93 96 109 77 96 109 77
96 109 77 96 109 77 86 98 65 86 98 65 86 98 65 86 98 65 74 88 56
74 88 56 74 88 56 74 88 56 68 83 51 68 83 51 68 83 51 68 83 51
76 88 53 76 88 53 76 88 53 76 88 53 67 83 48 67 83 48 67 83 48
67 83 48 61 83 43 61 83 43 61 83 43 61 83 43 65 77 44 65 77 44
65 77 44 65 77 44 61 74 42 61 74 42 61 74 42 61 74 42 52 65 37
52 65 37 52 65 37 52 65 37 53 64 37 53 64 37 53 64 37 53 64 37
49 61 35 49 61 35 49 61 35 49 61 35 52 64 35 52 64 35 52 64 35
52 64 35 52 62 35 52 62 35 52 62 35 52 62 35 57 67 39 57 67 39
57 67 39 57 67 39 58 68 40 58 68 40 58 68 40 58 68 40 60 70 42
60 70 42 60 70 42 60 70 42 56 75 40 56 75 40 56 75 40 56 75 40
60 79 43 60 79 43 60 79 43 60 79 43 71 81 53 71 81 53 71 81 53
71 81 53 75 86 57 75 86 57 75 86 57 75 86 57 77 88 59 77 88 59
77 88 59 77 88 59 77 88 59 77 88 59 77 88 59 77 88 59 78 89 59
78 89 59 78 89 59 78 89 59 13 16 10 13 16 10 13 16 10 13 16 10 0 0 0
0 0 0 39 55 33 39 55 33 39 55 33 39 55 33 94 114 88 94 114 88
94 114 88 94 114 88 111 130 106 111 130 106 111 130 106 111 130 106
106 133 93 106 133 93 106 133 93 106 133 93 96 109 77 96 109 77
96 109 77 96 109 77 86 98 65 86 98 65 86 98 65 86 98 65 74 88 56
74 88 56 74 88 56 74 88 56 68 83 51 68 83 51 68 83 51 68 83 51
76 88 53 76 88 53 76 88 53 76 88 53 67 83 48 67 83 48 67 83 48
67 83 48 61 83 43 61 83 43 61 83 43 61 83 43 65 77 44 65 77 44
65 77 44 65 77 44 61 74 42 61 74 42 61 74 42 61 74 42 52 65 37
52 65 37 52 65 37 52 65 37 53 64 37 53 64 37 53 64 37 53 64 37
49 61 35 49 61 35 49 61 35 49 61 35 52 64 35 52 64 35 52 64 35
52 64 35 52 62 35 52 62 35 52 62 35 52 62 35 57 67 39 57 67 39
57 67 39 57 67 39 58 68 40 58 68 40 58 68 40 58 68 40 60 70 42
60 70 42 60 70 42 60 70 42 56 75 40 56 75 40 56 75 40 56 75 40
60 79 43 60 79 43 60 79 43 60 79 43 71 81 53 71 81 53 71 81 53
71 81 53 75 86 57 75 86 57 75 86 57 75 86 57 77 88 59 77 88 59
77 88 59 77 88 59 77 88 59 77 88 59 77 88 59 77 88 59 78 89 59
78 89 59 78 89 59 78 89 59 13 16 10 13 16 10 13 16 10 13 16 10 0 0 0
0 0 0 39 55 33 39 55 33 39 55 33 39 55 33 94 114 88 94 114 88
94 114 88 94 114 88 111 130 106 111 130 106 111 130 106 111 130 106
106 133 93 106 133 93 106 133 93 106 133 93 96 109 77 96 109 77
96 109 77 96 109 77 86 98 65 86 98 65 86 98 65 86 98 65 74 88 56
74 88 56 74 88 56 74 88 56 68 83 51 68 83 51 68 83 51 68 83 51
76 88 53 76 88 53 76 88 53 76 88 53 67 83 48 67 83 48 67 83 48
67 83 48 61 83 43 61 83 43 61 83 43 61 83 43 65 77 44 65 77 44
65 77 44 65 77 44 61 74 42 61 74 42 61 74 42 61 74 42 52 65 37
52 65 37 52 65 37 52 65 37 53 64 37 53 64 37 53 64 37 53 64 37
49 61 35 49 61 35 49 61 35 49 61 35 52 64 35 52 64 35 52 64 35
52 64 35 52 62 35 52 62 35 52 62 35 52 62 35 57 67 39 57 67 39
57 67 39 57 67 39 58 68 40 58 68 40 58 68 40 58 68 40 60 70 42
60 70 42 60 70 42 60 70 42 56 75 40 56 75 40 56 75 40 56 75 40
60 79 43 60 79 43 60 79 43 60 79 43 71 81 53 71 81 53 71 81 53
71 81 53 75 86 57 75 86 57 75 86 57 75 86 57 77 88 59 77 88 59
77 88 59 77 88 59 77 88 59 77 88 59 77 88 59 77 88 59 78 89 59
78 89 59 78 89 59 78 89 59 13 16 10 13 16 10 13 16 10 13 16 10 0 0 0
5 9 5 55 78 48 55 78 48 55 78 48 55 78 48 62 89 50 62 89 50 62 89 50
62 89 50 85 105 76 85 105 76 85 105 76 85 105 76 142 180 136
142 180 136 142 180 136 142 180 136 163 207 159 163 207 159
163 207 159 163 207 159 152 192 147 152 192 147 152 192 147
152 192 147 131 155 123 131 155 123 131 155 123 131 155 123
110 128 99 110 128 99 110 128 99 110 128 99 102 113 85 102 113 85
102 113 85 102 113 85 89 101 71 89 101 71 89 101 71 89 101 71
85 97 66 85 97 66 85 97 66 85 97 66 83 95 63 83 95 63 83 95 63
83 95 63 82 94 63 82 94 63 82 94 63 82 94 63 81 93 62 81 93 62
81 93 62 81 93 62 81 94 62 81 94 62 81 94 62 81 94 62 81 93 63
81 93 63 81 93 63 81 93 63 81 94 63 81 94 63 81 94 63 81 94 63
81 93 63 81 93 63 81 93 63 81 93 63 79 93 62 79 93 62 79 93 62
79 93 62 78 92 61 78 92 61 78 92 61 78 92 61 81 92 62 81 92 62
81 92 62 81 92 62 57 87 44 57 87 44 57 87 44 57 87 44 55 89 42
55 89 42 55 89 42 55 89 42 63 93 49 63 93 49 63 93 49 63 93 49
69 89 53 69 89 53 69 89 53 69 89 53 61 86 47 61 86 47 61 86 47
61 86 47 49 83 37 49 83 37 49 83 37 49 83 37 66 83 49 66 83 49
66 83 49 66 83 49 21 24 16 21 24 16 21 24 16 21 24 16 0 0 0 5 9 5
55 78 48 55 78 48 55 78 48 55 78 48 62 89 50 62 89 50 62 89 50
62 89 50 85 105 76 85 105 76 85 105 76 85 105 76 142 180 136
142 180 136 142 180 136 142 180 136 163 207 159 163 207 159
163 207 159 163 207 159 152 192 147 152 192 147 152 192 147
152 192 147 131 155 123 131 155 123 131 155 123 131 155 123
110 128 99 110 128 99 110 128 99 110 128 99 102 113 85 102 113 85
102 113 85 102 113 85 89 101 71 89 101 71 89 101 71 89 101 71
85 97 66 85 97 66 85 97 66 85 97 66 83 95 63 83 95 63 83 95 63
83 95 63 82 94 63 82 94 63 82 94 63 82 94 63 81 93 62 81 93 62
81 93 62 81 93 62 81 94 62 81 94 62 81 94 62 81 94 62 81 93 63
81 93 63 81 93 63 81 93 63 81 94 63 81 94 63 81 94 63 81 94 63
81 93 63 81 93 63 81 93 63 81 93 63 79 93 62 79 93 62 79 93 62
79 93 62 78 92 61 78 92 61 78 92 61 78 92 61 81 92 62 81 92 62
81 92 62 81 92 62 57 87 44 57 87 44 57 87 44 57 87 44 55 89 42
55 89 42 55 89 42 55 89 42 63 93 49 63 93 49 63 93 49 63 93 49
69 89 53 69 89 53 69 89 53 69 89 53 61 86 47 61 86 47 61 86 47
61 86 47 49 83 37 49 83 37 49 83 37 49 83 37 66 83 49 66 83 49
66 83 49 66 83 49 21 24 16 21 24 16 21 24 16 21 24 16 0 0 0 5 9 5
55 78 48 55 78 48 55 78 48 55 78 48 62 89 50 62 89 50 62 89 50
62 89 50 85 105 76 85 105 76 85 105 76 85 105 76 142 180 136
142 180 136 142 180 136 142 180 136 163 207 159 163 207 159
163 207 159 163 207 159 152 192 147 152 192 147 152 192 147
152 192 147 131 155 123 131 155 123 131 155 123 131 155 123
110 128 99 110 128 99 110 128 99 110 128 99 102 113 85 102 113 85
102 113 85 102 113 85 89 101 71 89 101 71 89 101 71 89 101 71
85 97 66 85 97 66 85 97 66 85 97 66 83 95 63 83 95 63 83 95 63
83 95 63 82 94 63 82 94 63 82 94 63 82 94 63 81 93 62 81 93 62
81 93 62 81 93 62 81 94 62 81 94 62 81 94 62 81 94 62 81 93 63
81 93 63 81 93 63 81 93 63 81 94 63 81 94 63 81 94 63 81 94 63
81 93 63 81 93 63 81 93 63 81 93 63 79 93 62 79 93 62 79 93 62
79 93 62 78 92 61 78 92 61 78 92 61 78 92 61 81 92 62 81 92 62
81 92 62 81 92 62 57 87 44 57 87 44 57 87 44 57 87 44 55 89 42
55 89 42 55 89 42 55 89 42 63 93 49 63 93 49 63 93 49 63 93 49
69 89 53 69 89 53 69 89 53 69 89 53 61 86 47 61 86 47 61 86 47
61 86 47 49 83 37 49 83 37 49 83 37 49 83 37 66 83 49 66 83 49
66 83 49 66 83 49 21 24 16 21 24 16 21 24 16 21 24 16 0 0 0 5 9 5
55 78 48 55 78 48 55 78 48 55 78 48 62 89 50 62 89 50 62 89 50
62 89 50 85 105 76 85 105 76 85 105 76 85 105 76 142 180 136
142 180 136 142 180 136 142 180 136 163 207 159 163 207 159
163 207 159 163 207 159 152 192 147 152 192 147 152 192 147
152 192 147 131 155 123 131 155 123 131 155 123 131 155 123
110 128 99 110 128 99 110 128 99 110 128 99 102 113 85 102 113 85
102 113 85 102 113 85 89 101 71 89 101 71 89 101 71 89 101 71
85 97 66 85 97 66 85 97 66 85 97 66 83 95 63 83 95 63 83 95 63
83 95 63 82 94 63 82 94 63 82 94 63 82 94 63 81 93 62 81 93 62
81 93 62 81 93 62 81 94 62 81 94 62 81 94 62 81 94 62 81 93 63
81 93 63 81 93 63 81 93 63 81 94 63 81 94 63 81 94 63 81 94 63
81 93 63 81 93 63 81 93 63 81 93 63 79 93 62 79 93 62 79 93 62
79 93 62 78 92 61 78 92 61 78 92 61 78 92 61 81 92 62 81 92 62
81 92 62 81 92 62 57 87 44 57 87 44 57 87 44 57 87 44 55 89 42
55 89 42 55 89 42 55 89 42 63 93 49 63 93 49 63 93 49 63 93 49
69 89 53 69 89 53 69 89 53 69 89 53 61 86 47 61 86 47 61 86 47
61 86 47 49 83 37 49 83 37 49 83 37 49 83 37 66 83 49 66 83 49
66 83 49 66 83 49 21 24 16 21 24 16 21 24 16 21 24 16 0 0 0 5 10 5
49 70 42 49 70 42 49 70 42 49 70 42 57 87 45 57 87 45 57 87 45
57 87 45 53 80 40 53 80 40 53 80 40 53 80 40 71 92 54 71 92 54
71 92 54 71 92 54 85 101 67 85 101 67 85 101 67 85 101 67 79 110 64
79 110 64 79 110 64 79 110 64 77 104 63 77 104 63 77 104 63 77 104 63
70 97 57 70 97 57 70 97 57 70 97 57 79 97 61 79 97 61 79 97 61
79 97 61 72 94 55 72 94 55 72 94 55 72 94 55 69 93 52 69 93 52
69 93 52 69 93 52 78 89 58 78 89 58 78 89 58 78 89 58 66 90 50
66 90 50 66 90 50 66 90 50 63 80 49 63 80 49 63 80 49 63 80 49
62 83 48 62 83 48 62 83 48 62 83 48 58 71 45 58 71 45 58 71 45
58 71 45 55 77 43 55 77 43 55 77 43 55 77 43 51 77 40 51 77 40
51 77 40 51 77 40 47 67 36 47 67 36 47 67 36 47 67 36 46 68 35
46 68 35 46 68 35 46 68 35 48 83 35 48 83 35 48 83 35 48 83 35
38 62 28 38 62 28 38 62 28 38 62 28 35 66 26 35 66 26 35 66 26
35 66 26 33 67 24 33 67 24 33 67 24 33 67 24 30 72 22 30 72 22
30 72 22 30 72 22 26 64 19 26 64 19 26 64 19 26 64 19 26 57 19
26 57 19 26 57 19 26 57 19 44 65 32 44 65 32 44 65 32 44 65 32
18 21 13 18 21 13 18 21 13 18 21 13 0 0 0 5 10 5 49 70 42 49 70 42
49 70 42 49 70 42 57 87 45 57 87 45 57 87 45 57 87 45 53 80 40
53 80 40 53 80 40 53 80 40 71 92 54 71 92 54 71 92 54 71 92 54
85 101 67 85 101 67 85 101 67 85 101 67 79 110 64 79 110 64 79 110 64
79 110 64 77 104 63 77 104 63 77 104 63 77 104 63 70 97 57 70 97 57
70 97 57 70 97 57 79 97 61 79 97 61 79 97 61 79 97 61 72 94 55
72 94 55 72 94 55 72 94 55 69 93 52 69 93 52 69 93 52 69 93 52
78 89 58 78 89 58 78 89 58 78 89 58 66 90 50 66 90 50 66 90 50
66 90 50 63 80 49 63 80 49 63 80 49 63 80 49 62 83 48 62 83 48
62 83 48 62 83 48 58 71 45 58 71 45 58 71 45 58 71 45 55 77 43
55 77 43 55 77 43 55 77 43 51 77 40 51 77 40 51 77 40 51 77 40
47 67 36 47 67 36 47 67 36 47 67 36 46 68 35 46 68 35 46 68 35
46 68 35 48 83 35 48 83 35 48 83 35 48 83 35 38 62 28 38 62 28
38 62 28 38 62 28 35 66 26 35 66 26 35 66 26 35 66 26 33 67 24
33 67 24 33 67 24 33 67 24 30 72 22 30 72 22 30 72 22 30 72 22
26 64 19 26 64 19 26 64 19 26 64 19 26 57 19 26 57 19 26 57 19
26 57 19 44 65 32 44 65 32 44 65 32 44 65 32 18 21 13 18 21 13
18 21 13 18 21 13 0 0 0 5 10 5 49 70 42 49 70 42 49 70 42 49 70 42
57 87 45 57 87 45 57 87 45 57 87 45 53 80 40 53 80 40 53 80 40
53 80 40 71 92 54 71 92 54 71 92 54 71 92 54 85 101 67 85 101 67
85 101 67 85 101 67 79 110 64 79 110 64 79 110 64 79 110 64 77 104 63
77 104 63 77 104 63 77 104 63 70 97 57 70 97 57 70 97 57 70 97 57
79 97 61 79 97 61 79 97 61 79 97 61 72 94 55 72 94 55 72 94 55
72 94 55 69 93 52 69 93 52 69 93 52 69 93 52 78 89 58 78 89 58
78 89 58 78 89 58 66 90 50 66 90 50 66 90 50 66 90 50 63 80 49
63 80 49 63 80 49 63 80 49 62 83 48 62 83 48 62 83 48 62 83 48
58 71 45 58 71 45 58 71 45 58 71 45 55 77 43 55 77 43 55 77 43
55 77 43 51 77 40 51 77 40 51 77 40 51 77 40 47 67 36 47 67 36
47 67 36 47 67 36 46 68 35 46 68 35 46 68 35 46 68 35 48 83 35
48 83 35 48 83 35 48 83 35 38 62 28 38 62 28 38 62 28 38 62 28
35 66 26 35 66 26 35 66 26 35 66 26 33 67 24 33 67 24 33 67 24
33 67 24 30 72 22 30 72 22 30 72 22 30 72 22 26 64 19 26 64 19
26 64 19 26 64 19 26 57 19 26 57 19 26 57 19 26 57 19 44 65 32
44 65 32 44 65 32 44 65 32 18 21 13 18 21 13 18 21 13 18 21 13 0 0 0
5 10 5 49 70 42 49 70 42 49 70 42 49 70 42 57 87 45 57 87 45 57 87 45
57 87 45 53 80 40 53 80 40 53 80 40 53 80 40 71 92 54 71 92 54
71 92 54 71 92 54 85 101 67 85 101 67 85 101 67 85 101 67 79 110 64
79 110 64 79 110 64 79 110 64 77 104 63 77 104 63 77 104 63 77 104 63
70 97 57 70 97 57 70 97 57 70 97 57 79 97 61 79 97 61 79 97 61
79 97 61 72 94 55 72 94 55 72 94 55 72 94 55 69 93 52 69 93 52
69 93 52 69 93 52 78 89 58 78 89 58 78 89 58 78 89 58 66 90 50
66 90 50 66 90 50 66 90 50 63 80 49 63 80 49 63 80 49 63 80 49
62 83 48 62 83 48 62 83 48 62 83 48 58 71 45 58 71 45 58 71 45
58 71 45 55 77 43 55 77 43 55 77 43 55 77 43 51 77 40 51 77 40
51 77 40 51 77 40 47 67 36 47 67 36 47 67 36 47 67 36 46 68 35
46 68 35 46 68 35 46 68 35 48 83 35 48 83 35 48 83 35 48 83 35
38 62 28 38 62 28 38 62 28 38 62 28 35 66 26 35 66 26 35 66 26
35 66 26 33 67 24 33 67 24 33 67 24 33 67 24 30 72 22 30 72 22
30 72 22 30 72 22 26 64 19 26 64 19 26 64 19 26 64 19 26 57 19
26 57 19 26 57 19 26 57 19 44 65 32 44 65 32 44 65 32 44 65 32
18 21 13 18 21 13 18 21 13 18 21 13 0 0 0 0 0 0 28 40 26 28 40 26
28 40 26 28 40 26 74 103 67 74 103 67 74 103 67 74 103 67 42 63 32
42 63 32 42 63 32 42 63 32 51 74 38 51 74 38 51 74 38 51 74 38
61 78 45 61 78 45 61 78 45 61 78 45 49 82 36 49 82 36 49 82 36
49 82 36 45 79 33 45 79 33 45 79 33 45 79 33 45 71 33 45 71 33
45 71 33 45 71 33 53 83 39 53 83 39 53 83 39 53 83 39 52 78 38
52 78 38 52 78 38 52 78 38 47 81 34 47 81 34 47 81 34 47 81 34
55 78 41 55 78 41 55 78 41 55 78 41 43 73 31 43 73 31 43 73 31
43 73 31 41 56 30 41 56 30 41 56 30 41 56 30 38 58 28 38 58 28
38 58 28 38 58 28 34 48 25 34 48 25 34 48 25 34 48 25 29 45 22
29 45 22 29 45 22 29 45 22 26 41 19 26 41 19 26 41 19 26 41 19
23 37 17 23 37 17 23 37 17 23 37 17 22 36 16 22 36 16 22 36 16
22 36 16 22 51 15 22 51 15 22 51 15 22 51 15 20 35 14 20 35 14
20 35 14 20 35 14 19 40 13 19 40 13 19 40 13 19 40 13 17 41 12
17 41 12 17 41 12 17 41 12 14 41 10 14 41 10 14 41 10 14 41 10
12 36 8 12 36 8 12 36 8 12 36 8 16 35 12 16 35 12 16 35 12 16 35 12
27 42 20 27 42 20 27 42 20 27 42 20 3 4 3 3 4 3 3 4 3 3 4 3 0 0 0
0 0 0 28 40 26 28 40 26 28 40 26 28 40 26 74 103 67 74 103 67
74 103 67 74 103 67 42 63 32 42 63 32 42 63 32 42 63 32 51 74 38
51 74 38 51 74 38 51 74 38 61 78 45 61 78 45 61 78 45 61 78 45
49 82 36 49 82 36 49 82 36 49 82 36 45 79 33 45 79 33 45 79 33
45 79 33 45 71 33 45 71 33 45 71 33 45 71 33 53 83 39 53 83 39
53 83 39 53 83 39 52 78 38 52 78 38 52 78 38 52 78 38 47 81 34
47 81 34 47 81 34 47 81 34 55 78 41 55 78 41 55 78 41 55 78 41
43 73 31 43 73 31 43 73 31 43 73 31 41 56 30 41 56 30 41 56 30
41 56 30 38 58 28 38 58 28 38 58 28 38 58 28 34 48 25 34 48 25
34 48 25 34 48 25 29 45 22 29 45 22 29 45 22 29 45 22 26 41 19
26 41 19 26 41 19 26 41 19 23 37 17 23 37 17 23 37 17 23 37 17
22 36 16 22 36 16 22 36 16 22 36 16 22 51 15 22 51 15 22 51 15
22 51 15 20 35 14 20 35 14 20 35 14 20 35 14 19 40 13 19 40 13
19 40 13 19 40 13 17 41 12 17 41 12 17 41 12 17 41 12 14 41 10
14 41 10 14 41 10 14 41 10 12 36 8 12 36 8 12 36 8 12 36 8 16 35 12
16 35 12 16 35 12 16 35 12 27 42 20 27 42 20 27 42 20 27 42 20 3 4 3
3 4 3 3 4 3 3 4 3 0 0 0 0 0 0 28 40 26 28 40 26 28 40 26 28 40 26
74 103 67 74 103 67 74 103 67 74 103 67 42 63 32 42 63 32 42 63 32
42 63 32 51 74 38 51 74 38 51 74 38 51 74 38 61 78 45 61 78 45
61 78 45 61 78 45 49 82 36 49 82 36 49 82 36 49 82 36 45 79 33
45 79 33 45 79 33 45 79 33 45 71 33 45 71 33 45 71 33 45 71 33
53 83 39 53 83 39 53 83 39 53 83 39 52 78 38 52 78 38 52 78 38
52 78 38 47 81 34 47 81 34 47 81 34 47 81 34 55 78 41 55 78 41
55 78 41 55 78 41 43 73 31 43 73 31 43 73 31 43 73 31 41 56 30
41 56 30 41 56 30 41 56 30 38 58 28 38 58 28 38 58 28 38 58 28
34 48 25 34 48 25 34 48 25 34 48 25 29 45 22 29 45 22 29 45 22
29 45 22 26 41 19 26 41 19 26 41 19 26 41 19 23 37 17 23 37 17
23 37 17 23 37 17 22 36 16 22 36 16 22 36 16 22 36 16 22 51 15
22 51 15 22 51 15 22 51 15 20 35 14 20 35 14 20 35 14 20 35 14
19 40 13 19 40 13 19 40 13 19 40 13 17 41 12 17 41 12 17 41 12
17 41 12 14 41 10 14 41 10 14 41 10 14 41 10 12 36 8 12 36 8 12 36 8
12 36 8 16 35 12 16 35 12 16 35 12 16 35 12 27 42 20 27 42 20
27 42 20 27 42 20 3 4 3 3 4 3 3 4 3 3 4 3 0 0 0 0 0 0 28 40 26
28 40 26 28 40 26 28 40 26 74 103 67 74 103 67 74 103 67 74 103 67
42 63 32 42 63 32 42 63 32 42 63 32 51 74 38 51 74 38 51 74 38
51 74 38 61 78 45 61 78 45 61 78 45 61 78 45 49 82 36 49 82 36
49 82 36 49 82 36 45 79 33 45 79 33 45 79 33 45 79 33 45 71 33
45 71 33 45 71 33 45 71 33 53 83 39 53 83 39 53 83 39 53 83 39
52 78 38 52 78 38 52 78 38 52 78 38 47 81 34 47 81 34 47 81 34
47 81 34 55 78 41 55 78 41 55 78 41 55 78 41 43 73 31 43 73 31
43 73 31 43 73 31 41 56 30 41 56 30 41 56 30 41 56 30 38 58 28
38 58 28 38 58 28 38 58 28 34 48 25 34 48 25 34 48 25 34 48 25
29 45 22 29 45 22 29 45 22 29 45 22 26 41 19 26 41 19 26 41 19
26 41 19 23 37 17 23 37 17 23 37 17 23 37 17 22 36 16 22 36 16
22 36 16 22 36 16 22 51 15 22 51 15 22 51 15 22 51 15 20 35 14
20 35 14 20 35 14 20 35 14 19 40 13 19 40 13 19 40 13 19 40 13
17 41 12 17 41 12 17 41 12 17 41 12 14 41 10 14 41 10 14 41 10
14 41 10 12 36 8 12 36 8 12 36 8 12 36 8 16 35 12 16 35 12 16 35 12
16 35 12 27 42 20 27 42 20 27 42 20 27 42 20 3 4 3 3 4 3 3 4 3 3 4 3
0 0 0 0 0 0 18 19 18 18 19 18 18 19 18 18 19 18 84 109 73 84 109 73
84 109 73 84 109 73 62 75 50 62 75 50 62 75 50 62 75 50 54 74 43
54 74 43 54 74 43 54 74 43 40 64 30 40 64 30 40 64 30 40 64 30
32 55 24 32 55 24 32 55 24 32 55 24 26 54 19 26 54 19 26 54 19
26 54 19 25 45 18 25 45 18 25 45 18 25 45 18 26 57 19 26 57 19
26 57 19 26 57 19 28 51 21 28 51 21 28 51 21 28 51 21 23 46 17
23 46 17 23 46 17 23 46 17 22 50 16 22 50 16 22 50 16 22 50 16
21 40 15 21 40 15 21 40 15 21 40 15 19 32 14 19 32 14 19 32 14
19 32 14 17 28 13 17 28 13 17 28 13 17 28 13 14 22 11 14 22 11
14 22 11 14 22 11 12 22 9 12 22 9 12 22 9 12 22 9 10 18 8 10 18 8
10 18 8 10 18 8 9 18 7 9 18 7 9 18 7 9 18 7 9 19 7 9 19 7 9 19 7
9 19 7 10 28 7 10 28 7 10 28 7 10 28 7 9 20 7 9 20 7 9 20 7 9 20 7
9 23 6 9 23 6 9 23 6 9 23 6 7 24 5 7 24 5 7 24 5 7 24 5 5 21 4 5 21 4
5 21 4 5 21 4 8 23 5 8 23 5 8 23 5 8 23 5 15 26 10 15 26 10 15 26 10
15 26 10 7 14 5 7 14 5 7 14 5 7 14 5 0 4 0 0 4 0 0 4 0 0 4 0 0 0 0
0 0 0 18 19 18 18 19 18 18 19 18 18 19 18 84 109 73 84 109 73
84 109 73 84 109 73 62 75 50 62 75 50 62 75 50 62 75 50 54 74 43
54 74 43 54 74 43 54 74 43 40 64 30 40 64 30 40 64 30 40 64 30
32 55 24 32 55 24 32 55 24 32 55 24 26 54 19 26 54 19 26 54 19
26 54 19 25 45 18 25 45 18 25 45 18 25 45 18 26 57 19 26 57 19
26 57 19 26 57 19 28 51 21 28 51 21 28 51 21 28 51 21 23 46 17
23 46 17 23 46 17 23 46 17 22 50 16 22 50 16 22 50 16 22 50 16
21 40 15 21 40 15 21 40 15 21 40 15 19 32 14 19 32 14 19 32 14
19 32 14 17 28 13 17 28 13 17 28 13 17 28 13 14 22 11 14 22 11
14 22 11 14 22 11 12 22 9 12 22 9 12 22 9 12 22 9 10 18 8 10 18 8
10 18 8 10 18 8 9 18 7 9 18 7 9 18 7 9 18 7 9 19 7 9 19 7 9 19 7
9 19 7 10 28 7 10 28 7 10 28 7 10 28 7 9 20 7 9 20 7 9 20 7 9 20 7
9 23 6 9 23 6 9 23 6 9 23 6 7 24 5 7 24 5 7 24 5 7 24 5 5 21 4 5 21 4
5 21 4 5 21 4 8 23 5 8 23 5 8 23 5 8 23 5 15 26 10 15 26 10 15 26 10
15 26 10 7 14 5 7 14 5 7 14 5 7 14 5 0 4 0 0 4 0 0 4 0 0 4 0 0 0 0
0 0 0 18 19 18 18 19 18 18 19 18 18 19 18 84 109 73 84 109 73
84 109 73 84 109 73 62 75 50 62 75 50 62 75 50 62 75 50 54 74 43
54 74 43 54 74 43 54 74 43 40 64 30 40 64 30 40 64 30 40 64 30
32 55 24 32 55 24 32 55 24 32 55 24 26 54 19 26 54 19 26 54 19
26 54 19 25 45 18 25 45 18 25 45 18 25 45 18 26 57 19 26 57 19
26 57 19 26 57 19 28 51 21 28 51 21 28 51 21 28 51 21 23 46 17
23 46 17 23 46 17 23 46 17 22 50 16 22 50 16 22 50 16 22 50 16
21 40 15 21 40 15 21 40 15 21 40 15 19 32 14 19 32 14 19 32 14
19 32 14 17 28 13 17 28 13 17 28 13 17 28 13 14 22 11 14 22 11
14 22 11 14 22 11 12 22 9 12 22 9 12 22 9 12 22 9 10 18 8 10 18 8
10 18 8 10 18 8 9 18 7 9 18 7 9 18 7 9 18 7 9 19 7 9 19 7 9 19 7
9 19 7 10 28 7 10 28 7 10 28 7 10 28 7 9 20 7 9 20 7 9 20 7 9 20 7
9 23 6 9 23 6 9 23 6 9 23 6 7 24 5 7 24 5 7 24 5 7 24 5 5 21 4 5 21 4
5 21 4 5 21 4 8 23 5 8 23 5 8 23 5 8 23 5 15 26 10 15 26 10 15 26 10
15 26 10 7 14 5 7 14 5 7 14 5 7 14 5 0 4 0 0 4 0 0 4 0 0 4 0 0 0 0
0 0 0 18 19 18 18 19 18 18 19 18 18 19 18 84 109 73 84 109 73
84 109 73 84 109 73 62 75 50 62 75 50 62 75 50 62 75 50 54 74 43
54 74 43 54 74 43 54 74 43 40 64 30 40 64 30 40 64 30 40 64 30
32 55 24 32 55 24 32 55 24 32 55 24 26 54 19 26 54 19 26 54 19
26 54 19 25 45 18 25 45 18 25 45 18 25 45 18 26 57 19 26 57 19
26 57 19 26 57 19 28 51 21 28 51 21 28 51 21 28 51 21 23 46 17
23 46 17 23 46 17 23 46 17 22 50 16 22 50 16 22 50 16 22 50 16
21 40 15 21 40 15 21 40 15 21 40 15 19 32 14 19 32 14 19 32 14
19 32 14 17 28 13 17 28 13 17 28 13 17 28 13 14 22 11 14 22 11
14 22 11 14 22 11 12 22 9 12 22 9 12 22 9 12 22 9 10 18 8 10 18 8
10 18 8 10 18 8 9 18 7 9 18 7 9 18 7 9 18 7 9 19 7 9 19 7 9 19 7
9 19 7 10 28 7 10 28 7 10 28 7 10 28 7 9 20 7 9 20 7 9 20 7 9 20 7
9 23 6 9 23 6 9 23 6 9 23 6 7 24 5 7 24 5 7 24 5 7 24 5 5 21 4 5 21 4
5 21 4 5 21 4 8 23 5 8 23 5 8 23 5 8 23 5 15 26 10 15 26 10 15 26 10
15 26 10 7 14 5 7 14 5 7 14 5 7 14 5 0 4 0 0 4 0 0 4 0 0 4 0 0 0 0
0 0 0 26 27 26 26 27 26 26 27 26 26 27 26 82 107 71 82 107 71
82 107 71 82 107 71 84 98 72 84 98 72 84 98 72 84 98 72 82 103 72
82 103 72 82 103 72 82 103 72 51 76 41 51 76 41 51 76 41 51 76 41
33 57 23 33 57 23 33 57 23 33 57 23 30 52 20 30 52 20 30 52 20
30 52 20 28 46 19 28 46 19 28 46 19 28 46 19 26 49 18 26 49 18
26 49 18 26 49 18 22 42 15 22 42 15 22 42 15 22 42 15 18 31 12
18 31 12 18 31 12 18 31 12 15 29 10 15 29 10 15 29 10 15 29 10
13 22 9 13 22 9 13 22 9 13 22 9 12 20 8 12 20 8 12 20 8 12 20 8
10 15 7 10 15 7 10 15 7 10 15 7 7 12 5 7 12 5 7 12 5 7 12 5 6 12 4
6 12 4 6 12 4 6 12 4 5 10 4 5 10 4 5 10 4 5 10 4 5 13 3 5 13 3 5 13 3
5 13 3 6 14 3 6 14 3 6 14 3 6 14 3 6 20 3 6 20 3 6 20 3 6 20 3 5 16 3
5 16 3 5 16 3 5 16 3 3 16 2 3 16 2 3 16 2 3 16 2 2 16 1 2 16 1 2 16 1
2 16 1 2 13 1 2 13 1 2 13 1 2 13 1 6 16 3 6 16 3 6 16 3 6 16 3
15 20 8 15 20 8 15 20 8 15 20 8 7 10 5 7 10 5 7 10 5 7 10 5 9 9 9
9 9 9 9 9 9 9 9 9 0 0 0 0 0 0 26 27 26 26 27 26 26 27 26 26 27 26
82 107 71 82 107 71 82 107 71 82 107 71 84 98 72 84 98 72 84 98 72
84 98 72 82 103 72 82 103 72 82 103 72 82 103 72 51 76 41 51 76 41
51 76 41 51 76 41 33 57 23 33 57 23 33 57 23 33 57 23 30 52 20
30 52 20 30 52 20 30 52 20 28 46 19 28 46 19 28 46 19 28 46 19
26 49 18 26 49 18 26 49 18 26 49 18 22 42 15 22 42 15 22 42 15
22 42 15 18 31 12 18 31 12 18 31 12 18 31 12 15 29 10 15 29 10
15 29 10 15 29 10 13 22 9 13 22 9 13 22 9 13 22 9 12 20 8 12 20 8
12 20 8 12 20 8 10 15 7 10 15 7 10 15 7 10 15 7 7 12 5 7 12 5 7 12 5
7 12 5 6 12 4 6 12 4 6 12 4 6 12 4 5 10 4 5 10 4 5 10 4 5 10 4 5 13 3
5 13 3 5 13 3 5 13 3 6 14 3 6 14 3 6 14 3 6 14 3 6 20 3 6 20 3 6 20 3
6 20 3 5 16 3 5 16 3 5 16 3 5 16 3 3 16 2 3 16 2 3 16 2 3 16 2 2 16 1
2 16 1 2 16 1 2 16 1 2 13 1 2 13 1 2 13 1 2 13 1 6 16 3 6 16 3 6 16 3
6 16 3 15 20 8 15 20 8 15 20 8 15 20 8 7 10 5 7 10 5 7 10 5 7 10 5
9 9 9 9 9 9 9 9 9 9 9 9 0 0 0 0 0 0 26 27 26 26 27 26 26 27 26
26 27 26 82 107 71 82 107 71 82 107 71 82 107 71 84 98 72 84 98 72
84 98 72 84 98 72 82 103 72 82 103 72 82 103 72 82 103 72 51 76 41
51 76 41 51 76 41 51 76 41 33 57 23 33 57 23 33 57 23 33 57 23
30 52 20 30 52 20 30 52 20 30 52 20 28 46 19 28 46 19 28 46 19
28 46 19 26 49 18 26 49 18 26 49 18 26 49 18 22 42 15 22 42 15
22 42 15 22 42 15 18 31 12 18 31 12 18 31 12 18 31 12 15 29 10
15 29 10 15 29 10 15 29 10 13 22 9 13 22 9 13 22 9 13 22 9 12 20 8
12 20 8 12 20 8 12 20 8 10 15 7 10 15 7 10 15 7 10 15 7 7 12 5 7 12 5
7 12 5 7 12 5 6 12 4 6 12 4 6 12 4 6 12 4 5 10 4 5 10 4 5 10 4 5 10 4
5 13 3 5 13 3 5 13 3 5 13 3 6 14 3 6 14 3 6 14 3 6 14 3 6 20 3 6 20 3
6 20 3 6 20 3 5 16 3 5 16 3 5 16 3 5 16 3 3 16 2 3 16 2 3 16 2 3 16 2
2 16 1 2 16 1 2 16 1 2 16 1 2 13 1 2 13 1 2 13 1 2 13 1 6 16 3 6 16 3
6 16 3 6 16 3 15 20 8 15 20 8 15 20 8 15 20 8 7 10 5 7 10 5 7 10 5
7 10 5 9 9 9 9 9 9 9 9 9 9 9 9 0 0 0 0 0 0 26 27 26 26 27 26 26 27 26
26 27 26 82 107 71 82 107 71 82 107 71 82 107 71 84 98 72 84 98 72
84 98 72 84 98 72 82 103 72 82 103 72 82 103 72 82 103 72 51 76 41
51 76 41 51 76 41 51 76 41 33 57 23 33 57 23 33 57 23 33 57 23
30 52 20 30 52 20 30 52 20 30 52 20 28 46 19 28 46 19 28 46 19
28 46 19 26 49 18 26 49 18 26 49 18 26 49 18 22 42 15 22 42 15
22 42 15 22 42 15 18 31 12 18 31 12 18 31 12 18 31 12 15 29 10
15 29 10 15 29 10 15 29 10 13 22 9 13 22 9 13 22 9 13 22 9 12 20 8
12 20 8 12 20 8 12 20 8 10 15 7 10 15 7 10 15 7 10 15 7 7 12 5 7 12 5
7 12 5 7 12 5 6 12 4 6 12 4 6 12 4 6 12 4 5 10 4 5 10 4 5 10 4 5 10 4
5 13 3 5 13 3 5 13 3 5 13 3 6 14 3 6 14 3 6 14 3 6 14 3 6 20 3 6 20 3
6 20 3 6 20 3 5 16 3 5 16 3 5 16 3 5 16 3 3 16 2 3 16 2 3 16 2 3 16 2
2 16 1 2 16 1 2 16 1 2 16 1 2 13 1 2 13 1 2 13 1 2 13 1 6 16 3 6 16 3
6 16 3 6 16 3 15 20 8 15 20 8 15 20 8 15 20 8 7 10 5 7 10 5 7 10 5
7 10 5 9 9 9 9 9 9 9 9 9 9 9 9 0 0 0 0 0 0 33 36 33 33 36 33 33 36 33
33 36 33 82 109 68 82 109 68 82 109 68 82 109 68 88 104 76 88 104 76
88 104 76 88 104 76 82 103 73 82 103 73 82 103 73 82 103 73 45 68 36
45 68 36 45 68 36 45 68 36 30 49 20 30 49 20 30 49 20 30 49 20
27 47 18 27 47 18 27 47 18 27 47 18 24 43 17 24 43 17 24 43 17
24 43 17 22 38 15 22 38 15 22 38 15 22 38 15 17 34 12 17 34 12
17 34 12 17 34 12 13 24 9 13 24 9 13 24 9 13 24 9 12 23 8 12 23 8
12 23 8 12 23 8 11 19 7 11 19 7 11 19 7 11 19 7 10 16 7 10 16 7
10 16 7 10 16 7 10 13 6 10 13 6 10 13 6 10 13 6 9 14 6 9 14 6 9 14 6
9 14 6 6 13 4 6 13 4 6 13 4 6 13 4 5 9 3 5 9 3 5 9 3 5 9 3 4 12 3
4 12 3 4 12 3 4 12 3 4 14 3 4 14 3 4 14 3 4 14 3 5 20 2 5 20 2 5 20 2
5 20 2 4 18 2 4 18 2 4 18 2 4 18 2 4 18 2 4 18 2 4 18 2 4 18 2 3 18 1
3 18 1 3 18 1 3 18 1 2 14 1 2 14 1 2 14 1 2 14 1 5 17 3 5 17 3 5 17 3
5 17 3 15 20 8 15 20 8 15 20 8 15 20 8 9 11 6 9 11 6 9 11 6 9 11 6
26 26 26 26 26 26 26 26 26 26 26 26 0 0 0 0 0 0 33 36 33 33 36 33
33 36 33 33 36 33 82 109 68 82 109 68 82 109 68 82 109 68 88 104 76
88 104 76 88 104 76 88 104 76 82 103 73 82 103 73 82 103 73 82 103 73
45 68 36 45 68 36 45 68 36 45 68 36 30 49 20 30 49 20 30 49 20
30 49 20 27 47 18 27 47 18 27 47 18 27 47 18 24 43 17 24 43 17
24 43 17 24 43 17 22 38 15 22 38 15 22 38 15 22 38 15 17 34 12
17 34 12 17 34 12 17 34 12 13 24 9 13 24 9 13 24 9 13 24 9 12 23 8
12 23 8 12 23 8 12 23 8 11 19 7 11 19 7 11 19 7 11 19 7 10 16 7
10 16 7 10 16 7 10 16 7 10 13 6 10 13 6 10 13 6 10 13 6 9 14 6 9 14 6
9 14 6 9 14 6 6 13 4 6 13 4 6 13 4 6 13 4 5 9 3 5 9 3 5 9 3 5 9 3
4 12 3 4 12 3 4 12 3 4 12 3 4 14 3 4 14 3 4 14 3 4 14 3 5 20 2 5 20 2
5 20 2 5 20 2 4 18 2 4 18 2 4 18 2 4 18 2 4 18 2 4 18 2 4 18 2 4 18 2
3 18 1 3 18 1 3 18 1 3 18 1 2 14 1 2 14 1 2 14 1 2 14 1 5 17 3 5 17 3
5 17 3 5 17 3 15 20 8 15 20 8 15 20 8 15 20 8 9 11 6 9 11 6 9 11 6
9 11 6 26 26 26 26 26 26 26 26 26 26 26 26 0 0 0 0 0 0 33 36 33
33 36 33 33 36 33 33 36 33 82 109 68 82 109 68 82 109 68 82 109 68
88 104 76 88 104 76 88 104 76 88 104 76 82 103 73 82 103 73 82 103 73
82 103 73 45 68 36 45 68 36 45 68 36 45 68 36 30 49 20 30 49 20
30 49 20 30 49 20 27 47 18 27 47 18 27 47 18 27 47 18 24 43 17
24 43 17 24 43 17 24 43 17 22 38 15 22 38 15 22 38 15 22 38 15
17 34 12 17 34 12 17 34 12 17 34 12 13 24 9 13 24 9 13 24 9 13 24 9
12 23 8 12 23 8 12 23 8 12 23 8 11 19 7 11 19 7 11 19 7 11 19 7
10 16 7 10 16 7 10 16 7 10 16 7 10 13 6 10 13 6 10 13 6 10 13 6
9 14 6 9 14 6 9 14 6 9 14 6 6 13 4 6 13 4 6 13 4 6 13 4 5 9 3 5 9 3
5 9 3 5 9 3 4 12 3 4 12 3 4 12 3 4 12 3 4 14 3 4 14 3 4 14 3 4 14 3
5 20 2 5 20 2 5 20 2 5 20 2 4 18 2 4 18 2 4 18 2 4 18 2 4 18 2 4 18 2
4 18 2 4 18 2 3 18 1 3 18 1 3 18 1 3 18 1 2 14 1 2 14 1 2 14 1 2 14 1
5 17 3 5 17 3 5 17 3 5 17 3 15 20 8 15 20 8 15 20 8 15 20 8 9 11 6
9 11 6 9 11 6 9 11 6 26 26 26 26 26 26 26 26 26 26 26 26 0 0 0 0 0 0
33 36 33 33 36 33 33 36 33 33 36 33 82 109 68 82 109 68 82 109 68
82 109 68 88 104 76 88 104 76 88 104 76 88 104 76 82 103 73 82 103 73
82 103 73 82 103 73 45 68 36 45 68 36 45 68 36 45 68 36 30 49 20
30 49 20 30 49 20 30 49 20 27 47 18 27 47 18 27 47 18 27 47 18
24 43 17 24 43 17 24 43 17 24 43 17 22 38 15 22 38 15 22 38 15
22 38 15 17 34 12 17 34 12 17 34 12 17 34 12 13 24 9 13 24 9 13 24 9
13 24 9 12 23 8 12 23 8 12 23 8 12 23 8 11 19 7 11 19 7 11 19 7
11 19 7 10 16 7 10 16 7 10 16 7 10 16 7 10 13 6 10 13 6 10 13 6
10 13 6 9 14 6 9 14 6 9 14 6 9 14 6 6 13 4 6 13 4 6 13 4 6 13 4 5 9 3
5 9 3 5 9 3 5 9 3 4 12 3 4 12 3 4 12 3 4 12 3 4 14 3 4 14 3 4 14 3
4 14 3 5 20 2 5 20 2 5 20 2 5 20 2 4 18 2 4 18 2 4 18 2 4 18 2 4 18 2
4 18 2 4 18 2 4 18 2 3 18 1 3 18 1 3 18 1 3 18 1 2 14 1 2 14 1 2 14 1
2 14 1 5 17 3 5 17 3 5 17 3 5 17 3 15 20 8 15 20 8 15 20 8 15 20 8
9 11 6 9 11 6 9 11 6 9 11 6 26 26 26 26 26 26 26 26 26 26 26 26 0 0 0
0 0 0 41 44 41 41 44 41 41 44 41 41 44 41 80 112 65 80 112 65
80 112 65 80 112 65 90 110 76 90 110 76 90 110 76 90 110 76 79 97 68
79 97 68 79 97 68 79 97 68 43 66 33 43 66 33 43 66 33 43 66 33
34 58 23 34 58 23 34 58 23 34 58 23 34 59 23 34 59 23 34 59 23
34 59 23 32 58 22 32 58 22 32 58 22 32 58 22 28 47 19 28 47 19
28 47 19 28 47 19 23 46 15 23 46 15 23 46 15 23 46 15 19 31 12
19 31 12 19 31 12 19 31 12 17 31 11 17 31 11 17 31 11 17 31 11
16 30 10 16 30 10 16 30 10 16 30 10 15 23 10 15 23 10 15 23 10
15 23 10 14 20 9 14 20 9 14 20 9 14 20 9 13 22 8 13 22 8 13 22 8
13 22 8 12 22 8 12 22 8 12 22 8 12 22 8 11 18 7 11 18 7 11 18 7
11 18 7 9 21 5 9 21 5 9 21 5 9 21 5 7 18 4 7 18 4 7 18 4 7 18 4
10 21 6 10 21 6 10 21 6 10 21 6 8 22 4 8 22 4 8 22 4 8 22 4 10 20 6
10 20 6 10 20 6 10 20 6 13 18 7 13 18 7 13 18 7 13 18 7 4 18 2 4 18 2
4 18 2 4 18 2 11 17 6 11 17 6 11 17 6 11 17 6 15 20 8 15 20 8 15 20 8
15 20 8 9 11 6 9 11 6 9 11 6 9 11 6 39 39 39 39 39 39 39 39 39
39 39 39 0 0 0 0 0 0 41 44 41 41 44 41 41 44 41 41 44 41 80 112 65
80 112 65 80 112 65 80 112 65 90 110 76 90 110 76 90 110 76 90 110 76
79 97 68 79 97 68 79 97 68 79 97 68 43 66 33 43 66 33 43 66 33
43 66 33 34 58 23 34 58 23 34 58 23 34 58 23 34 59 23 34 59 23
34 59 23 34 59 23 32 58 22 32 58 22 32 58 22 32 58 22 28 47 19
28 47 19 28 47 19 28 47 19 23 46 15 23 46 15 23 46 15 23 46 15
19 31 12 19 31 12 19 31 12 19 31 12 17 31 11 17 31 11 17 31 11
17 31 11 16 30 10 16 30 10 16 30 10 16 30 10 15 23 10 15 23 10
15 23 10 15 23 10 14 20 9 14 20 9 14 20 9 14 20 9 13 22 8 13 22 8
13 22 8 13 22 8 12 22 8 12 22 8 12 22 8 12 22 8 11 18 7 11 18 7
11 18 7 11 18 7 9 21 5 9 21 5 9 21 5 9 21 5 7 18 4 7 18 4 7 18 4
7 18 4 10 21 6 10 21 6 10 21 6 10 21 6 8 22 4 8 22 4 8 22 4 8 22 4
10 20 6 10 20 6 10 20 6 10 20 6 13 18 7 13 18 7 13 18 7 13 18 7
4 18 2 4 18 2 4 18 2 4 18 2 11 17 6 11 17 6 11 17 6 11 17 6 15 20 8
15 20 8 15 20 8 15 20 8 9 11 6 9 11 6 9 11 6 9 11 6 39 39 39 39 39 39
39 39 39 39 39 39 0 0 0 0 0 0 41 44 41 41 44 41 41 44 41 41 44 41
80 112 65 80 112 65 80 112 65 80 112 65 90 110 76 90 110 76 90 110 76
90 110 76 79 97 68 79 97 68 79 97 68 79 97 68 43 66 33 43 66 33
43 66 33 43 66 33 34 58 23 34 58 23 34 58 23 34 58 23 34 59 23
34 59 23 34 59 23 34 59 23 32 58 22 32 58 22 32 58 22 32 58 22
28 47 19 28 47 19 28 47 19 28 47 19 23 46 15 23 46 15 23 46 15
23 46 15 19 31 12 19 31 12 19 31 12 19 31 12 17 31 11 17 31 11
17 31 11 17 31 11 16 30 10 16 30 10 16 30 10 16 30 10 15 23 10
15 23 10 15 23 10 15 23 10 14 20 9 14 20 9 14 20 9 14 20 9 13 22 8
13 22 8 13 22 8 13 22 8 12 22 8 12 22 8 12 22 8 12 22 8 11 18 7
11 18 7 11 18 7 11 18 7 9 21 5 9 21 5 9 21 5 9 21 5 7 18 4 7 18 4
7 18 4 7 18 4 10 21 6 10 21 6 10 21 6 10 21 6 8 22 4 8 22 4 8 22 4
8 22 4 10 20 6 10 20 6 10 20 6 10 20 6 13 18 7 13 18 7 13 18 7
13 18 7 4 18 2 4 18 2 4 18 2 4 18 2 11 17 6 11 17 6 11 17 6 11 17 6
15 20 8 15 20 8 15 20 8 15 20 8 9 11 6 9 11 6 9 11 6 9 11 6 39 39 39
39 39 39 39 39 39 39 39 39 0 0 0 0 0 0 41 44 41 41 44 41 41 44 41
41 44 41 80 112 65 80 112 65 80 112 65 80 112 65 90 110 76 90 110 76
90 110 76 90 110 76 79 97 68 79 97 68 79 97 68 79 97 68 43 66 33
43 66 33 43 66 33 43 66 33 34 58 23 34 58 23 34 58 23 34 58 23
34 59 23 34 59 23 34 59 23 34 59 23 32 58 22 32 58 22 32 58 22
32 58 22 28 47 19 28 47 19 28 47 19 28 47 19 23 46 15 23 46 15
23 46 15 23 46 15 19 31 12 19 31 12 19 31 12 19 31 12 17 31 11
17 31 11 17 31 11 17 31 11 16 30 10 16 30 10 16 30 10 16 30 10
15 23 10 15 23 10 15 23 10 15 23 10 14 20 9 14 20 9 14 20 9 14 20 9
13 22 8 13 22 8 13 22 8 13 22 8 12 22 8 12 22 8 12 22 8 12 22 8
11 18 7 11 18 7 11 18 7 11 18 7 9 21 5 9 21 5 9 21 5 9 21 5 7 18 4
7 18 4 7 18 4 7 18 4 10 21 6 10 21 6 10 21 6 10 21 6 8 22 4 8 22 4
8 22 4 8 22 4 10 20 6 10 20 6 10 20 6 10 20 6 13 18 7 13 18 7 13 18 7
13 18 7 4 18 2 4 18 2 4 18 2 4 18 2 11 17 6 11 17 6 11 17 6 11 17 6
15 20 8 15 20 8 15 20 8 15 20 8 9 11 6 9 11 6 9 11 6 9 11 6 39 39 39
39 39 39 39 39 39 39 39 39 0 0 0 0 0 0 40 41 40 40 41 40 40 41 40
40 41 40 87 117 73 87 117 73 87 117 73 87 117 73 90 107 77 90 107 77
90 107 77 90 107 77 78 99 66 78 99 66 78 99 66 78 99 66 47 71 35
47 71 35 47 71 35 47 71 35 42 76 29 42 76 29 42 76 29 42 76 29
44 76 30 44 76 30 44 76 30 44 76 30 43 80 29 43 80 29 43 80 29
43 80 29 40 70 27 40 70 27 40 70 27 40 70 27 35 68 24 35 68 24
35 68 24 35 68 24 32 53 21 32 53 21 32 53 21 32 53 21 29 56 19
29 56 19 29 56 19 29 56 19 28 58 18 28 58 18 28 58 18 28 58 18
25 37 16 25 37 16 25 37 16 25 37 16 22 35 15 22 35 15 22 35 15
22 35 15 20 36 13 20 36 13 20 36 13 20 36 13 19 34 12 19 34 12
19 34 12 19 34 12 16 27 10 16 27 10 16 27 10 16 27 10 15 32 9 15 32 9
15 32 9 15 32 9 14 29 8 14 29 8 14 29 8 14 29 8 13 26 7 13 26 7
13 26 7 13 26 7 15 19 9 15 19 9 15 19 9 15 19 9 15 18 8 15 18 8
15 18 8 15 18 8 14 18 8 14 18 8 14 18 8 14 18 8 9 17 5 9 17 5 9 17 5
9 17 5 12 16 6 12 16 6 12 16 6 12 16 6 14 19 8 14 19 8 14 19 8
14 19 8 10 11 6 10 11 6 10 11 6 10 11 6 51 51 51 51 51 51 51 51 51
51 51 51 0 0 0 0 0 0 40 41 40 40 41 40 40 41 40 40 41 40 87 117 73
87 117 73 87 117 73 87 117 73 90 107 77 90 107 77 90 107 77 90 107 77
78 99 66 78 99 66 78 99 66 78 99 66 47 71 35 47 71 35 47 71 35
47 71 35 42 76 29 42 76 29 42 76 29 42 76 29 44 76 30 44 76 30
44 76 30 44 76 30 43 80 29 43 80 29 43 80 29 43 80 29 40 70 27
40 70 27 40 70 27 40 70 27 35 68 24 35 68 24 35 68 24 35 68 24
32 53 21 32 53 21 32 53 21 32 53 21 29 56 19 29 56 19 29 56 19
29 56 19 28 58 18 28 58 18 28 58 18 28 58 18 25 37 16 25 37 16
25 37 16 25 37 16 22 35 15 22 35 15 22 35 15 22 35 15 20 36 13
20 36 13 20 36 13 20 36 13 19 34 12 19 34 12 19 34 12 19 34 12
16 27 10 16 27 10 16 27 10 16 27 10 15 32 9 15 32 9 15 32 9 15 32 9
14 29 8 14 29 8 14 29 8 14 29 8 13 26 7 13 26 7 13 26 7 13 26 7
15 19 9 15 19 9 15 19 9 15 19 9 15 18 8 15 18 8 15 18 8 15 18 8
14 18 8 14 18 8 14 18 8 14 18 8 9 17 5 9 17 5 9 17 5 9 17 5 12 16 6
12 16 6 12 16 6 12 16 6 14 19 8 14 19 8 14 19 8 14 19 8 10 11 6
10 11 6 10 11 6 10 11 6 51 51 51 51 51 51 51 51 51 51 51 51 0 0 0
0 0 0 40 41 40 40 41 40 40 41 40 40 41 40 87 117 73 87 117 73
87 117 73 87 117 73 90 107 77 90 107 77 90 107 77 90 107 77 78 99 66
78 99 66 78 99 66 78 99 66 47 71 35 47 71 35 47 71 35 47 71 35
42 76 29 42 76 29 42 76 29 42 76 29 44 76 30 44 76 30 44 76 30
44 76 30 43 80 29 43 80 29 43 80 29 43 80 29 40 70 27 40 70 27
40 70 27 40 70 27 35 68 24 35 68 24 35 68 24 35 68 24 32 53 21
32 53 21 32 53 21 32 53 21 29 56 19 29 56 19 29 56 19 29 56 19
28 58 18 28 58 18 28 58 18 28 58 18 25 37 16 25 37 16 25 37 16
25 37 16 22 35 15 22 35 15 22 35 15 22 35 15 20 36 13 20 36 13
20 36 13 20 36 13 19 34 12 19 34 12 19 34 12 19 34 12 16 27 10
16 27 10 16 27 10 16 27 10 15 32 9 15 32 9 15 32 9 15 32 9 14 29 8
14 29 8 14 29 8 14 29 8 13 26 7 13 26 7 13 26 7 13 26 7 15 19 9
15 19 9 15 19 9 15 19 9 15 18 8 15 18 8 15 18 8 15 18 8 14 18 8
14 18 8 14 18 8 14 18 8 9 17 5 9 17 5 9 17 5 9 17 5 12 16 6 12 16 6
12 16 6 12 16 6 14 19 8 14 19 8 14 19 8 14 19 8 10 11 6 10 11 6
10 11 6 10 11 6 51 51 51 51 51 51 51 51 51 51 51 51 0 0 0 0 0 0
40 41 40 40 41 40 40 41 40 40 41 40 87 117 73 87 117 73 87 117 73
87 117 73 90 107 77 90 107 77 90 107 77 90 107 77 78 99 66 78 99 66
78 99 66 78 99 66 47 71 35 47 71 35 47 71 35 47 71 35 42 76 29
42 76 29 42 76 29 42 76 29 44 76 30 44 76 30 44 76 30 44 76 30
43 80 29 43 80 29 43 80 29 43 80 29 40 70 27 40 70 27 40 70 27
40 70 27 35 68 24 35 68 24 35 68 24 35 68 24 32 53 21 32 53 21
32 53 21 32 53 21 29 56 19 29 56 19 29 56 19 29 56 19 28 58 18
28 58 18 28 58 18 28 58 18 25 37 16 25 37 16 25 37 16 25 37 16
22 35 15 22 35 15 22 35 15 22 35 15 20 36 13 20 36 13 20 36 13
20 36 13 19 34 12 19 34 12 19 34 12 19 34 12 16 27 10 16 27 10
16 27 10 16 27 10 15 32 9 15 32 9 15 32 9 15 32 9 14 29 8 14 29 8
14 29 8 14 29 8 13 26 7 13 26 7 13 26 7 13 26 7 15 19 9 15 19 9
15 19 9 15 19 9 15 18 8 15 18 8 15 18 8 15 18 8 14 18 8 14 18 8
14 18 8 14 18 8 9 17 5 9 17 5 9 17 5 9 17 5 12 16 6 12 16 6 12 16 6
12 16 6 14 19 8 14 19 8 14 19 8 14 19 8 10 11 6 10 11 6 10 11 6
10 11 6 51 51 51 51 51 51 51 51 51 51 51 51 0 0 0 0 0 0 30 31 30
30 31 30 30 31 30 30 31 30 97 127 86 97 127 86 97 127 86 97 127 86
80 95 67 80 95 67 80 95 67 80 95 67 68 89 56 68 89 56 68 89 56
68 89 56 50 82 36 50 82 36 50 82 36 50 82 36 49 91 34 49 91 34
49 91 34 49 91 34 51 83 35 51 83 35 51 83 35 51 83 35 59 87 41
59 87 41 59 87 41 59 87 41 50 84 34 50 84 34 50 84 34 50 84 34
53 82 36 53 82 36 53 82 36 53 82 36 43 73 29 43 73 29 43 73 29
43 73 29 46 72 31 46 72 31 46 72 31 46 72 31 53 65 35 53 65 35
53 65 35 53 65 35 33 51 22 33 51 22 33 51 22 33 51 22 30 47 20
30 47 20 30 47 20 30 47 20 27 48 17 27 48 17 27 48 17 27 48 17
24 43 15 24 43 15 24 43 15 24 43 15 20 36 12 20 36 12 20 36 12
20 36 12 17 38 11 17 38 11 17 38 11 17 38 11 16 31 9 16 31 9 16 31 9
16 31 9 15 37 8 15 37 8 15 37 8 15 37 8 15 23 8 15 23 8 15 23 8
15 23 8 15 18 8 15 18 8 15 18 8 15 18 8 14 18 8 14 18 8 14 18 8
14 18 8 10 17 5 10 17 5 10 17 5 10 17 5 11 16 6 11 16 6 11 16 6
11 16 6 14 18 7 14 18 7 14 18 7 14 18 7 10 11 8 10 11 8 10 11 8
10 11 8 64 64 64 64 64 64 64 64 64 64 64 64 0 0 0 0 0 0 30 31 30
30 31 30 30 31 30 30 31 30 97 127 86 97 127 86 97 127 86 97 127 86
80 95 67 80 95 67 80 95 67 80 95 67 68 89 56 68 89 56 68 89 56
68 89 56 50 82 36 50 82 36 50 82 36 50 82 36 49 91 34 49 91 34
49 91 34 49 91 34 51 83 35 51 83 35 51 83 35 51 83 35 59 87 41
59 87 41 59 87 41 59 87 41 50 84 34 50 84 34 50 84 34 50 84 34
53 82 36 53 82 36 53 82 36 53 82 36 43 73 29 43 73 29 43 73 29
43 73 29 46 72 31 46 72 31 46 72 31 46 72 31 53 65 35 53 65 35
53 65 35 53 65 35 33 51 22 33 51 22 33 51 22 33 51 22 30 47 20
30 47 20 30 47 20 30 47 20 27 48 17 27 48 17 27 48 17 27 48 17
24 43 15 24 43 15 24 43 15 24 43 15 20 36 12 20 36 12 20 36 12
20 36 12 17 38 11 17 38 11 17 38 11 17 38 11 16 31 9 16 31 9 16 31 9
16 31 9 15 37 8 15 37 8 15 37 8 15 37 8 15 23 8 15 23 8 15 23 8
15 23 8 15 18 8 15 18 8 15 18 8 15 18 8 14 18 8 14 18 8 14 18 8
14 18 8 10 17 5 10 17 5 10 17 5 10 17 5 11 16 6 11 16 6 11 16 6
11 16 6 14 18 7 14 18 7 14 18 7 14 18 7 10 11 8 10 11 8 10 11 8
10 11 8 64 64 64 64 64 64 64 64 64 64 64 64 0 0 0 0 0 0 30 31 30
30 31 30 30 31 30 30 31 30 97 127 86 97 127 86 97 127 86 97 127 86
80 95 67 80 95 67 80 95 67 80 95 67 68 89 56 68 89 56 68 89 56
68 89 56 50 82 36 50 82 36 50 82 36 50 82 36 49 91 34 49 91 34
49 91 34 49 91 34 51 83 35 51 83 35 51 83 35 51 83 35 59 87 41
59 87 41 59 87 41 59 87 41 50 84 34 50 84 34 50 84 34 50 84 34
53 82 36 53 82 36 53 82 36 53 82 36 43 73 29 43 73 29 43 73 29
43 73 29 46 72 31 46 72 31 46 72 31 46 72 31 53 65 35 53 65 35
53 65 35 53 65 35 33 51 22 33 51 22 33 51 22 33 51 22 30 47 20
30 47 20 30 47 20 30 47 20 27 48 17 27 48 17 27 48 17 27 48 17
24 43 15 24 43 15 24 43 15 24 43 15 20 36 12 20 36 12 20 36 12
20 36 12 17 38 11 17 38 11 17 38 11 17 38 11 16 31 9 16 31 9 16 31 9
16 31 9 15 37 8 15 37 8 15 37 8 15 37 8 15 23 8 15 23 8 15 23 8
15 23 8 15 18 8 15 18 8 15 18 8 15 18 8 14 18 8 14 18 8 14 18 8
14 18 8 10 17 5 10 17 5 10 17 5 10 17 5 11 16 6 11 16 6 11 16 6
11 16 6 14 18 7 14 18 7 14 18 7 14 18 7 10 11 8 10 11 8 10 11 8
10 11 8 64 64 64 64 64 64 64 64 64 64 64 64 0 0 0 0 0 0 30 31 30
30 31 30 30 31 30 30 31 30 97 127 86 97 127 86 97 127 86 97 127 86
80 95 67 80 95 67 80 95 67 80 95 67 68 89 56 68 89 56 68 89 56
68 89 56 50 82 36 50 82 36 50 82 36 50 82 36 49 91 34 49 91 34
49 91 34 49 91 34 51 83 35 51 83 35 51 83 35 51 83 35 59 87 41
59 87 41 59 87 41 59 87 41 50 84 34 50 84 34 50 84 34 50 84 34
53 82 36 53 82 36 53 82 36 53 82 36 43 73 29 43 73 29 43 73 29
43 73 29 46 72 31 46 72 31 46 72 31 46 72 31 53 65 35 53 65 35
53 65 35 53 65 35 33 51 22 33 51 22 33 51 22 33 51 22 30 47 20
30 47 20 30 47 20 30 47 20 27 48 17 27 48 17 27 48 17 27 48 17
24 43 15 24 43 15 24 43 15 24 43 15 20 36 12 20 36 12 20 36 12
20 36 12 17 38 11 17 38 11 17 38 11 17 38 11 16 31 9 16 31 9 16 31 9
16 31 9 15 37 8 15 37 8 15 37 8 15 37 8 15 23 8 15 23 8 15 23 8
15 23 8 15 18 8 15 18 8 15 18 8 15 18 8 14 18 8 14 18 8 14 18 8
14 18 8 10 17 5 10 17 5 10 17 5 10 17 5 11 16 6 11 16 6 11 16 6
11 16 6 14 18 7 14 18 7 14 18 7 14 18 7 10 11 8 10 11 8 10 11 8
10 11 8 64 64 64 64 64 64 64 64 64 64 64 64 0 0 0 0 0 0 27 29 27
27 29 27 27 29 27 27 29 27 98 125 88 98 125 88 98 125 88 98 125 88
65 82 52 65 82 52 65 82 52 65 82 52 59 77 45 59 77 45 59 77 45
59 77 45 53 91 38 53 91 38 53 91 38 53 91 38 56 94 38 56 94 38
56 94 38 56 94 38 53 83 36 53 83 36 53 83 36 53 83 36 59 89 40
59 89 40 59 89 40 59 89 40 56 85 38 56 85 38 56 85 38 56 85 38
57 81 39 57 81 39 57 81 39 57 81 39 48 77 32 48 77 32 48 77 32
48 77 32 56 70 38 56 70 38 56 70 38 56 70 38 55 65 36 55 65 36
55 65 36 55 65 36 37 52 25 37 52 25 37 52 25 37 52 25 33 51 21
33 51 21 33 51 21 33 51 21 33 50 21 33 50 21 33 50 21 33 50 21
25 43 16 25 43 16 25 43 16 25 43 16 21 36 13 21 36 13 21 36 13
21 36 13 19 42 11 19 42 11 19 42 11 19 42 11 16 29 9 16 29 9 16 29 9
16 29 9 14 33 8 14 33 8 14 33 8 14 33 8 14 27 8 14 27 8 14 27 8
14 27 8 15 18 8 15 18 8 15 18 8 15 18 8 14 18 8 14 18 8 14 18 8
14 18 8 12 17 7 12 17 7 12 17 7 12 17 7 11 17 6 11 17 6 11 17 6
11 17 6 14 18 7 14 18 7 14 18 7 14 18 7 10 13 8 10 13 8 10 13 8
10 13 8 64 64 64 64 64 64 64 64 64 64 64 64 0 0 0 0 0 0 27 29 27
27 29 27 27 29 27 27 29 27 98 125 88 98 125 88 98 125 88 98 125 88
65 82 52 65 82 52 65 82 52 65 82 52 59 77 45 59 77 45 59 77 45
59 77 45 53 91 38 53 91 38 53 91 38 53 91 38 56 94 38 56 94 38
56 94 38 56 94 38 53 83 36 53 83 36 53 83 36 53 83 36 59 89 40
59 89 40 59 89 40 59 89 40 56 85 38 56 85 38 56 85 38 56 85 38
57 81 39 57 81 39 57 81 39 57 81 39 48 77 32 48 77 32 48 77 32
48 77 32 56 70 38 56 70 38 56 70 38 56 70 38 55 65 36 55 65 36
55 65 36 55 65 36 37 52 25 37 52 25 37 52 25 37 52 25 33 51 21
33 51 21 33 51 21 33 51 21 33 50 21 33 50 21 33 50 21 33 50 21
25 43 16 25 43 16 25 43 16 25 43 16 21 36 13 21 36 13 21 36 13
21 36 13 19 42 11 19 42 11 19 42 11 19 42 11 16 29 9 16 29 9 16 29 9
16 29 9 14 33 8 14 33 8 14 33 8 14 33 8 14 27 8 14 27 8 14 27 8
14 27 8 15 18 8 15 18 8 15 18 8 15 18 8 14 18 8 14 18 8 14 18 8
14 18 8 12 17 7 12 17 7 12 17 7 12 17 7 11 17 6 11 17 6 11 17 6
11 17 6 14 18 7 14 18 7 14 18 7 14 18 7 10 13 8 10 13 8 10 13 8
10 13 8 64 64 64 64 64 64 64 64 64 64 64 64 0 0 0 0 0 0 27 29 27
27 29 27 27 29 27 27 29 27 98 125 88 98 125 88 98 125 88 98 125 88
65 82 52 65 82 52 65 82 52 65 82 52 59 77 45 59 77 45 59 77 45
59 77 45 53 91 38 53 91 38 53 91 38 53 91 38 56 94 38 56 94 38
56 94 38 56 94 38 53 83 36 53 83 36 53 83 36 53 83 36 59 89 40
59 89 40 59 89 40 59 89 40 56 85 38 56 85 38 56 85 38 56 85 38
57 81 39 57 81 39 57 81 39 57 81 39 48 77 32 48 77 32 48 77 32
48 77 32 56 70 38 56 70 38 56 70 38 56 70 38 55 65 36 55 65 36
55 65 36 55 65 36 37 52 25 37 52 25 37 52 25 37 52 25 33 51 21
33 51 21 33 51 21 33 51 21 33 50 21 33 50 21 33 50 21 33 50 21
25 43 16 25 43 16 25 43 16 25 43 16 21 36 13 21 36 13 21 36 13
21 36 13 19 42 11 19 42 11 19 42 11 19 42 11 16 29 9 16 29 9 16 29 9
16 29 9 14 33 8 14 33 8 14 33 8 14 33 8 14 27 8 14 27 8 14 27 8
14 27 8 15 18 8 15 18 8 15 18 8 15 18 8 14 18 8 14 18 8 14 18 8
14 18 8 12 17 7 12 17 7 12 17 7 12 17 7 11 17 6 11 17 6 11 17 6
11 17 6 14 18 7 14 18 7 14 18 7 14 18 7 10 13 8 10 13 8 10 13 8
10 13 8 64 64 64 64 64 64 64 64 64 64 64 64 0 0 0 0 0 0 27 29 27
27 29 27 27 29 27 27 29 27 98 125 88 98 125 88 98 125 88 98 125 88
65 82 52 65 82 52 65 82 52 65 82 52 59 77 45 59 77 45 59 77 45
59 77 45 53 91 38 53 91 38 53 91 38 53 91 38 56 94 38 56 94 38
56 94 38 56 94 38 53 83 36 53 83 36 53 83 36 53 83 36 59 89 40
59 89 40 59 89 40 59 89 40 56 85 38 56 85 38 56 85 38 56 85 38
57 81 39 57 81 39 57 81 39 57 81 39 48 77 32 48 77 32 48 77 32
48 77 32 56 70 38 56 70 38 56 70 38 56 70 38 55 65 36 55 65 36
55 65 36 55 65 36 37 52 25 37 52 25 37 52 25 37 52 25 33 51 21
33 51 21 33 51 21 33 51 21 33 50 21 33 50 21 33 50 21 33 50 21
25 43 16 25 43 16 25 43 16 25 43 16 21 36 13 21 36 13 21 36 13
21 36 13 19 42 11 19 42 11 19 42 11 19 42 11 16 29 9 16 29 9 16 29 9
16 29 9 14 33 8 14 33 8 14 33 8 14 33 8 14 27 8 14 27 8 14 27 8
14 27 8 15 18 8 15 18 8 15 18 8 15 18 8 14 18 8 14 18 8 14 18 8
14 18 8 12 17 7 12 17 7 12 17 7 12 17 7 11 17 6 11 17 6 11 17 6
11 17 6 14 18 7 14 18 7 14 18 7 14 18 7 10 13 8 10 13 8 10 13 8
10 13 8 64 64 64 64 64 64 64 64 64 64 64 64 0 0 0 85 85 85 28 30 27
28 30 27 28 30 27 28 30 27 97 123 87 97 123 87 97 123 87 97 123 87
65 82 51 65 82 51 65 82 51 65 82 51 62 79 47 62 79 47 62 79 47
62 79 47 57 97 40 57 97 40 57 97 40 57 97 40 55 95 38 55 95 38
55 95 38 55 95 38 54 88 37 54 88 37 54 88 37 54 88 37 53 88 36
53 88 36 53 88 36 53 88 36 58 85 39 58 85 39 58 85 39 58 85 39
51 80 35 51 80 35 51 80 35 51 80 35 47 76 32 47 76 32 47 76 32
47 76 32 59 69 39 59 69 39 59 69 39 59 69 39 55 65 36 55 65 36
55 65 36 55 65 36 37 56 24 37 56 24 37 56 24 37 56 24 33 54 21
33 54 21 33 54 21 33 54 21 29 47 18 29 47 18 29 47 18 29 47 18
24 42 15 24 42 15 24 42 15 24 42 15 20 36 13 20 36 13 20 36 13
20 36 13 19 38 11 19 38 11 19 38 11 19 38 11 16 29 9 16 29 9 16 29 9
16 29 9 14 27 8 14 27 8 14 27 8 14 27 8 13 30 7 13 30 7 13 30 7
13 30 7 15 18 8 15 18 8 15 18 8 15 18 8 14 18 7 14 18 7 14 18 7
14 18 7 14 17 8 14 17 8 14 17 8 14 17 8 14 23 9 14 23 9 14 23 9
14 23 9 21 33 15 21 33 15 21 33 15 21 33 15 18 23 13 18 23 13
18 23 13 18 23 13 28 28 28 28 28 28 28 28 28 28 28 28 0 0 0 85 85 85
28 30 27 28 30 27 28 30 27 28 30 27 97 123 87 97 123 87 97 123 87
97 123 87 65 82 51 65 82 51 65 82 51 65 82 51 62 79 47 62 79 47
62 79 47 62 79 47 57 97 40 57 97 40 57 97 40 57 97 40 55 95 38
55 95 38 55 95 38 55 95 38 54 88 37 54 88 37 54 88 37 54 88 37
53 88 36 53 88 36 53 88 36 53 88 36 58 85 39 58 85 39 58 85 39
58 85 39 51 80 35 51 80 35 51 80 35 51 80 35 47 76 32 47 76 32
47 76 32 47 76 32 59 69 39 59 69 39 59 69 39 59 69 39 55 65 36
55 65 36 55 65 36 55 65 36 37 56 24 37 56 24 37 56 24 37 56 24
33 54 21 33 54 21 33 54 21 33 54 21 29 47 18 29 47 18 29 47 18
29 47 18 24 42 15 24 42 15 24 42 15 24 42 15 20 36 13 20 36 13
20 36 13 20 36 13 19 38 11 19 38 11 19 38 11 19 38 11 16 29 9 16 29 9
16 29 9 16 29 9 14 27 8 14 27 8 14 27 8 14 27 8 13 30 7 13 30 7
13 30 7 13 30 7 15 18 8 15 18 8 15 18 8 15 18 8 14 18 7 14 18 7
14 18 7 14 18 7 14 17 8 14 17 8 14 17 8 14 17 8 14 23 9 14 23 9
14 23 9 14 23 9 21 33 15 21 33 15 21 33 15 21 33 15 18 23 13 18 23 13
18 23 13 18 23 13 28 28 28 28 28 28 28 28 28 28 28 28 0 0 0 85 85 85
28 30 27 28 30 27 28 30 27 28 30 27 97 123 87 97 123 87 97 123 87
97 123 87 65 82 51 65 82 51 65 82 51 65 82 51 62 79 47 62 79 47
62 79 47 62 79 47 57 97 40 57 97 40 57 97 40 57 97 40 55 95 38
55 95 38 55 95 38 55 95 38 54 88 37 54 88 37 54 88 37 54 88 37
53 88 36 53 88 36 53 88 36 53 88 36 58 85 39 58 85 39 58 85 39
58 85 39 51 80 35 51 80 35 51 80 35 51 80 35 47 76 32 47 76 32
47 76 32 47 76 32 59 69 39 59 69 39 59 69 39 59 69 39 55 65 36
55 65 36 55 65 36 55 65 36 37 56 24 37 56 24 37 56 24 37 56 24
33 54 21 33 54 21 33 54 21 33 54 21 29 47 18 29 47 18 29 47 18
29 47 18 24 42 15 24 42 15 24 42 15 24 42 15 20 36 13 20 36 13
20 36 13 20 36 13 19 38 11 19 38 11 19 38 11 19 38 11 16 29 9 16 29 9
16 29 9 16 29 9 14 27 8 14 27 8 14 27 8 14 27 8 13 30 7 13 30 7
13 30 7 13 30 7 15 18 8 15 18 8 15 18 8 15 18 8 14 18 7 14 18 7
14 18 7 14 18 7 14 17 8 14 17 8 14 17 8 14 17 8 14 23 9 14 23 9
14 23 9 14 23 9 21 33 15 21 33 15 21 33 15 21 33 15 18 23 13 18 23 13
18 23 13 18 23 13 28 28 28 28 28 28 28 28 28 28 28 28 0 0 0 85 85 85
28 30 27 28 30 27 28 30 27 28 30 27 97 123 87 97 123 87 97 123 87
97 123 87 65 82 51 65 82 51 65 82 51 65 82 51 62 79 47 62 79 47
62 79 47 62 79 47 57 97 40 57 97 40 57 97 40 57 97 40 55 95 38
55 95 38 55 95 38 55 95 38 54 88 37 54 88 37 54 88 37 54 88 37
53 88 36 53 88 36 53 88 36 53 88 36 58 85 39 58 85 39 58 85 39
58 85 39 51 80 35 51 80 35 51 80 35 51 80 35 47 76 32 47 76 32
47 76 32 47 76 32 59 69 39 59 69 39 59 69 39 59 69 39 55 65 36
55 65 36 55 65 36 55 65 36 37 56 24 37 56 24 37 56 24 37 56 24
33 54 21 33 54 21 33 54 21 33 54 21 29 47 18 29 47 18 29 47 18
29 47 18 24 42 15 24 42 15 24 42 15 24 42 15 20 36 13 20 36 13
20 36 13 20 36 13 19 38 11 19 38 11 19 38 11 19 38 11 16 29 9 16 29 9
16 29 9 16 29 9 14 27 8 14 27 8 14 27 8 14 27 8 13 30 7 13 30 7
13 30 7 13 30 7 15 18 8 15 18 8 15 18 8 15 18 8 14 18 7 14 18 7
14 18 7 14 18 7 14 17 8 14 17 8 14 17 8 14 17 8 14 23 9 14 23 9
14 23 9 14 23 9 21 33 15 21 33 15 21 33 15 21 33 15 18 23 13 18 23 13
18 23 13 18 23 13 28 28 28 28 28 28 28 28 28 28 28 28 0 0 0 0 0 0
35 47 32 35 47 32 35 47 32 35 47 32 96 121 88 96 121 88 96 121 88
96 121 88 69 84 58 69 84 58 69 84 58 69 84 58 71 89 57 71 89 57
71 89 57 71 89 57 74 97 52 74 97 52 74 97 52 74 97 52 73 92 51
73 92 51 73 92 51 73 92 51 66 88 46 66 88 46 66 88 46 66 88 46
64 87 44 64 87 44 64 87 44 64 87 44 60 82 42 60 82 42 60 82 42
60 82 42 55 80 37 55 80 37 55 80 37 55 80 37 50 78 34 50 78 34
50 78 34 50 78 34 59 69 39 59 69 39 59 69 39 59 69 39 55 65 36
55 65 36 55 65 36 55 65 36 42 60 28 42 60 28 42 60 28 42 60 28
36 54 24 36 54 24 36 54 24 36 54 24 30 50 20 30 50 20 30 50 20
30 50 20 26 42 17 26 42 17 26 42 17 26 42 17 24 39 16 24 39 16
24 39 16 24 39 16 22 39 15 22 39 15 22 39 15 22 39 15 24 31 17
24 31 17 24 31 17 24 31 17 26 37 19 26 37 19 26 37 19 26 37 19
28 43 20 28 43 20 28 43 20 28 43 20 34 42 22 34 42 22 34 42 22
34 42 22 39 46 26 39 46 26 39 46 26 39 46 26 48 58 33 48 58 33
48 58 33 48 58 33 47 68 36 47 68 36 47 68 36 47 68 36 51 72 42
51 72 42 51 72 42 51 72 42 53 68 42 53 68 42 53 68 42 53 68 42 2 5 2
2 5 2 2 5 2 2 5 2 0 0 0 0 0 0 35 47 32 35 47 32 35 47 32 35 47 32
96 121 88 96 121 88 96 121 88 96 121 88 69 84 58 69 84 58 69 84 58
69 84 58 71 89 57 71 89 57 71 89 57 71 89 57 74 97 52 74 97 52
74 97 52 74 97 52 73 92 51 73 92 51 73 92 51 73 92 51 66 88 46
66 88 46 66 88 46 66 88 46 64 87 44 64 87 44 64 87 44 64 87 44
60 82 42 60 82 42 60 82 42 60 82 42 55 80 37 55 80 37 55 80 37
55 80 37 50 78 34 50 78 34 50 78 34 50 78 34 59 69 39 59 69 39
59 69 39 59 69 39 55 65 36 55 65 36 55 65 36 55 65 36 42 60 28
42 60 28 42 60 28 42 60 28 36 54 24 36 54 24 36 54 24 36 54 24
30 50 20 30 50 20 30 50 20 30 50 20 26 42 17 26 42 17 26 42 17
26 42 17 24 39 16 24 39 16 24 39 16 24 39 16 22 39 15 22 39 15
22 39 15 22 39 15 24 31 17 24 31 17 24 31 17 24 31 17 26 37 19
26 37 19 26 37 19 26 37 19 28 43 20 28 43 20 28 43 20 28 43 20
34 42 22 34 42 22 34 42 22 34 42 22 39 46 26 39 46 26 39 46 26
39 46 26 48 58 33 48 58 33 48 58 33 48 58 33 47 68 36 47 68 36
47 68 36 47 68 36 51 72 42 51 72 42 51 72 42 51 72 42 53 68 42
53 68 42 53 68 42 53 68 42 2 5 2 2 5 2 2 5 2 2 5 2 0 0 0 0 0 0
35 47 32 35 47 32 35 47 32 35 47 32 96 121 88 96 121 88 96 121 88
96 121 88 69 84 58 69 84 58 69 84 58 69 84 58 71 89 57 71 89 57
71 89 57 71 89 57 74 97 52 74 97 52 74 97 52 74 97 52 73 92 51
73 92 51 73 92 51 73 92 51 66 88 46 66 88 46 66 88 46 66 88 46
64 87 44 64 87 44 64 87 44 64 87 44 60 82 42 60 82 42 60 82 42
60 82 42 55 80 37 55 80 37 55 80 37 55 80 37 50 78 34 50 78 34
50 78 34 50 78 34 59 69 39 59 69 39 59 69 39 59 69 39 55 65 36
55 65 36 55 65 36 55 65 36 42 60 28 42 60 28 42 60 28 42 60 28
36 54 24 36 54 24 36 54 24 36 54 24 30 50 20 30 50 20 30 50 20
30 50 20 26 42 17 26 42 17 26 42 17 26 42 17 24 39 16 24 39 16
24 39 16 24 39 16 22 39 15 22 39 15 22 39 15 22 39 15 24 31 17
24 31 17 24 31 17 24 31 17 26 37 19 26 37 19 26 37 19 26 37 19
28 43 20 28 43 20 28 43 20 28 43 20 34 42 22 34 42 22 34 42 22
34 42 22 39 46 26 39 46 26 39 46 26 39 46 26 48 58 33 48 58 33
48 58 33 48 58 33 47 68 36 47 68 36 47 68 36 47 68 36 51 72 42
51 72 42 51 72 42 51 72 42 53 68 42 53 68 42 53 68 42 53 68 42 2 5 2
2 5 2 2 5 2 2 5 2 0 0 0 0 0 0 35 47 32 35 47 32 35 47 32 35 47 32
96 121 88 96 121 88 96 121 88 96 121 88 69 84 58 69 84 58 69 84 58
69 84 58 71 89 57 71 89 57 71 89 57 71 89 57 74 97 52 74 97 52
74 97 52 74 97 52 73 92 51 73 92 51 73 92 51 73 92 51 66 88 46
66 88 46 66 88 46 66 88 46 64 87 44 64 87 44 64 87 44 64 87 44
60 82 42 60 82 42 60 82 42 60 82 42 55 80 37 55 80 37 55 80 37
55 80 37 50 78 34 50 78 34 50 78 34 50 78 34 59 69 39 59 69 39
59 69 39 59 69 39 55 65 36 55 65 36 55 65 36 55 65 36 42 60 28
42 60 28 42 60 28 42 60 28 36 54 24 36 54 24 36 54 24 36 54 24
30 50 20 30 50 20 30 50 20 30 50 20 26 42 17 26 42 17 26 42 17
26 42 17 24 39 16 24 39 16 24 39 16 24 39 16 22 39 15 22 39 15
22 39 15 22 39 15 24 31 17 24 31 17 24 31 17 24 31 17 26 37 19
26 37 19 26 37 19 26 37 19 28 43 20 28 43 20 28 43 20 28 43 20
34 42 22 34 42 22 34 42 22 34 42 22 39 46 26 39 46 26 39 46 26
39 46 26 48 58 33 48 58 33 48 58 33 48 58 33 47 68 36 47 68 36
47 68 36 47 68 36 51 72 42 51 72 42 51 72 42 51 72 42 53 68 42
53 68 42 53 68 42 53 68 42 2 5 2 2 5 2 2 5 2 2 5 2 0 0 0 6 12 6
56 75 51 56 75 51 56 75 51 56 75 51 100 127 94 100 127 94 100 127 94
100 127 94 99 109 95 99 109 95 99 109 95 99 109 95 82 95 74 82 95 74
82 95 74 82 95 74 82 97 65 82 97 65 82 97 65 82 97 65 79 91 60
79 91 60 79 91 60 79 91 60 79 91 58 79 91 58 79 91 58 79 91 58
77 90 56 77 90 56 77 90 56 77 90 56 75 90 54 75 90 54 75 90 54
75 90 54 74 87 53 74 87 53 74 87 53 74 87 53 73 85 51 73 85 51
73 85 51 73 85 51 70 82 49 70 82 49 70 82 49 70 82 49 68 79 47
68 79 47 68 79 47 68 79 47 63 76 44 63 76 44 63 76 44 63 76 44
63 75 44 63 75 44 63 75 44 63 75 44 61 74 43 61 74 43 61 74 43
61 74 43 59 72 43 59 72 43 59 72 43 59 72 43 59 74 43 59 74 43
59 74 43 59 74 43 62 74 46 62 74 46 62 74 46 62 74 46 63 72 51
63 72 51 63 72 51 63 72 51 63 74 51 63 74 51 63 74 51 63 74 51
63 85 49 63 85 49 63 85 49 63 85 49 75 86 56 75 86 56 75 86 56
75 86 56 75 86 57 75 86 57 75 86 57 75 86 57 77 88 59 77 88 59
77 88 59 77 88 59 73 89 58 73 89 58 73 89 58 73 89 58 63 85 52
63 85 52 63 85 52 63 85 52 64 91 49 64 91 49 64 91 49 64 91 49
13 17 10 13 17 10 13 17 10 13 17 10 0 0 0 6 12 6 56 75 51 56 75 51
56 75 51 56 75 51 100 127 94 100 127 94 100 127 94 100 127 94
99 109 95 99 109 95 99 109 95 99 109 95 82 95 74 82 95 74 82 95 74
82 95 74 82 97 65 82 97 65 82 97 65 82 97 65 79 91 60 79 91 60
79 91 60 79 91 60 79 91 58 79 91 58 79 91 58 79 91 58 77 90 56
77 90 56 77 90 56 77 90 56 75 90 54 75 90 54 75 90 54 75 90 54
74 87 53 74 87 53 74 87 53 74 87 53 73 85 51 73 85 51 73 85 51
73 85 51 70 82 49 70 82 49 70 82 49 70 82 49 68 79 47 68 79 47
68 79 47 68 79 47 63 76 44 63 76 44 63 76 44 63 76 44 63 75 44
63 75 44 63 75 44 63 75 44 61 74 43 61 74 43 61 74 43 61 74 43
59 72 43 59 72 43 59 72 43 59 72 43 59 74 43 59 74 43 59 74 43
59 74 43 62 74 46 62 74 46 62 74 46 62 74 46 63 72 51 63 72 51
63 72 51 63 72 51 63 74 51 63 74 51 63 74 51 63 74 51 63 85 49
63 85 49 63 85 49 63 85 49 75 86 56 75 86 56 75 86 56 75 86 56
75 86 57 75 86 57 75 86 57 75 86 57 77 88 59 77 88 59 77 88 59
77 88 59 73 89 58 73 89 58 73 89 58 73 89 58 63 85 52 63 85 52
63 85 52 63 85 52 64 91 49 64 91 49 64 91 49 64 91 49 13 17 10
13 17 10 13 17 10 13 17 10 0 0 0 6 12 6 56 75 51 56 75 51 56 75 51
56 75 51 100 127 94 100 127 94 100 127 94 100 127 94 99 109 95
99 109 95 99 109 95 99 109 95 82 95 74 82 95 74 82 95 74 82 95 74
82 97 65 82 97 65 82 97 65 82 97 65 79 91 60 79 91 60 79 91 60
79 91 60 79 91 58 79 91 58 79 91 58 79 91 58 77 90 56 77 90 56
77 90 56 77 90 56 75 90 54 75 90 54 75 90 54 75 90 54 74 87 53
74 87 53 74 87 53 74 87 53 73 85 51 73 85 51 73 85 51 73 85 51
70 82 49 70 82 49 70 82 49 70 82 49 68 79 47 68 79 47 68 79 47
68 79 47 63 76 44 63 76 44 63 76 44 63 76 44 63 75 44 63 75 44
63 75 44 63 75 44 61 74 43 61 74 43 61 74 43 61 74 43 59 72 43
59 72 43 59 72 43 59 72 43 59 74 43 59 74 43 59 74 43 59 74 43
62 74 46 62 74 46 62 74 46 62 74 46 63 72 51 63 72 51 63 72 51
63 72 51 63 74 51 63 74 51 63 74 51 63 74 51 63 85 49 63 85 49
63 85 49 63 85 49 75 86 56 75 86 56 75 86 56 75 86 56 75 86 57
75 86 57 75 86 57 75 86 57 77 88 59 77 88 59 77 88 59 77 88 59
73 89 58 73 89 58 73 89 58 73 89 58 63 85 52 63 85 52 63 85 52
63 85 52 64 91 49 64 91 49 64 91 49 64 91 49 13 17 10 13 17 10
13 17 10 13 17 10 0 0 0 6 12 6 56 75 51 56 75 51 56 75 51 56 75 51
100 127 94 100 127 94 100 127 94 100 127 94 99 109 95 99 109 95
99 109 95 99 109 95 82 95 74 82 95 74 82 95 74 82 95 74 82 97 65
82 97 65 82 97 65 82 97 65 79 91 60 79 91 60 79 91 60 79 91 60
79 91 58 79 91 58 79 91 58 79 91 58 77 90 56 77 90 56 77 90 56
77 90 56 75 90 54 75 90 54 75 90 54 75 90 54 74 87 53 74 87 53
74 87 53 74 87 53 73 85 51 73 85 51 73 85 51 73 85 51 70 82 49
70 82 49 70 82 49 70 82 49 68 79 47 68 79 47 68 79 47 68 79 47
63 76 44 63 76 44 63 76 44 63 76 44 63 75 44 63 75 44 63 75 44
63 75 44 61 74 43 61 74 43 61 74 43 61 74 43 59 72 43 59 72 43
59 72 43 59 72 43 59 74 43 59 74 43 59 74 43 59 74 43 62 74 46
62 74 46 62 74 46 62 74 46 63 72 51 63 72 51 63 72 51 63 72 51
63 74 51 63 74 51 63 74 51 63 74 51 63 85 49 63 85 49 63 85 49
63 85 49 75 86 56 75 86 56 75 86 56 75 86 56 75 86 57 75 86 57
75 86 57 75 86 57 77 88 59 77 88 59 77 88 59 77 88 59 73 89 58
73 89 58 73 89 58 73 89 58 63 85 52 63 85 52 63 85 52 63 85 52
64 91 49 64 91 49 64 91 49 64 91 49 13 17 10 13 17 10 13 17 10
13 17 10 0 0 0 4 12 4 62 79 57 62 79 57 62 79 57 62 79 57 64 94 53
64 94 53 64 94 53 64 94 53 78 90 70 78 90 70 78 90 70 78 90 70
99 111 95 99 111 95 99 111 95 99 111 95 106 135 101 106 135 101
106 135 101 106 135 101 107 133 99 107 133 99 107 133 99 107 133 99
101 123 89 101 123 89 101 123 89 101 123 89 96 108 79 96 108 79
96 108 79 96 108 79 86 98 68 86 98 68 86 98 68 86 98 68 83 94 64
83 94 64 83 94 64 83 94 64 81 92 62 81 92 62 81 92 62 81 92 62
81 92 62 81 92 62 81 92 62 81 92 62 81 92 62 81 92 62 81 92 62
81 92 62 77 90 61 77 90 61 77 90 61 77 90 61 75 90 59 75 90 59
75 90 59 75 90 59 72 90 58 72 90 58 72 90 58 72 90 58 71 90 57
71 90 57 71 90 57 71 90 57 70 92 56 70 92 56 70 92 56 70 92 56
66 87 54 66 87 54 66 87 54 66 87 54 62 77 51 62 77 51 62 77 51
62 77 51 58 77 46 58 77 46 58 77 46 58 77 46 55 87 43 55 87 43
55 87 43 55 87 43 58 94 45 58 94 45 58 94 45 58 94 45 62 93 47
62 93 47 62 93 47 62 93 47 62 88 47 62 88 47 62 88 47 62 88 47
48 80 36 48 80 36 48 80 36 48 80 36 42 65 32 42 65 32 42 65 32
42 65 32 44 78 33 44 78 33 44 78 33 44 78 33 17 20 13 17 20 13
17 20 13 17 20 13 0 0 0 4 12 4 62 79 57 62 79 57 62 79 57 62 79 57
64 94 53 64 94 53 64 94 53 64 94 53 78 90 70 78 90 70 78 90 70
78 90 70 99 111 95 99 111 95 99 111 95 99 111 95 106 135 101
106 135 101 106 135 101 106 135 101 107 133 99 107 133 99 107 133 99
107 133 99 101 123 89 101 123 89 101 123 89 101 123 89 96 108 79
96 108 79 96 108 79 96 108 79 86 98 68 86 98 68 86 98 68 86 98 68
83 94 64 83 94 64 83 94 64 83 94 64 81 92 62 81 92 62 81 92 62
81 92 62 81 92 62 81 92 62 81 92 62 81 92 62 81 92 62 81 92 62
81 92 62 81 92 62 77 90 61 77 90 61 77 90 61 77 90 61 75 90 59
75 90 59 75 90 59 75 90 59 72 90 58 72 90 58 72 90 58 72 90 58
71 90 57 71 90 57 71 90 57 71 90 57 70 92 56 70 92 56 70 92 56
70 92 56 66 87 54 66 87 54 66 87 54 66 87 54 62 77 51 62 77 51
62 77 51 62 77 51 58 77 46 58 77 46 58 77 46 58 77 46 55 87 43
55 87 43 55 87 43 55 87 43 58 94 45 58 94 45 58 94 45 58 94 45
62 93 47 62 93 47 62 93 47 62 93 47 62 88 47 62 88 47 62 88 47
62 88 47 48 80 36 48 80 36 48 80 36 48 80 36 42 65 32 42 65 32
42 65 32 42 65 32 44 78 33 44 78 33 44 78 33 44 78 33 17 20 13
17 20 13 17 20 13 17 20 13 0 0 0 4 12 4 62 79 57 62 79 57 62 79 57
62 79 57 64 94 53 64 94 53 64 94 53 64 94 53 78 90 70 78 90 70
78 90 70 78 90 70 99 111 95 99 111 95 99 111 95 99 111 95 106 135 101
106 135 101 106 135 101 106 135 101 107 133 99 107 133 99 107 133 99
107 133 99 101 123 89 101 123 89 101 123 89 101 123 89 96 108 79
96 108 79 96 108 79 96 108 79 86 98 68 86 98 68 86 98 68 86 98 68
83 94 64 83 94 64 83 94 64 83 94 64 81 92 62 81 92 62 81 92 62
81 92 62 81 92 62 81 92 62 81 92 62 81 92 62 81 92 62 81 92 62
81 92 62 81 92 62 77 90 61 77 90 61 77 90 61 77 90 61 75 90 59
75 90 59 75 90 59 75 90 59 72 90 58 72 90 58 72 90 58 72 90 58
71 90 57 71 90 57 71 90 57 71 90 57 70 92 56 70 92 56 70 92 56
70 92 56 66 87 54 66 87 54 66 87 54 66 87 54 62 77 51 62 77 51
62 77 51 62 77 51 58 77 46 58 77 46 58 77 46 58 77 46 55 87 43
55 87 43 55 87 43 55 87 43 58 94 45 58 94 45 58 94 45 58 94 45
62 93 47 62 93 47 62 93 47 62 93 47 62 88 47 62 88 47 62 88 47
62 88 47 48 80 36 48 80 36 48 80 36 48 80 36 42 65 32 42 65 32
42 65 32 42 65 32 44 78 33 44 78 33 44 78 33 44 78 33 17 20 13
17 20 13 17 20 13 17 20 13 0 0 0 4 12 4 62 79 57 62 79 57 62 79 57
62 79 57 64 94 53 64 94 53 64 94 53 64 94 53 78 90 70 78 90 70
78 90 70 78 90 70 99 111 95 99 111 95 99 111 95 99 111 95 106 135 101
106 135 101 106 135 101 106 135 101 107 133 99 107 133 99 107 133 99
107 133 99 101 123 89 101 123 89 101 123 89 101 123 89 96 108 79
96 108 79 96 108 79 96 108 79 86 98 68 86 98 68 86 98 68 86 98 68
83 94 64 83 94 64 83 94 64 83 94 64 81 92 62 81 92 62 81 92 62
81 92 62 81 92 62 81 92 62 81 92 62 81 92 62 81 92 62 81 92 62
81 92 62 81 92 62 77 90 61 77 90 61 77 90 61 77 90 61 75 90 59
75 90 59 75 90 59 75 90 59 72 90 58 72 90 58 72 90 58 72 90 58
71 90 57 71 90 57 71 90 57 71 90 57 70 92 56 70 92 56 70 92 56
70 92 56 66 87 54 66 87 54 66 87 54 66 87 54 62 77 51 62 77 51
62 77 51 62 77 51 58 77 46 58 77 46 58 77 46 58 77 46 55 87 43
55 87 43 55 87 43 55 87 43 58 94 45 58 94 45 58 94 45 58 94 45
62 93 47 62 93 47 62 93 47 62 93 47 62 88 47 62 88 47 62 88 47
62 88 47 48 80 36 48 80 36 48 80 36 48 80 36 42 65 32 42 65 32
42 65 32 42 65 32 44 78 33 44 78 33 44 78 33 44 78 33 17 20 13
17 20 13 17 20 13 17 20 13 0 0 0 0 6 0 46 58 42 46 58 42 46 58 42
46 58 42 73 103 65 73 103 65 73 103 65 73 103 65 37 55 28 37 55 28
37 55 28 37 55 28 36 51 27 36 51 27 36 51 27 36 51 27 43 73 34
43 73 34 43 73 34 43 73 34 51 79 42 51 79 42 51 79 42 51 79 42
55 85 44 55 85 44 55 85 44 55 85 44 56 89 44 56 89 44 56 89 44
56 89 44 57 87 44 57 87 44 57 87 44 57 87 44 61 88 46 61 88 46
61 88 46 61 88 46 55 87 42 55 87 42 55 87 42 55 87 42 53 83 40
53 83 40 53 83 40 53 83 40 58 88 43 58 88 43 58 88 43 58 88 43
45 68 34 45 68 34 45 68 34 45 68 34 42 62 32 42 62 32 42 62 32
42 62 32 40 61 30 40 61 30 40 61 30 40 61 30 40 59 30 40 59 30
40 59 30 40 59 30 39 64 29 39 64 29 39 64 29 39 64 29 39 59 29
39 59 29 39 59 29 39 59 29 37 50 28 37 50 28 37 50 28 37 50 28
36 51 27 36 51 27 36 51 27 36 51 27 35 60 26 35 60 26 35 60 26
35 60 26 33 67 24 33 67 24 33 67 24 33 67 24 30 67 21 30 67 21
30 67 21 30 67 21 25 64 18 25 64 18 25 64 18 25 64 18 24 51 18
24 51 18 24 51 18 24 51 18 24 47 18 24 47 18 24 47 18 24 47 18
29 59 22 29 59 22 29 59 22 29 59 22 11 13 8 11 13 8 11 13 8 11 13 8
0 0 0 0 6 0 46 58 42 46 58 42 46 58 42 46 58 42 73 103 65 73 103 65
73 103 65 73 103 65 37 55 28 37 55 28 37 55 28 37 55 28 36 51 27
36 51 27 36 51 27 36 51 27 43 73 34 43 73 34 43 73 34 43 73 34
51 79 42 51 79 42 51 79 42 51 79 42 55 85 44 55 85 44 55 85 44
55 85 44 56 89 44 56 89 44 56 89 44 56 89 44 57 87 44 57 87 44
57 87 44 57 87 44 61 88 46 61 88 46 61 88 46 61 88 46 55 87 42
55 87 42 55 87 42 55 87 42 53 83 40 53 83 40 53 83 40 53 83 40
58 88 43 58 88 43 58 88 43 58 88 43 45 68 34 45 68 34 45 68 34
45 68 34 42 62 32 42 62 32 42 62 32 42 62 32 40 61 30 40 61 30
40 61 30 40 61 30 40 59 30 40 59 30 40 59 30 40 59 30 39 64 29
39 64 29 39 64 29 39 64 29 39 59 29 39 59 29 39 59 29 39 59 29
37 50 28 37 50 28 37 50 28 37 50 28 36 51 27 36 51 27 36 51 27
36 51 27 35 60 26 35 60 26 35 60 26 35 60 26 33 67 24 33 67 24
33 67 24 33 67 24 30 67 21 30 67 21 30 67 21 30 67 21 25 64 18
25 64 18 25 64 18 25 64 18 24 51 18 24 51 18 24 51 18 24 51 18
24 47 18 24 47 18 24 47 18 24 47 18 29 59 22 29 59 22 29 59 22
29 59 22 11 13 8 11 13 8 11 13 8 11 13 8 0 0 0 0 6 0 46 58 42
46 58 42 46 58 42 46 58 42 73 103 65 73 103 65 73 103 65 73 103 65
37 55 28 37 55 28 37 55 28 37 55 28 36 51 27 36 51 27 36 51 27
36 51 27 43 73 34 43 73 34 43 73 34 43 73 34 51 79 42 51 79 42
51 79 42 51 79 42 55 85 44 55 85 44 55 85 44 55 85 44 56 89 44
56 89 44 56 89 44 56 89 44 57 87 44 57 87 44 57 87 44 57 87 44
61 88 46 61 88 46 61 88 46 61 88 46 55 87 42 55 87 42 55 87 42
55 87 42 53 83 40 53 83 40 53 83 40 53 83 40 58 88 43 58 88 43
58 88 43 58 88 43 45 68 34 45 68 34 45 68 34 45 68 34 42 62 32
42 62 32 42 62 32 42 62 32 40 61 30 40 61 30 40 61 30 40 61 30
40 59 30 40 59 30 40 59 30 40 59 30 39 64 29 39 64 29 39 64 29
39 64 29 39 59 29 39 59 29 39 59 29 39 59 29 37 50 28 37 50 28
37 50 28 37 50 28 36 51 27 36 51 27 36 51 27 36 51 27 35 60 26
35 60 26 35 60 26 35 60 26 33 67 24 33 67 24 33 67 24 33 67 24
30 67 21 30 67 21 30 67 21 30 67 21 25 64 18 25 64 18 25 64 18
25 64 18 24 51 18 24 51 18 24 51 18 24 51 18 24 47 18 24 47 18
24 47 18 24 47 18 29 59 22 29 59 22 29 59 22 29 59 22 11 13 8 11 13 8
11 13 8 11 13 8 0 0 0 0 6 0 46 58 42 46 58 42 46 58 42 46 58 42
73 103 65 73 103 65 73 103 65 73 103 65 37 55 28 37 55 28 37 55 28
37 55 28 36 51 27 36 51 27 36 51 27 36 51 27 43 73 34 43 73 34
43 73 34 43 73 34 51 79 42 51 79 42 51 79 42 51 79 42 55 85 44
55 85 44 55 85 44 55 85 44 56 89 44 56 89 44 56 89 44 56 89 44
57 87 44 57 87 44 57 87 44 57 87 44 61 88 46 61 88 46 61 88 46
61 88 46 55 87 42 55 87 42 55 87 42 55 87 42 53 83 40 53 83 40
53 83 40 53 83 40 58 88 43 58 88 43 58 88 43 58 88 43 45 68 34
45 68 34 45 68 34 45 68 34 42 62 32 42 62 32 42 62 32 42 62 32
40 61 30 40 61 30 40 61 30 40 61 30 40 59 30 40 59 30 40 59 30
40 59 30 39 64 29 39 64 29 39 64 29 39 64 29 39 59 29 39 59 29
39 59 29 39 59 29 37 50 28 37 50 28 37 50 28 37 50 28 36 51 27
36 51 27 36 51 27 36 51 27 35 60 26 35 60 26 35 60 26 35 60 26
33 67 24 33 67 24 33 67 24 33 67 24 30 67 21 30 67 21 30 67 21
30 67 21 25 64 18 25 64 18 25 64 18 25 64 18 24 51 18 24 51 18
24 51 18 24 51 18 24 47 18 24 47 18 24 47 18 24 47 18 29 59 22
29 59 22 29 59 22 29 59 22 11 13 8 11 13 8 11 13 8 11 13 8 0 0 0
0 0 0 23 31 22 23 31 22 23 31 22 23 31 22 69 95 63 69 95 63 69 95 63
69 95 63 26 42 20 26 42 20 26 42 20 26 42 20 20 29 14 20 29 14
20 29 14 20 29 14 21 42 16 21 42 16 21 42 16 21 42 16 24 45 18
24 45 18 24 45 18 24 45 18 28 50 20 28 50 20 28 50 20 28 50 20
30 50 22 30 50 22 30 50 22 30 50 22 31 58 23 31 58 23 31 58 23
31 58 23 31 59 23 31 59 23 31 59 23 31 59 23 30 53 22 30 53 22
30 53 22 30 53 22 28 50 20 28 50 20 28 50 20 28 50 20 26 60 19
26 60 19 26 60 19 26 60 19 23 40 17 23 40 17 23 40 17 23 40 17
21 34 15 21 34 15 21 34 15 21 34 15 20 36 14 20 36 14 20 36 14
20 36 14 20 32 15 20 32 15 20 32 15 20 32 15 20 35 14 20 35 14
20 35 14 20 35 14 20 34 14 20 34 14 20 34 14 20 34 14 19 28 14
19 28 14 19 28 14 19 28 14 18 28 13 18 28 13 18 28 13 18 28 13
17 33 13 17 33 13 17 33 13 17 33 13 16 37 11 16 37 11 16 37 11
16 37 11 13 36 9 13 36 9 13 36 9 13 36 9 11 37 8 11 37 8 11 37 8
11 37 8 11 28 8 11 28 8 11 28 8 11 28 8 14 30 11 14 30 11 14 30 11
14 30 11 20 30 15 20 30 15 20 30 15 20 30 15 0 2 0 0 2 0 0 2 0 0 2 0
0 0 0 0 0 0 23 31 22 23 31 22 23 31 22 23 31 22 69 95 63 69 95 63
69 95 63 69 95 63 26 42 20 26 42 20 26 42 20 26 42 20 20 29 14
20 29 14 20 29 14 20 29 14 21 42 16 21 42 16 21 42 16 21 42 16
24 45 18 24 45 18 24 45 18 24 45 18 28 50 20 28 50 20 28 50 20
28 50 20 30 50 22 30 50 22 30 50 22 30 50 22 31 58 23 31 58 23
31 58 23 31 58 23 31 59 23 31 59 23 31 59 23 31 59 23 30 53 22
30 53 22 30 53 22 30 53 22 28 50 20 28 50 20 28 50 20 28 50 20
26 60 19 26 60 19 26 60 19 26 60 19 23 40 17 23 40 17 23 40 17
23 40 17 21 34 15 21 34 15 21 34 15 21 34 15 20 36 14 20 36 14
20 36 14 20 36 14 20 32 15 20 32 15 20 32 15 20 32 15 20 35 14
20 35 14 20 35 14 20 35 14 20 34 14 20 34 14 20 34 14 20 34 14
19 28 14 19 28 14 19 28 14 19 28 14 18 28 13 18 28 13 18 28 13
18 28 13 17 33 13 17 33 13 17 33 13 17 33 13 16 37 11 16 37 11
16 37 11 16 37 11 13 36 9 13 36 9 13 36 9 13 36 9 11 37 8 11 37 8
11 37 8 11 37 8 11 28 8 11 28 8 11 28 8 11 28 8 14 30 11 14 30 11
14 30 11 14 30 11 20 30 15 20 30 15 20 30 15 20 30 15 0 2 0 0 2 0
0 2 0 0 2 0 0 0 0 0 0 0 23 31 22 23 31 22 23 31 22 23 31 22 69 95 63
69 95 63 69 95 63 69 95 63 26 42 20 26 42 20 26 42 20 26 42 20
20 29 14 20 29 14 20 29 14 20 29 14 21 42 16 21 42 16 21 42 16
21 42 16 24 45 18 24 45 18 24 45 18 24 45 18 28 50 20 28 50 20
28 50 20 28 50 20 30 50 22 30 50 22 30 50 22 30 50 22 31 58 23
31 58 23 31 58 23 31 58 23 31 59 23 31 59 23 31 59 23 31 59 23
30 53 22 30 53 22 30 53 22 30 53 22 28 50 20 28 50 20 28 50 20
28 50 20 26 60 19 26 60 19 26 60 19 26 60 19 23 40 17 23 40 17
23 40 17 23 40 17 21 34 15 21 34 15 21 34 15 21 34 15 20 36 14
20 36 14 20 36 14 20 36 14 20 32 15 20 32 15 20 32 15 20 32 15
20 35 14 20 35 14 20 35 14 20 35 14 20 34 14 20 34 14 20 34 14
20 34 14 19 28 14 19 28 14 19 28 14 19 28 14 18 28 13 18 28 13
18 28 13 18 28 13 17 33 13 17 33 13 17 33 13 17 33 13 16 37 11
16 37 11 16 37 11 16 37 11 13 36 9 13 36 9 13 36 9 13 36 9 11 37 8
11 37 8 11 37 8 11 37 8 11 28 8 11 28 8 11 28 8 11 28 8 14 30 11
14 30 11 14 30 11 14 30 11 20 30 15 20 30 15 20 30 15 20 30 15 0 2 0
0 2 0 0 2 0 0 2 0 0 0 0 0 0 0 23 31 22 23 31 22 23 31 22 23 31 22
69 95 63 69 95 63 69 95 63 69 95 63 26 42 20 26 42 20 26 42 20
26 42 20 20 29 14 20 29 14 20 29 14 20 29 14 21 42 16 21 42 16
21 42 16 21 42 16 24 45 18 24 45 18 24 45 18 24 45 18 28 50 20
28 50 20 28 50 20 28 50 20 30 50 22 30 50 22 30 50 22 30 50 22
31 58 23 31 58 23 31 58 23 31 58 23 31 59 23 31 59 23 31 59 23
31 59 23 30 53 22 30 53 22 30 53 22 30 53 22 28 50 20 28 50 20
28 50 20 28 50 20 26 60 19 26 60 19 26 60 19 26 60 19 23 40 17
23 40 17 23 40 17 23 40 17 21 34 15 21 34 15 21 34 15 21 34 15
20 36 14 20 36 14 20 36 14 20 36 14 20 32 15 20 32 15 20 32 15
20 32 15 20 35 14 20 35 14 20 35 14 20 35 14 20 34 14 20 34 14
20 34 14 20 34 14 19 28 14 19 28 14 19 28 14 19 28 14 18 28 13
18 28 13 18 28 13 18 28 13 17 33 13 17 33 13 17 33 13 17 33 13
16 37 11 16 37 11 16 37 11 16 37 11 13 36 9 13 36 9 13 36 9 13 36 9
11 37 8 11 37 8 11 37 8 11 37 8 11 28 8 11 28 8 11 28 8 11 28 8
14 30 11 14 30 11 14 30 11 14 30 11 20 30 15 20 30 15 20 30 15
20 30 15 0 2 0 0 2 0 0 2 0 0 2 0 0 0 0 64 64 64 10 11 10 10 11 10
10 11 10 10 11 10 85 109 75 85 109 75 85 109 75 85 109 75 55 71 46
55 71 46 55 71 46 55 71 46 30 42 23 30 42 23 30 42 23 30 42 23
20 37 15 20 37 15 20 37 15 20 37 15 16 30 12 16 30 12 16 30 12
16 30 12 14 27 11 14 27 11 14 27 11 14 27 11 14 26 10 14 26 10
14 26 10 14 26 10 13 28 9 13 28 9 13 28 9 13 28 9 12 27 9 12 27 9
12 27 9 12 27 9 11 20 8 11 20 8 11 20 8 11 20 8 11 21 8 11 21 8
11 21 8 11 21 8 10 29 7 10 29 7 10 29 7 10 29 7 9 20 7 9 20 7 9 20 7
9 20 7 8 19 6 8 19 6 8 19 6 8 19 6 9 17 6 9 17 6 9 17 6 9 17 6 9 15 7
9 15 7 9 15 7 9 15 7 9 19 7 9 19 7 9 19 7 9 19 7 9 17 7 9 17 7 9 17 7
9 17 7 9 14 7 9 14 7 9 14 7 9 14 7 8 15 6 8 15 6 8 15 6 8 15 6 7 18 5
7 18 5 7 18 5 7 18 5 7 23 4 7 23 4 7 23 4 7 23 4 6 25 4 6 25 4 6 25 4
6 25 4 5 23 3 5 23 3 5 23 3 5 23 3 5 19 4 5 19 4 5 19 4 5 19 4
13 19 7 13 19 7 13 19 7 13 19 7 4 6 3 4 6 3 4 6 3 4 6 3 5 5 5 5 5 5
5 5 5 5 5 5 0 0 0 64 64 64 10 11 10 10 11 10 10 11 10 10 11 10
85 109 75 85 109 75 85 109 75 85 109 75 55 71 46 55 71 46 55 71 46
55 71 46 30 42 23 30 42 23 30 42 23 30 42 23 20 37 15 20 37 15
20 37 15 20 37 15 16 30 12 16 30 12 16 30 12 16 30 12 14 27 11
14 27 11 14 27 11 14 27 11 14 26 10 14 26 10 14 26 10 14 26 10
13 28 9 13 28 9 13 28 9 13 28 9 12 27 9 12 27 9 12 27 9 12 27 9
11 20 8 11 20 8 11 20 8 11 20 8 11 21 8 11 21 8 11 21 8 11 21 8
10 29 7 10 29 7 10 29 7 10 29 7 9 20 7 9 20 7 9 20 7 9 20 7 8 19 6
8 19 6 8 19 6 8 19 6 9 17 6 9 17 6 9 17 6 9 17 6 9 15 7 9 15 7 9 15 7
9 15 7 9 19 7 9 19 7 9 19 7 9 19 7 9 17 7 9 17 7 9 17 7 9 17 7 9 14 7
9 14 7 9 14 7 9 14 7 8 15 6 8 15 6 8 15 6 8 15 6 7 18 5 7 18 5 7 18 5
7 18 5 7 23 4 7 23 4 7 23 4 7 23 4 6 25 4 6 25 4 6 25 4 6 25 4 5 23 3
5 23 3 5 23 3 5 23 3 5 19 4 5 19 4 5 19 4 5 19 4 13 19 7 13 19 7
13 19 7 13 19 7 4 6 3 4 6 3 4 6 3 4 6 3 5 5 5 5 5 5 5 5 5 5 5 5 0 0 0
64 64 64 10 11 10 10 11 10 10 11 10 10 11 10 85 109 75 85 109 75
85 109 75 85 109 75 55 71 46 55 71 46 55 71 46 55 71 46 30 42 23
30 42 23 30 42 23 30 42 23 20 37 15 20 37 15 20 37 15 20 37 15
16 30 12 16 30 12 16 30 12 16 30 12 14 27 11 14 27 11 14 27 11
14 27 11 14 26 10 14 26 10 14 26 10 14 26 10 13 28 9 13 28 9 13 28 9
13 28 9 12 27 9 12 27 9 12 27 9 12 27 9 11 20 8 11 20 8 11 20 8
11 20 8 11 21 8 11 21 8 11 21 8 11 21 8 10 29 7 10 29 7 10 29 7
10 29 7 9 20 7 9 20 7 9 20 7 9 20 7 8 19 6 8 19 6 8 19 6 8 19 6
9 17 6 9 17 6 9 17 6 9 17 6 9 15 7 9 15 7 9 15 7 9 15 7 9 19 7 9 19 7
9 19 7 9 19 7 9 17 7 9 17 7 9 17 7 9 17 7 9 14 7 9 14 7 9 14 7 9 14 7
8 15 6 8 15 6 8 15 6 8 15 6 7 18 5 7 18 5 7 18 5 7 18 5 7 23 4 7 23 4
7 23 4 7 23 4 6 25 4 6 25 4 6 25 4 6 25 4 5 23 3 5 23 3 5 23 3 5 23 3
5 19 4 5 19 4 5 19 4 5 19 4 13 19 7 13 19 7 13 19 7 13 19 7 4 6 3
4 6 3 4 6 3 4 6 3 5 5 5 5 5 5 5 5 5 5 5 5 0 0 0 64 64 64 10 11 10
10 11 10 10 11 10 10 11 10 85 109 75 85 109 75 85 109 75 85 109 75
55 71 46 55 71 46 55 71 46 55 71 46 30 42 23 30 42 23 30 42 23
30 42 23 20 37 15 20 37 15 20 37 15 20 37 15 16 30 12 16 30 12
16 30 12 16 30 12 14 27 11 14 27 11 14 27 11 14 27 11 14 26 10
14 26 10 14 26 10 14 26 10 13 28 9 13 28 9 13 28 9 13 28 9 12 27 9
12 27 9 12 27 9 12 27 9 11 20 8 11 20 8 11 20 8 11 20 8 11 21 8
11 21 8 11 21 8 11 21 8 10 29 7 10 29 7 10 29 7 10 29 7 9 20 7 9 20 7
9 20 7 9 20 7 8 19 6 8 19 6 8 19 6 8 19 6 9 17 6 9 17 6 9 17 6 9 17 6
9 15 7 9 15 7 9 15 7 9 15 7 9 19 7 9 19 7 9 19 7 9 19 7 9 17 7 9 17 7
9 17 7 9 17 7 9 14 7 9 14 7 9 14 7 9 14 7 8 15 6 8 15 6 8 15 6 8 15 6
7 18 5 7 18 5 7 18 5 7 18 5 7 23 4 7 23 4 7 23 4 7 23 4 6 25 4 6 25 4
6 25 4 6 25 4 5 23 3 5 23 3 5 23 3 5 23 3 5 19 4 5 19 4 5 19 4 5 19 4
13 19 7 13 19 7 13 19 7 13 19 7 4 6 3 4 6 3 4 6 3 4 6 3 5 5 5 5 5 5
5 5 5 5 5 5 0 0 0 162 162 162 17 19 17 17 19 17 17 19 17 17 19 17
96 118 81 96 118 81 96 118 81 96 118 81 83 101 72 83 101 72 83 101 72
83 101 72 50 65 40 50 65 40 50 65 40 50 65 40 34 56 25 34 56 25
34 56 25 34 56 25 25 42 17 25 42 17 25 42 17 25 42 17 20 31 14
20 31 14 20 31 14 20 31 14 16 27 11 16 27 11 16 27 11 16 27 11
14 24 10 14 24 10 14 24 10 14 24 10 13 25 9 13 25 9 13 25 9 13 25 9
11 16 8 11 16 8 11 16 8 11 16 8 10 18 7 10 18 7 10 18 7 10 18 7
9 24 6 9 24 6 9 24 6 9 24 6 9 19 6 9 19 6 9 19 6 9 19 6 8 17 5 8 17 5
8 17 5 8 17 5 7 14 5 7 14 5 7 14 5 7 14 5 6 13 4 6 13 4 6 13 4 6 13 4
5 14 3 5 14 3 5 14 3 5 14 3 5 14 3 5 14 3 5 14 3 5 14 3 5 10 3 5 10 3
5 10 3 5 10 3 4 9 2 4 9 2 4 9 2 4 9 2 4 13 2 4 13 2 4 13 2 4 13 2
4 17 2 4 17 2 4 17 2 4 17 2 3 21 1 3 21 1 3 21 1 3 21 1 2 13 1 2 13 1
2 13 1 2 13 1 3 12 2 3 12 2 3 12 2 3 12 2 11 16 6 11 16 6 11 16 6
11 16 6 7 8 5 7 8 5 7 8 5 7 8 5 10 10 10 10 10 10 10 10 10 10 10 10
0 0 0 162 162 162 17 19 17 17 19 17 17 19 17 17 19 17 96 118 81
96 118 81 96 118 81 96 118 81 83 101 72 83 101 72 83 101 72 83 101 72
50 65 40 50 65 40 50 65 40 50 65 40 34 56 25 34 56 25 34 56 25
34 56 25 25 42 17 25 42 17 25 42 17 25 42 17 20 31 14 20 31 14
20 31 14 20 31 14 16 27 11 16 27 11 16 27 11 16 27 11 14 24 10
14 24 10 14 24 10 14 24 10 13 25 9 13 25 9 13 25 9 13 25 9 11 16 8
11 16 8 11 16 8 11 16 8 10 18 7 10 18 7 10 18 7 10 18 7 9 24 6 9 24 6
9 24 6 9 24 6 9 19 6 9 19 6 9 19 6 9 19 6 8 17 5 8 17 5 8 17 5 8 17 5
7 14 5 7 14 5 7 14 5 7 14 5 6 13 4 6 13 4 6 13 4 6 13 4 5 14 3 5 14 3
5 14 3 5 14 3 5 14 3 5 14 3 5 14 3 5 14 3 5 10 3 5 10 3 5 10 3 5 10 3
4 9 2 4 9 2 4 9 2 4 9 2 4 13 2 4 13 2 4 13 2 4 13 2 4 17 2 4 17 2
4 17 2 4 17 2 3 21 1 3 21 1 3 21 1 3 21 1 2 13 1 2 13 1 2 13 1 2 13 1
3 12 2 3 12 2 3 12 2 3 12 2 11 16 6 11 16 6 11 16 6 11 16 6 7 8 5
7 8 5 7 8 5 7 8 5 10 10 10 10 10 10 10 10 10 10 10 10 0 0 0
162 162 162 17 19 17 17 19 17 17 19 17 17 19 17 96 118 81 96 118 81
96 118 81 96 118 81 83 101 72 83 101 72 83 101 72 83 101 72 50 65 40
50 65 40 50 65 40 50 65 40 34 56 25 34 56 25 34 56 25 34 56 25
25 42 17 25 42 17 25 42 17 25 42 17 20 31 14 20 31 14 20 31 14
20 31 14 16 27 11 16 27 11 16 27 11 16 27 11 14 24 10 14 24 10
14 24 10 14 24 10 13 25 9 13 25 9 13 25 9 13 25 9 11 16 8 11 16 8
11 16 8 11 16 8 10 18 7 10 18 7 10 18 7 10 18 7 9 24 6 9 24 6 9 24 6
9 24 6 9 19 6 9 19 6 9 19 6 9 19 6 8 17 5 8 17 5 8 17 5 8 17 5 7 14 5
7 14 5 7 14 5 7 14 5 6 13 4 6 13 4 6 13 4 6 13 4 5 14 3 5 14 3 5 14 3
5 14 3 5 14 3 5 14 3 5 14 3 5 14 3 5 10 3 5 10 3 5 10 3 5 10 3 4 9 2
4 9 2 4 9 2 4 9 2 4 13 2 4 13 2 4 13 2 4 13 2 4 17 2 4 17 2 4 17 2
4 17 2 3 21 1 3 21 1 3 21 1 3 21 1 2 13 1 2 13 1 2 13 1 2 13 1 3 12 2
3 12 2 3 12 2 3 12 2 11 16 6 11 16 6 11 16 6 11 16 6 7 8 5 7 8 5
7 8 5 7 8 5 10 10 10 10 10 10 10 10 10 10 10 10 0 0 0 162 162 162
17 19 17 17 19 17 17 19 17 17 19 17 96 118 81 96 118 81 96 118 81
96 118 81 83 101 72 83 101 72 83 101 72 83 101 72 50 65 40 50 65 40
50 65 40 50 65 40 34 56 25 34 56 25 34 56 25 34 56 25 25 42 17
25 42 17 25 42 17 25 42 17 20 31 14 20 31 14 20 31 14 20 31 14
16 27 11 16 27 11 16 27 11 16 27 11 14 24 10 14 24 10 14 24 10
14 24 10 13 25 9 13 25 9 13 25 9 13 25 9 11 16 8 11 16 8 11 16 8
11 16 8 10 18 7 10 18 7 10 18 7 10 18 7 9 24 6 9 24 6 9 24 6 9 24 6
9 19 6 9 19 6 9 19 6 9 19 6 8 17 5 8 17 5 8 17 5 8 17 5 7 14 5 7 14 5
7 14 5 7 14 5 6 13 4 6 13 4 6 13 4 6 13 4 5 14 3 5 14 3 5 14 3 5 14 3
5 14 3 5 14 3 5 14 3 5 14 3 5 10 3 5 10 3 5 10 3 5 10 3 4 9 2 4 9 2
4 9 2 4 9 2 4 13 2 4 13 2 4 13 2 4 13 2 4 17 2 4 17 2 4 17 2 4 17 2
3 21 1 3 21 1 3 21 1 3 21 1 2 13 1 2 13 1 2 13 1 2 13 1 3 12 2 3 12 2
3 12 2 3 12 2 11 16 6 11 16 6 11 16 6 11 16 6 7 8 5 7 8 5 7 8 5 7 8 5
10 10 10 10 10 10 10 10 10 10 10 10 0 0 0 106 106 106 11 11 11
11 11 11 11 11 11 11 11 11 89 102 65 89 102 65 89 102 65 89 102 65
86 107 71 86 107 71 86 107 71 86 107 71 59 80 48 59 80 48 59 80 48
59 80 48 46 73 35 46 73 35 46 73 35 46 73 35 39 66 29 39 66 29
39 66 29 39 66 29 30 46 21 30 46 21 30 46 21 30 46 21 23 38 16
23 38 16 23 38 16 23 38 16 20 35 14 20 35 14 20 35 14 20 35 14
18 33 12 18 33 12 18 33 12 18 33 12 16 21 11 16 21 11 16 21 11
16 21 11 14 22 9 14 22 9 14 22 9 14 22 9 13 32 8 13 32 8 13 32 8
13 32 8 11 25 8 11 25 8 11 25 8 11 25 8 11 23 7 11 23 7 11 23 7
11 23 7 11 23 7 11 23 7 11 23 7 11 23 7 12 19 7 12 19 7 12 19 7
12 19 7 10 21 6 10 21 6 10 21 6 10 21 6 6 15 4 6 15 4 6 15 4 6 15 4
5 11 3 5 11 3 5 11 3 5 11 3 5 9 3 5 9 3 5 9 3 5 9 3 4 11 3 4 11 3
4 11 3 4 11 3 7 19 4 7 19 4 7 19 4 7 19 4 4 19 2 4 19 2 4 19 2 4 19 2
2 11 1 2 11 1 2 11 1 2 11 1 3 10 2 3 10 2 3 10 2 3 10 2 14 19 7
14 19 7 14 19 7 14 19 7 10 11 6 10 11 6 10 11 6 10 11 6 12 12 12
12 12 12 12 12 12 12 12 12 0 0 0 106 106 106 11 11 11 11 11 11
11 11 11 11 11 11 89 102 65 89 102 65 89 102 65 89 102 65 86 107 71
86 107 71 86 107 71 86 107 71 59 80 48 59 80 48 59 80 48 59 80 48
46 73 35 46 73 35 46 73 35 46 73 35 39 66 29 39 66 29 39 66 29
39 66 29 30 46 21 30 46 21 30 46 21 30 46 21 23 38 16 23 38 16
23 38 16 23 38 16 20 35 14 20 35 14 20 35 14 20 35 14 18 33 12
18 33 12 18 33 12 18 33 12 16 21 11 16 21 11 16 21 11 16 21 11
14 22 9 14 22 9 14 22 9 14 22 9 13 32 8 13 32 8 13 32 8 13 32 8
11 25 8 11 25 8 11 25 8 11 25 8 11 23 7 11 23 7 11 23 7 11 23 7
11 23 7 11 23 7 11 23 7 11 23 7 12 19 7 12 19 7 12 19 7 12 19 7
10 21 6 10 21 6 10 21 6 10 21 6 6 15 4 6 15 4 6 15 4 6 15 4 5 11 3
5 11 3 5 11 3 5 11 3 5 9 3 5 9 3 5 9 3 5 9 3 4 11 3 4 11 3 4 11 3
4 11 3 7 19 4 7 19 4 7 19 4 7 19 4 4 19 2 4 19 2 4 19 2 4 19 2 2 11 1
2 11 1 2 11 1 2 11 1 3 10 2 3 10 2 3 10 2 3 10 2 14 19 7 14 19 7
14 19 7 14 19 7 10 11 6 10 11 6 10 11 6 10 11 6 12 12 12 12 12 12
12 12 12 12 12 12 0 0 0 106 106 106 11 11 11 11 11 11 11 11 11
11 11 11 89 102 65 89 102 65 89 102 65 89 102 65 86 107 71 86 107 71
86 107 71 86 107 71 59 80 48 59 80 48 59 80 48 59 80 48 46 73 35
46 73 35 46 73 35 46 73 35 39 66 29 39 66 29 39 66 29 39 66 29
30 46 21 30 46 21 30 46 21 30 46 21 23 38 16 23 38 16 23 38 16
23 38 16 20 35 14 20 35 14 20 35 14 20 35 14 18 33 12 18 33 12
18 33 12 18 33 12 16 21 11 16 21 11 16 21 11 16 21 11 14 22 9 14 22 9
14 22 9 14 22 9 13 32 8 13 32 8 13 32 8 13 32 8 11 25 8 11 25 8
11 25 8 11 25 8 11 23 7 11 23 7 11 23 7 11 23 7 11 23 7 11 23 7
11 23 7 11 23 7 12 19 7 12 19 7 12 19 7 12 19 7 10 21 6 10 21 6
10 21 6 10 21 6 6 15 4 6 15 4 6 15 4 6 15 4 5 11 3 5 11 3 5 11 3
5 11 3 5 9 3 5 9 3 5 9 3 5 9 3 4 11 3 4 11 3 4 11 3 4 11 3 7 19 4
7 19 4 7 19 4 7 19 4 4 19 2 4 19 2 4 19 2 4 19 2 2 11 1 2 11 1 2 11 1
2 11 1 3 10 2 3 10 2 3 10 2 3 10 2 14 19 7 14 19 7 14 19 7 14 19 7
10 11 6 10 11 6 10 11 6 10 11 6 12 12 12 12 12 12 12 12 12 12 12 12
0 0 0 106 106 106 11 11 11 11 11 11 11 11 11 11 11 11 89 102 65
89 102 65 89 102 65 89 102 65 86 107 71 86 107 71 86 107 71 86 107 71
59 80 48 59 80 48 59 80 48 59 80 48 46 73 35 46 73 35 46 73 35
46 73 35 39 66 29 39 66 29 39 66 29 39 66 29 30 46 21 30 46 21
30 46 21 30 46 21 23 38 16 23 38 16 23 38 16 23 38 16 20 35 14
20 35 14 20 35 14 20 35 14 18 33 12 18 33 12 18 33 12 18 33 12
16 21 11 16 21 11 16 21 11 16 21 11 14 22 9 14 22 9 14 22 9 14 22 9
13 32 8 13 32 8 13 32 8 13 32 8 11 25 8 11 25 8 11 25 8 11 25 8
11 23 7 11 23 7 11 23 7 11 23 7 11 23 7 11 23 7 11 23 7 11 23 7
12 19 7 12 19 7 12 19 7 12 19 7 10 21 6 10 21 6 10 21 6 10 21 6
6 15 4 6 15 4 6 15 4 6 15 4 5 11 3 5 11 3 5 11 3 5 11 3 5 9 3 5 9 3
5 9 3 5 9 3 4 11 3 4 11 3 4 11 3 4 11 3 7 19 4 7 19 4 7 19 4 7 19 4
4 19 2 4 19 2 4 19 2 4 19 2 2 11 1 2 11 1 2 11 1 2 11 1 3 10 2 3 10 2
3 10 2 3 10 2 14 19 7 14 19 7 14 19 7 14 19 7 10 11 6 10 11 6 10 11 6
10 11 6 12 12 12 12 12 12 12 12 12 12 12 12 0 0 0 36 36 36 13 16 13
13 16 13 13 16 13 13 16 13 17 20 12 17 20 12 17 20 12 17 20 12
43 55 33 43 55 33 43 55 33 43 55 33 53 69 42 53 69 42 53 69 42
53 69 42 53 79 43 53 79 43 53 79 43 53 79 43 51 75 41 51 75 41
51 75 41 51 75 41 48 67 39 48 67 39 48 67 39 48 67 39 43 59 35
43 59 35 43 59 35 43 59 35 39 57 31 39 57 31 39 57 31 39 57 31
38 57 31 38 57 31 38 57 31 38 57 31 32 40 26 32 40 26 32 40 26
32 40 26 22 33 16 22 33 16 22 33 16 22 33 16 19 45 12 19 45 12
19 45 12 19 45 12 17 39 11 17 39 11 17 39 11 17 39 11 16 32 10
16 32 10 16 32 10 16 32 10 15 30 9 15 30 9 15 30 9 15 30 9 14 22 9
14 22 9 14 22 9 14 22 9 11 25 7 11 25 7 11 25 7 11 25 7 7 16 4 7 16 4
7 16 4 7 16 4 6 14 3 6 14 3 6 14 3 6 14 3 5 10 3 5 10 3 5 10 3 5 10 3
5 13 3 5 13 3 5 13 3 5 13 3 8 24 4 8 24 4 8 24 4 8 24 4 11 27 6
11 27 6 11 27 6 11 27 6 6 24 3 6 24 3 6 24 3 6 24 3 12 22 8 12 22 8
12 22 8 12 22 8 14 17 9 14 17 9 14 17 9 14 17 9 6 8 6 6 8 6 6 8 6
6 8 6 18 18 18 18 18 18 18 18 18 18 18 18 0 0 0 36 36 36 13 16 13
13 16 13 13 16 13 13 16 13 17 20 12 17 20 12 17 20 12 17 20 12
43 55 33 43 55 33 43 55 33 43 55 33 53 69 42 53 69 42 53 69 42
53 69 42 53 79 43 53 79 43 53 79 43 53 79 43 51 75 41 51 75 41
51 75 41 51 75 41 48 67 39 48 67 39 48 67 39 48 67 39 43 59 35
43 59 35 43 59 35 43 59 35 39 57 31 39 57 31 39 57 31 39 57 31
38 57 31 38 57 31 38 57 31 38 57 31 32 40 26 32 40 26 32 40 26
32 40 26 22 33 16 22 33 16 22 33 16 22 33 16 19 45 12 19 45 12
19 45 12 19 45 12 17 39 11 17 39 11 17 39 11 17 39 11 16 32 10
16 32 10 16 32 10 16 32 10 15 30 9 15 30 9 15 30 9 15 30 9 14 22 9
14 22 9 14 22 9 14 22 9 11 25 7 11 25 7 11 25 7 11 25 7 7 16 4 7 16 4
7 16 4 7 16 4 6 14 3 6 14 3 6 14 3 6 14 3 5 10 3 5 10 3 5 10 3 5 10 3
5 13 3 5 13 3 5 13 3 5 13 3 8 24 4 8 24 4 8 24 4 8 24 4 11 27 6
11 27 6 11 27 6 11 27 6 6 24 3 6 24 3 6 24 3 6 24 3 12 22 8 12 22 8
12 22 8 12 22 8 14 17 9 14 17 9 14 17 9 14 17 9 6 8 6 6 8 6 6 8 6
6 8 6 18 18 18 18 18 18 18 18 18 18 18 18 0 0 0 36 36 36 13 16 13
13 16 13 13 16 13 13 16 13 17 20 12 17 20 12 17 20 12 17 20 12
43 55 33 43 55 33 43 55 33 43 55 33 53 69 42 53 69 42 53 69 42
53 69 42 53 79 43 53 79 43 53 79 43 53 79 43 51 75 41 51 75 41
51 75 41 51 75 41 48 67 39 48 67 39 48 67 39 48 67 39 43 59 35
43 59 35 43 59 35 43 59 35 39 57 31 39 57 31 39 57 31 39 57 31
38 57 31 38 57 31 38 57 31 38 57 31 32 40 26 32 40 26 32 40 26
32 40 26 22 33 16 22 33 16 22 33 16 22 33 16 19 45 12 19 45 12
19 45 12 19 45 12 17 39 11 17 39 11 17 39 11 17 39 11 16 32 10
16 32 10 16 32 10 16 32 10 15 30 9 15 30 9 15 30 9 15 30 9 14 22 9
14 22 9 14 22 9 14 22 9 11 25 7 11 25 7 11 25 7 11 25 7 7 16 4 7 16 4
7 16 4 7 16 4 6 14 3 6 14 3 6 14 3 6 14 3 5 10 3 5 10 3 5 10 3 5 10 3
5 13 3 5 13 3 5 13 3 5 13 3 8 24 4 8 24 4 8 24 4 8 24 4 11 27 6
11 27 6 11 27 6 11 27 6 6 24 3 6 24 3 6 24 3 6 24 3 12 22 8 12 22 8
12 22 8 12 22 8 14 17 9 14 17 9 14 17 9 14 17 9 6 8 6 6 8 6 6 8 6
6 8 6 18 18 18 18 18 18 18 18 18 18 18 18 0 0 0 36 36 36 13 16 13
13 16 13 13 16 13 13 16 13 17 20 12 17 20 12 17 20 12 17 20 12
43 55 33 43 55 33 43 55 33 43 55 33 53 69 42 53 69 42 53 69 42
53 69 42 53 79 43 53 79 43 53 79 43 53 79 43 51 75 41 51 75 41
51 75 41 51 75 41 48 67 39 48 67 39 48 67 39 48 67 39 43 59 35
43 59 35 43 59 35 43 59 35 39 57 31 39 57 31 39 57 31 39 57 31
38 57 31 38 57 31 38 57 31 38 57 31 32 40 26 32 40 26 32 40 26
32 40 26 22 33 16 22 33 16 22 33 16 22 33 16 19 45 12 19 45 12
19 45 12 19 45 12 17 39 11 17 39 11 17 39 11 17 39 11 16 32 10
16 32 10 16 32 10 16 32 10 15 30 9 15 30 9 15 30 9 15 30 9 14 22 9
14 22 9 14 22 9 14 22 9 11 25 7 11 25 7 11 25 7 11 25 7 7 16 4 7 16 4
7 16 4 7 16 4 6 14 3 6 14 3 6 14 3 6 14 3 5 10 3 5 10 3 5 10 3 5 10 3
5 13 3 5 13 3 5 13 3 5 13 3 8 24 4 8 24 4 8 24 4 8 24 4 11 27 6
11 27 6 11 27 6 11 27 6 6 24 3 6 24 3 6 24 3 6 24 3 12 22 8 12 22 8
12 22 8 12 22 8 14 17 9 14 17 9 14 17 9 14 17 9 6 8 6 6 8 6 6 8 6
6 8 6 18 18 18 18 18 18 18 18 18 18 18 18 0 0 0 0 0 0 46 46 46
46 46 46 46 46 46 46 46 46 64 64 64 64 64 64 64 64 64 64 64 64
29 29 29 29 29 29 29 29 29 29 29 29 15 16 15 15 16 15 15 16 15
15 16 15 20 22 15 20 22 15 20 22 15 20 22 15 25 33 21 25 33 21
25 33 21 25 33 21 31 40 26 31 40 26 31 40 26 31 40 26 38 46 31
38 46 31 38 46 31 38 46 31 41 54 35 41 54 35 41 54 35 41 54 35
44 59 37 44 59 37 44 59 37 44 59 37 36 44 30 36 44 30 36 44 30
36 44 30 22 35 16 22 35 16 22 35 16 22 35 16 19 44 12 19 44 12
19 44 12 19 44 12 17 39 11 17 39 11 17 39 11 17 39 11 15 33 10
15 33 10 15 33 10 15 33 10 13 28 9 13 28 9 13 28 9 13 28 9 11 20 7
11 20 7 11 20 7 11 20 7 11 22 7 11 22 7 11 22 7 11 22 7 9 20 6 9 20 6
9 20 6 9 20 6 9 18 5 9 18 5 9 18 5 9 18 5 8 13 5 8 13 5 8 13 5 8 13 5
8 14 5 8 14 5 8 14 5 8 14 5 9 19 6 9 19 6 9 19 6 9 19 6 9 17 6 9 17 6
9 17 6 9 17 6 5 9 4 5 9 4 5 9 4 5 9 4 4 6 4 4 6 4 4 6 4 4 6 4
38 38 38 38 38 38 38 38 38 38 38 38 142 142 142 142 142 142
142 142 142 142 142 142 0 0 0 0 0 0 0 0 0 0 0 0 0 0 0 0 0 0 46 46 46
46 46 46 46 46 46 46 46 46 64 64 64 64 64 64 64 64 64 64 64 64
29 29 29 29 29 29 29 29 29 29 29 29 15 16 15 15 16 15 15 16 15
15 16 15 20 22 15 20 22 15 20 22 15 20 22 15 25 33 21 25 33 21
25 33 21 25 33 21 31 40 26 31 40 26 31 40 26 31 40 26 38 46 31
38 46 31 38 46 31 38 46 31 41 54 35 41 54 35 41 54 35 41 54 35
44 59 37 44 59 37 44 59 37 44 59 37 36 44 30 36 44 30 36 44 30
36 44 30 22 35 16 22 35 16 22 35 16 22 35 16 19 44 12 19 44 12
19 44 12 19 44 12 17 39 11 17 39 11 17 39 11 17 39 11 15 33 10
15 33 10 15 33 10 15 33 10 13 28 9 13 28 9 13 28 9 13 28 9 11 20 7
11 20 7 11 20 7 11 20 7 11 22 7 11 22 7 11 22 7 11 22 7 9 20 6 9 20 6
9 20 6 9 20 6 9 18 5 9 18 5 9 18 5 9 18 5 8 13 5 8 13 5 8 13 5 8 13 5
8 14 5 8 14 5 8 14 5 8 14 5 9 19 6 9 19 6 9 19 6 9 19 6 9 17 6 9 17 6
9 17 6 9 17 6 5 9 4 5 9 4 5 9 4 5 9 4 4 6 4 4 6 4 4 6 4 4 6 4
38 38 38 38 38 38 38 38 38 38 38 38 142 142 142 142 142 142
142 142 142 142 142 142 0 0 0 0 0 0 0 0 0 0 0 0 0 0 0 0 0 0 46 46 46
46 46 46 46 46 46 46 46 46 64 64 64 64 64 64 64 64 64 64 64 64
29 29 29 29 29 29 29 29 29 29 29 29 15 16 15 15 16 15 15 16 15
15 16 15 20 22 15 20 22 15 20 22 15 20 22 15 25 33 21 25 33 21
25 33 21 25 33 21 31 40 26 31 40 26 31 40 26 31 40 26 38 46 31
38 46 31 38 46 31 38 46 31 41 54 35 41 54 35 41 54 35 41 54 35
44 59 37 44 59 37 44 59 37 44 59 37 36 44 30 36 44 30 36 44 30
36 44 30 22 35 16 22 35 16 22 35 16 22 35 16 19 44 12 19 44 12
19 44 12 19 44 12 17 39 11 17 39 11 17 39 11 17 39 11 15 33 10
15 33 10 15 33 10 15 33 10 13 28 9 13 28 9 13 28 9 13 28 9 11 20 7
11 20 7 11 20 7 11 20 7 11 22 7 11 22 7 11 22 7 11 22 7 9 20 6 9 20 6
9 20 6 9 20 6 9 18 5 9 18 5 9 18 5 9 18 5 8 13 5 8 13 5 8 13 5 8 13 5
8 14 5 8 14 5 8 14 5 8 14 5 9 19 6 9 19 6 9 19 6 9 19 6 9 17 6 9 17 6
9 17 6 9 17 6 5 9 4 5 9 4 5 9 4 5 9 4 4 6 4 4 6 4 4 6 4 4 6 4
38 38 38 38 38 38 38 38 38 38 38 38 142 142 142 142 142 142
142 142 142 142 142 142 0 0 0 0 0 0 0 0 0 0 0 0 0 0 0 0 0 0 46 46 46
46 46 46 46 46 46 46 46 46 64 64 64 64 64 64 64 64 64 64 64 64
29 29 29 29 29 29 29 29 29 29 29 29 15 16 15 15 16 15 15 16 15
15 16 15 20 22 15 20 22 15 20 22 15 20 22 15 25 33 21 25 33 21
25 33 21 25 33 21 31 40 26 31 40 26 31 40 26 31 40 26 38 46 31
38 46 31 38 46 31 38 46 31 41 54 35 41 54 35 41 54 35 41 54 35
44 59 37 44 59 37 44 59 37 44 59 37 36 44 30 36 44 30 36 44 30
36 44 30 22 35 16 22 35 16 22 35 16 22 35 16 19 44 12 19 44 12
19 44 12 19 44 12 17 39 11 17 39 11 17 39 11 17 39 11 15 33 10
15 33 10 15 33 10 15 33 10 13 28 9 13 28 9 13 28 9 13 28 9 11 20 7
11 20 7 11 20 7 11 20 7 11 22 7 11 22 7 11 22 7 11 22 7 9 20 6 9 20 6
9 20 6 9 20 6 9 18 5 9 18 5 9 18 5 9 18 5 8 13 5 8 13 5 8 13 5 8 13 5
8 14 5 8 14 5 8 14 5 8 14 5 9 19 6 9 19 6 9 19 6 9 19 6 9 17 6 9 17 6
9 17 6 9 17 6 5 9 4 5 9 4 5 9 4 5 9 4 4 6 4 4 6 4 4 6 4 4 6 4
38 38 38 38 38 38 38 38 38 38 38 38 142 142 142 142 142 142
142 142 142 142 142 142 0 0 0 0 0 0 0 0 0 0 0 0 0 0 0 0 0 0 0 0 0
0 0 0 0 0 0 0 0 0 51 51 51 51 51 51 51 51 51 51 51 51 34 34 34
34 34 34 34 34 34 34 34 34 24 24 24 24 24 24 24 24 24 24 24 24
26 26 26 26 26 26 26 26 26 26 26 26 23 23 23 23 23 23 23 23 23
23 23 23 14 14 14 14 14 14 14 14 14 14 14 14 7 9 7 7 9 7 7 9 7 7 9 7
4 6 4 4 6 4 4 6 4 4 6 4 2 3 2 2 3 2 2 3 2 2 3 2 2 2 2 2 2 2 2 2 2
2 2 2 0 0 0 0 0 0 0 0 0 0 0 0 0 0 0 0 0 0 0 0 0 0 0 0 0 0 0 0 0 0
0 0 0 0 0 0 0 0 0 0 0 0 0 0 0 0 0 0 0 0 0 0 0 0 0 0 0 0 0 0 0 0 0
0 0 0 0 0 0 0 0 0 0 0 0 0 0 0 0 0 0 0 0 0 0 0 0 0 0 0 0 0 0 0 0 0
0 2 0 0 2 0 0 2 0 0 2 0 0 0 0 0 0 0 0 0 0 0 0 0 0 4 0 0 4 0 0 4 0
0 4 0 0 0 0 0 0 0 0 0 0 0 0 0 0 0 0 0 0 0 0 0 0 0 0 0 0 0 0 0 0 0
0 0 0 0 0 0 128 128 128 128 128 128 128 128 128 128 128 128
255 255 255 255 255 255 255 255 255 255 255 255 255 255 255
255 255 255 255 255 255 255 255 255 0 0 0 0 0 0 0 0 0 0 0 0 0 0 0
0 0 0 0 0 0 0 0 0 0 0 0 0 0 0 51 51 51 51 51 51 51 51 51 51 51 51
34 34 34 34 34 34 34 34 34 34 34 34 24 24 24 24 24 24 24 24 24
24 24 24 26 26 26 26 26 26 26 26 26 26 26 26 23 23 23 23 23 23
23 23 23 23 23 23 14 14 14 14 14 14 14 14 14 14 14 14 7 9 7 7 9 7
7 9 7 7 9 7 4 6 4 4 6 4 4 6 4 4 6 4 2 3 2 2 3 2 2 3 2 2 3 2 2 2 2
2 2 2 2 2 2 2 2 2 0 0 0 0 0 0 0 0 0 0 0 0 0 0 0 0 0 0 0 0 0 0 0 0
0 0 0 0 0 0 0 0 0 0 0 0 0 0 0 0 0 0 0 0 0 0 0 0 0 0 0 0 0 0 0 0 0
0 0 0 0 0 0 0 0 0 0 0 0 0 0 0 0 0 0 0 0 0 0 0 0 0 0 0 0 0 0 0 0 0
0 0 0 0 0 0 0 2 0 0 2 0 0 2 0 0 2 0 0 0 0 0 0 0 0 0 0 0 0 0 0 4 0
0 4 0 0 4 0 0 4 0 0 0 0 0 0 0 0 0 0 0 0 0 0 0 0 0 0 0 0 0 0 0 0 0
0 0 0 0 0 0 0 0 0 0 0 0 128 128 128 128 128 128 128 128 128
128 128 128 255 255 255 255 255 255 255 255 255 255 255 255
255 255 255 255 255 255 255 255 255 255 255 255 0 0 0 0 0 0 0 0 0
0 0 0 0 0 0
