P3
160 160
255
222 110 29 222 110 29 222 110 29 221 108 28 221 108 30 219 107 29
219 107 29 218 108 29 215 109 29 217 110 30 206 89 12 212 88 14
214 86 16 214 86 16 212 87 16 212 87 16 214 86 16 215 86 16 215 86 16
215 86 16 212 82 12 212 82 12 212 82 12 212 82 12 210 83 14 210 83 14
212 82 12 212 83 10 209 83 7 205 83 6 221 107 25 218 107 21
217 108 21 217 108 21 217 107 23 217 107 23 217 107 23 217 107 23
217 108 21 212 110 21 236 147 52 232 150 52 232 150 50 232 150 50
232 150 52 232 150 52 232 150 52 232 150 52 233 149 52 232 148 51
229 144 47 226 142 45 226 141 47 226 141 47 226 141 47 228 141 47
229 140 47 229 140 47 228 141 47 229 140 47 219 117 28 220 116 28
219 117 28 219 117 28 220 116 28 219 117 28 217 118 28 217 118 28
223 122 33 225 116 30 209 92 9 210 86 7 211 85 11 213 83 13 213 83 15
213 83 15 215 82 15 215 82 15 215 82 17 215 82 17 203 68 6 203 68 6
203 67 9 203 67 9 205 66 9 205 66 9 203 67 9 203 68 6 202 69 4
198 66 0 210 80 10 206 76 6 210 80 10 210 80 10 210 80 10 210 80 10
210 80 10 210 80 10 211 81 11 211 81 11 211 81 11 211 81 11 210 83 12
210 83 12 210 83 12 210 83 12 210 85 13 210 85 13 210 85 13 210 85 13
211 86 14 211 86 14 212 87 18 212 87 18 212 87 18 212 87 18 212 87 18
212 87 18 212 87 18 211 88 16 218 99 23 217 100 21 217 100 21
217 100 21 215 101 21 215 101 21 215 101 21 215 101 21 214 101 21
217 105 24 222 110 29 225 113 32 224 114 32 224 114 32 224 114 32
224 114 32 224 114 32 224 114 32 224 114 32 222 113 31 221 112 30
220 110 29 220 110 29 220 110 29 219 108 25 219 108 23 218 109 23
216 110 23 215 110 23 215 110 23 223 122 33 221 121 32 222 120 34
222 120 34 222 120 34 222 120 34 222 120 34 222 120 34 222 120 34
222 120 34 222 110 29 222 110 29 222 110 29 221 108 28 221 108 30
219 107 29 219 107 29 218 108 29 215 109 29 217 110 30 206 89 12
212 88 14 214 86 16 214 86 16 212 87 16 212 87 16 214 86 16 215 86 16
215 86 16 215 86 16 212 82 12 212 82 12 212 82 12 212 82 12 210 83 14
210 83 14 212 82 12 212 83 10 209 83 7 205 83 6 221 107 25 218 107 21
217 108 21 217 108 21 217 107 23 217 107 23 217 107 23 217 107 23
217 108 21 212 110 21 236 147 52 232 150 52 232 150 50 232 150 50
232 150 52 232 150 52 232 150 52 232 150 52 233 149 52 232 148 51
229 144 47 226 142 45 226 141 47 226 141 47 226 141 47 228 141 47
229 140 47 229 140 47 228 141 47 229 140 47 219 117 28 220 116 28
219 117 28 219 117 28 220 116 28 219 117 28 217 118 28 217 118 28
223 122 33 225 116 30 209 92 9 210 86 7 211 85 11 213 83 13 213 83 15
213 83 15 215 82 15 215 82 15 215 82 17 215 82 17 203 68 6 203 68 6
203 67 9 203 67 9 205 66 9 205 66 9 203 67 9 203 68 6 202 69 4
198 66 0 210 80 10 206 76 6 210 80 10 210 80 10 210 80 10 210 80 10
210 80 10 210 80 10 211 81 11 211 81 11 211 81 11 211 81 11 210 83 12
210 83 12 210 83 12 210 83 12 210 85 13 210 85 13 210 85 13 210 85 13
211 86 14 211 86 14 212 87 18 212 87 18 212 87 18 212 87 18 212 87 18
212 87 18 212 87 18 211 88 16 218 99 23 217 100 21 217 100 21
217 100 21 215 101 21 215 101 21 215 101 21 215 101 21 214 101 21
217 105 24 222 110 29 225 113 32 224 114 32 224 114 32 224 114 32
224 114 32 224 114 32 224 114 32 224 114 32 222 113 31 221 112 30
220 110 29 220 110 29 220 110 29 219 108 25 219 108 23 218 109 23
216 110 23 215 110 23 215 110 23 223 122 33 221 121 32 222 120 34
222 120 34 222 120 34 222 120 34 222 120 34 222 120 34 222 120 34
222 120 34 222 110 29 222 110 29 222 110 29 221 108 28 221 108 30
219 107 29 219 107 29 218 108 29 215 109 29 217 110 30 206 89 12
212 88 14 214 86 16 214 86 16 212 87 16 212 87 16 214 86 16 215 86 16
215 86 16 215 86 16 212 82 12 212 82 12 212 82 12 212 82 12 210 83 14
210 83 14 212 82 12 212 83 10 209 83 7 205 83 6 221 107 25 218 107 21
217 108 21 217 108 21 217 107 23 217 107 23 217 107 23 217 107 23
217 108 21 212 110 21 236 147 52 232 150 52 232 150 50 232 150 50
232 150 52 232 150 52 232 150 52 232 150 52 233 149 52 232 148 51
229 144 47 226 142 45 226 141 47 226 141 47 226 141 47 228 141 47
229 140 47 229 140 47 228 141 47 229 140 47 219 117 28 220 116 28
219 117 28 219 117 28 220 116 28 219 117 28 217 118 28 217 118 28
223 122 33 225 116 30 209 92 9 210 86 7 211 85 11 213 83 13 213 83 15
213 83 15 215 82 15 215 82 15 215 82 17 215 82 17 203 68 6 203 68 6
203 67 9 203 67 9 205 66 9 205 66 9 203 67 9 203 68 6 202 69 4
198 66 0 210 80 10 206 76 6 210 80 10 210 80 10 210 80 10 210 80 10
210 80 10 210 80 10 211 81 11 211 81 11 211 81 11 211 81 11 210 83 12
210 83 12 210 83 12 210 83 12 210 85 13 210 85 13 210 85 13 210 85 13
211 86 14 211 86 14 212 87 18 212 87 18 212 87 18 212 87 18 212 87 18
212 87 18 212 87 18 211 88 16 218 99 23 217 100 21 217 100 21
217 100 21 215 101 21 215 101 21 215 101 21 215 101 21 214 101 21
217 105 24 222 110 29 225 113 32 224 114 32 224 114 32 224 114 32
224 114 32 224 114 32 224 114 32 224 114 32 222 113 31 221 112 30
220 110 29 220 110 29 220 110 29 219 108 25 219 108 23 218 109 23
216 110 23 215 110 23 215 110 23 223 122 33 221 121 32 222 120 34
222 120 34 222 120 34 222 120 34 222 120 34 222 120 34 222 120 34
222 120 34 222 110 29 222 110 29 222 110 29 221 108 28 221 108 30
219 107 29 219 107 29 218 108 29 215 109 29 217 110 30 206 89 12
212 88 14 213 85 14 213 85 14 211 86 14 211 86 14 214 86 16 215 86 16
215 86 16 215 86 16 212 82 12 212 82 12 212 82 12 212 82 12 210 83 14
210 83 14 212 82 12 212 83 10 209 83 7 205 83 6 221 107 25 218 107 21
217 108 21 217 108 21 217 107 23 217 107 23 217 107 23 217 107 23
217 108 21 212 110 21 236 147 52 232 150 52 232 150 52 232 150 50
232 150 52 232 150 52 232 150 52 232 150 52 233 149 52 232 148 51
229 144 47 226 142 45 226 141 47 226 141 47 226 141 47 228 141 47
229 140 47 229 140 47 228 141 47 229 140 47 219 117 28 220 116 28
219 117 28 219 117 28 220 116 28 219 117 28 217 118 28 217 118 28
223 122 33 225 116 30 209 92 9 210 86 7 211 85 11 213 83 13 213 83 15
213 83 15 215 82 15 215 82 15 215 82 17 215 82 17 203 68 6 203 68 6
203 67 9 203 67 9 205 66 9 205 66 9 203 67 9 203 68 6 202 69 4
198 66 0 210 80 10 206 76 6 210 80 10 210 80 10 210 80 10 210 80 10
210 80 10 210 80 10 211 81 11 211 81 11 211 81 11 211 81 11 210 83 12
210 83 12 210 83 12 210 83 12 210 85 13 210 85 13 210 85 13 210 85 13
211 86 14 211 86 14 212 87 18 212 87 18 212 87 18 212 87 18 212 87 18
212 87 18 212 87 18 211 88 16 218 99 23 217 100 21 217 100 21
217 100 21 215 101 21 215 101 21 215 101 21 215 101 21 214 101 21
217 105 24 222 110 29 225 113 32 224 114 32 224 114 32 224 114 32
224 114 32 224 114 32 224 114 32 224 114 32 222 113 31 221 112 30
220 110 29 220 110 29 220 110 29 219 108 25 219 108 23 218 109 23
216 110 23 215 110 23 215 110 23 223 122 33 221 121 32 222 120 34
222 120 34 222 120 34 222 120 34 222 120 34 222 120 34 222 120 34
222 120 34 221 108 28 221 108 28 221 108 28 221 108 28 221 108 30
221 108 30 221 108 30 219 109 30 217 110 30 220 110 31 207 90 14
213 89 15 213 85 14 213 85 14 211 86 14 211 86 14 213 85 14 214 84 14
214 84 14 214 84 14 213 83 13 213 83 13 213 83 13 213 83 13 211 84 15
211 84 15 213 83 13 213 84 11 210 84 8 206 84 7 222 108 26 219 108 23
219 108 23 219 108 23 219 108 25 219 108 25 218 108 25 218 108 25
218 109 23 213 111 23 238 148 55 233 150 55 233 151 53 233 151 53
233 151 53 233 151 53 233 151 53 233 151 53 234 150 55 233 148 54
230 145 51 227 143 48 227 143 48 227 143 48 227 143 48 229 142 48
231 141 48 231 141 48 229 142 48 231 141 48 220 118 30 222 117 30
220 118 30 220 118 30 222 117 30 220 118 30 218 119 30 218 119 30
222 120 34 224 114 30 207 91 10 209 85 8 211 85 11 213 83 13
213 83 15 213 83 15 215 82 15 215 82 15 215 82 17 215 82 17 203 68 6
203 68 6 203 67 9 203 67 9 205 66 9 205 66 9 203 67 9 203 68 6
202 69 4 198 66 0 210 80 10 206 76 6 210 80 10 210 80 10 210 80 10
210 80 10 210 80 10 210 80 10 211 81 11 211 81 11 211 81 11 211 81 11
210 83 12 210 83 12 210 83 12 210 83 12 210 85 13 210 85 13 210 85 13
210 85 13 211 86 14 211 86 14 212 87 18 212 87 18 212 87 18 212 87 18
212 87 18 212 87 18 212 87 18 211 88 16 218 99 23 217 100 21
217 100 21 217 100 21 215 101 21 215 101 21 215 101 21 215 101 21
215 101 21 217 105 24 222 110 29 224 114 32 224 114 32 222 115 32
224 114 32 224 114 32 224 114 32 224 114 32 224 114 32 221 112 30
220 110 29 219 109 28 219 109 28 219 109 28 221 109 26 221 109 24
219 110 24 217 111 24 216 112 24 216 112 24 225 123 34 222 123 33
222 120 34 222 120 34 222 120 34 222 120 34 222 120 34 222 120 34
222 120 34 222 120 34 221 108 28 221 108 28 221 108 28 221 108 28
221 108 30 221 108 30 221 108 30 219 109 30 217 110 30 220 110 31
207 90 14 212 90 15 211 84 13 211 84 13 210 85 13 210 85 13 213 85 14
214 84 14 214 84 14 214 84 14 213 83 13 213 83 13 213 83 13 213 83 13
211 84 15 211 84 15 213 83 13 213 84 11 210 84 8 206 84 7 222 108 26
219 108 23 219 108 23 219 108 23 219 108 25 219 108 25 218 108 25
218 108 25 218 109 23 213 111 23 238 148 55 233 150 55 233 151 53
233 151 53 233 151 53 233 151 53 233 151 53 233 151 53 234 150 55
233 148 54 230 145 51 227 143 48 227 143 48 227 143 48 227 143 48
229 142 48 231 141 48 231 141 48 229 142 48 231 141 48 220 118 30
222 117 30 220 118 30 220 118 30 222 117 30 220 118 30 218 119 30
218 119 30 222 120 34 224 114 30 207 91 10 209 85 8 211 85 11
213 83 13 213 83 15 213 83 15 215 82 15 215 82 15 215 82 17 215 82 17
203 68 6 203 68 6 203 68 6 203 67 9 205 66 9 205 66 9 203 67 9
203 68 6 202 69 4 198 66 0 210 80 10 206 76 6 210 80 10 210 80 10
210 80 10 210 80 10 210 80 10 210 80 10 211 81 11 211 81 11 211 81 11
211 81 11 210 83 12 210 83 12 210 83 12 210 83 12 210 85 13 210 85 13
210 85 13 210 85 13 211 86 14 211 86 14 212 87 18 212 87 18 212 87 18
212 87 18 212 87 18 212 87 18 212 87 18 211 88 16 218 99 23
217 100 21 217 100 21 217 100 21 215 101 21 215 101 21 215 101 21
215 101 21 215 101 21 219 104 24 220 110 29 222 115 32 222 115 32
222 115 32 222 115 32 224 114 32 224 114 32 224 114 32 224 114 32
221 112 30 220 110 29 219 109 28 219 109 28 219 110 26 221 109 24
221 109 24 219 110 24 217 111 24 216 112 24 216 112 24 225 123 34
222 123 33 222 120 34 222 120 34 222 120 34 222 120 34 222 120 34
222 120 34 222 120 34 222 120 34 219 109 28 219 109 28 219 109 28
219 109 28 221 108 30 221 108 30 221 108 30 219 109 30 217 110 30
220 110 31 207 90 14 212 90 15 210 85 11 210 85 11 208 86 11
210 85 11 213 85 14 214 84 14 214 84 14 214 84 14 213 83 13 213 83 13
213 83 13 213 83 13 211 84 15 211 84 15 213 83 13 213 84 11 210 84 8
206 84 7 222 108 26 219 108 23 219 108 23 219 108 23 219 108 25
219 108 25 219 108 25 219 108 25 219 108 23 215 110 23 238 148 55
233 150 55 233 151 53 233 151 53 233 151 53 233 151 53 233 151 53
233 151 53 234 150 55 233 148 54 230 145 51 227 143 48 227 143 48
227 143 48 227 143 48 229 142 48 231 141 48 231 141 48 229 142 48
231 141 48 220 118 30 222 117 30 220 118 30 220 118 30 222 117 30
220 118 30 218 119 30 218 119 30 222 120 34 224 114 30 207 91 10
209 85 8 213 86 12 213 85 14 214 84 16 214 84 16 213 83 15 213 83 15
215 82 17 215 82 17 202 69 4 202 69 4 203 68 4 203 68 6 203 68 6
203 68 6 203 68 6 203 68 4 202 69 2 198 66 0 210 80 10 206 76 6
210 80 10 210 80 10 210 80 10 210 80 10 210 80 10 210 80 10 211 81 11
211 81 11 211 81 9 211 81 9 210 83 10 210 83 10 210 83 10 210 83 10
210 85 11 210 85 11 210 85 11 210 85 11 211 86 12 211 86 14 212 87 18
212 87 18 212 87 18 212 87 18 212 87 18 212 87 18 212 87 18 211 88 16
218 99 23 217 100 21 217 100 21 217 100 21 215 101 21 215 101 21
215 101 21 215 101 21 217 100 21 219 104 24 220 110 29 222 115 32
220 116 30 220 116 30 220 116 30 222 115 30 224 114 30 224 114 30
224 114 30 221 112 28 220 111 27 219 110 26 219 110 26 219 110 26
221 109 24 221 109 24 219 110 24 217 111 24 216 112 24 216 112 24
225 123 34 222 123 33 222 120 34 222 120 34 222 120 34 222 120 34
222 120 34 222 120 34 222 120 34 222 120 34 219 109 28 219 109 28
219 109 28 219 109 28 221 108 30 221 108 30 221 108 30 221 108 30
220 110 31 220 110 31 205 88 11 210 90 15 208 86 11 210 85 11
208 86 11 210 85 11 213 86 12 214 84 14 214 84 14 214 84 14 213 83 13
213 83 13 213 83 13 211 84 13 210 85 13 210 85 13 211 85 11 211 85 11
209 85 8 206 84 7 224 107 26 221 107 23 219 108 23 219 108 23
219 108 25 219 108 25 219 108 25 219 108 25 219 108 23 215 110 23
238 148 55 231 151 55 231 152 53 233 151 53 233 151 53 233 151 53
233 151 53 233 151 53 234 150 55 233 148 54 230 145 51 227 143 48
227 143 48 227 143 48 227 143 48 227 143 48 229 142 48 229 142 48
229 142 48 231 141 48 218 119 30 220 118 30 220 118 30 220 118 30
222 117 30 220 118 30 218 119 30 218 119 32 222 120 34 224 114 30
207 91 10 209 85 8 213 86 12 213 85 14 214 84 14 214 84 16 213 83 15
213 83 15 215 82 15 215 82 17 202 69 4 202 69 4 203 68 4 203 68 4
203 68 4 203 68 4 203 68 4 203 68 4 203 68 2 200 65 0 210 80 10
204 77 6 208 81 10 208 81 10 210 80 10 210 80 10 210 80 10 210 80 10
211 81 11 211 81 11 211 81 9 209 82 9 210 83 10 210 83 10 212 83 10
210 83 10 210 85 11 210 85 11 210 85 11 210 85 11 211 86 12 213 86 12
212 87 16 212 87 18 212 87 18 212 87 18 212 87 18 212 87 18 212 87 18
211 88 16 218 99 23 218 99 21 218 99 21 218 99 21 217 100 21
217 100 21 217 100 21 217 100 21 218 101 22 217 103 23 221 112 30
218 113 30 218 116 29 218 116 29 218 116 29 219 115 29 221 114 29
222 113 29 224 114 30 220 111 27 220 111 27 219 110 26 219 110 26
219 110 26 221 109 24 221 109 24 219 110 24 217 111 24 217 111 24
216 112 24 226 122 34 223 122 33 222 120 34 222 120 34 222 120 34
222 120 34 222 120 34 222 120 34 222 120 34 222 120 34 219 109 28
219 109 28 219 109 28 219 109 28 219 109 28 219 109 28 221 108 28
221 108 28 222 113 31 223 111 30 204 87 8 202 83 5 209 87 12
209 87 12 209 87 12 209 87 12 213 86 12 214 85 12 214 85 12 214 85 12
211 81 9 211 81 9 211 81 9 209 82 9 206 84 9 206 84 9 206 84 7
206 84 7 208 87 9 207 87 9 223 104 26 221 105 23 220 106 23
220 106 23 220 106 23 220 106 23 220 106 23 220 106 23 220 106 23
213 109 23 234 146 53 227 150 53 227 150 53 229 149 53 229 149 53
229 149 53 229 149 53 230 148 53 232 149 54 235 153 58 225 140 46
229 144 49 226 141 47 226 141 47 226 141 47 226 141 47 226 141 47
226 141 47 228 141 47 229 140 47 215 120 32 218 119 32 218 119 32
220 118 32 222 117 32 220 118 32 218 119 32 218 119 32 222 120 36
224 114 32 207 90 12 209 85 8 213 86 12 213 86 12 213 86 12 213 85 14
214 84 14 214 84 14 214 84 14 214 84 16 201 68 1 201 68 1 201 68 1
201 68 1 202 67 1 202 67 1 202 67 1 204 66 1 209 67 4 204 65 0
210 80 10 202 77 5 202 80 5 202 80 5 206 79 5 206 79 5 206 79 5
206 79 5 206 79 5 206 79 5 210 83 10 209 84 10 209 84 10 210 83 10
213 82 10 212 83 10 210 85 11 208 86 11 208 86 11 208 86 11 215 88 15
214 85 12 213 86 12 211 86 14 211 86 14 211 86 14 211 86 14 211 86 14
211 86 14 211 86 12 220 98 23 220 98 23 220 98 23 220 98 23 220 98 21
220 98 21 220 98 21 220 98 21 221 102 21 214 100 18 224 114 30
217 112 27 216 116 29 216 116 29 218 116 29 219 115 29 221 114 29
221 114 29 221 114 29 219 112 27 217 110 26 216 109 25 216 109 25
218 108 25 219 108 23 219 108 23 219 108 23 218 109 23 218 109 23
217 108 21 229 120 34 225 119 32 221 119 31 220 120 31 220 120 31
220 120 31 221 121 32 221 121 32 221 121 32 221 121 32 219 109 28
219 109 28 219 109 28 219 109 28 219 109 28 219 109 28 221 108 28
221 108 28 222 113 31 224 112 31 207 90 12 209 90 12 207 85 10
207 85 10 206 86 10 207 85 10 213 89 13 215 88 13 215 88 13 215 88 13
211 85 9 211 85 9 211 85 9 210 86 9 208 87 9 207 87 9 207 87 9
207 87 9 206 86 8 208 88 10 222 102 24 225 106 28 224 107 26
222 108 26 222 108 26 222 108 26 222 108 26 222 108 26 222 108 26
216 111 26 234 144 52 229 147 52 229 147 52 229 147 52 229 147 52
229 147 52 231 146 52 233 145 52 239 149 56 244 152 60 232 140 48
236 144 52 233 141 49 233 141 49 233 141 49 233 141 49 232 142 49
232 142 49 233 141 49 235 140 49 217 119 32 218 119 32 220 118 32
222 117 32 222 117 32 220 118 32 218 119 32 218 119 32 222 120 36
224 114 32 207 90 12 207 85 8 211 86 12 213 86 12 213 86 12 213 86 12
214 84 14 214 84 14 214 84 14 214 84 14 199 69 1 201 68 1 201 68 1
201 68 1 201 68 1 202 67 1 202 67 1 202 67 1 208 68 2 204 67 0
210 85 13 204 86 12 198 83 5 198 83 5 201 81 5 202 80 5 201 81 5
199 82 5 199 82 5 199 82 5 204 87 10 204 87 10 204 87 10 206 86 10
209 84 10 209 84 10 206 86 10 204 87 10 200 85 8 208 88 12 210 85 11
217 90 17 211 86 12 211 86 12 211 86 12 211 86 12 211 86 12 211 86 12
211 86 12 211 86 12 223 98 24 223 98 24 223 98 24 223 98 24 223 99 22
223 99 22 223 99 22 223 99 22 219 97 18 212 96 14 224 117 33
219 117 30 216 118 30 216 118 30 217 118 30 219 117 30 222 117 32
223 116 32 222 115 30 221 114 29 220 113 28 219 112 27 217 110 26
217 110 26 217 111 24 217 111 24 217 111 24 217 111 24 215 108 21
217 111 24 225 119 32 226 122 34 222 121 32 221 121 32 221 121 32
221 121 32 222 123 33 222 123 33 222 123 33 222 123 33 217 110 28
217 110 28 217 110 28 217 110 28 219 109 28 219 109 28 221 108 28
221 108 28 223 111 30 225 113 32 213 96 17 218 99 21 221 101 23
221 101 23 221 101 23 221 101 23 219 100 22 219 100 22 219 100 22
219 100 22 216 97 19 216 97 19 216 97 19 216 97 19 216 97 19
216 97 19 216 97 19 216 97 19 217 98 20 217 98 20 212 93 15 212 93 15
211 94 13 209 95 13 209 95 13 209 95 13 209 95 13 209 95 13 208 96 13
205 98 13 225 123 34 221 125 34 221 125 34 220 125 34 220 125 34
220 125 34 220 125 34 221 125 34 220 116 28 227 118 32 215 106 20
219 110 24 217 108 21 217 108 21 217 108 21 215 108 21 212 110 21
210 111 21 212 110 21 212 110 21 222 117 32 223 116 32 225 115 32
225 115 32 223 116 32 220 118 32 218 119 32 218 119 32 222 120 36
224 114 32 207 90 12 207 85 8 212 88 14 212 88 14 212 88 14 214 87 14
213 85 14 213 85 14 214 86 16 214 86 16 214 86 16 215 86 16 217 87 17
217 87 17 217 87 17 218 86 17 218 86 17 217 87 17 218 88 18 215 90 18
228 113 38 223 115 38 226 121 40 226 121 40 229 119 40 229 119 40
226 121 40 225 122 40 225 122 40 225 122 40 229 127 43 229 127 43
229 127 43 231 126 43 236 124 43 236 124 43 232 125 43 231 126 43
234 126 44 229 120 38 203 86 7 208 87 9 211 86 12 211 86 12 211 86 12
211 86 12 211 86 12 211 86 12 211 86 12 211 86 12 212 88 14 212 88 14
212 88 14 212 88 14 212 88 12 212 88 12 212 88 12 212 88 12 212 90 11
210 93 12 228 121 36 223 123 36 220 125 34 220 125 34 223 124 34
225 123 34 225 123 34 226 122 34 226 122 34 226 122 34 240 136 48
240 136 48 240 136 48 239 137 48 235 139 48 234 139 48 234 139 48
234 139 48 236 142 51 234 139 48 226 131 40 225 128 38 224 125 35
224 125 35 224 125 35 224 125 35 224 125 35 224 125 35 224 125 35
224 125 35 217 110 28 217 110 28 217 110 28 217 110 28 219 109 28
219 109 28 221 108 28 221 108 28 222 110 29 229 115 35 218 101 22
223 106 27 217 98 20 217 98 20 217 98 20 217 98 20 218 101 22
218 101 22 218 101 22 218 101 22 214 97 19 214 97 19 214 97 19
214 97 19 216 97 19 216 97 19 216 97 19 216 97 19 216 97 19 218 99 21
211 92 14 214 94 16 212 96 14 210 96 14 210 96 14 210 96 14 210 96 14
210 96 14 209 97 14 207 98 14 227 118 32 225 119 32 224 120 32
224 120 32 222 121 32 222 121 32 222 121 32 224 120 32 226 115 30
231 118 33 220 106 21 223 110 25 221 107 23 221 107 23 221 107 23
219 108 23 218 109 23 218 109 23 218 109 23 218 109 23 225 115 32
226 115 32 226 115 32 225 115 32 223 116 32 220 118 32 218 119 32
218 119 32 222 120 36 224 114 32 207 90 12 207 85 8 212 88 14
212 88 14 212 88 14 212 88 14 213 85 14 213 85 14 213 85 14 213 85 14
214 86 16 214 86 16 214 86 16 214 86 16 214 86 16 214 86 16 214 86 16
214 86 16 212 87 16 211 93 19 225 117 40 226 123 44 221 123 40
221 123 40 225 122 40 225 122 40 223 123 40 221 123 40 221 123 40
221 123 40 226 128 43 226 128 43 226 128 43 228 128 43 231 126 43
231 126 43 228 128 43 226 128 43 229 129 44 233 128 45 206 91 12
210 91 13 209 87 12 211 86 12 211 86 12 211 86 12 211 86 12 211 86 12
211 86 12 211 86 12 213 89 15 213 89 15 213 89 15 213 89 15 213 89 13
213 89 13 213 89 13 213 89 13 209 88 8 209 92 11 229 122 37
225 126 39 222 128 37 222 128 37 224 127 37 225 126 37 224 125 35
224 125 35 224 125 35 224 125 35 238 139 49 238 139 49 238 139 49
237 140 49 233 141 49 232 142 49 232 142 49 232 142 49 232 142 49
234 144 52 221 132 39 225 133 41 225 128 38 227 127 38 227 127 38
227 127 38 227 127 38 227 127 38 227 127 38 227 127 38 217 110 26
217 110 26 217 110 26 217 110 26 219 109 28 219 109 28 221 108 28
221 108 28 223 109 29 221 106 27 219 102 23 217 100 21 218 99 21
218 99 21 218 99 21 217 100 21 216 102 22 216 102 22 216 102 22
216 102 22 215 101 21 215 101 21 215 101 21 215 101 21 216 99 20
217 98 20 217 98 20 217 98 20 217 98 20 216 97 19 214 94 16 215 95 17
212 95 16 212 95 16 212 95 16 212 95 16 212 96 14 210 96 14 210 96 14
209 97 14 229 117 34 227 118 34 227 118 34 225 119 34 225 119 34
225 119 34 225 119 34 225 119 34 228 119 33 229 120 34 215 106 20
217 108 21 215 106 20 215 106 20 215 106 20 217 106 20 219 105 20
219 105 20 219 105 20 219 105 20 228 114 32 226 115 32 226 115 32
225 115 32 223 116 32 222 117 32 218 119 32 218 119 32 222 120 36
224 113 35 207 90 14 207 85 10 211 86 12 211 86 12 211 86 12
211 86 12 211 86 14 212 87 16 212 87 16 213 88 17 213 88 17 215 90 18
215 90 18 216 91 19 215 90 18 215 90 18 215 90 18 213 90 18 211 91 18
212 96 21 226 121 42 225 126 46 219 123 39 219 123 39 222 121 39
223 121 39 223 123 38 223 123 38 223 123 38 223 123 38 228 128 43
228 128 43 228 128 43 228 128 43 228 128 43 226 128 43 223 130 43
223 130 43 227 130 44 233 128 45 206 91 12 210 91 13 209 87 12
211 86 12 211 86 12 211 86 12 211 86 12 211 86 12 211 86 12 211 86 12
215 90 16 215 90 16 215 90 16 215 90 16 215 90 14 215 90 14 215 90 14
215 90 14 213 90 11 210 93 12 228 121 36 223 125 37 218 126 34
218 126 34 223 126 35 224 125 35 223 126 35 221 127 35 221 127 35
221 127 35 234 139 48 234 139 48 234 139 48 234 139 48 232 140 48
232 140 48 232 140 48 232 140 48 232 140 48 235 142 51 222 130 38
226 131 40 224 127 37 225 126 37 225 126 37 225 126 37 227 127 38
227 127 38 227 127 38 227 127 38 217 110 26 217 110 26 217 110 26
219 110 26 219 109 28 219 109 28 221 108 28 221 108 28 222 108 28
221 106 27 219 102 23 217 100 21 218 99 21 218 99 21 218 99 21
217 100 21 216 102 22 216 102 22 216 102 22 216 102 22 215 101 21
215 101 21 215 101 21 215 101 21 216 99 20 217 98 20 217 98 20
217 98 20 217 98 20 216 97 19 214 94 16 215 95 17 212 95 16 212 95 16
212 95 16 212 95 16 212 96 14 210 96 14 210 96 14 209 97 14
229 117 34 227 118 34 227 118 34 225 119 34 225 119 34 225 119 34
225 119 34 225 119 34 227 120 33 228 121 34 214 107 20 215 108 21
214 107 20 214 107 20 215 106 20 217 106 20 220 104 20 220 104 20
220 104 20 219 105 20 226 115 32 226 115 32 225 115 32 223 116 32
223 116 32 222 117 32 218 119 32 218 118 34 224 119 38 224 113 35
207 90 14 207 85 10 211 86 12 211 86 12 211 86 12 211 86 12 211 86 14
212 87 16 212 87 16 212 89 17 212 89 17 213 90 18 213 90 18 214 92 19
213 90 18 213 90 18 213 90 18 211 91 18 211 91 18 212 96 21
226 121 42 225 126 46 219 123 39 219 123 39 222 121 39 223 121 39
225 122 38 225 122 38 225 122 38 225 122 38 229 127 43 229 127 43
229 127 43 228 128 43 226 128 43 223 130 43 221 131 43 223 130 43
229 129 44 235 127 45 207 90 12 212 90 13 211 86 12 211 86 12
211 86 12 211 86 12 211 86 12 211 86 12 211 86 12 211 86 12 215 90 16
215 90 16 215 90 16 215 90 16 215 90 14 215 90 14 215 90 14 215 90 14
216 92 13 212 94 13 228 121 36 221 124 36 217 125 33 217 125 33
221 125 34 221 125 34 218 126 34 217 127 34 218 128 35 218 128 35
231 141 48 231 141 48 231 141 48 231 141 48 231 141 48 231 141 48
231 141 48 231 141 48 231 141 48 233 143 51 220 130 38 224 132 40
224 127 37 225 126 37 225 126 37 225 126 37 227 127 38 227 127 38
227 127 38 227 127 38 219 110 26 219 110 26 219 110 26 219 110 26
221 108 28 221 108 28 221 108 28 221 108 28 222 108 28 221 106 27
219 102 23 217 100 21 217 100 21 217 100 21 217 100 21 217 100 21
218 101 22 218 101 22 218 101 22 218 101 22 217 100 21 217 100 21
217 100 21 217 100 21 217 98 20 217 98 20 217 98 20 217 98 20
217 98 20 216 97 19 214 94 16 215 95 17 212 95 16 212 95 16 212 95 16
212 95 16 210 96 16 210 96 16 209 97 16 207 98 14 227 118 34
225 119 32 225 119 32 224 120 32 224 120 32 224 120 32 224 120 32
225 119 32 227 120 33 228 121 34 215 106 20 217 108 21 215 106 20
215 106 20 217 106 20 219 105 20 220 104 20 220 104 20 219 105 20
217 106 20 225 115 32 222 117 32 220 118 32 220 118 32 222 117 32
222 117 32 220 118 32 220 117 34 224 119 38 224 113 35 207 90 14
207 85 10 209 87 12 209 87 12 209 87 12 209 87 12 209 87 14 211 88 16
211 88 16 209 89 16 210 90 17 211 91 18 211 91 18 211 91 18 211 91 18
211 91 18 211 91 18 211 91 18 213 90 18 215 95 21 229 119 42
228 125 46 222 121 39 222 121 39 223 121 39 225 120 39 225 122 38
223 123 38 223 123 38 223 123 38 228 128 43 228 128 43 228 128 43
228 128 43 226 128 43 224 129 43 223 130 43 224 129 43 230 128 44
238 126 45 212 88 12 215 88 13 211 86 12 211 86 12 211 86 12
211 86 12 211 86 12 211 86 12 211 86 12 211 86 12 215 90 16 215 90 16
215 90 16 215 90 16 215 90 14 215 90 14 215 90 14 215 90 14 216 92 13
212 94 13 228 121 36 221 124 36 217 125 33 217 125 33 221 125 34
221 125 34 217 127 34 215 128 34 216 129 35 216 129 35 229 142 48
229 142 48 229 142 48 229 142 48 229 142 48 229 142 48 229 142 48
229 142 48 229 142 48 231 144 51 219 131 38 222 133 40 224 127 37
225 126 37 225 126 37 225 126 37 227 127 38 227 127 38 227 127 38
227 127 38 219 110 26 219 110 26 219 110 26 219 110 26 221 108 28
221 108 28 221 108 28 221 108 28 222 108 28 221 106 27 217 103 23
217 100 21 217 100 21 217 100 21 217 100 21 217 100 21 219 100 22
219 100 22 219 100 22 219 100 22 218 99 21 218 99 21 218 99 21
218 99 21 217 98 20 217 98 20 217 98 20 217 98 20 217 98 20 216 97 19
214 94 16 215 95 17 212 95 16 212 95 16 212 95 16 212 95 16 212 95 16
210 96 18 209 96 18 207 98 16 227 118 32 225 119 32 225 119 32
225 119 32 224 120 32 224 120 32 225 119 32 225 119 32 228 119 33
229 120 34 217 106 20 218 107 21 217 106 20 217 106 20 219 105 20
219 105 20 220 104 20 220 104 20 219 105 20 217 105 22 223 116 32
222 117 32 220 118 32 220 118 32 223 116 32 223 116 34 222 117 34
222 117 34 225 118 38 224 113 35 207 90 14 206 86 10 209 87 12
209 87 12 209 87 12 209 87 12 209 87 14 211 88 16 209 89 16 209 89 16
210 90 17 211 91 18 211 91 18 211 91 18 211 91 18 211 91 18 211 91 18
211 91 18 215 90 18 216 94 21 231 118 42 230 124 46 223 121 39
223 121 39 225 120 39 225 120 39 223 123 38 221 124 38 221 124 38
221 124 38 226 128 43 226 128 43 226 128 43 226 128 43 226 128 43
224 129 43 224 129 43 226 128 43 232 127 44 238 126 45 212 88 12
217 88 13 213 86 12 211 86 14 211 86 14 211 86 14 211 86 14 211 86 14
211 86 14 211 86 12 215 90 16 215 90 16 215 90 16 215 90 16 215 90 14
215 90 14 215 90 14 215 90 14 216 92 13 212 94 13 228 121 36
221 124 36 217 125 33 217 125 33 221 125 34 221 125 34 218 126 34
217 127 34 218 128 35 218 128 35 229 142 48 227 143 48 229 142 48
229 142 48 227 143 48 226 143 48 226 143 48 226 143 48 226 143 48
230 145 51 219 131 38 224 132 40 222 128 37 224 127 37 224 127 37
224 127 37 225 128 38 225 128 38 225 128 38 225 128 38 221 109 26
221 109 26 221 109 26 221 109 26 221 109 26 221 109 26 221 109 26
221 109 26 221 109 26 219 108 25 216 104 21 216 102 20 216 102 22
216 102 22 216 102 22 216 102 22 218 101 20 219 101 20 219 101 20
219 101 20 216 99 18 216 99 18 216 99 18 216 99 18 217 98 20
217 98 20 217 98 20 217 98 20 217 97 22 216 96 21 214 94 18 215 95 19
214 94 18 214 94 18 214 94 18 214 94 18 212 95 18 210 95 20 209 96 20
209 97 16 229 117 32 227 119 30 227 119 30 227 119 30 227 118 32
227 118 32 227 118 32 229 117 32 230 118 33 233 119 34 219 105 20
220 106 21 220 106 23 220 106 23 221 105 23 221 105 23 221 105 23
221 105 23 220 106 23 218 106 23 228 115 35 226 116 35 226 116 35
226 116 35 226 116 35 226 116 37 224 117 37 224 117 37 228 118 39
226 113 38 207 92 17 207 87 13 208 88 14 208 88 14 208 88 14
208 88 14 209 87 14 209 87 14 209 87 14 211 88 16 212 90 15 212 90 15
212 90 15 213 91 16 213 91 16 213 91 16 213 91 16 213 91 16 215 90 16
216 94 19 231 118 40 230 124 44 223 121 39 223 121 37 227 119 37
225 120 37 221 124 38 220 125 38 220 125 38 220 125 38 224 130 41
224 130 41 224 130 41 224 130 41 226 129 41 228 128 41 228 128 41
229 127 41 229 129 44 235 127 45 211 89 12 215 88 15 213 85 14
213 85 16 213 85 16 213 85 16 213 85 16 213 85 16 213 85 16 213 85 14
215 88 15 215 88 15 215 88 15 215 88 15 215 88 13 215 88 13 215 88 13
215 88 13 215 91 12 211 92 12 227 120 35 220 123 35 217 125 33
217 125 33 220 123 33 222 123 33 221 125 34 221 125 34 225 123 34
223 124 34 229 140 47 226 141 47 229 140 47 229 140 47 227 143 48
224 144 48 221 146 48 221 146 48 223 145 48 230 145 51 223 129 38
227 130 40 222 128 37 222 128 37 222 128 37 222 128 37 223 129 38
223 129 38 223 129 38 223 129 38 221 109 26 221 109 26 221 109 26
221 109 26 221 109 26 221 109 26 221 109 26 221 109 26 221 109 26
219 108 25 216 104 21 215 103 20 215 103 22 215 103 22 215 103 22
215 103 22 218 101 20 218 101 20 218 101 20 218 101 20 216 99 18
216 99 18 216 99 18 216 99 18 217 98 20 217 98 20 217 98 20 217 98 20
217 97 22 216 96 21 214 94 18 215 95 19 214 94 18 214 94 18 214 94 18
214 94 18 212 94 20 212 94 20 210 95 20 209 96 18 227 118 34
227 118 32 227 118 32 227 118 32 225 119 32 227 118 32 227 118 32
229 117 32 230 118 33 233 118 36 219 104 22 220 106 23 220 106 23
220 105 26 220 105 26 220 105 26 220 105 26 220 105 26 220 105 26
218 106 26 228 115 35 228 115 35 228 115 35 228 115 37 226 116 37
226 116 37 226 116 37 228 115 37 230 117 41 226 113 38 207 92 17
205 87 13 208 88 14 208 88 14 208 88 14 208 88 14 209 87 14 209 87 14
209 87 14 211 88 16 212 90 15 212 90 15 212 90 15 213 91 16 213 91 16
213 91 16 213 91 16 215 90 16 216 89 16 216 94 19 231 118 40
230 124 44 223 121 37 223 121 37 227 119 37 225 120 37 221 124 38
220 125 38 220 125 38 220 125 38 224 130 41 224 130 41 224 130 41
224 130 41 226 129 41 229 127 41 231 126 41 229 127 41 229 129 44
233 128 45 209 90 12 215 88 15 213 85 14 213 85 16 213 85 16
213 85 16 213 85 16 213 85 16 213 85 16 213 85 16 215 88 17 215 88 15
215 88 15 215 88 15 215 88 13 215 88 13 215 88 13 215 88 13 215 91 12
211 92 12 227 120 35 220 123 35 217 125 33 217 125 33 220 123 33
222 123 33 225 123 34 226 122 34 231 120 34 228 121 34 229 140 47
226 141 47 229 140 47 229 140 47 226 143 48 223 145 48 218 147 48
218 147 48 221 146 48 230 145 51 225 128 38 230 129 40 224 127 37
222 128 37 222 128 37 222 128 37 223 129 38 223 129 38 223 129 38
223 129 38 219 110 26 219 110 26 219 110 26 219 110 26 219 110 26
219 110 26 219 110 26 219 110 26 219 110 26 218 108 25 214 105 21
213 104 20 213 103 22 213 103 22 213 103 22 213 103 22 215 103 20
216 102 20 216 102 20 216 102 20 214 100 18 214 100 18 216 99 18
216 99 18 217 98 20 217 98 20 217 98 20 217 98 20 217 97 22 216 96 21
214 94 18 215 95 19 214 94 18 214 94 18 214 94 18 214 94 18 214 94 20
214 94 20 212 95 18 210 96 18 225 118 36 222 120 34 224 119 34
224 119 34 224 119 34 224 119 34 225 119 34 225 119 34 228 119 35
229 120 38 217 105 24 218 106 26 218 106 26 218 106 28 218 106 28
218 106 28 218 106 28 218 106 28 218 106 28 217 106 28 226 116 37
226 116 37 228 115 37 228 115 37 226 115 39 226 115 39 228 115 39
229 114 39 231 116 41 228 113 38 210 92 18 206 89 14 209 89 16
211 88 16 211 88 16 211 88 16 211 88 16 211 88 16 211 88 16 211 88 16
213 89 15 213 89 15 213 89 15 213 89 15 213 89 15 213 89 15 213 89 15
213 89 15 216 89 16 215 93 18 231 118 40 230 124 44 223 121 37
223 121 37 227 119 37 227 119 37 223 123 38 221 124 38 221 124 38
221 124 38 226 129 41 226 129 41 226 129 41 226 129 41 228 128 41
229 127 41 231 126 41 229 127 41 229 129 44 233 128 45 209 90 12
215 88 15 213 85 14 213 85 16 213 85 16 213 85 16 213 85 16 213 85 16
213 85 16 213 85 16 215 88 17 215 88 15 215 88 15 215 88 15 215 88 13
215 88 13 215 88 13 215 88 13 215 91 12 211 92 12 228 121 36
221 124 36 218 126 34 218 126 34 221 125 34 225 123 34 229 122 35
232 121 35 234 120 35 231 122 35 229 140 47 225 142 47 228 141 47
228 141 47 226 143 48 223 145 48 218 147 48 218 147 48 221 146 48
230 145 51 225 128 38 230 129 40 225 126 37 224 127 37 224 127 37
224 127 37 225 128 38 225 128 38 225 128 38 225 128 38 219 110 26
219 110 26 219 110 26 219 110 26 219 110 26 217 110 26 217 110 26
217 110 26 217 110 26 215 110 25 211 107 21 210 105 20 210 105 22
210 105 22 210 105 22 212 104 22 213 104 20 213 104 20 213 104 20
215 103 20 214 100 18 214 100 18 216 99 18 216 99 18 217 98 20
217 98 20 217 98 20 217 98 20 217 97 22 216 96 21 214 94 18 215 95 19
214 94 18 214 94 18 214 94 18 214 94 20 214 94 20 214 94 20 214 94 20
212 95 18 227 117 38 225 118 36 225 118 36 227 117 36 227 117 36
227 117 36 229 117 36 229 117 36 231 117 39 233 118 40 220 103 26
221 104 28 221 104 30 221 104 30 221 104 30 221 104 30 221 104 30
221 104 30 221 104 30 220 104 30 229 114 39 229 114 39 231 113 39
231 113 39 229 114 39 229 114 39 231 113 39 231 113 39 233 115 41
230 112 38 212 92 19 208 88 14 212 89 17 212 89 17 212 89 17
212 89 17 212 89 17 212 89 17 212 89 17 212 89 17 213 89 15 212 88 14
212 88 14 212 88 14 212 88 14 212 88 14 212 88 14 212 88 14 214 87 14
214 92 17 231 118 40 230 124 44 223 121 37 223 121 37 227 119 37
227 119 37 225 122 38 223 123 38 223 123 38 223 123 38 228 128 41
228 128 41 228 128 41 228 128 41 228 128 41 229 127 41 231 126 41
229 127 41 229 129 44 233 128 45 209 90 12 215 88 15 213 85 14
213 85 16 213 85 16 213 85 16 213 85 16 213 85 16 213 85 16 213 85 16
215 88 17 215 88 15 215 88 15 215 88 15 215 88 13 215 88 13 215 88 13
215 88 13 212 88 10 211 92 12 228 121 36 223 125 37 219 127 35
219 127 35 223 126 35 226 124 35 229 124 37 230 124 37 232 123 37
225 126 37 221 144 47 217 146 47 218 145 47 218 145 47 218 147 48
215 149 48 211 151 48 210 152 48 213 150 48 222 149 51 219 131 38
224 132 40 221 128 37 219 129 37 219 129 37 219 129 37 220 130 38
220 130 38 220 130 38 220 130 38 225 119 32 225 119 32 225 119 32
225 119 32 224 117 33 223 118 33 223 118 33 223 118 33 223 118 33
223 121 35 227 125 39 229 127 41 229 127 43 229 127 43 229 127 43
229 127 43 231 126 41 231 126 41 232 126 41 234 125 41 218 106 23
220 106 23 221 105 23 223 104 23 221 101 23 221 101 23 221 101 23
221 101 23 223 103 28 221 101 25 215 95 19 215 95 19 215 95 21
215 95 21 214 94 20 214 94 20 215 92 22 215 92 22 215 92 22 214 94 20
206 85 12 206 86 10 206 86 10 207 85 10 207 85 12 209 84 12 209 84 12
210 83 12 208 80 12 211 81 13 197 67 0 198 68 0 198 67 2 198 67 2
198 67 2 198 67 2 198 67 2 198 67 2 198 67 2 196 68 2 206 78 9
206 78 9 206 78 9 206 78 9 204 79 9 204 79 9 204 79 9 204 79 9
208 83 11 203 78 6 215 93 20 211 88 16 215 90 18 215 90 18 213 90 18
213 90 18 214 92 19 213 90 18 213 90 18 212 89 17 212 88 14 212 88 14
212 87 16 211 86 14 211 86 14 211 86 14 211 86 14 211 86 14 213 86 12
212 90 15 221 108 30 216 110 30 215 113 29 215 113 29 219 111 29
219 111 29 216 114 28 216 114 28 216 114 28 216 114 28 221 119 33
221 119 33 221 119 33 220 120 33 220 120 33 221 119 33 223 118 33
221 119 33 221 121 36 225 120 37 201 82 3 207 80 7 208 81 10
208 80 12 208 80 12 208 80 12 208 80 12 208 80 12 208 80 12 208 80 12
213 85 14 213 86 12 213 86 12 213 86 12 213 86 10 213 86 10 213 86 10
213 86 10 211 87 8 210 91 11 229 122 37 225 128 40 222 130 38
222 130 38 225 128 38 225 128 38 223 131 39 221 132 39 221 132 39
213 136 39 255 209 105 255 213 105 255 213 105 255 213 105
255 214 106 255 215 106 254 217 106 254 217 106 253 212 103
255 210 104 229 166 65 234 164 65 236 163 65 236 163 65 236 163 65
236 163 65 237 164 66 237 164 66 237 164 66 237 164 66 224 120 32
224 120 32 224 120 32 224 120 32 223 118 33 221 119 33 221 119 33
221 119 33 221 119 33 223 121 35 225 126 39 228 128 41 228 128 43
228 128 43 228 128 43 228 128 43 228 128 41 229 127 41 231 126 41
232 126 41 218 106 23 220 106 23 221 105 23 223 104 23 221 101 23
221 101 23 221 101 23 221 101 23 223 103 28 221 101 25 215 95 19
215 95 19 215 95 21 215 95 21 214 94 20 214 94 20 215 92 22 215 92 22
215 92 22 215 92 22 207 85 12 209 84 12 209 84 12 210 83 14 210 83 14
212 82 14 212 82 14 213 81 16 211 78 14 214 79 15 200 65 1 201 65 4
201 65 4 201 65 4 201 65 4 201 65 6 201 65 6 201 65 6 201 65 6
200 66 4 209 75 13 209 76 11 209 76 11 209 76 11 207 77 9 207 77 9
207 77 9 207 77 9 209 82 11 204 77 6 220 92 21 213 88 17 216 91 19
216 91 19 214 92 19 214 92 19 215 93 20 214 92 19 213 90 18 212 89 17
213 89 15 212 88 14 211 86 14 210 85 13 210 85 13 210 85 13 210 85 13
211 84 13 211 85 11 211 88 14 221 108 30 217 110 30 215 113 29
215 113 29 219 111 29 219 111 29 218 114 28 218 114 28 218 114 28
218 114 28 223 118 33 223 118 33 223 118 33 221 119 33 220 120 33
221 119 33 223 118 33 221 119 33 221 121 36 225 120 37 201 82 3
207 80 7 208 81 10 208 80 12 208 80 12 208 80 12 208 80 12 208 80 12
208 80 12 208 80 12 213 85 14 213 86 12 213 86 12 213 86 12 213 86 10
213 86 10 213 86 10 213 86 10 210 86 7 210 91 11 229 122 37
226 129 41 223 131 39 223 131 39 226 129 39 226 129 39 222 133 40
219 134 40 218 135 40 210 139 40 255 213 105 249 218 105 248 218 105
249 218 105 252 218 106 251 219 106 246 221 106 246 221 106
247 215 103 253 214 104 221 170 65 228 167 65 229 166 65 231 165 65
231 165 65 231 165 65 232 167 66 232 167 66 232 167 66 232 167 66
222 121 32 222 121 32 222 121 32 222 121 32 221 119 33 220 120 33
220 120 33 220 120 33 220 120 33 222 122 35 225 126 39 226 129 41
226 129 41 226 129 41 226 129 41 226 129 41 226 129 41 226 129 41
229 127 41 231 126 41 217 107 23 220 106 23 221 105 23 223 104 23
221 101 23 221 101 23 221 101 23 221 101 23 223 103 28 221 101 25
215 95 19 215 95 19 215 95 19 215 95 19 214 94 18 214 94 20 215 93 20
215 93 20 215 93 20 215 93 20 208 85 15 208 85 15 207 84 14 209 83 16
209 83 16 209 83 16 210 82 16 210 82 18 210 79 16 211 80 17 198 65 3
200 66 4 200 66 6 200 66 6 200 66 6 200 65 8 200 65 8 200 65 8
199 67 9 199 68 7 207 76 15 207 76 13 207 77 11 207 77 11 209 76 9
209 76 9 207 77 7 207 77 7 211 81 11 206 76 6 221 93 23 216 89 18
218 93 19 218 93 19 218 93 19 218 93 19 216 94 19 215 93 18 214 92 17
213 91 16 213 89 15 212 88 14 213 85 14 211 84 13 210 83 12 210 83 12
210 83 12 210 83 12 213 84 11 211 86 12 222 107 30 219 109 30
217 112 29 215 113 29 219 111 29 219 111 29 220 113 28 220 113 28
220 113 28 220 113 28 224 117 33 224 117 33 224 117 33 223 118 33
221 119 33 221 119 33 223 119 31 221 119 33 221 121 34 225 121 35
201 82 1 207 80 5 208 81 10 208 80 12 208 80 12 208 80 12 208 80 12
208 80 12 208 80 12 208 80 12 213 85 14 213 86 12 213 86 12 213 86 12
213 86 10 213 86 10 213 86 10 213 86 10 210 86 7 210 91 11 230 123 39
227 130 42 224 132 40 224 132 40 227 130 40 227 130 40 227 132 41
224 134 41 222 135 41 212 140 41 255 213 105 248 218 105 246 219 105
248 218 105 251 219 106 251 219 106 246 221 106 246 221 106
245 216 103 253 214 104 221 170 65 228 167 65 231 166 63 233 165 63
233 165 63 233 165 63 234 166 64 234 166 64 234 166 64 234 166 64
221 121 32 221 121 32 221 121 32 221 121 32 220 120 33 220 120 33
220 120 33 220 120 33 220 120 33 222 122 35 225 126 39 228 128 41
228 128 41 228 128 41 228 128 41 226 129 41 226 129 41 226 129 41
228 128 41 231 126 41 217 107 23 220 106 23 221 105 23 223 104 23
221 101 23 221 101 23 221 101 23 221 101 23 223 103 28 221 101 25
215 95 19 215 95 19 215 95 19 215 95 19 214 94 18 215 93 18 215 93 20
215 93 20 215 93 20 214 92 19 208 85 15 208 85 15 207 84 16 209 83 16
209 83 16 209 83 16 209 83 18 210 82 18 208 79 16 209 81 17 197 66 3
198 67 4 198 67 6 198 67 6 198 66 8 198 66 8 198 66 8 198 66 8
199 67 9 199 67 9 205 74 13 206 75 12 206 76 10 206 76 10 209 76 9
209 76 9 207 77 7 207 77 7 211 81 11 206 76 6 221 93 23 216 89 18
218 93 19 218 93 19 218 93 19 218 93 19 216 94 19 215 93 18 214 92 17
215 90 16 213 89 15 212 88 14 213 85 14 211 84 13 210 83 12 210 83 12
210 83 12 210 83 12 213 84 11 211 86 12 224 106 30 221 108 30
219 111 29 217 112 29 219 111 29 219 111 29 220 113 28 220 113 28
220 113 28 220 113 28 224 117 33 224 117 33 224 117 33 223 118 33
223 118 33 221 119 33 223 119 31 223 119 31 222 120 34 227 120 35
202 81 1 208 79 5 210 80 10 210 79 12 210 79 12 210 79 12 210 79 12
210 79 12 210 79 12 208 80 12 213 85 14 213 86 12 213 86 12 213 86 12
213 86 10 213 86 10 213 86 10 213 86 10 210 86 7 209 92 11 227 125 39
226 131 42 224 132 40 224 132 40 226 131 40 227 130 40 227 132 41
227 132 41 224 134 41 214 139 41 255 213 105 249 218 105 246 219 105
246 219 105 251 219 106 251 219 106 246 221 106 246 221 106
245 216 103 253 214 104 221 170 65 228 167 65 233 165 63 234 164 63
234 164 63 234 164 63 235 165 64 235 165 64 235 165 64 235 165 64
221 121 32 221 121 32 221 121 32 221 121 32 221 121 32 221 121 32
221 121 32 221 121 32 222 121 32 225 123 34 228 126 38 229 128 39
229 127 41 228 126 40 228 126 40 227 127 40 225 127 42 225 127 42
225 127 42 228 126 42 217 105 24 220 103 24 220 103 24 220 103 24
220 103 24 220 103 24 220 103 24 220 103 24 222 102 24 219 100 22
215 95 17 215 95 17 216 94 19 215 93 18 215 93 18 215 93 18 217 92 20
217 92 20 216 91 19 216 91 19 211 86 16 210 85 15 210 85 15 211 84 15
211 83 17 211 83 17 211 83 17 213 83 17 211 80 17 212 81 18 198 67 4
199 68 5 201 67 7 201 67 7 201 67 9 201 67 9 201 66 11 201 66 11
201 67 9 202 68 11 205 72 12 207 73 11 206 76 10 206 76 8 206 76 8
206 76 6 206 76 6 206 76 6 208 81 10 203 76 5 220 93 19 213 89 15
218 93 19 218 93 19 218 93 19 218 93 19 219 95 21 218 93 19 217 92 20
217 90 19 216 89 18 215 88 17 214 86 16 213 85 14 211 84 13 211 84 13
213 83 13 213 83 13 213 85 14 212 87 16 226 107 31 223 108 31
220 110 29 219 111 29 219 111 29 219 111 29 218 113 30 218 113 30
218 113 30 218 113 30 223 118 33 223 118 33 223 119 31 224 118 31
224 118 31 224 118 31 223 119 31 224 118 31 227 118 32 231 118 33
204 81 0 210 79 5 211 79 10 211 78 14 211 78 14 211 78 14 211 78 14
211 78 14 211 78 14 210 79 12 214 84 14 214 85 12 214 85 12 214 85 12
214 85 10 214 85 10 214 85 10 213 86 10 210 86 7 207 93 11 224 126 39
222 132 42 224 132 40 226 131 40 224 132 40 224 132 40 227 132 41
227 132 41 225 133 41 216 138 41 255 212 105 251 217 105 248 218 105
248 218 105 251 219 106 251 219 106 246 221 106 246 221 106
245 216 103 253 214 104 221 171 63 228 167 63 231 166 63 233 165 63
233 165 61 233 165 61 234 167 62 234 167 62 234 167 62 234 167 62
221 121 32 221 121 32 221 121 32 221 121 32 221 121 32 221 121 32
221 121 32 222 121 32 222 121 32 225 123 34 228 126 38 229 128 39
229 127 41 228 126 40 228 126 40 228 126 40 225 127 42 225 127 42
225 127 42 228 126 42 217 105 24 220 103 24 220 103 24 220 103 24
220 103 24 220 103 24 220 103 24 220 103 24 222 102 24 219 100 22
215 95 17 215 95 17 216 94 19 215 93 18 215 93 18 215 93 18 217 92 20
217 92 20 216 91 19 215 90 18 213 85 16 211 84 15 211 84 15 211 84 15
213 83 17 213 83 17 213 83 17 213 83 17 211 80 17 212 81 18 198 67 4
199 68 5 201 67 7 201 67 7 201 67 9 201 67 9 202 65 11 202 65 11
201 67 9 202 68 9 204 71 9 205 72 8 205 75 7 205 75 7 206 76 6
206 76 6 206 76 6 206 76 6 208 81 10 202 77 5 218 93 19 213 89 15
218 93 19 218 93 19 218 93 19 218 93 19 219 95 21 218 93 19 218 91 20
217 90 19 216 89 18 215 88 17 214 86 16 213 85 14 211 84 13 211 84 13
213 83 13 211 84 13 213 85 14 212 87 16 226 107 31 225 108 31
222 110 29 220 110 29 220 110 29 219 111 29 220 112 30 220 113 28
220 113 28 220 113 28 224 117 33 224 118 31 224 118 31 224 118 31
226 117 31 226 117 31 223 119 31 223 119 31 227 118 32 233 117 33
206 80 0 208 79 5 211 79 12 211 78 14 211 78 14 211 78 14 211 78 14
211 78 14 211 78 14 211 79 12 214 84 14 214 85 12 214 85 12 214 85 12
214 85 10 214 85 10 214 85 10 213 86 10 211 85 7 209 92 11 224 126 39
222 132 42 227 130 40 229 130 40 226 131 40 226 131 40 230 131 41
230 131 41 227 132 41 217 137 41 255 212 105 249 218 105 246 219 105
246 219 105 249 219 106 247 220 106 244 222 106 244 222 106
244 217 103 250 216 104 220 171 63 226 168 63 229 167 63 233 165 63
233 165 61 233 165 61 234 167 62 234 167 62 234 167 62 234 167 62
222 121 32 222 121 32 222 121 32 222 121 32 222 121 32 222 121 32
222 121 32 222 121 32 224 120 32 226 122 34 230 126 38 231 127 39
231 127 39 230 126 38 230 126 38 228 126 40 225 127 42 223 128 42
223 128 42 227 126 42 215 106 24 219 104 24 219 104 24 219 104 24
220 103 24 220 103 24 220 103 24 220 103 24 222 102 24 219 100 22
215 95 17 215 95 17 216 95 17 215 94 16 215 94 16 215 93 18 217 92 18
218 91 18 217 90 17 216 89 18 214 86 16 213 85 14 211 84 13 211 84 15
213 83 17 213 83 17 213 83 17 213 83 17 211 80 17 212 81 18 198 67 4
199 68 5 201 67 7 201 67 7 201 67 9 201 67 9 202 65 11 202 65 11
202 68 11 203 69 10 204 71 9 205 72 8 205 75 7 205 75 5 206 76 6
206 76 6 204 77 6 204 77 6 208 81 10 202 77 5 216 94 19 212 90 15
218 96 19 218 96 19 218 96 19 218 96 19 219 95 19 218 93 19 217 92 18
216 91 17 215 90 18 213 88 17 212 88 14 211 86 12 211 85 11 211 85 11
211 85 11 211 85 11 211 86 14 211 88 16 226 107 31 225 108 29
223 109 29 222 110 29 222 110 27 220 111 27 221 112 28 221 112 26
221 112 26 221 112 26 226 117 31 226 117 29 226 117 29 224 118 29
224 118 31 223 119 31 221 119 33 221 119 33 225 119 34 231 117 35
202 81 1 207 80 5 210 79 12 211 78 14 211 78 14 211 78 14 211 78 14
211 78 14 211 78 14 210 79 12 213 85 14 213 86 12 213 86 12 213 86 12
213 86 10 213 86 10 213 86 10 213 86 10 215 84 7 213 90 11 227 125 39
226 131 42 230 129 40 232 128 40 230 129 40 230 129 40 235 128 41
233 129 41 230 131 41 217 137 41 255 212 105 246 219 105 243 221 105
241 222 105 244 222 106 243 223 106 239 224 106 239 224 106
239 219 103 245 218 104 216 175 64 221 171 63 228 168 61 231 166 61
231 166 61 231 167 59 232 168 60 232 168 60 232 168 60 232 168 60
222 121 32 222 121 32 222 121 32 222 121 32 222 121 32 222 121 32
222 121 32 222 121 32 223 119 31 226 122 34 230 126 38 231 127 39
231 127 39 230 126 38 230 126 38 228 126 40 225 127 42 223 128 42
223 128 42 227 126 42 215 106 24 219 104 24 219 104 24 219 104 24
220 103 24 220 103 24 220 103 24 220 103 24 222 102 24 219 100 22
215 95 17 215 95 17 216 95 17 215 94 16 215 94 16 217 93 16 218 91 18
218 91 18 217 90 17 216 89 16 211 84 13 211 84 13 210 83 12 210 83 14
213 83 17 213 83 17 213 83 17 213 83 17 211 80 17 212 81 18 198 67 4
201 67 5 201 67 7 201 67 7 201 67 9 201 67 9 202 65 11 202 65 11
202 68 11 203 69 10 204 71 9 205 73 6 205 75 5 205 75 5 206 76 6
206 76 6 204 77 6 204 77 6 206 81 10 200 78 5 215 95 19 210 90 15
218 96 19 218 96 19 218 96 19 218 96 19 219 95 19 218 94 17 217 92 18
216 91 17 215 90 18 213 88 17 212 88 14 211 86 12 210 85 11 210 85 11
210 85 11 210 85 11 209 87 14 209 89 16 226 107 31 225 108 29
225 108 29 223 109 29 223 109 27 222 110 27 221 112 28 220 113 26
220 113 26 220 113 26 224 118 31 224 118 31 224 118 31 224 118 31
224 118 31 223 118 33 220 120 33 221 119 33 225 119 34 231 117 37
202 81 3 207 80 7 210 79 12 211 78 14 211 78 14 211 78 14 211 78 14
211 78 14 211 78 14 210 79 12 213 85 14 211 86 12 211 86 12 211 86 12
211 87 10 211 87 10 211 87 10 213 86 10 215 84 7 213 90 11 227 125 39
227 130 42 232 128 40 232 128 40 230 129 40 230 129 40 235 128 41
235 128 41 230 131 41 217 137 41 255 213 105 246 219 105 243 221 105
241 222 105 244 222 106 243 223 106 239 224 106 239 224 106
239 219 103 245 218 104 217 176 65 224 173 65 228 168 61 231 166 61
231 167 59 231 167 59 232 168 60 232 168 60 232 168 60 232 168 60
222 121 32 222 121 32 222 121 32 222 121 32 224 120 32 224 120 32
224 120 32 224 120 32 223 119 31 225 121 33 230 126 38 233 129 41
231 125 38 231 125 38 231 125 38 230 125 40 227 126 42 225 127 42
225 127 42 228 126 42 217 105 24 220 103 24 220 103 24 220 103 24
220 103 24 220 103 24 220 103 24 220 103 24 222 102 24 219 100 22
215 95 17 215 95 17 216 95 17 215 94 16 215 94 16 217 93 16 218 91 18
218 91 18 218 91 18 218 91 18 210 83 12 210 83 12 210 83 12 210 83 14
212 81 16 212 81 16 212 81 16 212 81 16 211 78 16 212 79 17 198 65 3
200 66 4 202 66 7 202 66 7 202 66 9 202 66 9 202 66 9 202 66 9
202 68 11 202 68 9 201 71 6 203 72 5 204 74 4 202 75 2 205 76 3
205 76 3 203 76 3 203 76 3 205 81 7 199 77 2 214 94 18 209 89 14
216 95 17 216 95 17 216 95 17 216 95 17 216 95 17 215 94 16 214 92 17
213 91 16 212 90 15 211 88 14 209 87 14 209 87 14 209 87 14 211 88 16
209 89 16 209 89 16 210 92 18 207 90 16 227 110 33 225 108 31
225 108 29 226 107 29 226 107 29 223 109 29 217 110 28 214 112 26
214 112 26 214 112 26 220 118 32 220 118 32 220 118 32 222 117 32
223 116 32 223 116 34 220 117 34 222 117 34 229 120 38 232 115 38
207 80 7 206 77 4 212 80 13 212 79 15 212 79 15 212 79 15 212 79 15
212 79 15 212 79 15 211 81 13 211 86 14 209 87 12 209 87 12 209 87 12
209 88 10 209 88 10 209 88 10 211 87 10 220 93 15 209 90 10
233 136 48 224 132 42 229 130 40 229 130 40 227 130 40 227 130 40
230 131 41 230 131 41 228 132 41 216 138 41 255 215 109 253 221 109
250 223 109 250 223 109 252 223 110 251 224 110 248 225 110
248 225 110 242 214 101 246 212 101 224 176 67 232 174 68 231 168 62
234 167 62 234 167 62 234 167 62 234 167 62 234 167 62 234 167 62
234 167 62 222 121 32 222 121 32 222 121 32 222 121 32 224 120 32
224 120 32 224 120 32 224 120 32 223 119 31 224 120 32 226 122 34
227 123 35 231 125 38 231 125 38 231 125 38 230 125 40 228 126 42
227 126 42 227 126 42 230 125 42 217 103 23 221 101 23 221 101 23
221 101 23 219 102 23 219 102 23 219 102 23 219 102 23 221 101 23
218 99 21 214 94 16 214 94 16 215 94 16 214 92 15 214 92 15 216 92 15
217 90 17 217 90 17 217 90 17 217 90 17 209 82 11 209 82 11 209 82 11
209 81 13 212 81 16 212 81 16 212 81 16 212 81 16 211 78 16 212 79 17
198 65 3 200 66 4 202 66 7 202 66 7 202 66 9 202 66 9 202 66 9
202 66 9 202 68 9 202 68 6 201 71 6 201 71 4 201 74 3 201 74 1
204 74 2 204 74 2 202 75 2 202 75 2 204 79 5 198 76 1 212 93 17
208 88 12 215 94 16 215 94 16 215 94 16 215 94 16 215 94 16 214 92 15
213 91 16 210 90 15 209 89 14 208 88 12 207 87 13 207 87 13 207 87 13
206 89 14 206 89 14 205 89 14 202 87 12 206 91 16 220 105 28
223 108 31 226 107 31 228 106 31 228 106 31 226 107 31 221 108 30
217 110 30 217 110 30 217 110 30 224 117 37 224 117 37 224 117 37
226 116 37 228 115 37 228 115 37 226 116 37 226 116 37 233 116 39
232 107 35 212 80 11 208 74 5 210 77 11 210 77 13 210 77 13 210 77 13
210 77 13 210 77 13 210 77 13 208 78 11 212 87 16 211 88 14 211 88 14
211 88 14 211 89 12 211 89 12 211 89 12 211 89 12 208 87 7 197 87 4
226 136 46 219 136 43 224 134 41 225 133 41 222 135 41 222 135 41
225 135 42 225 135 42 225 135 42 215 140 42 255 210 104 253 214 104
251 215 104 253 214 104 255 214 105 254 215 105 251 217 105
249 218 105 254 217 106 254 208 101 234 173 68 235 167 65 234 167 62
235 166 62 235 166 62 235 166 62 235 166 62 235 166 62 235 166 62
235 166 62 222 121 32 222 121 32 222 121 32 222 121 32 224 120 32
224 120 32 224 120 32 224 120 32 224 120 32 223 119 31 222 117 30
219 115 27 215 108 21 215 108 21 215 108 21 215 108 23 215 108 26
215 108 26 213 109 26 217 107 26 216 95 17 220 93 17 218 94 17
216 95 17 215 95 17 213 96 17 213 96 17 213 96 17 215 95 17 212 93 15
208 88 10 208 88 10 209 88 10 208 87 9 208 87 9 210 86 9 211 85 11
211 85 11 211 85 11 210 83 10 210 83 12 209 82 11 209 82 11 209 81 13
212 81 16 212 81 16 212 81 16 212 81 16 211 78 16 211 78 16 200 66 4
200 66 4 202 66 7 202 66 7 202 66 9 202 66 9 202 66 9 202 66 9
201 67 7 201 67 5 220 90 24 220 90 22 218 91 20 218 91 18 221 92 19
221 92 19 220 93 19 220 93 19 222 97 23 215 93 18 230 110 35
225 106 30 233 111 34 233 111 34 233 111 34 233 111 34 231 112 34
230 111 32 229 109 33 226 109 32 225 108 31 224 106 30 223 105 29
223 105 29 223 105 29 222 107 30 222 107 30 221 108 30 218 105 30
215 102 26 201 88 12 199 84 9 202 82 9 204 81 9 207 79 9 207 79 9
204 79 9 202 80 9 202 79 11 202 79 11 194 71 3 194 71 3 194 71 3
194 71 3 194 71 1 194 71 1 191 73 0 193 73 0 198 73 2 204 72 5
215 73 9 216 74 11 213 77 14 211 78 14 211 78 14 211 78 14 211 78 14
211 78 14 211 78 14 210 79 12 216 94 21 215 95 19 215 95 19 215 95 19
215 95 17 215 95 17 215 95 17 213 96 17 218 106 23 209 111 23
244 166 71 239 168 71 242 167 69 244 166 69 242 167 69 242 167 69
243 168 70 245 167 70 248 167 72 243 170 72 232 176 72 227 178 72
230 178 73 231 178 73 234 178 74 234 178 74 229 180 74 227 178 72
225 172 67 232 169 67 235 160 60 242 162 64 237 163 61 236 164 61
236 164 61 236 164 61 236 164 61 236 164 61 236 164 61 236 164 61
222 121 32 222 121 32 222 121 32 222 121 32 224 120 32 224 120 32
224 120 32 224 120 32 225 121 33 222 117 30 217 113 25 215 110 23
216 110 23 216 110 23 216 110 23 216 109 25 218 108 27 218 108 27
218 108 27 221 106 27 214 92 15 217 91 15 217 91 15 216 92 15
212 93 15 212 93 17 212 93 17 212 93 17 212 93 17 210 90 15 206 86 10
207 85 10 207 85 10 208 83 9 208 83 9 208 83 9 209 82 9 209 82 9
209 82 9 209 82 11 209 82 11 209 82 11 209 82 11 211 81 13 212 81 16
212 81 16 212 81 16 212 81 16 211 78 16 211 78 16 200 66 4 200 66 4
202 66 7 202 66 7 202 66 9 202 66 9 202 66 9 202 66 9 202 66 7
201 67 5 219 88 23 219 89 21 217 90 19 217 90 17 220 91 18 220 91 18
218 91 18 217 92 18 219 97 22 214 92 17 229 109 33 223 105 29
228 111 32 230 111 32 230 111 32 228 111 32 228 111 32 226 111 31
224 110 32 223 108 31 222 107 30 223 105 29 221 104 28 220 105 28
220 105 28 221 106 29 219 107 29 219 107 29 211 100 24 215 102 26
197 81 6 202 82 9 205 80 9 207 79 9 208 78 11 208 78 11 207 77 11
209 76 11 209 75 13 209 75 13 202 68 6 202 68 6 202 68 6 200 69 6
200 69 6 199 70 6 197 71 4 199 71 4 201 68 3 203 65 0 218 75 12
215 73 9 209 74 10 208 75 10 208 75 10 208 75 10 208 75 10 208 75 10
208 75 10 206 76 8 216 94 21 213 96 19 213 96 19 213 96 19 213 96 17
213 96 17 213 96 17 212 97 17 206 99 14 201 106 18 237 164 68
236 170 71 239 168 69 239 168 69 236 170 69 236 170 69 237 171 70
238 170 70 242 169 70 239 168 69 230 171 68 227 171 67 230 169 67
232 169 67 234 169 68 233 170 68 230 171 68 230 171 68 236 173 72
246 175 76 238 159 60 237 155 58 237 163 61 236 164 61 236 164 61
236 164 61 236 164 61 236 164 61 236 164 61 236 164 61 224 120 32
224 120 32 224 120 32 224 120 32 224 120 32 224 120 32 224 120 32
224 120 32 227 120 33 223 117 30 219 112 25 216 110 23 216 110 23
216 110 23 216 110 23 216 109 25 218 108 27 219 107 27 219 107 27
221 106 27 212 93 15 214 92 15 214 92 15 214 92 15 214 92 17
214 92 19 214 92 19 214 92 19 216 94 21 214 92 19 209 87 14 209 87 14
213 85 14 213 85 14 213 85 14 213 85 14 214 84 14 214 84 14 214 84 14
214 84 14 208 78 11 208 78 11 208 78 11 208 78 11 210 77 13 210 77 13
210 77 13 210 77 13 212 79 17 210 77 15 201 67 5 200 66 4 202 66 7
202 66 7 202 66 7 202 66 7 204 65 9 204 65 9 202 66 7 201 67 5
219 88 23 219 89 21 217 90 19 217 90 17 218 91 18 218 91 18 218 91 18
217 92 18 215 93 18 214 92 17 228 108 30 223 109 29 222 110 29
222 110 29 222 110 29 222 110 29 222 110 29 222 110 29 221 108 28
221 108 28 221 108 28 222 108 28 221 106 29 219 107 29 219 107 29
219 107 29 219 107 29 219 107 29 218 105 30 220 104 32 202 80 9
207 77 9 208 75 8 208 75 8 206 76 8 206 76 8 209 76 11 210 75 13
210 75 13 210 75 13 202 66 5 202 66 5 202 66 5 202 66 7 202 66 9
202 66 9 201 67 7 202 66 7 202 66 5 203 65 2 215 75 13 213 75 13
212 77 11 210 77 11 210 77 11 210 77 11 210 77 11 210 77 11 210 77 11
208 78 11 218 95 21 214 97 19 214 97 19 214 97 19 214 97 19 214 98 17
214 98 17 213 99 17 210 98 15 206 106 19 240 164 69 237 171 72
238 170 70 237 171 70 234 173 70 234 173 70 234 173 70 235 172 70
238 170 70 237 171 70 234 171 69 232 172 69 236 170 69 236 170 69
237 170 67 236 170 67 236 170 67 236 170 67 236 170 67 237 170 67
235 162 61 231 159 58 236 163 63 234 164 63 234 165 61 234 165 61
233 163 59 233 163 59 233 163 59 233 163 59 224 120 32 224 120 32
224 120 32 224 120 32 224 120 32 224 120 32 224 120 32 224 120 32
227 120 33 223 117 30 219 112 25 216 110 23 216 110 23 216 110 23
216 110 23 218 108 25 219 107 27 219 107 27 221 106 27 223 106 27
212 93 15 212 93 15 214 92 15 214 92 17 214 92 19 214 92 19 214 92 19
214 92 19 216 94 21 214 92 19 209 87 14 211 86 14 213 85 14 214 84 14
214 84 14 214 84 14 214 84 14 214 84 14 214 84 14 214 84 14 208 78 11
208 78 11 208 78 11 208 78 11 210 77 13 210 77 13 210 77 13 210 77 13
212 79 17 210 77 15 201 67 5 200 66 4 202 66 7 202 66 7 202 66 7
202 66 7 204 65 9 204 65 9 202 66 7 202 66 5 220 88 23 219 89 21
217 90 19 217 90 17 218 91 18 218 91 18 217 92 18 217 92 18 215 93 18
212 93 17 226 109 30 223 109 29 220 110 29 219 111 29 219 111 29
219 111 29 220 110 29 220 110 29 219 109 28 219 109 28 221 108 28
221 108 28 219 107 29 219 107 29 219 107 29 219 107 29 219 107 29
219 107 29 218 105 30 221 103 32 206 78 9 210 75 9 211 73 8 209 74 8
208 75 8 208 75 10 210 75 13 210 75 13 210 75 13 210 75 13 202 66 5
202 66 5 202 66 5 202 66 7 204 65 9 204 65 11 204 65 9 204 65 9
204 65 7 203 65 4 213 75 13 213 75 13 212 77 11 210 77 11 210 77 11
210 77 11 210 77 11 210 77 11 210 77 11 208 79 9 218 95 21 214 97 19
214 97 19 214 97 19 214 98 17 214 98 17 214 98 17 214 98 17 212 97 15
207 105 19 241 163 69 237 171 72 238 170 70 237 171 70 232 174 70
232 174 70 234 173 70 234 173 70 235 172 70 237 171 70 234 171 69
236 170 69 237 169 69 237 169 69 237 170 67 237 170 67 237 170 67
237 170 67 237 170 67 237 170 67 231 164 61 228 160 58 234 164 63
234 164 63 234 165 61 234 165 61 233 163 59 233 163 59 233 163 59
233 163 59 224 120 32 224 120 32 224 120 32 224 120 32 224 120 32
224 120 32 224 120 32 224 120 32 227 120 33 223 117 30 219 112 25
216 110 23 216 110 23 216 110 23 216 110 23 218 108 25 219 107 27
219 107 27 221 106 27 223 106 27 212 93 15 212 93 15 214 92 15
214 92 17 214 92 19 214 92 19 214 92 19 214 92 19 216 94 21 214 92 19
209 87 14 211 86 14 213 85 14 214 84 14 214 84 14 214 84 14 214 84 14
214 84 14 214 84 14 214 84 14 208 78 11 208 78 11 208 78 11 208 78 11
210 77 13 210 77 13 210 77 13 210 77 13 212 79 17 209 75 13 202 68 6
200 66 4 202 66 7 202 66 7 202 66 7 202 66 7 204 65 9 204 65 9
202 66 7 202 66 5 220 88 23 219 89 21 217 90 19 217 90 17 218 91 18
218 91 18 217 92 18 217 92 18 215 93 18 212 93 17 226 109 30
222 110 29 220 110 29 219 111 29 219 111 29 219 111 29 220 110 29
220 110 29 219 109 28 219 109 28 219 109 28 219 109 28 218 108 27
218 108 27 219 107 27 219 107 27 219 107 27 219 107 29 220 104 30
223 102 32 206 78 9 210 75 9 211 73 8 209 74 8 208 75 8 208 75 10
210 75 13 210 75 13 210 75 13 210 75 13 202 66 5 202 66 5 202 66 5
202 66 7 204 65 9 204 65 11 204 65 9 204 65 9 204 65 7 203 65 4
213 75 13 213 75 13 212 77 11 210 77 11 210 77 11 210 77 11 210 77 11
210 77 11 210 77 11 208 79 9 218 95 21 214 97 19 214 97 19 214 97 19
214 98 17 214 98 17 214 98 17 214 98 17 212 97 15 207 105 19
241 163 69 237 171 72 238 170 70 237 171 70 232 174 70 232 174 70
234 173 70 234 173 70 235 172 70 235 172 70 236 170 69 236 170 69
237 169 69 237 169 69 237 170 67 237 170 67 237 170 67 237 170 67
237 170 67 237 170 67 231 164 61 229 161 59 231 164 61 231 164 61
231 164 59 231 164 59 230 163 58 230 163 58 230 163 58 230 163 58
224 120 32 224 120 32 224 120 32 224 120 32 224 120 32 224 120 32
224 120 32 224 120 32 227 120 33 223 117 30 219 112 25 216 110 23
216 110 23 216 110 23 216 110 23 218 108 25 219 107 27 219 107 27
221 106 27 223 106 27 212 93 15 212 93 15 214 92 15 214 92 17
214 92 19 214 92 19 214 92 19 214 92 19 216 94 21 214 92 19 209 87 14
211 86 14 213 85 14 214 84 14 214 84 14 214 84 14 214 84 14 214 84 14
214 84 14 214 84 14 208 78 11 208 78 11 208 78 11 208 78 11 210 77 13
210 77 13 210 77 13 210 77 13 211 78 16 209 75 13 202 68 6 201 65 4
202 66 7 202 66 7 202 66 7 202 66 7 204 65 9 204 65 9 202 66 7
201 67 5 219 88 23 219 89 19 217 90 17 217 90 17 218 91 18 218 91 18
217 92 18 217 92 18 215 93 18 212 93 17 226 109 30 222 110 29
220 110 29 219 111 29 219 111 29 219 111 29 220 110 29 220 110 29
219 109 28 219 109 28 219 109 28 219 109 28 218 108 27 218 108 27
219 107 27 219 107 27 219 107 27 219 107 29 220 104 30 223 102 32
206 78 9 210 75 9 211 73 8 209 74 8 208 75 8 208 75 10 210 75 13
210 75 13 210 75 13 210 75 13 202 66 5 202 66 5 202 66 5 202 66 7
204 65 9 204 65 11 204 65 9 204 65 9 204 65 7 203 65 4 213 75 13
213 75 13 212 77 11 210 77 11 210 77 11 210 77 11 210 77 11 210 77 11
210 77 11 208 79 9 218 95 21 214 97 19 214 97 19 214 97 19 214 98 17
214 98 17 214 98 17 214 98 17 212 97 15 207 105 19 241 163 69
238 170 72 238 170 70 237 171 70 234 173 70 232 174 70 234 173 70
235 172 70 235 172 70 235 172 70 236 170 69 236 170 69 237 169 69
237 169 69 237 170 67 237 170 67 237 170 67 237 170 67 237 170 67
237 170 67 231 164 61 229 161 59 231 164 61 231 164 61 231 164 59
231 164 59 230 163 58 230 163 58 230 163 58 230 163 58 225 119 32
225 119 32 225 119 32 225 119 32 225 119 32 225 119 32 225 119 32
225 119 32 227 120 33 223 117 30 219 112 25 216 110 23 218 109 23
218 109 23 218 109 23 218 108 25 219 107 27 219 107 27 221 106 27
223 106 27 212 93 15 212 93 15 214 92 15 214 92 17 214 92 19
214 92 19 214 92 19 214 92 19 216 94 21 214 92 19 209 87 14 211 86 14
213 85 14 214 84 14 214 84 14 214 84 14 214 84 14 214 84 14 214 84 14
214 84 14 208 78 11 208 78 11 208 78 11 208 78 11 210 77 13 210 77 13
210 77 13 211 78 14 213 77 16 209 73 12 205 69 8 202 66 5 204 65 7
204 65 7 204 65 7 204 65 7 204 65 7 204 65 7 202 66 7 201 67 5
219 89 21 217 90 19 217 90 17 216 92 15 218 92 16 218 92 16 217 93 16
217 93 16 215 94 16 212 93 15 226 109 30 222 110 29 220 110 29
219 111 29 219 111 29 219 111 29 220 110 29 220 110 29 219 109 28
219 109 28 219 110 26 219 110 26 218 108 27 218 108 27 219 107 27
219 107 27 219 107 27 219 107 29 220 104 30 223 102 32 206 78 9
210 75 9 211 73 8 209 74 8 208 75 8 208 75 10 210 75 13 210 75 13
210 75 13 210 75 13 202 66 5 202 66 5 202 66 5 202 66 7 204 65 9
204 65 11 204 65 9 204 65 9 204 65 7 203 65 4 213 75 13 213 75 13
212 77 11 210 77 11 210 77 11 210 77 11 210 77 11 210 77 11 210 77 11
208 79 9 218 95 21 214 97 19 214 97 19 214 97 19 214 98 17 214 98 17
214 98 17 214 98 17 213 97 15 209 104 19 243 162 69 238 170 72
240 170 70 238 170 70 234 173 70 232 174 70 234 173 70 235 172 70
237 171 70 237 171 70 237 171 70 237 171 70 238 170 70 238 170 70
238 171 68 238 171 68 238 171 68 238 171 68 237 170 67 236 168 66
233 165 63 229 161 59 230 163 60 231 164 61 231 164 61 231 164 61
231 164 61 231 164 61 231 164 61 231 164 61 225 119 32 225 119 32
225 119 32 225 119 32 225 119 32 225 119 32 225 119 32 225 119 32
227 120 33 223 117 30 219 112 25 216 110 23 218 109 23 218 109 23
218 109 23 218 108 25 219 107 27 219 107 27 221 106 27 223 106 27
212 93 15 212 93 15 214 92 15 214 92 17 214 92 19 214 92 19 214 92 19
214 92 19 216 94 21 214 92 19 209 87 14 211 86 14 213 85 14 214 84 14
214 84 14 214 84 14 214 84 14 214 84 14 214 84 14 214 84 14 208 78 11
208 78 11 208 78 11 208 78 11 210 77 13 210 77 13 210 77 13 211 78 14
212 76 15 209 73 12 205 69 8 202 66 5 204 65 7 204 65 7 204 65 7
204 65 7 204 65 7 202 66 7 202 66 5 201 68 3 219 89 21 217 90 17
216 92 15 216 92 15 218 92 16 218 92 16 217 93 16 217 93 16 215 94 16
211 94 15 224 110 30 222 110 29 220 110 29 219 111 29 219 111 29
219 111 29 220 110 29 220 110 29 219 109 28 219 109 28 219 110 26
219 110 26 218 108 27 218 108 27 219 107 27 219 107 27 219 107 27
219 107 29 220 104 30 223 102 32 206 78 9 210 75 9 211 73 8 209 74 8
208 75 8 208 75 10 210 75 13 210 75 13 210 75 13 210 75 13 202 66 5
202 66 5 202 66 5 202 66 7 204 65 9 204 65 11 204 65 9 204 65 9
204 65 7 203 65 4 213 75 13 213 75 13 212 77 11 210 77 11 210 77 11
210 77 11 210 77 11 210 77 11 210 77 11 208 79 9 218 95 21 214 97 19
214 97 19 214 97 19 214 98 17 214 98 17 214 98 17 214 98 17 213 97 15
209 104 19 243 162 69 238 170 72 240 170 70 238 170 70 234 173 70
234 173 70 235 172 70 235 172 70 237 171 70 237 171 70 237 171 70
237 171 70 238 170 70 238 170 70 238 171 68 238 171 68 238 171 68
238 171 68 237 170 67 236 168 66 233 165 63 229 161 59 230 163 60
231 164 61 231 164 61 231 164 61 231 164 61 231 164 61 231 164 61
231 164 61 225 119 32 225 119 32 225 119 32 225 119 32 225 119 32
225 119 32 225 119 32 225 119 32 227 120 33 223 117 30 219 112 25
216 110 23 218 109 23 218 109 23 218 109 23 218 108 25 219 107 27
219 107 27 221 106 27 223 106 27 212 93 15 212 93 15 214 92 15
214 92 17 214 92 19 214 92 19 214 92 19 214 92 19 216 94 21 214 92 19
209 87 14 211 86 14 213 85 14 214 84 14 214 84 14 214 84 14 214 84 14
214 84 14 214 84 14 214 84 14 208 78 11 208 78 11 208 78 11 208 78 11
210 77 13 210 77 13 210 77 13 211 78 14 211 78 16 209 75 13 203 70 8
202 66 5 202 66 5 202 66 5 202 66 5 202 66 5 202 66 5 201 67 5
201 67 5 201 68 3 219 89 19 217 90 17 216 92 15 216 92 13 218 92 14
218 92 14 217 93 16 217 93 16 215 94 16 211 94 15 224 110 28
222 110 27 220 111 27 219 112 27 219 112 27 219 112 27 220 111 27
220 111 27 219 110 26 219 110 26 219 110 26 219 110 26 218 108 25
218 108 25 219 108 25 219 108 25 219 108 25 219 107 27 220 104 30
223 102 32 206 78 9 210 75 9 211 73 8 209 74 8 208 75 8 208 75 10
210 75 13 210 75 13 210 75 13 210 75 13 202 66 5 202 66 5 202 66 5
202 66 7 204 65 9 204 65 11 204 65 9 204 65 9 204 65 7 203 65 4
213 75 13 213 75 13 212 77 11 210 77 11 210 77 11 210 77 11 210 77 11
210 77 11 210 77 11 208 79 9 218 95 21 214 97 19 214 97 19 214 97 19
214 98 17 214 98 17 214 98 17 214 98 17 214 98 17 209 104 19
243 162 69 237 169 71 239 168 69 237 169 69 232 172 69 232 172 69
234 171 69 236 170 69 236 170 69 236 170 69 237 171 70 237 171 70
238 170 70 238 170 70 238 171 68 238 171 68 238 171 68 238 171 68
237 170 67 236 168 66 233 165 63 230 163 60 230 163 60 231 164 61
231 164 61 231 164 61 231 164 61 231 164 61 231 164 61 231 164 61
225 119 32 225 119 32 225 119 32 225 119 32 225 119 32 225 119 32
225 119 32 225 119 32 227 120 35 223 116 32 220 111 27 219 108 25
221 107 25 221 107 25 219 108 25 221 107 25 221 106 27 221 106 29
223 105 29 223 105 29 212 93 17 214 92 17 214 92 17 214 92 17
214 92 19 214 92 19 214 92 19 214 92 19 216 94 21 214 92 19 209 87 14
211 86 14 213 85 14 214 84 14 214 84 14 214 84 14 214 84 14 214 84 14
214 84 14 214 84 14 208 78 11 208 78 11 208 78 11 208 78 11 210 77 13
210 77 13 210 77 13 211 78 14 211 78 16 209 75 13 203 70 8 201 67 5
202 66 5 202 66 5 202 66 5 202 66 5 201 67 5 201 67 5 201 68 3
199 69 1 214 92 19 212 93 15 211 94 13 211 94 13 214 95 14 214 95 14
212 95 16 212 95 16 210 96 16 208 96 15 221 112 28 219 112 27
217 112 27 217 112 27 217 112 27 217 112 27 217 112 27 219 112 27
217 110 26 217 110 26 217 111 24 217 111 24 216 110 23 216 109 25
218 108 25 218 108 25 218 108 25 218 108 27 217 106 28 220 104 30
204 79 7 207 77 7 208 76 6 208 76 6 204 77 6 204 77 8 207 77 11
209 76 11 209 76 11 209 76 11 201 68 3 201 68 3 201 68 3 201 67 5
201 67 7 201 67 7 201 67 7 201 67 5 201 68 3 201 66 2 212 77 11
212 77 11 210 77 11 210 77 11 210 77 11 210 77 11 210 77 11 210 77 11
210 77 11 208 79 9 218 95 21 214 97 19 214 97 19 214 97 19 214 97 19
214 98 17 214 98 17 214 98 17 214 98 17 209 104 19 242 161 68
238 167 70 236 166 67 235 167 67 232 169 67 230 169 67 233 168 67
233 168 67 233 168 67 235 167 67 242 169 70 243 168 70 243 168 70
243 168 70 243 168 68 243 168 68 243 168 68 243 168 68 242 167 67
241 166 66 237 163 63 235 160 60 235 160 60 236 161 61 236 161 61
236 161 61 236 161 61 236 161 61 236 161 61 236 161 61 219 112 25
219 112 25 219 112 25 219 112 25 220 111 25 220 111 25 220 111 25
220 111 27 221 114 31 220 110 31 205 88 11 207 85 10 209 84 10
207 85 10 206 86 10 206 86 10 207 85 10 207 85 12 207 85 12 207 85 12
211 88 16 212 87 16 212 87 16 212 87 16 215 90 18 215 90 18 215 90 18
215 90 18 215 90 18 212 87 16 208 83 11 208 83 11 209 81 13 211 81 13
211 81 13 211 81 13 211 81 13 211 81 13 211 81 13 211 81 13 210 79 12
210 79 12 210 79 12 210 79 12 210 79 12 210 79 12 210 79 12 210 79 14
211 78 14 210 77 13 212 79 15 212 79 15 212 79 17 212 79 17 212 79 17
212 79 17 212 79 17 211 80 17 212 79 15 208 82 13 227 117 38
222 120 36 224 119 34 224 120 32 225 121 33 225 121 35 225 121 35
225 121 35 223 121 35 222 120 34 236 136 49 235 135 48 233 136 48
233 136 48 233 136 46 233 136 46 233 136 46 235 135 46 235 135 46
235 135 46 221 121 32 221 121 32 222 121 32 222 121 32 222 121 32
222 121 32 224 120 32 224 119 34 220 118 32 225 119 34 210 96 14
216 97 17 219 95 19 219 95 19 216 97 19 216 96 21 219 94 23 219 94 23
219 94 23 219 94 23 218 93 21 218 93 21 218 93 21 218 93 21 218 93 23
216 93 23 216 93 23 216 94 21 218 95 23 221 93 23 211 79 10 210 78 9
210 77 11 210 77 11 210 77 11 210 77 11 210 77 11 210 77 11 210 77 11
208 79 9 220 98 23 217 99 23 217 99 23 217 99 23 217 100 21
217 100 21 217 100 21 217 100 21 217 98 18 212 105 20 242 159 67
235 165 68 235 162 63 233 163 63 228 165 63 228 165 63 231 163 63
231 163 63 230 164 63 235 162 63 214 127 33 219 124 33 217 125 33
215 126 33 217 125 31 217 125 31 217 125 31 217 125 31 218 127 32
221 129 35 222 133 38 224 134 39 222 135 39 222 135 39 222 135 39
222 135 39 222 135 39 222 135 39 222 135 39 222 135 39 219 112 25
219 112 25 219 112 25 219 112 25 220 111 25 220 111 25 220 111 25
220 111 27 221 113 33 222 109 33 207 87 13 210 83 12 212 82 12
210 83 12 209 84 12 207 85 12 209 84 12 209 84 12 209 84 12 209 84 12
212 87 16 212 87 16 212 87 16 212 87 16 215 90 18 215 90 18 215 90 18
215 90 18 215 90 18 212 87 16 208 83 11 209 82 11 211 81 13 211 81 13
211 81 13 211 81 13 211 81 13 211 81 13 211 81 13 211 81 13 210 79 12
210 79 12 210 79 12 210 79 12 210 79 12 210 79 12 210 79 12 210 79 12
211 78 14 211 78 14 212 79 15 212 79 15 212 79 15 212 79 17 212 79 17
211 80 17 211 80 17 211 80 15 212 80 13 206 83 11 224 119 38
218 123 34 219 122 32 219 122 32 220 123 33 220 123 33 220 123 35
220 123 35 220 123 35 219 122 34 233 138 49 231 137 48 231 137 48
231 137 48 231 137 46 231 137 46 231 137 46 231 137 46 233 136 46
233 136 46 219 122 32 219 122 32 221 122 30 221 122 30 221 121 32
221 121 32 222 121 32 222 121 32 218 119 30 222 121 32 207 98 12
214 98 14 216 97 17 216 97 17 214 98 17 214 97 19 216 96 21 218 95 21
218 95 21 218 95 21 216 94 19 216 94 19 216 94 19 216 94 19 215 95 19
215 95 19 213 96 19 213 96 19 216 96 21 218 95 21 210 80 8 210 78 9
210 77 11 210 77 11 210 77 11 210 77 11 210 77 11 210 77 11 210 77 11
208 78 11 220 97 25 217 99 23 217 99 23 217 99 23 217 100 21
217 100 21 217 100 21 217 100 21 218 99 19 212 105 20 241 158 65
234 163 67 232 159 61 231 160 61 226 163 61 226 163 61 229 161 61
231 160 61 229 161 61 234 159 61 219 124 33 223 122 33 222 123 33
220 123 33 222 123 31 222 123 31 222 123 31 222 123 31 223 124 32
225 126 35 227 131 38 228 132 39 227 133 39 227 133 39 225 134 39
225 134 39 225 134 39 225 134 39 225 134 39 225 134 39 219 112 25
219 112 25 219 112 25 219 112 25 220 111 25 220 111 25 220 111 25
220 111 27 221 113 33 222 109 33 207 87 13 210 83 12 212 82 12
210 83 12 209 84 12 207 85 12 209 84 12 209 84 12 209 84 12 209 84 12
212 87 16 212 87 16 212 87 16 212 87 16 215 90 18 215 90 18 215 90 18
215 90 18 215 90 18 212 87 16 208 83 11 209 82 11 211 81 13 211 81 13
211 81 13 211 81 13 211 81 13 211 81 13 211 81 13 211 81 13 210 79 12
210 79 12 210 79 12 210 79 12 210 79 12 210 79 12 210 79 12 210 79 12
211 80 15 211 80 15 211 80 15 211 80 15 211 80 15 211 80 15 211 80 15
209 81 15 209 81 15 211 80 15 211 81 13 206 83 11 224 119 36
218 123 34 219 122 32 219 122 32 220 123 33 220 123 33 220 123 35
220 123 35 220 123 35 219 122 34 233 138 47 231 137 46 231 137 46
231 137 46 231 137 46 231 137 44 231 137 44 231 137 44 233 137 44
233 137 44 219 123 30 219 123 30 221 122 30 221 122 30 221 121 32
221 121 32 222 121 32 222 121 32 218 119 30 222 121 32 207 98 12
214 98 14 216 97 17 216 97 17 214 98 17 214 97 19 216 96 21 218 95 21
218 95 21 218 95 21 215 95 19 215 95 19 216 94 19 216 94 19 215 95 19
215 95 19 213 96 19 213 96 19 216 96 21 218 95 21 210 80 8 210 78 9
210 77 11 210 77 11 210 77 11 210 77 11 210 77 11 210 77 11 210 77 11
208 78 11 220 97 25 217 99 23 217 99 23 217 99 23 217 100 21
217 100 21 217 100 21 217 100 21 219 101 20 212 105 20 241 158 65
233 162 65 231 158 60 229 159 60 225 162 60 225 162 60 229 159 60
229 159 60 228 160 60 233 157 60 219 124 33 223 122 33 222 123 33
220 123 33 222 123 31 222 123 31 222 123 31 222 123 31 223 124 32
225 126 35 227 131 38 228 132 39 227 133 39 227 133 39 225 134 39
225 134 39 225 134 39 225 134 39 225 134 39 225 134 39 219 112 25
219 112 25 219 112 25 219 112 25 220 111 25 220 111 25 220 111 25
220 111 27 221 113 33 222 109 33 207 87 13 210 83 12 212 82 12
210 83 12 209 84 12 207 85 12 209 84 12 209 84 12 209 84 12 209 84 12
212 87 16 212 87 16 212 87 16 212 87 16 215 90 18 215 90 18 215 90 18
215 90 18 215 90 18 212 87 16 208 83 11 209 82 11 211 81 13 211 81 13
211 81 13 211 81 13 211 81 13 211 81 13 211 81 13 211 81 13 210 79 12
210 79 12 210 79 12 210 79 12 210 79 12 210 79 12 210 79 12 210 79 12
211 80 15 211 80 15 209 81 15 209 81 15 209 81 13 209 81 13 209 81 15
209 81 15 209 81 15 209 81 13 211 81 11 204 85 9 222 120 36
218 123 34 219 122 32 219 122 32 220 123 33 220 123 33 220 123 35
220 123 35 220 123 35 219 122 34 233 138 47 231 137 46 231 137 46
231 137 46 231 137 44 231 137 44 231 137 44 231 137 44 233 137 44
233 137 44 219 123 30 219 123 30 221 122 30 221 121 32 221 121 32
221 121 32 222 121 32 222 121 32 218 119 30 222 121 32 207 98 12
214 98 17 216 97 17 218 96 17 216 97 17 216 97 19 218 95 21 218 95 21
218 95 21 218 95 21 215 95 19 215 95 19 216 94 19 216 94 19 215 95 19
215 95 19 213 96 19 213 96 19 216 96 21 218 95 21 210 80 8 210 78 7
210 78 9 210 77 11 210 77 11 210 77 11 210 77 11 210 77 11 210 77 11
208 79 9 220 98 23 217 99 23 217 99 23 217 99 23 217 100 21
217 100 21 217 100 21 218 99 21 219 101 20 212 105 20 241 158 65
235 161 65 231 158 60 229 159 60 226 161 60 226 161 60 229 159 60
231 158 60 228 160 60 233 157 60 219 124 33 223 122 33 222 123 33
220 123 33 222 123 31 222 123 31 222 123 31 222 123 31 223 124 32
225 126 35 227 131 38 228 132 39 227 133 39 227 133 39 225 134 39
225 134 39 225 134 39 225 134 39 225 134 39 225 134 39 219 110 24
219 110 24 219 110 24 219 110 24 219 110 24 219 110 24 219 110 24
219 110 26 220 112 32 221 108 32 206 85 12 209 82 11 212 82 12
210 83 12 209 84 12 207 85 12 209 84 12 209 84 12 209 84 12 209 84 12
213 88 17 213 88 17 213 88 17 213 88 17 215 90 18 215 90 18 215 90 18
215 90 18 215 90 18 212 87 16 208 83 11 209 82 11 211 81 13 211 81 13
211 81 13 211 81 13 211 81 13 211 81 13 211 81 13 211 81 13 210 79 12
210 79 12 210 79 12 210 79 12 210 79 12 210 79 12 210 79 12 210 79 12
209 81 13 209 81 13 209 81 13 209 81 13 209 81 13 209 81 13 208 82 13
208 82 13 208 82 13 209 81 13 209 82 11 204 85 9 222 120 36
218 123 34 218 123 32 218 123 30 219 124 33 219 124 33 219 124 35
219 124 35 219 124 35 218 123 34 233 138 47 231 137 46 231 137 46
231 137 46 231 137 44 231 137 44 231 137 44 231 137 44 231 137 44
231 137 44 219 122 32 219 122 32 221 121 32 221 121 32 221 121 34
221 121 34 222 120 34 222 120 34 218 119 32 222 120 34 207 98 14
214 98 17 216 97 19 218 96 19 216 97 19 216 97 19 218 95 21 218 95 21
218 95 21 218 95 21 215 95 19 215 95 19 216 94 19 216 94 19 215 95 17
215 95 17 213 96 17 213 96 17 216 97 19 218 96 19 210 81 6 210 78 7
210 78 9 210 78 9 210 78 9 210 78 9 210 78 9 210 78 9 210 78 9
208 79 9 220 98 23 217 99 23 217 99 23 217 99 23 218 99 23 218 99 23
218 99 23 218 99 21 221 100 20 213 104 20 243 157 65 235 161 65
233 157 62 231 158 62 226 160 62 226 160 62 231 158 62 231 158 62
229 159 62 234 156 62 219 124 35 223 121 35 222 122 35 220 123 33
222 123 31 222 123 31 222 123 31 222 123 31 223 124 32 225 126 35
227 131 38 228 132 39 227 133 39 227 133 39 225 134 39 225 134 39
225 134 39 225 134 39 225 134 39 225 134 39 219 110 24 219 110 24
219 110 24 219 110 24 219 110 24 219 110 24 219 110 24 219 110 26
220 112 32 221 108 32 206 85 12 209 82 11 212 82 12 210 83 12
209 84 12 207 85 12 209 84 12 209 84 12 209 84 12 209 84 12 213 88 17
213 88 17 213 88 17 213 88 17 215 90 18 215 90 18 215 90 18 215 90 18
215 90 18 212 87 16 208 83 11 209 82 11 211 81 13 211 81 13 211 81 13
211 81 13 211 81 13 211 81 13 211 81 13 211 81 13 210 79 12 210 79 12
210 79 12 210 79 12 210 79 12 210 79 12 210 79 12 210 79 12 209 81 13
209 81 13 209 81 13 209 81 13 209 81 13 209 81 13 208 82 13 208 82 13
208 82 13 208 82 13 209 82 11 204 85 9 222 120 36 216 123 34
218 123 32 218 123 30 219 124 33 219 124 33 219 124 35 219 124 35
219 124 35 218 123 34 233 138 47 231 137 46 231 137 46 231 137 46
231 137 44 231 137 44 231 137 44 231 137 44 231 137 44 231 137 44
219 122 32 219 122 32 221 121 32 221 121 32 221 121 34 222 120 34
222 120 34 222 120 34 218 119 32 222 120 34 207 98 14 214 98 17
216 97 19 218 96 19 216 97 19 216 97 19 218 95 21 218 95 21 218 95 21
218 95 21 215 95 19 215 95 19 216 94 19 216 94 19 215 95 17 215 95 17
213 96 17 213 96 17 216 97 19 218 96 19 210 81 6 210 78 7 210 78 9
210 78 9 210 78 9 210 78 9 210 78 9 210 78 9 210 78 9 208 79 9
220 98 23 217 99 23 217 99 23 217 99 23 218 99 23 218 99 23 218 99 23
218 99 23 221 99 22 213 104 20 243 157 65 235 161 65 233 157 62
231 158 62 226 160 62 226 160 62 231 158 62 231 158 62 229 159 62
234 156 62 219 124 35 223 121 35 222 122 35 220 123 35 222 123 33
222 123 31 222 123 31 222 123 31 223 124 32 225 126 35 227 131 38
228 132 39 227 133 39 227 133 39 225 134 39 225 134 39 225 134 39
225 134 39 225 134 39 225 134 39 219 110 24 219 110 24 219 110 24
219 110 24 219 110 24 219 110 24 219 110 24 219 110 26 220 112 32
221 108 32 206 85 12 209 82 11 212 82 12 210 83 12 209 84 12
207 85 12 209 84 12 209 84 12 209 84 12 209 84 12 213 88 17 213 88 17
213 88 17 213 88 17 215 90 18 215 90 18 215 90 18 215 90 18 215 90 18
212 87 16 208 83 11 209 82 11 211 81 13 211 81 13 211 81 13 211 81 13
211 81 13 211 81 13 211 81 13 211 81 13 210 79 12 210 79 12 210 79 12
210 79 12 210 79 12 210 79 12 210 79 12 210 79 12 209 81 13 209 81 13
208 82 13 208 82 13 208 83 11 208 83 11 208 82 13 206 83 13 208 82 13
208 82 13 209 82 11 204 85 9 222 120 36 216 123 34 218 123 32
218 123 30 219 124 33 219 124 33 219 124 35 219 124 35 219 124 35
218 123 34 233 138 47 231 137 46 230 136 45 230 136 45 230 136 43
230 136 43 231 137 44 231 137 44 231 137 44 231 137 44 219 122 32
219 122 32 221 121 32 221 121 32 222 120 34 222 120 34 224 119 34
222 120 34 220 118 32 224 119 34 209 97 14 214 98 17 216 97 19
218 96 19 216 97 19 216 97 19 218 95 21 218 95 21 218 95 21 218 95 21
215 95 19 215 95 19 215 95 19 215 95 19 216 95 17 215 95 17 213 96 17
213 96 17 216 97 19 218 96 19 210 81 6 210 78 7 210 78 9 210 78 9
210 78 9 210 78 9 210 78 9 210 78 9 212 77 9 208 79 9 220 98 23
218 99 23 218 99 23 218 99 23 218 99 23 218 99 23 218 99 23 218 99 23
221 99 22 213 104 20 243 157 65 235 161 65 233 157 62 231 158 62
226 160 62 226 160 62 231 158 62 231 158 62 229 159 62 234 156 62
219 124 35 223 121 35 222 122 35 220 123 35 222 123 33 222 123 31
222 123 31 222 123 31 223 124 32 225 126 35 227 131 38 228 132 39
227 133 39 227 133 39 225 134 39 225 134 39 225 134 39 225 134 39
225 134 39 225 134 39 219 110 26 219 110 26 219 110 26 219 110 26
219 110 26 219 110 26 219 110 26 219 110 26 221 111 32 221 108 32
207 85 12 209 82 11 212 82 12 212 82 12 209 84 12 209 84 12 209 84 12
209 84 12 209 84 12 209 84 12 213 88 17 213 88 17 213 88 17 213 88 17
215 90 18 215 90 18 215 90 18 215 90 18 215 90 18 212 87 16 208 83 11
208 83 11 209 81 13 211 81 13 211 81 13 211 81 13 211 81 13 211 81 13
211 81 13 211 81 13 210 79 12 210 79 12 210 79 12 210 79 12 210 79 12
208 80 12 208 80 12 208 80 12 209 81 13 209 81 13 206 81 12 208 82 13
208 83 11 208 83 11 206 83 13 206 83 13 208 82 13 208 82 13 209 82 11
203 85 9 221 121 36 216 124 32 218 123 30 218 123 30 219 124 33
219 124 33 219 124 35 219 124 35 219 124 35 218 123 34 229 135 44
230 136 45 230 136 45 230 136 45 230 136 43 230 136 43 231 137 44
231 137 46 231 137 46 233 136 46 219 122 32 221 121 32 221 121 32
222 120 34 222 120 34 224 119 34 224 119 34 224 119 34 222 117 32
225 119 34 212 101 18 214 98 17 218 96 19 218 96 19 218 96 19
218 96 19 218 95 21 218 95 21 218 95 21 216 96 21 213 96 19 213 96 19
213 96 19 215 95 19 215 95 17 215 95 17 213 96 17 213 96 17 216 97 19
219 95 19 210 81 6 210 79 5 210 78 7 210 78 9 210 78 9 210 78 9
210 78 9 210 78 9 210 78 9 208 79 9 222 97 23 218 99 23 218 99 23
218 99 23 218 99 23 218 99 23 218 99 23 218 99 23 218 101 22
212 105 20 243 157 65 236 161 65 233 157 62 231 158 62 229 159 62
229 159 62 233 157 62 234 156 62 233 157 62 236 155 62 219 124 35
222 122 35 220 123 35 220 123 35 222 123 33 222 123 33 223 122 33
223 122 33 225 123 34 225 126 37 227 130 40 227 132 41 227 132 41
227 132 41 225 133 41 225 133 41 225 133 41 225 133 41 225 133 41
225 133 41 222 110 29 222 110 29 222 110 29 222 110 29 222 110 29
222 110 29 222 110 29 222 110 29 222 109 31 224 106 32 209 87 14
214 86 16 212 82 12 212 82 12 210 83 12 209 84 12 209 84 12 209 84 12
209 84 12 209 84 12 213 88 17 213 88 17 213 88 17 213 88 17 215 90 16
215 90 16 215 90 16 215 90 16 215 90 16 212 88 14 208 83 9 208 83 11
208 80 12 208 80 14 208 80 14 208 80 14 208 80 14 208 80 14 208 80 14
208 80 12 210 79 12 210 80 10 208 81 10 208 81 10 208 81 10 206 81 10
206 81 10 206 81 10 206 81 10 206 81 10 206 81 10 205 80 9 204 81 9
205 82 10 205 82 10 205 82 10 205 82 12 206 81 12 206 81 10 202 84 8
225 126 39 221 128 37 219 128 33 219 128 33 221 127 35 221 127 35
220 125 34 219 124 33 219 124 33 221 127 35 225 133 41 226 134 42
228 135 44 228 135 44 228 135 44 228 135 44 228 135 44 228 133 44
226 131 42 226 129 41 225 126 39 226 124 37 223 121 35 224 119 34
224 119 36 225 118 36 225 118 36 227 117 36 236 127 45 231 119 38
219 102 23 216 97 19 218 96 19 219 95 19 218 96 19 218 96 19
219 95 21 218 95 21 218 95 21 216 96 21 214 97 21 213 98 21 213 98 19
213 98 19 214 97 19 216 97 19 216 97 17 218 96 17 220 97 18 222 96 18
212 81 5 213 79 6 210 76 5 210 76 5 209 77 5 209 77 5 209 77 7
209 77 7 207 77 7 206 78 7 220 95 24 219 96 24 219 96 24 218 95 23
216 94 19 215 93 18 215 93 18 212 95 18 218 108 27 207 107 22
242 154 65 232 152 60 235 157 63 234 158 63 235 157 63 237 157 63
240 155 63 240 155 63 240 155 63 242 154 63 217 124 37 217 124 37
217 124 37 219 124 35 222 122 35 223 121 35 225 121 35 227 120 35
227 123 37 225 123 36 230 132 44 227 132 43 227 132 43 227 132 43
227 132 43 227 132 43 227 132 43 227 132 43 227 132 43 227 132 43
219 107 27 219 107 27 219 107 27 219 107 27 219 107 27 219 107 27
219 107 27 219 107 29 221 106 31 221 104 30 209 84 12 213 83 13
213 81 12 213 81 12 212 82 12 210 83 12 209 84 12 209 84 12 209 84 12
209 84 12 213 88 17 213 88 17 213 88 17 213 88 17 215 90 16 215 90 16
215 90 16 215 90 16 215 90 16 212 88 14 208 83 9 208 83 11 208 80 12
208 80 14 208 80 14 208 80 14 208 80 14 208 80 14 208 80 14 208 80 14
210 79 12 210 80 10 208 81 10 208 81 10 206 82 8 206 82 8 205 83 8
205 83 8 206 81 10 208 83 11 210 85 13 210 85 13 206 83 11 204 81 9
204 81 9 204 81 9 204 81 11 204 81 11 205 80 9 200 83 5 221 121 34
214 125 32 215 123 29 215 123 29 216 122 31 216 122 31 215 121 30
216 122 31 222 128 37 227 132 41 228 135 44 226 134 42 228 135 44
228 135 44 228 135 44 228 135 44 226 134 44 227 132 43 226 129 41
227 127 40 227 125 39 227 123 37 225 121 35 225 119 34 227 117 36
227 117 36 229 117 36 230 118 37 229 115 35 224 110 30 221 101 23
218 96 19 217 93 16 218 94 17 216 95 17 216 95 17 218 93 19 218 93 19
216 94 19 213 96 19 212 97 19 210 98 19 210 98 17 210 98 17 210 98 17
212 97 17 212 97 15 213 97 15 216 97 17 218 96 17 208 82 4 208 79 5
210 80 8 208 81 8 208 81 8 206 82 8 208 81 10 206 81 10 206 81 10
205 82 10 223 101 28 223 101 28 223 101 28 222 100 27 221 99 24
220 98 23 220 98 23 218 99 23 214 99 20 212 104 22 246 148 63
243 153 65 241 156 64 243 155 64 246 154 64 248 153 64 248 153 64
248 153 64 248 153 64 248 153 64 220 125 38 220 125 38 220 125 38
221 124 38 225 123 36 228 121 36 229 120 36 231 119 36 232 122 39
227 123 37 232 133 46 230 132 44 228 131 43 228 131 43 228 131 43
228 131 43 228 131 43 228 131 43 228 131 43 228 131 43 217 105 24
217 105 24 217 105 24 217 105 24 217 105 24 217 105 24 217 105 24
217 105 26 219 103 28 219 101 27 206 81 10 211 81 11 213 81 12
213 81 12 212 82 12 210 83 12 209 84 12 209 84 12 209 84 12 209 84 12
213 88 17 213 88 17 213 88 17 213 88 17 215 90 16 215 90 16 215 90 16
215 90 16 215 90 16 212 88 14 208 83 9 208 83 11 208 80 12 208 80 14
208 80 14 208 80 14 208 80 14 208 80 14 208 80 14 208 80 14 210 79 12
210 80 10 208 81 10 208 81 10 206 82 8 206 82 8 205 83 8 204 81 7
206 81 10 210 85 13 216 94 21 221 99 26 225 102 28 223 103 28
223 103 30 223 103 30 225 102 32 225 102 32 226 101 30 221 104 26
237 137 50 231 141 48 231 139 45 231 139 45 233 138 47 233 138 47
231 137 46 231 137 46 229 135 44 228 133 42 225 133 41 225 133 41
225 133 41 225 133 41 225 133 41 225 133 41 225 133 43 227 132 43
228 131 43 230 130 43 202 97 12 203 96 12 205 96 12 207 95 12
207 94 14 208 94 14 208 94 14 211 94 15 213 96 17 215 95 17 212 93 15
213 91 14 216 92 15 216 92 15 216 92 15 216 92 15 216 91 17 216 91 17
214 92 17 211 94 17 234 119 41 232 120 41 229 122 39 229 122 39
227 122 39 227 122 39 227 123 37 227 123 37 230 123 39 232 122 39
222 108 26 223 106 27 228 111 35 227 112 35 225 113 35 225 113 35
227 111 37 227 111 37 227 111 37 228 111 37 204 86 12 206 85 12
206 85 12 204 84 11 205 83 8 204 81 7 204 81 7 205 81 7 213 86 10
211 87 10 221 106 27 215 108 26 209 107 21 211 107 21 214 105 21
214 105 21 213 106 21 211 107 21 211 107 21 210 105 20 210 105 22
209 104 21 209 104 21 210 103 21 212 103 19 214 102 19 215 101 19
217 100 19 217 103 21 215 103 20 218 114 28 215 113 27 219 115 29
219 115 29 219 115 29 219 115 29 219 115 29 219 115 29 219 115 29
219 115 29 216 104 23 216 104 23 216 104 23 216 104 23 216 104 23
216 104 23 216 104 23 216 103 25 217 102 27 218 100 26 205 80 9
210 80 10 213 81 12 213 81 12 212 82 12 210 83 12 209 84 12 209 84 12
209 84 12 209 84 12 213 88 17 213 88 17 213 88 17 213 88 17 215 90 16
215 90 16 215 90 16 215 90 16 215 90 16 212 88 14 208 83 9 208 83 11
208 80 12 208 80 14 208 80 14 208 80 14 208 80 14 208 80 14 208 80 14
208 80 14 210 79 12 210 80 10 208 81 10 208 81 10 206 82 8 206 82 8
205 83 8 205 83 8 205 80 9 210 85 13 222 100 27 229 107 34 222 102 26
222 102 26 222 102 28 222 102 28 222 101 30 223 101 28 223 101 26
219 104 24 231 133 46 226 136 44 226 135 40 226 135 40 226 134 42
228 133 42 227 132 41 227 132 41 227 132 41 227 132 41 225 133 41
225 133 41 225 133 41 224 132 40 224 132 40 224 132 40 225 133 43
227 132 43 228 131 43 232 130 43 205 98 13 208 96 13 209 95 13
209 95 15 211 94 15 211 94 15 211 94 15 211 92 14 208 88 10 209 88 10
212 90 13 212 90 13 213 89 13 213 89 13 213 89 13 213 89 13 215 90 16
215 90 16 213 91 16 210 92 16 233 118 40 229 119 40 228 121 38
225 122 38 223 123 38 221 124 38 220 125 36 221 124 36 224 124 37
226 124 37 215 110 25 215 108 23 224 117 35 224 117 37 223 117 37
221 118 37 223 117 37 224 116 39 224 116 39 226 115 39 209 91 17
210 90 17 210 90 17 211 88 16 209 87 12 210 85 11 210 85 11 211 85 11
209 77 3 215 86 12 222 102 24 224 112 31 218 108 27 218 108 25
221 107 25 221 107 25 219 108 25 219 108 25 219 108 25 217 105 24
216 104 23 215 103 22 215 103 22 215 103 22 216 102 20 218 101 20
219 101 20 219 101 20 222 103 22 217 103 21 222 113 29 220 113 28
221 114 29 222 113 29 222 113 29 222 113 29 222 113 29 222 113 29
222 113 29 222 113 29 216 104 23 216 104 23 216 104 23 216 104 23
216 104 23 216 104 23 216 104 23 216 103 25 220 104 30 220 102 28
208 83 11 212 82 12 213 81 12 213 81 12 212 82 12 210 83 12 209 84 12
209 84 12 209 84 12 209 84 12 213 88 17 213 88 17 213 88 17 213 88 17
215 90 16 215 90 16 215 90 16 215 90 16 215 90 16 212 88 14 208 83 9
208 83 11 209 81 13 209 81 15 209 81 15 209 81 15 209 81 15 209 81 15
209 81 15 209 81 15 211 81 13 211 81 11 209 82 11 209 82 11 208 83 9
208 83 9 206 84 9 206 84 9 206 82 8 208 83 9 227 105 30 228 106 31
224 104 29 224 104 29 223 105 29 223 105 31 221 104 30 223 103 30
225 102 28 220 105 26 232 135 47 227 137 45 229 137 43 229 137 43
228 136 42 228 136 42 228 135 44 228 135 44 225 133 41 226 134 42
226 134 42 225 133 41 224 132 40 224 132 40 224 132 40 224 132 40
224 132 42 224 132 42 226 131 42 229 129 42 207 94 14 211 92 14
211 92 14 211 92 14 212 93 17 212 93 17 212 93 17 213 91 16 213 91 16
213 89 15 213 89 15 213 89 15 213 89 15 213 89 15 213 89 15 213 89 15
215 90 16 215 90 16 213 91 16 210 92 16 233 118 40 229 119 40
226 121 38 223 123 38 221 124 36 218 126 36 217 127 36 217 125 33
220 125 36 224 126 39 217 118 30 220 118 32 219 117 30 218 115 31
217 117 32 216 118 32 216 118 35 217 117 35 218 118 36 222 116 36
204 86 12 207 85 12 207 85 10 209 84 10 209 84 12 210 83 12 210 83 10
210 83 10 213 84 11 209 84 10 218 106 28 213 105 25 212 109 26
212 109 26 215 108 26 218 106 26 220 105 26 221 104 26 221 104 26
219 102 25 218 101 24 217 99 23 217 99 23 217 100 21 217 100 19
218 99 19 220 99 19 220 99 19 220 99 19 217 100 19 224 112 29
224 114 30 224 114 30 225 113 30 225 113 30 225 113 30 225 113 30
225 113 30 225 113 30 225 113 30 216 104 23 216 104 23 216 104 23
216 104 23 216 104 23 216 104 23 216 104 23 216 103 25 220 104 30
220 102 28 208 83 11 212 82 12 213 81 12 213 81 12 212 82 12
210 83 12 209 84 12 209 84 12 209 84 12 209 84 12 213 88 17 213 88 17
213 88 17 213 88 17 215 90 16 215 90 16 215 90 16 215 90 16 215 90 16
212 88 14 208 83 9 208 83 11 209 81 13 209 81 15 209 81 15 209 81 15
209 81 15 209 81 15 209 81 15 209 81 15 211 81 13 211 81 11 209 82 11
209 82 11 208 83 9 208 83 9 206 84 9 208 83 9 209 82 9 208 81 8
228 106 31 226 107 31 224 104 29 223 105 29 223 105 29 223 105 29
221 104 30 221 104 30 223 103 28 218 106 26 230 135 47 227 137 45
229 137 45 229 137 43 226 137 42 226 137 42 226 136 44 226 136 44
226 134 42 226 134 42 226 134 42 225 133 41 224 132 40 223 131 39
223 131 39 223 131 39 224 132 42 224 132 42 224 132 42 229 129 42
208 94 14 213 91 14 213 91 14 213 91 14 214 92 17 214 92 17 214 92 17
213 91 16 215 90 16 213 89 15 213 89 15 213 89 15 213 89 15 213 89 15
213 89 15 213 89 15 215 90 16 215 90 16 213 91 16 210 92 16
231 118 40 228 120 40 226 121 38 223 123 38 221 124 36 218 126 36
217 127 34 217 125 33 220 125 36 224 126 39 217 118 30 220 118 32
219 117 30 218 116 29 217 118 30 216 118 32 217 117 35 217 117 35
218 118 36 222 116 36 204 86 12 209 84 12 209 84 10 209 84 10
210 83 12 210 83 12 210 83 10 210 83 10 211 85 11 207 85 10
218 106 28 211 106 25 210 110 26 212 109 26 215 108 26 217 107 26
220 105 26 221 104 26 221 104 28 219 102 25 218 101 24 217 99 23
217 99 23 217 100 21 217 100 19 218 99 19 220 99 19 220 99 19
220 99 19 217 100 19 224 112 29 224 114 30 224 114 30 225 113 30
225 113 30 225 113 30 225 113 30 225 113 30 225 113 30 225 113 30
216 104 23 216 104 23 216 104 23 216 104 23 216 104 23 216 104 23
216 104 23 216 103 25 220 104 30 220 102 28 208 83 11 212 82 12
213 81 12 213 81 12 212 82 12 210 83 12 209 84 12 209 84 12 209 84 12
209 84 12 213 88 17 213 88 17 213 88 17 213 88 17 215 90 16 215 90 16
215 90 16 215 90 16 215 90 16 212 88 14 208 83 9 208 83 11 209 81 13
209 81 15 209 81 15 209 81 15 209 81 15 209 81 15 209 81 15 209 81 15
211 81 13 211 81 11 209 82 11 209 82 11 208 83 9 208 83 9 206 84 9
208 83 9 209 82 9 208 81 8 228 106 31 226 107 31 223 105 29
221 106 29 221 106 29 221 106 29 220 104 30 220 104 30 221 104 28
217 107 26 230 135 47 227 137 47 229 137 45 227 137 45 224 137 44
224 137 44 224 137 44 226 136 44 226 134 42 226 134 42 226 134 42
225 133 41 224 134 41 222 133 40 222 133 40 222 133 40 222 132 42
222 132 42 222 132 42 229 129 42 208 94 14 215 90 14 215 91 12
215 90 14 216 91 17 216 91 17 216 92 15 215 90 14 215 90 16 213 89 15
213 89 15 213 89 15 213 89 15 213 89 15 215 88 15 215 88 15 216 90 14
215 90 14 215 90 14 211 92 14 229 120 38 226 121 38 225 122 38
225 123 36 223 123 36 221 124 36 220 125 34 220 123 33 223 123 36
227 125 39 222 115 30 225 115 32 222 115 30 222 115 30 220 116 30
220 115 32 222 114 35 222 114 35 223 115 36 225 115 36 206 85 12
207 85 12 207 85 10 209 84 10 210 83 12 210 83 12 210 83 10 210 83 10
213 84 11 209 84 10 220 105 28 213 105 25 212 109 26 213 109 26
217 107 26 218 106 26 218 106 26 218 106 26 218 106 26 216 104 23
215 103 22 214 101 21 214 101 21 214 101 21 215 101 19 217 100 19
218 99 19 218 99 19 218 99 19 215 101 19 222 113 29 222 115 30
222 115 30 224 114 30 224 114 30 224 114 30 224 114 30 224 114 30
224 114 30 224 114 30 217 103 23 217 103 23 217 103 23 217 103 23
217 103 23 217 103 23 217 103 23 217 103 25 220 104 30 220 102 28
206 83 11 210 83 12 212 82 12 212 82 12 210 83 12 210 83 12 210 83 12
210 83 12 210 83 12 210 83 12 213 88 17 213 88 17 213 88 17 213 88 17
215 90 16 215 90 16 215 90 16 215 90 16 215 90 16 212 88 14 208 83 9
209 82 11 209 81 13 209 81 15 209 81 15 209 81 15 209 81 15 209 81 15
209 81 15 211 80 15 211 81 13 211 81 11 211 81 11 209 82 11 209 82 11
209 82 9 208 83 9 209 82 9 211 81 9 208 81 8 228 106 31 225 108 31
221 106 29 219 107 29 221 106 29 221 106 29 218 106 28 218 106 28
220 105 28 217 107 26 229 134 46 226 136 46 228 135 44 226 136 44
223 138 44 223 138 44 223 138 44 224 137 44 225 135 42 226 134 42
226 134 42 225 133 41 225 133 41 222 133 40 222 133 40 222 133 40
222 132 42 222 132 42 222 132 42 229 129 42 210 93 14 215 90 14
215 91 12 215 91 12 217 91 15 217 90 17 216 92 15 215 90 14 215 90 16
213 89 15 213 89 15 213 89 15 213 89 15 213 89 15 215 88 15 215 88 15
216 90 14 216 90 14 216 90 14 211 92 14 228 121 38 225 122 38
225 123 36 223 123 36 223 123 36 223 123 36 221 125 34 222 123 33
225 123 36 229 124 39 224 114 30 226 115 32 224 114 30 222 115 30
222 115 30 222 115 32 224 113 35 224 113 35 225 115 36 226 114 36
206 85 12 209 84 12 209 84 10 209 84 10 210 83 12 210 83 12 210 83 10
212 83 10 213 84 11 210 83 10 221 104 28 216 103 25 215 108 26
215 108 26 217 107 26 218 106 26 217 107 26 217 107 26 217 107 26
216 104 23 215 103 22 214 101 21 214 101 21 214 101 21 215 101 19
217 100 19 218 99 19 218 99 19 217 100 19 215 101 19 222 113 29
222 115 30 222 115 30 222 115 30 222 115 30 222 115 30 222 115 30
222 115 30 222 115 30 222 115 30 219 102 23 219 102 23 219 102 23
219 102 23 219 102 23 219 102 23 219 102 23 219 102 25 221 104 30
220 102 28 204 84 11 207 85 12 209 84 12 210 83 12 210 83 12
212 82 12 213 82 10 213 82 10 213 82 10 212 83 10 215 88 15 215 88 15
213 89 15 213 89 15 216 89 16 216 89 16 216 89 16 216 89 16 216 89 16
214 87 14 209 82 9 209 82 11 211 81 13 211 80 15 211 80 15 211 80 15
211 80 15 211 80 15 211 80 15 211 80 15 212 80 13 212 80 13 212 80 13
211 81 13 211 81 11 211 81 11 211 81 11 211 81 11 212 81 9 208 81 8
226 107 31 223 108 31 218 108 27 218 108 27 219 107 27 221 106 27
219 107 27 219 107 27 221 106 27 216 109 27 229 134 46 226 136 46
228 135 46 226 136 46 223 138 46 221 138 46 223 138 46 224 137 46
226 136 44 228 135 44 228 135 44 228 133 42 225 133 41 224 132 40
222 133 40 222 133 40 224 134 41 224 134 41 224 134 41 230 130 43
211 94 13 216 92 13 216 92 13 216 92 13 216 92 15 216 92 15 216 92 15
216 92 15 215 90 14 215 90 14 213 91 14 213 91 14 215 90 14 215 90 14
215 90 14 216 90 14 216 90 14 218 89 14 218 89 14 211 92 14
226 122 36 221 124 36 221 124 36 223 123 36 223 124 34 223 124 34
221 125 34 222 123 33 225 123 36 229 124 39 222 115 30 225 115 32
225 115 32 222 115 30 222 117 32 222 117 34 222 116 36 222 116 36
223 115 36 226 114 36 207 85 12 210 83 12 210 83 12 210 83 12
210 83 12 212 82 12 212 82 12 212 82 12 213 83 13 210 83 12
225 102 28 221 101 25 219 104 26 217 105 26 217 105 24 217 105 24
218 106 26 218 106 26 218 106 26 217 103 23 216 102 22 215 101 21
215 101 21 215 101 21 218 99 19 220 99 19 218 99 19 218 99 19
217 100 19 215 101 19 222 113 29 222 115 30 220 116 30 220 116 30
220 116 30 220 116 30 220 116 30 220 116 30 220 116 30 220 116 30
221 101 23 221 101 23 221 101 23 221 101 23 221 101 23 221 101 23
221 101 23 221 101 25 221 104 30 220 102 28 204 84 11 207 85 12
209 84 12 209 84 12 210 83 12 212 82 12 215 81 10 215 81 10 213 82 10
212 83 10 215 88 15 215 88 15 213 89 15 213 89 15 215 90 16 216 89 16
216 89 16 216 89 16 216 89 16 214 87 14 209 82 9 209 82 11 209 81 13
211 80 15 211 80 15 211 80 15 211 80 15 211 80 15 211 80 15 211 81 13
212 80 13 212 80 13 212 80 13 212 80 11 212 80 11 212 80 11 212 80 11
212 81 9 212 81 9 208 81 8 226 107 31 222 109 31 218 108 27
218 108 27 219 107 27 219 107 27 218 108 27 218 108 27 219 107 27
216 109 25 228 133 44 225 135 44 226 134 44 225 135 44 221 138 46
220 139 46 221 138 46 223 138 46 224 137 44 228 135 44 229 135 44
228 133 42 227 132 41 224 132 40 224 132 40 224 132 40 225 133 41
225 133 41 225 133 41 230 130 43 211 94 13 216 92 13 216 92 13
216 92 15 216 92 15 216 92 15 216 92 15 216 92 15 215 90 14 215 90 14
213 91 14 213 91 14 215 90 14 215 90 14 215 90 14 215 90 14 216 90 14
218 89 14 218 89 14 211 92 14 223 123 36 218 126 36 220 125 36
221 124 36 223 124 34 223 124 34 221 125 34 220 123 33 223 123 36
227 125 39 222 115 30 225 115 32 223 116 32 220 116 30 220 118 32
220 117 34 220 117 36 220 117 36 222 116 36 226 114 36 207 85 12
212 82 12 212 82 12 212 82 12 212 82 12 212 82 12 212 82 12 212 82 12
213 83 13 212 82 12 228 101 28 222 100 25 222 102 26 220 103 26
219 104 24 217 105 24 218 106 26 218 106 26 220 105 26 217 103 23
216 102 22 215 101 21 215 101 21 217 100 21 218 99 19 220 99 19
218 99 19 217 100 19 215 101 19 215 101 19 224 112 29 224 114 30
220 116 30 220 116 30 220 116 30 220 116 30 220 116 30 220 116 30
220 116 30 220 116 30 221 101 23 221 101 23 221 101 23 221 101 23
221 101 23 221 101 23 221 101 23 221 101 25 221 104 30 220 102 28
204 84 11 207 85 12 209 84 12 209 84 12 210 83 12 212 82 12 213 82 10
213 82 10 213 82 10 212 83 10 215 88 15 213 89 15 213 89 15 212 90 15
213 91 16 215 90 16 215 90 16 215 90 16 215 90 16 212 88 14 208 83 9
208 83 11 208 82 13 209 81 13 209 81 13 209 81 13 209 81 13 209 81 13
209 81 13 209 81 13 211 81 11 212 80 11 212 80 11 212 81 9 212 81 9
212 81 9 212 81 9 212 81 7 214 80 7 210 81 6 226 107 29 222 110 29
216 109 27 216 109 25 219 108 25 219 108 25 216 109 25 216 109 25
219 108 25 216 109 25 228 133 44 225 135 44 226 134 44 225 135 44
220 139 46 218 140 46 221 139 44 223 138 44 224 137 44 228 135 44
229 135 44 228 133 42 228 133 42 227 132 41 227 132 43 227 132 43
227 132 43 227 132 43 227 132 43 232 129 45 211 94 15 216 92 15
216 92 15 216 91 17 216 91 17 216 91 17 216 91 17 216 91 17 215 90 16
215 90 16 217 92 18 217 92 18 217 93 16 217 93 16 214 92 15 216 92 15
216 92 13 217 91 13 218 92 14 212 96 14 220 125 36 215 128 34
217 127 34 218 126 34 221 125 34 221 125 34 220 125 34 219 124 33
221 124 36 225 126 39 220 116 30 224 117 33 225 119 34 223 118 33
221 119 33 221 119 35 221 118 37 221 118 37 221 118 37 226 116 37
209 84 12 213 81 12 213 81 12 212 82 12 212 82 12 212 82 12 212 82 12
212 82 12 213 83 13 211 81 11 228 101 28 222 100 25 222 102 26
220 103 26 219 104 24 217 105 24 218 106 26 218 106 26 220 106 23
219 104 22 216 102 20 215 101 19 215 101 19 215 101 19 217 100 19
217 100 19 217 100 19 215 101 19 215 101 19 215 101 19 224 112 29
224 114 30 222 115 30 222 115 30 222 115 30 222 115 30 222 115 30
222 115 30 222 115 30 222 115 30 221 101 23 221 101 23 221 101 23
221 101 23 221 101 23 221 101 23 221 101 23 221 101 25 221 104 30
220 102 28 204 84 11 207 85 12 209 84 12 209 84 12 210 83 12
210 83 12 212 83 10 212 83 10 212 83 10 210 83 10 213 89 15 212 90 15
212 90 15 212 90 15 213 91 16 213 91 16 213 91 16 213 91 16 213 91 16
211 88 14 206 84 9 206 84 9 208 83 11 208 82 13 208 82 13 208 82 13
208 82 13 208 82 13 208 82 13 208 83 11 209 82 9 209 82 9 209 82 9
209 82 9 209 83 7 209 83 7 209 83 7 209 83 7 211 82 7 206 82 6
223 109 29 219 111 29 213 111 25 213 111 25 216 110 23 216 110 23
213 111 23 213 111 23 215 110 23 213 111 23 225 135 44 222 136 44
223 136 44 223 136 44 218 140 46 218 140 46 220 140 44 223 138 44
224 137 44 228 135 44 229 135 44 230 133 42 230 133 42 230 131 41
228 131 43 228 131 43 228 131 43 228 131 45 228 131 45 233 128 45
212 93 17 217 90 17 217 90 19 217 90 19 217 90 19 217 90 19 217 90 21
217 90 19 216 89 18 215 90 16 218 93 19 218 93 19 218 94 17 218 94 17
215 94 16 215 94 16 215 94 14 215 94 14 218 94 15 212 97 15
218 126 34 212 129 34 213 129 34 215 128 34 218 126 34 220 125 34
218 126 34 217 125 33 220 125 36 224 126 39 219 117 30 223 118 33
225 121 35 224 119 34 222 120 34 222 120 34 222 120 36 222 119 38
222 119 38 227 117 38 208 83 11 212 80 11 212 80 11 212 80 11
211 81 11 211 81 11 211 81 11 211 81 11 213 83 13 210 80 10
226 102 28 222 100 25 222 102 26 219 104 26 219 104 24 217 105 24
218 106 26 218 106 26 220 106 23 219 104 22 216 102 20 215 101 19
215 101 19 215 101 19 215 101 19 215 101 19 215 101 19 215 101 19
215 101 19 215 101 19 224 112 29 225 113 30 224 114 30 224 114 30
224 114 30 224 114 30 224 114 30 224 114 30 224 114 30 224 114 30
217 98 20 217 98 20 217 98 20 217 98 20 217 98 20 217 98 20 217 98 20
217 97 22 218 100 26 216 98 24 210 90 17 211 88 16 211 86 14
211 86 14 213 85 14 213 85 14 214 87 14 214 87 14 214 87 14 212 88 14
220 98 23 218 99 23 218 99 23 218 99 23 219 100 24 219 100 24
219 100 24 219 100 24 218 99 23 218 99 23 216 96 21 219 97 22
218 95 21 218 95 23 218 95 23 218 95 23 218 95 23 218 95 23 218 95 23
218 95 21 219 100 24 218 101 22 218 101 22 218 101 22 218 101 22
218 101 20 218 101 20 219 101 20 219 97 18 218 101 20 238 133 48
237 139 51 235 142 53 235 142 51 238 141 51 238 141 49 233 144 49
233 144 49 238 144 51 238 146 54 232 152 56 230 155 58 235 154 61
235 154 61 232 156 59 232 156 59 234 154 58 235 153 58 240 152 59
240 148 56 215 121 30 216 119 28 216 115 26 216 115 26 216 114 28
216 114 28 216 114 30 216 114 30 216 114 32 221 111 32 199 71 0
203 68 2 203 68 2 203 68 2 202 69 4 202 69 4 200 70 4 200 70 4
198 68 0 199 71 0 222 95 22 223 96 23 220 96 20 220 96 20 220 98 21
220 98 21 217 98 18 216 99 18 216 97 17 210 100 17 238 151 60
232 154 60 234 154 58 235 153 58 238 151 58 240 150 58 238 151 58
238 151 58 243 153 63 242 149 60 229 129 42 223 121 35 225 123 36
225 123 36 225 123 36 225 123 36 225 122 38 225 122 38 225 122 40
229 119 40 206 81 10 211 79 10 211 79 10 211 79 10 211 79 10
211 79 10 211 79 10 211 79 10 207 74 5 208 79 9 225 100 28 223 101 28
220 103 26 219 104 26 219 104 24 219 104 24 218 106 26 218 106 26
221 107 25 220 106 23 224 110 28 226 111 29 227 113 30 227 113 30
225 113 30 224 114 30 224 114 30 225 113 30 225 113 30 226 115 32
216 104 21 217 105 22 217 105 22 217 105 22 217 105 22 217 105 22
217 105 22 217 105 22 217 105 22 217 105 22 217 98 20 217 98 20
217 98 20 217 98 20 217 98 20 217 98 20 217 98 20 217 97 22
218 100 26 216 98 24 210 90 17 211 88 16 211 86 14 211 86 14
213 85 14 213 85 14 214 87 14 214 87 14 212 88 14 211 88 14 218 99 23
218 99 23 217 99 23 217 99 23 218 101 24 219 100 24 219 100 24
219 100 24 218 99 23 218 99 23 216 96 21 217 97 22 216 96 21
218 95 21 218 95 21 218 95 21 218 95 21 218 95 21 218 95 21 216 96 21
216 102 22 215 103 22 215 103 22 215 103 22 215 103 20 215 103 20
215 103 20 216 102 20 216 99 18 216 102 20 236 134 48 233 141 49
231 144 51 231 144 49 235 143 49 235 143 49 230 145 49 230 145 49
235 146 51 235 148 52 229 154 54 227 157 58 232 156 59 233 155 59
232 156 59 232 156 59 232 154 58 235 153 58 240 152 59 240 148 56
215 121 30 217 118 28 218 114 26 218 114 26 220 113 28 220 113 28
220 112 30 220 112 30 220 112 32 224 109 34 200 70 2 205 67 4
205 67 4 205 67 6 205 67 6 203 68 6 203 68 6 202 68 6 200 67 0
200 70 0 223 96 23 224 97 24 222 97 21 222 97 21 220 98 21 218 99 21
216 102 20 216 102 20 214 100 18 208 103 18 235 152 60 229 156 60
230 155 58 232 154 58 235 153 58 237 152 58 235 153 58 235 153 58
240 155 63 240 150 60 226 131 42 223 123 36 226 124 37 226 124 37
226 124 37 226 124 37 226 123 39 226 123 39 226 123 41 231 120 41
205 80 9 210 78 9 210 78 9 210 78 9 210 78 9 210 78 9 210 78 9
210 78 9 207 74 5 207 77 7 225 100 28 222 102 28 220 103 26
219 104 26 219 104 24 219 104 24 218 106 26 218 106 26 221 107 25
221 107 25 224 110 28 226 111 29 227 113 30 225 113 30 222 115 30
222 115 30 222 115 30 224 114 30 224 114 30 226 115 32 216 104 21
217 105 22 217 105 22 217 105 22 217 105 22 217 105 22 217 105 22
217 105 22 217 105 22 217 105 22 217 98 20 217 98 20 217 98 20
217 98 20 217 98 20 217 98 20 217 98 20 217 97 22 218 100 26
216 98 24 210 90 17 211 88 16 211 86 14 211 86 14 213 85 14 213 85 14
212 88 14 212 88 14 212 88 14 211 88 14 218 99 23 217 99 23 217 99 23
215 100 23 216 101 24 218 101 24 218 101 24 218 101 24 217 99 23
217 99 23 214 97 21 216 98 22 214 97 19 216 97 19 216 97 19 216 97 19
216 97 19 216 97 19 216 97 19 214 97 19 216 102 22 215 103 20
215 103 20 215 103 20 215 103 20 215 103 18 215 103 18 216 103 18
216 99 16 216 103 18 236 135 46 233 142 47 231 144 49 231 145 47
235 143 47 235 143 47 230 146 47 230 146 47 235 146 49 235 148 50
231 154 52 229 156 56 233 156 57 233 155 59 232 156 59 232 156 59
232 154 58 235 153 58 240 152 59 240 148 56 217 120 30 219 117 28
218 114 26 220 113 26 221 112 28 221 112 28 221 112 30 221 112 30
221 111 32 226 108 34 202 69 4 207 66 6 207 66 6 207 66 9 207 66 9
205 66 9 203 67 9 203 68 6 200 67 2 200 70 0 225 98 25 227 100 26
224 100 23 224 100 23 222 100 23 219 102 23 215 103 20 213 104 20
215 103 20 208 106 20 232 152 58 226 155 58 226 156 56 229 154 56
234 154 58 234 154 58 232 154 58 232 154 58 237 157 63 237 151 60
224 132 42 223 125 37 225 126 39 227 125 39 227 125 39 227 125 39
227 124 41 227 124 41 227 124 43 232 122 43 205 80 9 210 78 9
210 78 9 210 78 9 210 78 9 210 78 9 210 78 9 210 78 9 207 74 5
206 76 6 225 100 28 222 102 28 220 103 26 219 104 26 219 104 24
219 104 24 218 106 26 218 106 26 221 107 25 221 107 25 224 110 28
226 111 29 227 113 30 225 113 30 220 116 30 219 117 30 220 116 30
222 115 30 224 114 30 226 115 32 216 104 21 219 104 22 219 104 22
219 104 22 219 104 22 219 104 22 219 104 22 219 104 22 219 104 22
219 104 22 217 98 20 217 98 20 217 98 20 217 98 20 217 98 20
217 98 20 217 98 20 217 97 22 219 100 24 217 97 24 210 90 17
211 88 16 209 87 14 211 86 14 211 86 14 211 86 14 212 88 14 212 88 14
212 88 14 211 88 14 218 99 23 217 99 23 217 99 23 215 100 23
216 101 24 216 101 24 216 101 24 216 101 24 215 100 23 215 100 23
213 98 21 214 99 22 214 97 19 214 97 19 214 97 19 214 97 19 214 97 19
214 97 19 216 97 19 214 97 19 216 102 20 216 102 20 216 102 20
216 102 20 216 103 18 216 103 18 216 103 18 216 103 18 216 100 14
213 105 16 233 137 44 232 142 47 230 146 47 230 146 47 233 144 47
233 144 47 230 146 47 230 146 47 235 146 49 235 148 50 232 153 52
232 155 54 235 155 57 235 155 57 232 156 59 232 156 59 232 154 58
234 154 58 236 154 59 239 149 56 217 120 30 219 117 28 218 114 26
220 113 26 221 112 28 223 111 28 223 111 30 223 111 30 223 111 30
226 108 34 202 69 4 207 66 9 207 66 9 207 66 9 207 66 9 205 66 9
203 67 9 203 68 6 200 67 2 202 69 2 227 97 27 227 100 26 224 99 25
222 100 23 221 101 23 219 102 23 215 103 22 213 104 20 215 103 20
210 105 20 234 151 58 228 154 58 229 154 56 229 154 56 234 154 58
234 154 58 232 154 58 232 154 58 237 157 63 237 151 60 224 132 42
223 125 37 225 126 39 227 125 39 227 125 39 227 125 39 227 124 41
227 124 41 227 124 43 232 122 43 205 80 9 210 78 9 210 78 9 210 78 9
210 78 9 210 78 9 210 78 9 210 78 9 207 74 5 206 76 6 225 100 28
222 102 28 220 103 26 219 104 26 219 104 26 219 104 24 220 105 26
218 106 26 221 106 27 221 107 25 224 110 28 226 111 29 227 113 30
225 113 30 220 116 30 219 117 30 220 116 30 222 115 30 224 114 30
225 115 32 216 104 21 219 104 22 219 104 22 219 104 22 219 104 22
219 104 22 219 104 22 219 104 22 219 104 22 219 104 22 217 97 22
217 97 22 217 97 22 217 97 22 217 97 22 217 97 22 217 97 22 217 97 22
219 100 24 219 97 22 212 90 15 211 88 14 212 90 15 212 90 15
212 90 15 213 89 15 213 89 15 215 88 15 213 89 15 212 90 15
219 100 24 219 100 24 218 101 24 216 101 24 216 101 24 215 102 24
216 101 24 216 101 24 215 100 23 215 100 23 214 97 21 216 98 22
214 97 19 214 97 19 214 97 19 214 97 19 216 97 19 216 97 19 217 98 20
217 98 20 217 100 19 217 100 19 218 101 20 218 101 20 218 102 18
218 102 18 218 102 18 218 102 18 212 101 14 210 106 16 230 138 44
227 145 47 225 148 47 225 148 47 228 146 47 230 146 47 230 146 47
231 145 47 234 147 49 235 148 50 234 152 52 234 154 54 237 155 58
236 156 58 232 156 59 230 157 59 233 155 59 233 155 59 233 157 60
235 153 58 216 122 31 220 118 30 219 115 27 221 114 27 221 114 29
222 113 29 222 113 29 222 113 29 222 113 29 226 111 33 201 71 6
206 68 10 206 67 12 206 67 12 206 68 10 205 68 10 205 68 10 205 69 8
201 68 3 203 70 4 228 98 28 228 100 30 225 100 26 223 101 26
222 102 26 222 102 26 219 102 23 217 103 23 219 102 23 214 105 23
239 149 58 234 151 58 234 151 58 234 151 58 234 151 58 232 152 58
231 153 56 231 153 56 236 156 60 237 150 56 224 130 39 223 124 34
224 125 35 224 125 35 224 125 35 224 124 37 225 125 41 225 125 41
225 125 41 230 122 43 205 81 7 210 78 7 210 78 9 210 78 9 210 77 11
210 77 11 210 77 11 210 77 11 208 74 5 208 76 6 225 100 28 222 102 28
220 102 28 219 103 28 220 103 26 220 103 26 220 105 28 220 105 28
220 105 26 221 106 27 226 111 31 226 111 31 226 111 31 224 112 29
224 114 30 222 115 28 222 115 28 224 115 28 224 115 28 225 116 30
214 105 19 217 105 22 219 104 22 220 103 24 220 103 24 220 103 24
220 103 24 220 103 24 220 103 24 220 103 24 217 97 22 217 97 22
217 97 22 217 97 22 217 97 22 217 97 22 217 97 22 217 97 22 221 99 24
219 97 22 212 90 15 211 88 14 212 90 15 212 90 15 212 90 15 213 89 15
215 88 15 215 88 15 213 89 15 213 89 15 221 99 24 219 100 24
218 101 24 218 101 24 216 101 24 216 101 24 216 101 24 216 101 24
215 100 23 217 99 23 214 97 21 216 98 22 214 97 19 214 97 19
214 97 19 216 97 19 216 97 19 216 97 19 217 98 20 217 98 20 218 99 19
218 99 19 219 101 20 219 101 20 219 101 20 219 101 18 219 101 18
218 102 18 212 101 16 210 106 16 230 138 44 227 145 47 225 148 49
225 148 47 228 146 47 230 146 47 230 146 47 230 146 47 232 148 49
233 149 50 234 152 52 235 153 54 237 155 58 236 156 58 230 157 59
230 157 59 232 156 59 232 156 59 231 158 60 232 154 58 216 122 31
222 117 30 221 114 27 221 114 27 221 114 29 221 114 29 221 114 29
221 114 29 221 114 29 226 111 33 201 71 6 206 68 10 206 67 12
205 68 12 205 68 10 205 68 10 205 68 10 205 69 8 201 68 3 203 70 4
228 98 28 228 100 30 225 100 26 223 101 26 222 102 26 220 103 26
219 102 23 219 102 23 219 102 23 214 105 23 240 148 58 234 151 58
236 150 58 236 150 58 236 150 58 234 151 58 231 153 56 231 153 56
237 155 60 239 149 56 228 128 39 225 123 34 224 125 35 223 126 35
223 126 35 223 125 37 224 126 41 224 126 41 224 126 41 230 123 41
205 81 7 210 78 7 210 78 9 210 78 9 210 77 11 210 77 11 210 77 11
210 77 11 208 74 5 208 76 6 225 100 28 222 102 28 220 102 28
219 103 28 220 103 26 220 103 26 220 105 28 218 106 28 218 106 26
219 107 27 224 112 31 224 112 31 224 112 31 224 112 31 224 114 30
224 115 28 224 115 28 224 115 28 224 115 28 225 116 30 214 105 19
217 105 22 219 104 24 220 103 24 220 103 24 220 103 24 220 103 24
220 103 24 220 103 24 220 103 24 217 97 22 217 97 22 217 97 22
217 97 22 217 97 22 217 97 22 217 97 22 217 97 22 221 99 24 219 97 22
212 90 15 211 88 14 212 90 15 212 90 15 212 90 15 213 89 15 215 88 15
215 88 15 213 89 15 213 89 15 221 99 24 219 100 24 218 101 24
218 101 24 218 101 24 218 101 24 218 101 24 218 101 24 217 99 23
218 99 23 216 96 21 217 97 22 216 97 19 216 97 19 216 97 19 216 97 19
218 96 19 218 96 19 217 98 20 217 98 20 217 100 21 217 100 21
218 101 22 218 101 22 218 101 20 218 101 20 218 101 20 218 101 20
216 99 16 213 104 18 233 136 46 230 143 49 228 146 49 228 146 49
233 144 49 233 144 49 230 145 49 228 146 49 230 148 51 232 150 52
234 154 56 234 154 56 236 156 58 234 157 58 230 157 59 230 157 59
232 156 59 232 156 59 231 158 60 232 154 58 216 122 31 222 117 30
221 114 27 221 114 27 221 114 27 221 114 27 221 114 27 221 114 27
221 114 27 226 111 31 200 71 8 205 68 12 205 68 12 203 69 12
203 69 10 203 69 10 203 70 8 203 70 8 201 68 3 203 70 4 228 98 28
228 100 30 225 100 26 223 101 26 222 102 26 220 103 26 216 104 23
216 104 23 217 103 23 211 106 23 236 148 57 230 152 57 231 151 57
233 150 57 236 150 58 236 150 58 232 152 56 232 152 56 239 154 60
240 148 56 229 128 39 225 123 34 221 127 35 219 127 35 219 127 35
219 127 37 221 128 41 221 128 41 221 128 41 227 124 41 204 81 7
210 78 7 210 78 9 210 78 9 210 77 11 210 77 11 210 77 11 210 77 11
208 74 5 208 76 6 225 100 28 222 102 28 220 102 28 219 103 28
220 103 26 219 104 26 218 106 28 217 106 28 217 107 26 217 107 26
222 113 31 222 113 31 222 113 31 222 113 31 224 114 30 224 114 30
224 114 30 224 114 30 224 114 30 225 115 32 214 105 21 217 105 22
219 104 24 219 104 24 219 104 24 219 104 24 219 104 24 219 104 24
219 104 24 219 104 24 217 97 22 217 97 22 217 97 22 217 97 22
217 97 22 217 97 22 217 97 22 217 97 22 221 99 24 219 97 22 212 90 15
211 88 14 212 90 15 212 90 15 212 90 15 213 89 15 215 88 15 215 88 15
213 89 15 213 89 15 221 99 24 219 100 24 218 101 24 218 101 24
218 101 24 219 100 24 219 100 24 219 100 24 218 99 23 218 99 23
216 96 21 217 97 22 216 97 19 218 96 19 218 96 19 218 96 19 218 96 19
218 96 19 219 97 20 217 98 20 217 100 21 215 101 21 216 102 22
216 102 22 216 102 20 216 102 20 216 102 20 216 102 20 216 99 16
213 104 18 233 136 46 230 143 49 228 146 49 228 146 49 233 144 49
233 144 49 228 146 49 225 148 49 227 150 51 228 151 52 232 155 56
232 155 56 233 156 57 232 157 57 230 157 59 230 157 59 232 156 59
232 156 59 231 158 60 232 154 58 216 122 31 222 117 30 221 114 27
221 114 27 221 114 27 221 114 27 221 114 27 221 114 27 221 114 27
226 111 31 200 71 8 203 69 12 203 69 12 203 69 12 203 69 10 203 69 10
203 70 8 203 70 8 201 68 3 204 72 5 228 98 30 228 100 30 225 100 26
223 101 26 222 102 26 219 104 26 216 103 25 216 103 25 217 103 25
211 106 23 236 148 59 230 152 57 231 151 57 233 150 57 236 150 58
234 151 58 232 152 56 232 152 56 237 155 60 239 149 56 228 128 39
225 123 34 221 127 35 219 127 35 219 127 35 219 127 37 221 128 41
221 128 41 221 128 41 227 124 43 204 81 7 210 78 9 210 78 9 210 78 9
210 77 11 210 77 11 210 77 11 212 77 11 208 74 5 208 76 6 225 100 28
222 102 28 220 102 28 219 103 28 220 103 26 220 103 26 218 106 28
217 106 28 217 107 26 217 107 26 222 113 31 222 113 31 222 113 31
222 113 31 224 114 32 224 114 32 224 114 32 224 114 32 224 114 32
225 115 34 214 105 23 215 106 24 219 104 24 219 104 24 219 104 24
219 104 24 219 104 24 219 104 24 219 104 24 219 104 24 218 99 23
218 99 23 218 99 23 218 99 23 218 99 23 218 99 23 218 99 23 218 99 23
216 94 19 215 93 18 211 88 14 212 90 15 211 88 14 211 88 14 211 88 14
212 88 14 215 88 15 215 88 15 213 89 15 213 89 15 219 97 22 217 97 22
216 98 22 216 98 22 217 97 22 219 97 22 219 97 22 219 97 22 218 95 21
218 95 21 215 93 18 216 94 19 215 93 18 217 92 18 217 92 18 217 92 18
217 92 18 217 92 18 217 92 18 215 95 19 213 98 19 214 101 21
214 101 21 214 101 21 214 102 19 214 102 19 214 102 19 214 102 19
225 114 28 210 106 18 236 144 52 220 138 42 221 144 45 221 144 45
226 142 45 226 142 45 221 144 45 218 146 45 218 146 45 218 146 45
229 156 56 230 158 57 231 159 58 231 159 58 229 159 60 231 158 60
233 157 60 233 157 60 230 157 59 231 153 56 215 121 30 220 116 28
220 113 26 220 113 26 220 113 26 220 113 26 220 113 26 220 113 26
220 113 26 224 110 30 200 71 8 205 68 12 205 68 12 205 68 12
205 68 10 205 68 10 205 69 8 205 69 8 205 72 8 204 71 7 226 96 28
223 96 25 220 96 22 219 97 22 218 99 23 217 99 23 215 100 23
217 99 25 218 100 26 213 103 24 239 146 59 233 150 59 234 149 57
233 148 56 232 149 56 227 149 55 224 151 55 224 151 55 230 152 57
232 149 56 226 131 42 228 128 41 224 126 39 224 126 39 224 126 39
224 126 39 225 127 42 225 127 42 225 127 44 231 124 44 205 80 9
210 78 9 210 77 11 210 77 11 212 77 11 212 77 11 212 77 11 212 77 11
216 78 13 211 79 12 226 101 32 221 100 29 217 102 27 217 102 27
221 101 25 221 101 25 219 104 26 217 105 26 217 105 26 217 105 26
228 115 37 228 115 37 228 115 37 228 115 37 222 114 35 222 114 35
222 114 35 222 114 35 224 117 37 221 113 33 215 107 28 214 105 23
217 103 23 219 102 23 219 102 23 219 102 23 219 102 23 219 102 23
219 102 23 219 102 23 217 97 22 217 97 22 217 97 22 217 97 22
217 97 22 217 97 22 217 97 22 217 97 22 216 94 19 215 93 18 211 88 14
212 90 15 211 88 14 211 88 14 211 88 14 212 88 14 215 88 15 215 88 15
213 89 15 213 89 15 220 98 23 218 99 23 217 99 23 218 99 23 220 98 23
220 98 23 220 98 23 220 98 23 219 97 22 219 97 22 216 94 19 218 95 21
218 93 19 218 93 19 218 93 19 218 93 19 218 93 19 218 93 19 218 93 19
215 95 19 212 100 20 212 102 21 212 102 21 212 102 21 212 103 19
212 103 19 212 103 19 210 103 19 216 112 24 203 106 16 230 148 53
220 145 47 221 151 50 221 151 50 225 150 50 226 149 50 223 151 50
221 151 50 224 154 52 225 155 53 227 157 56 229 159 58 232 162 60
232 162 60 232 161 62 233 161 62 235 160 62 235 160 62 232 159 61
233 155 59 218 123 32 221 119 31 220 116 28 222 115 28 222 115 28
222 115 28 222 115 28 222 115 28 222 115 28 227 112 32 200 71 8
205 68 12 205 68 12 205 68 12 205 68 10 205 68 10 205 69 8 205 69 8
198 65 1 202 69 4 221 91 23 226 96 28 223 96 25 220 98 23 219 100 24
218 101 24 219 99 26 221 99 26 224 99 27 219 101 27 246 146 64
240 149 62 242 149 60 239 149 58 237 150 58 234 149 57 231 151 57
230 152 57 235 152 60 239 149 58 231 131 44 233 129 43 231 126 41
231 126 41 231 126 41 231 126 41 232 127 44 232 127 44 232 127 46
237 124 46 203 78 6 208 76 6 208 75 8 208 75 8 209 74 8 209 74 8
209 74 8 209 74 8 217 79 14 212 80 13 227 102 33 220 102 30
219 103 28 219 103 28 222 102 26 223 101 26 223 103 28 223 103 28
223 103 28 223 103 28 229 109 33 229 109 33 229 109 33 227 110 33
228 113 36 226 114 36 226 114 36 226 114 36 224 112 33 222 109 31
218 106 28 217 105 26 220 103 24 222 102 24 222 102 24 222 102 24
222 102 24 222 102 24 222 102 24 222 102 24 215 95 19 215 95 19
215 95 19 215 95 19 215 95 19 215 95 19 215 95 19 215 95 19 216 94 19
215 93 18 211 88 14 212 90 15 211 88 14 211 88 14 211 88 14 212 88 14
215 88 15 215 88 15 213 89 15 213 89 15 209 87 12 208 88 12 206 89 12
208 88 12 209 87 12 211 86 12 211 86 12 211 86 12 210 85 11 210 85 11
208 83 9 209 84 10 208 83 9 208 83 9 208 83 9 208 83 9 208 83 9
208 83 9 208 83 9 204 85 9 225 115 34 224 117 33 224 117 33
224 117 33 224 117 33 224 118 31 224 118 31 221 119 31 216 124 32
205 122 27 239 168 69 232 169 67 233 175 70 233 175 70 236 174 70
240 172 70 240 172 70 240 172 70 240 172 70 237 170 67 236 168 66
235 167 65 235 167 65 235 167 65 235 167 67 236 166 67 240 164 67
240 164 67 235 165 66 238 160 63 221 128 37 226 124 35 225 121 33
227 120 33 227 120 33 227 120 33 227 120 33 227 120 33 227 120 33
231 117 37 200 71 8 205 68 12 205 68 12 205 68 12 205 68 10 205 68 10
205 69 8 207 71 10 208 75 10 207 74 9 210 79 12 207 77 9 204 77 6
201 79 4 199 82 5 201 81 5 206 78 7 209 77 7 212 77 9 207 79 9
217 106 28 210 110 26 212 110 23 211 109 22 211 109 22 209 107 21
206 109 21 205 110 21 210 111 23 214 107 22 206 90 8 208 87 7
203 86 5 201 87 5 201 87 5 201 87 5 204 87 8 204 87 8 204 87 10
207 85 10 200 72 2 201 72 2 203 70 4 203 70 4 205 70 4 205 70 4
205 70 4 205 70 4 200 65 0 197 65 0 211 86 16 204 86 14 202 87 12
202 87 12 206 86 10 209 84 10 211 85 11 211 85 11 211 85 11 211 85 11
211 85 11 211 85 11 211 85 11 211 85 11 208 81 10 206 81 10 206 81 10
206 81 10 209 84 12 209 84 12 208 83 11 208 83 9 206 84 7 206 84 7
206 84 7 206 84 7 206 84 7 206 84 7 206 84 7 206 84 7 212 93 17
212 93 17 212 93 17 212 93 17 212 93 17 212 93 17 212 93 17 214 92 17
216 94 19 217 92 18 212 88 14 213 89 15 212 88 14 212 88 14 212 88 14
212 88 14 215 88 15 215 88 17 213 88 17 213 88 17 211 88 16 211 88 16
209 89 16 211 88 14 212 88 14 212 88 14 212 88 14 212 88 14 211 86 12
211 86 12 209 84 10 210 85 11 209 84 10 209 84 10 209 84 10 209 84 10
209 84 10 209 84 10 209 84 10 206 86 10 224 114 32 222 117 32
222 117 32 222 117 32 222 117 30 222 117 30 222 117 30 218 119 30
211 119 27 200 120 24 237 171 70 230 174 70 233 180 73 233 180 73
235 179 73 238 178 73 240 177 73 241 176 73 241 176 73 239 174 71
238 173 70 237 172 68 236 170 67 236 170 67 237 169 69 239 168 69
240 168 69 240 168 69 238 167 68 239 163 66 223 131 39 228 126 38
227 123 35 227 123 35 227 123 35 227 123 35 227 123 35 227 123 35
227 123 35 232 120 39 200 71 8 205 68 12 205 68 12 205 68 12
205 68 10 205 68 10 205 68 10 205 69 8 202 69 4 204 71 7 215 82 15
207 77 9 204 77 6 203 78 6 201 81 7 202 80 7 209 77 7 212 75 7
213 76 9 208 79 9 221 106 29 218 108 27 218 108 25 217 107 23
218 106 23 217 105 22 214 107 22 214 107 22 218 108 25 221 105 23
212 88 10 213 86 8 207 86 6 206 87 6 206 87 6 207 85 8 208 87 9
210 85 11 210 85 11 211 84 13 199 69 0 201 68 1 201 68 1 201 68 1
202 67 1 202 67 1 202 67 1 202 67 1 201 66 0 198 66 0 212 87 18
207 86 15 205 87 13 205 87 13 208 86 11 210 85 11 214 85 12 216 84 12
216 84 12 216 84 12 211 79 8 211 79 8 211 79 8 211 79 8 211 79 10
211 79 12 211 79 12 211 79 12 210 77 11 211 79 12 211 79 12 211 81 11
208 83 9 208 83 9 208 83 9 208 83 9 208 83 9 208 83 9 208 83 9
208 83 9 215 93 18 215 93 18 215 93 18 215 93 18 215 93 18 215 93 18
215 93 18 215 93 18 218 93 19 218 91 18 214 87 14 215 88 15 214 87 14
214 87 14 214 87 14 214 87 14 215 88 17 215 87 19 215 87 19 215 87 19
211 86 16 211 86 16 211 86 16 211 86 14 213 86 12 213 86 12 213 86 12
213 86 12 211 85 11 211 85 11 209 82 9 210 83 10 209 84 10 209 84 10
209 84 10 209 84 10 209 84 10 209 84 10 209 84 10 206 86 10
222 115 32 220 118 32 220 118 32 220 118 32 220 118 30 220 118 30
220 118 30 220 118 30 219 117 28 210 120 27 242 174 74 235 177 74
237 179 73 237 179 73 235 179 73 235 179 73 238 178 73 240 177 73
239 176 72 238 175 71 236 174 70 235 172 68 235 172 68 237 172 68
237 169 69 239 168 69 240 168 69 240 168 69 240 170 70 244 169 72
217 125 33 224 125 35 222 123 33 222 123 33 222 123 33 222 123 33
223 124 34 223 124 34 223 124 34 229 120 38 200 71 8 206 67 12
206 67 12 206 67 12 206 67 12 206 67 12 206 70 11 205 69 8 206 70 7
206 70 7 205 73 6 204 74 6 203 76 7 203 76 7 204 77 8 206 76 8
208 75 8 208 75 8 209 76 9 206 78 7 223 103 28 220 105 26 220 106 23
217 105 22 219 104 22 217 103 21 217 103 23 217 103 23 221 104 26
222 102 24 209 88 10 210 86 9 209 88 10 209 88 10 209 88 10 211 87 10
212 88 14 212 88 14 214 86 16 215 86 16 200 67 0 201 66 0 201 66 2
201 66 2 202 67 3 202 67 3 201 68 3 201 68 3 201 66 0 198 66 0
215 85 18 211 84 15 210 85 13 210 85 13 210 85 13 210 85 13 210 83 12
212 82 12 212 83 10 212 83 10 211 81 9 211 81 9 211 81 9 211 81 11
211 81 13 211 80 15 211 80 15 211 80 15 211 80 15 211 80 15 211 80 15
209 81 13 209 82 11 209 82 11 209 82 11 209 82 11 209 82 11 209 82 11
209 82 11 209 82 11 215 93 18 215 93 18 215 93 18 215 93 18 215 93 18
215 93 18 215 93 18 215 93 18 218 93 19 218 91 18 214 87 14 215 88 15
214 87 14 214 87 14 214 87 14 214 86 16 215 87 19 215 87 19 215 87 19
215 87 19 213 85 16 213 85 16 213 85 16 213 85 16 213 85 14 213 86 12
213 86 12 213 86 12 211 85 11 211 85 11 209 82 9 210 83 10 209 84 10
209 84 10 209 84 10 209 84 10 209 84 10 209 84 10 209 84 10 206 86 10
224 114 32 222 117 32 222 117 32 222 117 32 222 117 30 222 117 30
222 117 30 222 117 30 223 117 30 213 118 27 243 173 74 237 176 74
240 177 73 238 178 73 233 180 73 233 180 73 238 178 73 240 177 73
239 176 72 238 175 71 236 174 70 235 172 68 234 171 67 236 170 67
237 169 69 239 168 69 240 168 69 240 168 69 240 170 70 244 169 72
217 125 33 224 125 35 220 123 33 220 123 33 220 123 33 220 123 33
221 125 34 221 125 34 221 125 34 228 121 38 200 71 8 206 67 12
206 67 12 206 67 12 206 67 12 206 67 12 206 70 11 206 70 11 206 70 9
206 70 7 205 73 6 205 73 6 205 75 7 205 75 7 208 75 10 208 75 10
208 75 8 208 75 8 207 77 9 206 78 9 225 102 30 223 103 28 221 104 26
219 104 22 219 104 22 219 102 23 221 101 23 221 101 23 223 104 26
223 102 24 209 87 12 208 86 11 209 88 10 209 88 10 211 87 10
211 87 10 212 88 14 214 87 14 215 86 16 217 84 18 201 66 0 201 66 2
201 66 2 201 66 2 202 67 3 202 67 3 201 68 3 201 68 3 201 66 0
198 66 0 215 85 18 213 83 15 213 83 13 213 83 13 211 84 13 210 85 13
210 83 12 210 83 12 210 83 10 210 83 10 209 82 9 209 82 9 209 82 9
209 82 11 209 81 13 209 81 15 209 81 15 209 81 15 209 81 15 209 81 15
209 81 15 209 81 15 209 81 13 209 82 11 209 82 11 209 82 11 209 82 11
209 82 11 209 82 11 209 82 11 214 94 18 214 94 18 214 94 18 214 94 18
214 94 18 214 94 18 214 94 18 215 93 18 218 93 19 217 92 18 212 88 14
213 89 15 214 87 14 214 87 14 214 87 14 214 86 16 215 87 19 215 87 19
215 87 19 215 87 19 213 85 16 213 85 16 211 86 16 211 86 16 213 85 14
213 86 12 213 86 12 213 86 12 211 85 11 211 85 11 209 82 9 210 83 10
209 84 10 209 84 10 209 84 10 209 84 10 209 84 10 209 84 10 209 84 10
206 86 10 224 114 32 223 116 32 223 116 32 223 116 32 223 116 32
223 116 32 223 116 32 223 117 30 223 117 30 214 118 25 243 173 72
237 177 72 241 176 73 240 177 73 235 179 73 233 180 73 238 178 73
240 177 73 239 176 72 238 175 71 236 174 70 235 172 68 234 171 67
236 170 67 237 169 69 239 168 69 240 168 69 240 168 69 240 170 70
244 169 72 217 125 33 224 125 35 222 123 33 222 123 33 222 123 33
222 123 33 223 124 34 223 124 34 223 124 34 229 120 38 200 72 6
206 68 10 206 67 12 206 67 12 206 67 12 206 67 12 206 70 11 206 70 11
206 70 9 206 70 7 205 73 6 205 73 6 205 75 7 205 75 7 208 75 10
208 75 10 209 76 11 209 76 11 207 77 9 206 78 9 226 101 30 223 103 28
221 104 26 220 103 24 220 103 24 219 102 23 221 101 25 222 100 25
225 103 26 223 102 24 211 86 12 210 85 11 209 88 10 209 88 10
211 86 12 211 86 12 212 88 14 214 87 14 215 86 16 217 84 18 201 66 2
201 66 2 201 65 4 201 66 2 201 68 3 201 68 1 201 68 3 201 68 3
200 67 0 198 66 0 215 85 18 213 83 15 213 83 13 213 83 13 211 84 13
210 85 13 210 83 12 210 83 12 210 83 10 210 83 10 209 82 9 209 82 9
209 82 9 209 82 11 209 81 13 209 81 15 209 81 15 209 81 15 209 81 15
209 81 15 209 81 15 209 81 15 209 81 13 209 82 11 209 82 11 209 82 11
209 82 11 209 82 11 209 82 11 209 82 11 214 94 18 214 94 18 214 94 18
214 94 18 214 94 18 214 94 18 214 94 18 214 94 18 216 94 19 217 92 18
212 88 14 213 89 15 214 87 14 214 87 14 214 87 14 214 87 14 215 88 17
215 87 19 215 87 19 215 87 19 213 85 16 213 85 16 211 86 16 211 86 14
213 86 12 213 86 12 213 86 12 213 86 12 211 85 11 211 85 11 209 82 9
210 83 10 209 84 10 209 84 10 209 84 10 209 84 10 209 84 10 209 84 10
209 84 10 207 85 10 225 113 32 223 116 32 223 116 32 223 116 32
223 116 32 223 116 32 223 116 32 225 115 32 225 116 30 214 118 25
243 173 72 237 177 72 241 176 73 240 177 73 235 179 73 233 180 73
238 178 73 240 177 73 239 176 72 238 175 71 236 174 70 235 172 68
234 171 67 236 170 67 237 169 69 239 168 69 242 167 69 242 167 69
240 170 70 246 168 72 217 125 33 224 125 35 222 123 33 222 123 33
222 123 33 222 123 33 223 124 34 223 124 34 223 124 34 229 120 38
200 72 6 206 68 10 206 67 12 206 67 12 206 67 12 206 67 12 206 70 11
206 70 11 206 70 9 206 70 7 205 72 8 205 72 8 207 74 9 207 74 9
208 75 10 208 75 10 209 76 11 209 76 11 207 77 11 206 78 9 226 101 30
225 102 28 223 104 26 222 102 24 222 102 24 221 101 23 222 100 25
222 100 25 225 102 28 225 100 26 211 86 12 210 85 11 209 87 12
209 87 12 211 86 12 211 86 14 212 87 16 212 87 16 214 86 18 215 85 18
200 67 2 201 66 2 201 66 2 201 66 2 201 68 3 201 68 1 199 69 3
199 69 3 200 67 0 198 66 0 215 85 18 213 83 15 213 83 15 213 83 13
211 84 13 211 84 13 210 83 12 210 83 12 210 83 10 210 83 10 209 82 9
209 82 9 209 82 9 209 82 11 209 81 13 209 81 15 209 81 15 209 81 15
209 81 15 209 81 15 209 81 15 209 81 13 209 82 11 209 82 11 209 82 11
209 82 11 209 82 11 209 82 11 209 82 11 209 82 11 214 94 16 214 94 16
214 94 16 214 94 16 214 94 16 214 94 16 214 94 16 214 94 16 216 95 17
215 94 16 211 89 12 213 89 13 214 87 12 214 87 12 214 87 12 214 87 14
215 88 17 215 88 17 215 88 17 215 88 17 214 86 16 214 86 16 212 87 16
212 87 16 212 88 14 212 88 14 212 88 14 212 88 14 211 86 12 211 86 12
209 84 10 210 85 11 211 84 13 211 84 13 211 84 13 211 84 13 211 84 13
211 84 13 211 84 13 208 86 11 228 113 34 226 117 33 226 117 33
226 117 33 226 117 33 226 117 33 226 117 33 226 117 33 228 116 31
216 119 26 245 175 73 238 178 73 243 175 75 241 176 75 235 179 75
233 180 75 238 178 73 240 177 73 239 176 72 238 175 71 236 174 70
235 172 68 234 171 67 236 170 67 237 169 69 240 168 69 242 167 69
242 167 69 242 169 70 246 168 72 219 124 33 226 124 35 225 123 36
225 123 36 225 123 36 225 123 36 225 123 36 225 123 36 225 123 36
229 119 40 200 72 6 206 68 10 206 68 10 206 68 10 206 68 10 206 68 10
206 68 10 206 68 10 206 70 9 206 70 9 207 71 10 207 71 10 208 72 11
209 73 12 209 73 12 209 73 12 210 75 13 209 75 13 207 77 11 206 78 9
226 101 30 225 102 28 225 103 26 225 103 26 223 102 24 223 102 24
223 101 26 225 100 26 227 103 29 226 101 30 214 86 16 211 86 14
211 88 16 211 88 16 212 87 16 212 87 18 212 87 18 212 87 18 214 86 20
215 85 20 200 67 2 200 67 2 200 67 2 200 67 2 201 68 3 201 68 3
201 68 1 201 68 1 200 67 2 198 65 1 217 84 18 215 82 15 215 82 15
213 83 15 213 83 15 211 84 15 210 83 12 210 83 12 210 83 12 210 83 12
210 83 12 210 83 12 210 83 12 210 83 12 210 83 14 210 83 14 210 83 14
210 83 14 210 83 14 210 83 14 210 83 14 210 83 14 210 83 12 210 83 12
209 84 12 209 84 12 209 84 12 209 84 12 209 84 12 209 84 12 215 95 17
215 95 17 215 95 17 215 95 17 215 95 17 215 95 17 215 95 17 215 95 17
218 96 19 216 95 17 211 89 12 212 90 13 212 88 12 214 87 12 214 87 12
214 87 14 215 88 17 215 88 17 215 88 17 215 88 17 214 86 16 212 87 16
211 88 16 211 88 16 212 88 14 212 88 14 212 88 14 212 88 14 211 86 12
211 86 12 209 84 10 210 85 11 211 84 13 211 84 13 211 84 13 211 84 13
211 84 13 211 84 13 211 84 13 208 86 11 228 113 34 228 116 33
228 116 33 228 116 33 228 116 33 228 116 33 228 116 33 228 116 33
228 116 31 217 118 26 246 174 73 238 178 73 243 175 75 241 176 75
235 179 75 233 180 75 238 178 73 240 177 73 239 176 72 238 175 71
236 174 70 235 172 68 234 171 67 236 170 67 237 169 69 240 168 69
244 166 69 244 166 69 242 169 70 248 167 72 216 122 31 226 124 35
225 123 36 225 123 36 225 123 36 225 123 36 225 123 36 225 123 36
225 123 36 231 118 40 201 71 6 206 68 10 206 68 10 206 68 10
206 68 10 206 68 10 206 68 10 206 68 10 206 70 9 206 70 9 206 70 9
207 71 10 208 72 11 209 73 12 209 73 12 209 73 12 209 73 12 209 73 12
209 76 11 207 77 11 228 100 32 226 101 30 226 102 28 225 103 26
223 102 24 225 100 26 225 100 26 225 100 26 227 102 31 228 100 30
214 86 16 213 85 14 212 87 18 211 88 18 212 87 18 212 87 18 212 86 20
212 86 20 214 86 20 214 86 20 198 67 2 200 67 2 200 67 0 200 67 0
201 68 3 201 68 3 201 68 1 201 68 1 200 67 2 198 65 1 215 82 15
213 81 14 213 81 16 213 81 16 212 82 14 212 82 14 209 82 11 209 82 11
209 82 11 209 82 11 209 82 11 210 83 12 210 83 12 210 83 12 210 83 14
210 83 14 210 83 14 210 83 14 210 83 14 210 83 14 211 84 15 211 84 15
211 84 13 211 84 13 210 85 13 210 85 13 210 85 13 210 85 13 210 85 13
210 85 13 214 97 19 214 97 19 214 97 19 214 97 19 214 97 19 214 97 19
214 97 19 216 97 19 218 99 21 216 97 19 209 90 12 212 90 13 212 88 12
214 87 12 214 87 12 214 87 14 215 88 17 215 88 17 215 88 17 215 88 17
214 86 16 212 87 16 211 88 16 211 88 16 212 88 14 212 88 14 212 88 14
212 88 14 211 86 12 211 86 12 209 84 10 210 85 11 210 83 12 210 83 12
210 83 12 210 83 12 210 83 12 210 83 12 211 84 13 209 84 10
230 113 34 229 115 35 229 115 35 229 115 35 229 115 35 229 115 35
229 115 35 229 115 33 229 115 31 217 118 28 246 173 75 240 177 75
245 174 75 243 175 75 235 179 75 233 180 75 238 178 73 240 177 73
239 176 72 238 175 71 236 174 70 235 172 68 234 171 67 236 170 67
239 168 69 242 167 69 244 166 69 244 166 69 243 168 70 248 167 72
217 120 30 227 123 35 226 122 36 226 122 36 226 122 36 226 122 36
226 122 36 226 122 36 226 122 36 231 118 40 201 71 6 206 68 8
206 68 10 206 68 10 206 68 10 206 68 10 206 68 10 206 68 10 206 70 9
206 70 9 206 70 9 207 71 10 208 72 11 209 73 12 210 75 13 210 75 13
208 72 11 208 72 11 209 76 11 207 77 11 228 100 32 228 100 30
226 102 28 226 102 28 225 100 26 225 100 26 227 99 28 227 99 28
229 102 31 228 100 30 215 86 16 211 84 13 211 86 16 209 87 16
211 86 16 211 86 16 211 85 18 211 85 18 214 86 20 214 86 20 198 67 2
198 67 2 198 68 0 198 68 0 199 69 1 199 69 1 199 69 1 199 69 1
200 67 2 198 65 1 213 81 16 213 81 16 212 79 15 212 79 15 211 81 13
211 81 13 208 81 10 208 81 10 208 81 10 209 82 11 209 82 11 209 82 11
210 83 12 210 83 12 210 83 14 210 83 14 210 83 14 210 83 14 210 83 14
210 83 14 211 84 15 211 84 15 211 84 13 211 84 13 210 85 13 210 85 13
210 85 13 210 85 13 210 85 13 210 85 13 216 99 20 216 99 20 216 99 20
216 99 20 216 99 20 216 99 20 216 99 20 216 99 20 219 100 22
217 98 20 209 90 12 210 91 13 209 90 12 209 90 12 209 90 12 209 90 12
210 90 15 210 90 17 210 90 17 210 90 17 211 88 16 211 88 16 209 89 16
209 89 16 211 88 14 212 88 14 212 88 14 212 88 14 211 86 12 211 86 12
209 84 10 210 85 11 210 83 12 210 83 12 210 83 12 210 83 12 210 83 12
210 83 12 211 84 13 209 84 12 231 111 36 229 115 35 229 115 35
229 115 35 229 115 35 229 115 35 229 115 35 229 115 35 229 115 33
220 116 28 251 171 75 245 174 75 248 173 75 246 173 75 243 175 75
241 176 75 245 175 73 246 174 73 245 173 72 244 171 71 243 170 70
242 169 68 240 168 67 240 168 67 240 168 69 242 167 69 245 165 69
245 165 69 243 168 70 249 167 72 214 118 27 229 122 35 228 121 36
228 121 36 228 121 36 228 121 36 228 121 36 228 121 38 228 121 38
233 118 40 201 71 6 206 68 8 206 68 10 206 68 10 206 68 10 206 68 10
206 68 10 206 68 10 206 70 9 206 70 9 205 69 8 207 71 10 208 72 11
209 73 12 210 75 13 210 75 13 207 71 10 207 71 10 208 75 10 208 75 10
229 99 32 228 100 30 228 100 30 226 102 28 225 100 26 227 100 26
227 99 28 227 99 28 229 102 31 228 100 30 215 86 16 211 84 13
211 86 16 209 87 16 211 86 16 211 86 16 211 85 18 211 85 18 214 86 20
214 86 20 198 67 2 198 67 2 198 68 0 198 68 0 199 69 1 199 69 1
199 69 1 199 69 1 200 67 2 198 65 1 211 78 14 212 79 15 211 78 14
211 78 14 210 79 12 210 79 12 207 79 9 207 79 9 207 79 9 208 81 10
208 81 10 209 82 11 210 83 12 210 83 12 210 83 14 210 83 14 210 83 14
210 83 14 210 83 14 210 83 14 213 85 16 213 85 16 213 85 14 213 85 14
211 86 14 211 86 14 211 86 14 211 86 14 211 86 14 211 86 14
216 102 20 216 102 20 216 102 20 216 102 20 216 102 20 216 102 20
218 101 20 218 101 20 221 102 21 219 101 20 239 122 41 236 124 41
235 128 43 233 129 43 230 128 42 230 128 44 230 128 46 230 128 46
231 126 45 232 125 45 215 105 26 217 105 26 220 103 26 221 101 25
222 100 25 221 99 22 221 99 22 221 99 22 224 99 25 226 102 28
209 84 10 210 85 11 209 82 11 209 82 11 210 83 12 210 83 12 212 82 14
212 82 14 212 82 14 210 83 12 203 83 8 200 83 7 200 83 7 200 83 7
200 83 7 200 83 7 200 83 7 200 83 5 200 84 3 200 88 5 220 123 35
219 131 40 210 130 36 210 130 36 215 128 34 217 127 34 217 127 34
217 127 34 218 129 33 219 130 35 221 132 37 222 133 38 224 134 39
220 136 39 217 137 41 216 138 41 219 136 41 219 136 41 220 142 48
222 136 44 215 115 28 213 104 20 215 106 22 215 106 22 215 106 24
215 106 24 215 106 24 215 105 26 215 105 26 219 103 28 201 71 6
206 68 8 206 68 8 206 68 8 206 68 8 206 68 8 205 69 8 206 70 9
207 69 11 206 68 10 203 68 6 200 64 3 201 65 4 202 66 5 202 66 5
202 66 5 207 71 10 207 71 10 204 71 7 204 71 7 201 71 4 201 71 4
201 74 3 201 74 3 200 72 2 200 72 2 201 72 2 201 72 2 202 74 6
197 70 1 214 86 18 210 83 14 211 86 16 211 86 16 211 86 16 211 86 16
209 86 18 211 85 18 211 86 16 213 85 16 215 85 18 215 85 18 217 86 19
217 87 17 217 86 19 217 86 19 217 86 19 217 86 19 216 83 18 220 88 23
210 77 13 211 78 14 209 76 11 209 76 11 207 77 9 207 77 9 206 76 8
206 76 8 207 79 9 207 79 9 208 81 10 208 81 10 209 82 11 209 82 11
210 83 14 210 83 14 210 83 14 209 81 13 209 81 13 211 84 15 211 86 16
212 87 18 212 87 16 212 87 16 212 87 16 212 87 16 212 87 16 212 87 16
212 87 16 212 87 16 217 103 21 217 103 21 217 103 21 217 103 21
217 103 21 217 103 21 219 103 21 219 103 21 222 103 22 219 103 21
237 123 41 234 125 41 232 130 43 228 131 43 226 131 42 224 131 44
224 131 46 226 130 46 226 128 45 228 127 45 211 108 26 214 106 26
219 104 26 221 101 25 222 100 23 221 99 22 221 99 22 221 99 22
224 99 25 226 102 28 209 84 10 210 85 11 209 82 11 209 82 11
210 83 12 210 83 12 212 82 14 212 82 14 212 82 14 210 83 14 205 82 10
202 82 7 202 82 7 202 82 7 202 82 7 202 82 7 202 82 7 202 82 7
202 83 5 201 87 7 225 120 37 223 128 40 213 128 36 213 128 36
221 125 34 225 123 34 223 124 34 221 125 34 223 126 33 224 127 35
226 130 37 227 131 38 228 132 39 225 134 39 219 136 41 217 137 41
220 136 41 220 136 41 222 141 48 223 136 44 214 112 26 213 104 20
215 106 22 215 106 22 215 106 24 215 106 24 215 105 26 215 105 26
215 105 28 220 102 30 201 71 6 206 68 8 206 68 8 206 68 8 206 68 8
206 68 8 205 69 8 206 70 9 207 69 11 206 68 10 202 66 5 200 64 3
201 65 4 202 66 5 202 66 5 202 66 5 206 70 9 206 70 9 202 69 4
202 69 4 202 69 2 200 70 2 200 70 0 199 71 0 197 70 0 197 70 0
199 69 0 199 69 0 202 74 6 197 70 1 214 86 18 210 83 14 211 86 16
211 86 16 211 86 16 211 86 16 209 86 18 209 86 18 211 86 16 211 86 16
214 86 18 215 85 18 217 87 17 217 87 17 217 86 19 217 86 19 217 86 19
217 86 19 216 83 18 220 88 23 208 75 10 210 77 13 208 75 10 208 75 10
206 76 8 206 76 8 205 75 7 205 75 7 206 78 7 206 78 7 207 79 9
208 81 10 209 82 11 209 82 11 210 83 14 210 83 14 210 83 14 209 81 13
209 81 13 211 84 15 212 87 18 213 88 19 213 88 17 213 88 17 213 88 17
213 88 17 213 88 17 213 88 17 213 88 17 213 88 17 217 105 22
217 105 22 217 105 22 217 105 22 217 105 22 219 104 22 219 104 22
220 104 22 223 106 25 220 104 22 237 123 41 234 125 41 232 130 43
228 131 43 226 131 42 224 131 44 224 131 46 226 130 46 226 128 45
228 127 45 211 108 26 214 106 26 219 104 26 221 101 25 222 100 23
221 99 22 221 99 22 221 99 22 224 99 25 226 102 28 209 84 10
210 85 11 209 82 11 209 82 11 209 82 11 209 82 11 211 81 13 211 81 13
212 82 14 209 81 13 205 82 10 205 82 10 205 82 10 205 82 10 204 81 7
204 81 7 204 81 7 204 81 7 204 81 7 203 85 9 225 120 39 223 128 42
213 128 36 215 127 36 221 125 34 225 123 34 223 124 34 221 125 34
223 126 33 224 127 35 226 130 37 227 131 38 228 132 39 225 134 39
220 136 41 219 136 41 220 136 41 220 136 41 223 141 48 223 136 44
215 110 25 215 103 20 217 105 22 217 105 22 217 105 24 217 105 24
217 105 26 217 105 26 217 104 28 220 102 30 201 71 6 206 68 6
206 68 8 206 68 8 206 68 8 206 68 8 205 69 8 206 70 9 207 69 11
206 68 10 202 66 5 200 64 3 201 65 4 202 66 5 202 66 5 202 66 5
205 69 8 205 69 8 203 68 4 203 68 4 202 69 2 202 69 2 200 70 2
200 70 2 199 69 1 199 69 1 199 69 1 199 69 1 204 74 6 199 69 1
214 86 18 209 81 13 211 84 15 211 84 15 210 85 15 210 85 15 210 84 17
210 84 17 211 86 16 211 86 16 214 86 18 214 86 18 215 88 17 215 88 17
215 87 19 215 87 19 215 87 19 217 86 19 216 83 18 220 88 23 207 74 9
210 77 13 207 74 9 207 74 9 205 75 7 205 75 7 204 74 6 204 74 6
204 77 6 206 78 7 207 79 9 207 79 9 209 82 11 209 82 11 210 83 14
210 83 14 210 83 14 209 81 13 209 81 13 211 84 15 212 87 18 213 88 19
213 88 17 213 88 17 213 88 17 213 88 17 213 88 17 213 88 17 213 88 17
213 88 17 218 106 23 218 106 23 218 106 23 218 106 23 218 106 23
218 106 23 220 106 23 220 106 23 224 107 26 220 106 23 236 124 41
232 126 41 230 130 43 227 132 43 224 132 42 224 132 42 224 131 44
226 130 46 226 128 45 228 127 45 211 108 26 214 106 26 219 104 26
219 102 25 221 101 23 221 99 22 221 99 22 221 99 22 224 99 25
226 102 28 209 84 10 210 85 11 209 82 11 209 82 11 209 82 11
209 82 11 211 81 13 211 81 13 212 82 14 209 81 13 206 81 10 205 82 10
205 82 10 205 82 10 204 81 7 204 81 7 204 81 7 204 81 7 204 81 7
203 85 9 225 120 39 223 128 44 215 127 38 215 127 36 221 124 36
225 123 34 223 124 34 221 125 34 223 126 35 224 127 35 226 130 37
227 131 38 228 132 39 225 133 41 220 136 41 219 136 41 222 135 41
222 134 43 223 141 48 225 135 44 212 108 22 215 103 20 217 105 22
217 105 24 217 105 24 217 105 26 217 105 26 217 104 28 217 104 28
222 101 30 201 71 6 206 68 6 206 68 8 206 68 8 206 68 8 206 68 8
205 69 8 206 70 11 207 69 11 206 68 10 201 65 6 200 64 3 201 65 4
202 66 5 202 66 5 202 66 5 203 68 6 203 68 6 203 68 6 203 68 4
202 69 4 202 69 2 202 69 2 202 69 2 201 68 1 199 69 1 199 69 1
199 69 1 204 74 6 199 69 1 215 85 18 209 81 13 211 84 15 211 84 15
210 85 15 210 85 15 210 84 17 210 84 17 211 86 16 211 86 16 214 86 18
214 86 18 215 88 17 215 88 17 215 87 19 215 87 19 215 87 19 217 86 19
214 84 18 220 88 23 204 71 7 209 76 11 205 72 8 205 72 8 204 73 8
204 74 6 203 72 5 203 72 5 203 76 5 204 77 6 206 78 7 207 79 9
209 82 11 209 82 11 210 83 14 210 83 14 210 83 14 209 81 13 209 81 13
211 84 15 213 88 19 215 89 20 215 90 18 215 90 18 215 90 18 215 90 18
215 90 18 215 90 18 215 90 18 215 90 18 219 108 23 219 108 23
219 108 23 219 108 23 219 108 23 219 108 23 221 107 23 221 107 23
223 110 25 221 107 23 237 125 40 234 127 40 230 130 43 227 132 43
225 133 43 224 134 43 224 132 42 226 130 44 227 130 44 229 129 44
211 108 24 214 107 24 217 105 24 219 102 23 219 100 22 219 100 22
221 99 22 221 99 22 222 100 25 225 102 28 209 84 10 210 85 11
208 83 11 208 83 11 209 84 12 210 83 12 210 83 14 210 83 14 212 82 14
210 83 14 208 83 11 206 81 10 206 81 10 206 81 10 206 82 8 206 82 8
206 82 8 206 82 8 206 81 10 204 86 12 226 121 42 224 129 45
216 128 41 218 127 39 223 125 39 226 124 37 224 124 37 223 125 37
224 127 37 225 128 38 227 130 40 228 132 41 230 133 42 226 134 42
222 136 44 222 136 44 223 136 44 223 136 44 226 141 51 226 136 48
214 107 24 217 103 23 219 104 24 219 104 24 219 104 26 219 104 26
219 103 28 219 103 28 219 103 30 222 101 30 201 71 6 205 69 6
205 69 8 205 69 8 205 69 8 205 69 8 206 68 10 207 69 11 207 68 13
206 67 12 204 65 9 202 63 5 202 63 5 203 64 6 203 64 6 203 64 6
204 65 7 204 65 7 202 66 7 202 66 5 203 68 6 203 68 4 203 68 2
203 68 2 203 68 2 202 69 2 202 69 2 202 69 2 207 74 9 202 69 4
217 86 19 212 82 14 211 83 17 211 83 17 210 85 15 210 85 15 210 85 15
210 85 15 209 87 16 211 86 14 212 87 16 212 87 16 215 88 17 215 88 17
215 88 17 215 88 17 217 87 17 217 86 19 214 84 18 219 88 23 204 71 9
209 75 13 205 72 10 205 72 10 205 72 8 205 72 8 203 72 5 203 72 5
203 76 5 204 77 6 206 78 7 207 79 9 209 82 11 209 82 11 210 83 12
210 83 12 212 82 12 211 81 11 209 82 11 211 84 13 213 88 17 216 91 19
216 91 19 216 91 19 214 92 19 214 92 19 214 92 19 214 92 19 214 92 19
214 92 19 219 108 23 219 108 23 219 108 23 219 108 23 219 108 23
219 108 23 219 108 23 221 107 23 223 110 25 219 108 23 235 126 40
232 128 40 228 131 43 225 133 43 224 134 43 224 134 43 224 132 42
224 132 42 226 131 42 229 129 42 211 108 24 214 107 24 216 104 23
216 102 22 218 101 22 219 100 22 221 99 22 221 99 22 222 100 25
225 102 28 209 84 10 210 85 11 208 83 11 208 83 11 209 84 12
209 84 12 209 83 14 210 83 14 210 83 14 210 83 14 209 82 11 206 81 10
206 81 10 206 81 10 206 81 10 208 81 8 208 81 8 206 82 8 206 81 10
204 86 12 226 121 42 226 128 47 218 127 41 218 127 41 223 125 39
226 123 39 224 124 37 223 125 37 224 127 37 225 128 38 227 130 40
228 132 41 230 133 42 228 133 42 223 136 44 222 136 44 225 135 44
225 135 44 226 141 51 228 135 48 215 108 26 217 103 23 219 104 24
219 104 24 219 104 26 219 104 26 219 103 28 219 103 28 219 103 30
222 101 30 201 71 6 205 69 6 205 69 8 205 69 8 205 69 8 205 69 8
206 68 10 207 69 11 207 68 13 206 67 12 204 65 9 202 63 7 202 63 5
203 64 6 203 64 6 203 64 6 204 65 7 204 65 7 202 66 7 202 66 7
203 68 6 203 68 6 203 68 4 203 68 4 203 68 4 203 68 2 202 69 2
202 69 2 208 73 9 202 69 4 218 86 19 212 82 14 211 84 15 211 84 15
210 85 15 210 85 15 210 85 15 210 85 13 209 87 14 209 87 14 212 87 16
212 88 14 215 88 15 215 88 15 215 88 17 215 88 17 217 87 17 217 87 17
214 84 16 219 88 23 204 71 9 209 75 13 205 72 10 205 72 10 205 72 8
205 72 8 203 72 5 203 72 5 203 76 5 204 77 6 206 78 7 207 79 9
209 82 11 209 82 11 210 83 12 210 83 12 212 82 12 211 81 11 209 82 11
211 84 13 213 88 17 216 91 19 216 91 19 216 91 19 214 92 19 214 92 19
214 92 19 214 92 19 214 92 19 214 92 19 218 109 23 218 109 23
218 109 23 218 109 23 218 109 23 218 109 23 218 109 23 219 108 23
222 110 25 218 109 23 234 127 40 230 129 40 228 131 43 225 133 43
224 134 43 224 134 43 222 132 42 224 132 42 226 131 42 229 129 42
211 109 22 213 106 21 213 104 20 216 102 20 218 101 20 219 101 20
221 99 22 221 99 22 222 100 23 225 103 26 209 84 10 210 85 11
209 84 10 209 84 10 207 85 12 207 85 12 207 85 12 209 84 12 209 84 12
210 83 12 209 81 13 209 81 13 209 81 13 209 81 13 208 81 10 210 80 10
210 80 10 208 81 10 206 81 10 204 86 12 226 121 42 226 128 47
219 126 41 219 126 41 224 124 39 226 123 39 224 124 37 223 125 37
224 127 37 225 128 38 227 130 40 228 132 41 230 133 42 228 133 42
223 136 44 223 136 44 225 135 44 225 135 44 228 140 51 228 135 48
217 107 26 219 102 23 220 103 24 220 103 24 220 103 26 220 103 26
220 102 28 220 102 28 220 102 30 223 100 30 203 70 6 206 68 6
206 68 8 206 68 8 206 68 8 206 68 8 206 68 10 207 69 11 207 68 13
206 67 12 204 65 9 202 63 7 202 63 5 203 64 6 203 64 6 203 64 6
204 65 7 204 65 7 204 65 7 204 65 7 205 67 6 205 67 6 206 68 8
206 68 8 203 68 6 203 68 4 203 68 4 203 68 4 210 72 7 205 68 2
220 85 19 213 81 14 211 84 15 210 85 13 210 85 13 208 86 13 208 86 13
208 86 11 209 87 12 209 87 12 211 88 14 212 88 12 213 89 13 213 89 15
213 89 15 215 88 15 215 88 15 215 88 17 214 84 16 219 88 23 204 71 7
209 76 11 205 72 8 204 73 8 205 72 8 205 73 6 203 72 5 203 72 5
203 76 5 204 77 6 206 78 7 208 81 10 209 82 11 209 82 11 210 83 12
210 83 12 212 82 12 211 81 11 209 82 11 211 84 13 213 88 17 216 91 19
216 91 19 216 91 19 214 92 19 214 92 19 214 92 19 214 92 19 214 92 19
214 92 19 216 110 23 216 110 23 216 110 23 216 110 23 216 110 23
216 110 23 216 110 23 218 109 23 220 111 25 216 110 23 232 128 40
229 130 40 227 132 43 224 134 43 222 134 43 222 134 43 224 132 42
226 131 42 227 130 42 229 129 42 209 107 21 212 105 20 213 104 20
215 103 20 216 102 20 218 101 20 218 101 22 218 101 22 221 101 23
223 104 26 207 85 8 210 85 11 209 84 10 207 85 10 207 85 10 207 85 12
207 85 12 207 85 12 209 84 12 209 84 12 209 81 13 209 81 13 209 81 13
209 81 13 208 81 10 208 81 10 208 81 10 206 81 10 207 85 12 204 86 12
228 120 42 228 127 47 221 125 41 221 125 41 224 124 41 224 124 39
223 125 39 221 126 37 222 127 39 223 129 38 226 131 40 227 132 43
228 133 44 226 134 44 223 136 44 223 136 44 225 135 44 225 135 44
228 140 51 228 135 48 217 107 26 219 102 23 219 104 24 219 104 24
219 104 26 219 104 26 219 103 28 219 103 28 219 103 28 222 101 30
203 70 6 206 68 8 206 68 8 206 68 8 206 68 8 206 68 8 206 68 10
207 69 11 207 68 13 206 67 12 204 65 9 202 63 7 203 64 6 204 65 7
204 65 7 204 65 7 204 65 7 204 65 7 204 65 7 204 65 7 205 67 6
205 67 6 206 68 8 206 68 10 203 67 9 203 68 6 203 68 6 203 68 4
211 71 7 206 69 4 217 87 17 210 83 12 211 85 11 210 85 11 210 85 11
210 85 11 210 85 11 210 85 11 211 86 12 211 87 10 212 88 12 212 88 12
215 88 13 215 88 13 215 88 13 215 88 15 217 87 15 215 88 15 211 86 16
217 89 23 204 71 7 208 73 9 201 71 6 201 71 6 203 70 4 203 70 4
200 70 2 200 70 2 201 74 3 202 75 4 206 78 7 208 81 10 209 82 11
209 82 11 210 83 12 210 83 12 212 82 12 211 81 11 209 82 11 210 85 13
212 89 17 214 92 19 216 91 17 216 91 17 214 92 17 214 92 17 214 92 17
214 92 17 214 92 17 214 92 17 218 114 26 218 114 26 218 114 26
218 114 26 218 114 26 218 114 26 218 114 26 220 113 26 222 115 28
218 114 26 232 133 44 231 134 44 225 133 41 224 134 41 220 136 41
222 135 41 227 130 40 230 129 40 230 129 40 230 129 40 212 108 22
212 108 22 214 107 22 214 107 22 215 106 22 215 106 22 214 107 22
214 107 22 214 102 19 217 103 21 206 87 6 208 87 9 207 85 8 206 86 8
206 86 8 206 86 10 206 86 10 207 85 10 207 85 12 209 84 12 209 82 11
209 82 11 208 83 11 206 81 10 206 81 12 206 81 12 205 82 12 205 82 12
206 85 12 206 89 14 229 116 40 224 116 39 227 124 45 227 124 45
227 124 43 225 125 43 222 127 41 221 128 41 222 129 40 223 130 41
225 133 43 226 134 46 228 135 48 226 136 46 224 137 46 224 137 46
226 136 46 226 136 46 217 129 41 221 128 41 214 105 23 219 104 24
213 103 24 212 104 24 212 104 24 212 104 24 212 104 24 212 104 24
212 104 24 216 101 28 204 73 10 209 70 12 209 70 12 209 70 12
209 70 12 209 70 12 209 70 12 209 70 12 207 68 13 207 68 13 207 68 13
206 67 12 205 66 11 204 65 9 204 65 9 204 65 9 204 65 7 204 65 7
205 66 9 205 66 9 206 68 10 206 68 10 206 68 10 206 67 12 205 68 12
205 68 10 203 69 10 205 69 8 212 72 10 206 71 3 208 88 12 203 86 7
210 86 7 211 85 7 211 85 7 211 85 9 213 84 9 213 84 9 213 84 9
213 84 7 213 84 7 213 84 7 213 84 7 213 84 7 215 84 7 215 83 9
215 83 9 211 85 11 212 96 21 212 94 22 203 72 5 207 72 6 200 70 2
200 70 2 200 70 2 200 70 2 199 69 0 197 70 0 199 71 0 201 74 3
204 77 6 208 81 10 209 82 11 209 82 11 209 84 12 210 83 12 212 82 12
212 82 12 215 88 17 208 86 13 214 99 24 209 94 17 214 92 15 216 92 13
216 92 13 216 92 13 216 92 13 216 92 13 216 92 13 216 92 13
213 109 21 213 109 21 213 109 21 213 109 21 213 109 21 213 109 21
213 109 21 213 109 21 216 112 24 212 110 21 226 129 39 224 130 39
229 137 45 226 138 45 224 139 45 226 138 45 229 135 44 232 133 44
232 133 44 232 133 44 207 107 20 207 107 20 207 107 20 208 106 20
210 105 20 208 106 20 205 108 20 205 108 20 212 110 23 216 109 25
202 88 6 206 87 6 204 85 7 204 85 7 204 85 7 204 85 7 204 85 9
204 85 9 206 83 11 206 83 11 208 83 11 209 82 11 206 81 10 206 81 10
206 81 12 206 81 12 205 82 12 205 82 12 204 81 9 208 88 14 233 115 41
236 121 46 232 119 44 231 120 44 231 120 41 227 122 41 226 123 39
224 124 39 224 126 39 225 128 40 227 130 44 228 131 45 230 132 46
228 133 46 226 134 44 226 134 44 230 132 44 230 132 44 223 130 43
228 128 43 220 105 26 224 105 27 217 105 26 215 105 26 215 105 26
215 105 26 215 105 26 215 105 26 215 105 26 220 102 28 200 69 6
205 66 9 205 66 9 205 66 9 205 66 9 205 66 9 205 66 9 205 66 9
204 65 9 204 65 9 204 65 9 204 65 9 204 65 9 204 65 9 204 65 9
204 65 9 204 65 7 204 65 7 205 66 9 205 66 9 206 68 10 206 68 10
206 67 12 206 67 12 205 68 12 203 69 12 201 70 10 203 70 8 213 75 13
200 70 0 210 100 21 198 94 8 204 95 9 205 94 9 205 94 9 205 94 11
207 93 11 207 93 11 207 93 11 207 93 11 207 93 11 207 93 11 207 93 11
209 92 11 209 92 11 209 92 11 209 92 13 205 93 13 201 98 17
212 103 26 199 71 0 210 75 9 204 74 6 202 74 6 204 74 6 204 74 6
201 74 3 201 74 3 201 74 3 202 75 4 206 78 7 208 81 10 209 82 11
209 82 11 209 84 12 210 83 12 212 82 12 212 82 12 209 82 11 202 82 9
210 97 21 206 96 17 211 94 13 212 94 11 212 94 11 212 94 11 212 94 11
212 94 11 212 94 11 212 94 11 228 126 38 228 126 38 228 126 38
228 126 38 228 126 38 228 126 38 228 126 38 228 126 38 230 129 40
227 127 38 242 145 55 241 146 55 233 143 51 231 144 51 230 145 51
230 145 51 230 143 49 230 143 49 233 143 51 233 143 51 234 144 52
234 144 52 235 146 53 237 145 53 238 144 53 237 145 53 234 146 53
234 146 53 231 141 50 234 137 49 216 109 25 219 104 22 217 103 21
219 103 21 219 103 21 219 102 23 219 102 25 221 101 25 221 101 25
222 100 25 208 83 11 206 81 10 208 81 10 208 81 10 208 80 12
208 80 12 208 80 12 208 80 12 206 78 7 201 74 3 206 81 10 204 79 7
206 83 11 209 87 14 208 88 12 206 89 12 205 90 10 203 91 10 204 92 10
204 94 11 206 96 15 207 98 16 208 99 17 207 100 17 205 101 15
205 101 15 208 99 15 208 99 15 206 102 19 211 99 19 203 77 1 208 76 2
201 76 2 199 77 2 199 77 2 199 77 2 199 77 2 199 77 2 201 76 2
202 75 4 195 62 0 196 60 4 198 59 2 198 59 2 198 59 2 198 59 2
198 59 2 198 59 2 199 60 5 199 60 5 199 60 5 199 60 5 200 61 6
200 61 6 200 61 6 200 61 6 202 61 4 202 61 4 202 63 5 202 63 5
205 67 6 206 68 10 207 70 14 207 70 14 206 69 13 204 70 13 201 72 11
203 72 9 206 71 5 203 78 6 253 148 65 247 157 67 244 162 67
241 164 65 241 164 65 241 164 67 243 163 67 243 163 67 243 163 67
243 163 67 244 162 67 244 162 67 244 162 67 244 162 67 246 161 69
246 161 69 246 161 69 246 160 71 249 160 74 255 155 73 209 87 12
215 82 13 208 81 10 206 81 10 210 80 10 210 80 10 207 79 9 207 79 9
207 79 9 207 79 9 207 79 9 209 82 11 209 82 11 209 82 11 209 84 12
210 83 12 212 82 12 212 82 12 216 89 18 211 91 18 223 110 34
221 113 33 222 113 29 224 113 27 224 113 27 224 113 27 224 113 27
224 113 27 224 113 27 224 113 27 222 123 33 222 123 33 222 123 33
222 123 33 222 123 33 222 123 33 222 123 33 222 123 33 224 125 35
220 123 33 236 142 51 235 142 51 234 144 52 231 146 52 229 147 52
229 147 52 228 146 51 228 146 51 228 146 51 228 146 51 228 146 51
228 146 51 228 146 51 230 145 51 231 144 51 230 145 51 227 147 51
227 147 51 233 148 56 233 141 51 214 112 26 213 104 20 214 102 19
215 101 19 217 100 19 217 100 21 217 99 23 217 99 23 218 99 23
220 98 23 206 81 10 205 80 9 207 79 9 208 79 9 208 78 11 208 78 11
208 78 11 210 77 11 204 72 3 205 73 4 220 88 19 213 81 12 213 83 13
213 83 13 211 84 13 211 85 11 210 85 11 208 87 9 208 88 10 209 90 12
210 93 14 211 94 15 212 95 16 212 95 16 210 96 16 210 96 16 214 94 16
214 94 16 215 101 21 220 98 21 212 76 3 216 75 5 209 75 4 206 77 4
208 76 4 208 76 4 208 76 4 208 76 4 209 75 4 209 74 8 194 58 0
196 57 1 196 57 0 196 57 0 196 57 0 196 57 0 196 57 0 196 57 1
197 58 2 197 58 2 197 58 2 197 58 2 198 59 4 198 59 4 198 59 4
198 59 4 201 59 5 201 60 3 199 61 3 200 62 4 205 66 9 206 68 10
207 71 12 207 70 14 206 69 13 204 70 13 201 72 11 199 73 9 204 74 6
197 78 2 255 159 73 241 164 67 236 170 67 232 172 67 232 172 67
232 172 67 234 171 69 234 171 69 234 171 69 234 171 69 236 170 69
236 170 69 236 170 69 236 170 69 237 169 71 237 169 71 237 169 71
239 168 73 240 161 72 255 162 78 203 85 9 215 88 15 208 86 13
210 85 13 213 83 13 215 82 13 212 82 12 210 83 12 210 83 12 209 82 11
208 81 10 209 82 11 209 82 11 209 82 11 209 84 12 210 83 12 212 82 12
212 82 12 209 82 11 208 86 13 222 109 33 220 112 32 220 113 28
220 113 26 220 113 26 220 113 26 220 113 26 220 113 26 220 113 26
220 113 26 225 126 37 225 126 37 225 126 37 225 126 37 225 126 37
225 126 37 225 126 37 225 126 37 228 128 39 224 127 37 240 145 54
238 146 54 233 145 52 231 146 52 228 148 52 228 148 52 227 147 51
227 147 51 228 148 52 228 148 52 229 149 53 229 149 53 230 150 54
230 150 54 230 148 53 230 148 53 227 150 53 227 150 53 228 147 54
235 147 56 207 107 20 213 106 21 215 103 20 216 102 20 216 102 20
216 102 22 218 101 24 218 101 24 219 100 24 221 99 24 204 79 7
205 80 9 207 79 9 208 79 9 210 77 11 210 77 11 210 77 11 210 75 9
207 72 6 210 75 9 216 81 15 217 82 16 216 81 15 216 81 15 216 82 13
215 82 13 213 83 13 211 85 11 212 88 14 213 89 15 217 92 18 218 93 19
220 96 22 219 97 22 217 97 22 219 97 22 220 96 22 220 96 22 220 98 23
223 96 23 217 73 5 220 73 7 212 73 4 211 74 4 211 74 4 211 74 4
211 74 4 211 74 4 211 74 4 211 73 8 196 57 0 197 56 1 197 56 1
197 56 1 197 56 1 197 56 1 197 56 1 197 56 1 197 58 4 197 58 4
197 58 4 197 58 4 198 57 4 198 57 4 198 57 4 198 57 4 198 57 2
198 57 2 200 58 4 199 60 5 207 69 11 206 70 11 207 71 12 207 71 12
209 70 14 205 71 14 201 74 12 199 76 8 200 78 5 190 80 1 250 164 72
236 168 68 234 171 67 231 173 67 231 173 67 232 172 67 232 172 69
232 172 69 232 172 67 234 171 67 234 171 69 234 171 69 234 171 67
236 170 69 236 170 71 236 170 71 236 170 71 237 168 73 236 167 74
243 160 72 202 94 15 210 90 15 207 87 13 208 86 13 213 83 13
215 82 13 212 82 12 210 83 12 210 83 12 210 83 12 209 82 11 209 82 11
209 82 11 209 82 11 210 83 14 210 83 14 213 81 12 213 81 12 211 84 13
211 88 16 226 111 33 222 115 32 220 116 30 220 116 28 220 116 28
220 116 28 220 116 28 220 116 28 220 116 28 220 116 28 225 126 37
225 126 37 225 126 37 225 126 37 225 126 37 225 126 37 225 126 37
225 126 37 228 128 39 224 127 37 240 145 54 236 147 54 233 145 52
229 147 52 228 148 52 228 148 52 227 147 51 227 147 51 228 148 52
228 148 52 229 149 53 229 149 53 230 150 54 230 150 54 230 148 53
230 148 53 227 150 53 227 150 53 228 147 54 235 147 56 207 107 20
213 106 21 215 103 20 216 102 20 216 102 20 218 101 22 218 101 24
219 100 24 219 100 24 221 99 24 204 79 7 204 79 7 206 78 7 207 77 7
209 76 9 209 76 9 209 76 9 209 74 8 208 73 7 210 75 9 216 81 15
217 82 16 216 81 15 216 81 15 216 82 13 215 82 13 213 83 13 211 84 13
212 88 14 213 89 15 217 92 18 218 93 19 220 96 22 219 97 22 217 97 22
219 97 22 220 96 22 220 96 22 220 98 23 223 96 23 217 73 5 220 73 7
212 73 4 211 74 4 211 74 4 211 74 4 211 74 4 211 74 4 211 74 4
211 74 6 196 58 0 197 56 1 197 56 1 197 56 1 197 56 1 197 56 1
197 56 1 197 56 1 197 58 4 197 58 4 197 58 4 197 58 4 198 57 4
198 57 4 198 57 4 198 57 4 198 57 2 198 57 2 198 57 2 200 58 4
209 70 12 207 71 12 207 71 12 207 71 12 209 70 14 205 72 12 202 76 11
199 78 9 199 78 5 188 83 0 243 168 72 231 170 68 232 172 67
232 172 67 232 172 67 232 172 67 232 172 69 234 171 69 234 171 67
234 171 67 234 171 69 234 171 69 234 171 67 236 170 67 236 170 69
236 170 71 236 170 71 236 170 71 231 170 72 237 163 72 199 96 15
207 90 14 204 86 12 207 85 12 212 82 12 213 81 12 211 81 11 209 82 11
209 82 11 209 82 11 209 82 11 209 82 11 209 82 11 209 82 11 210 83 14
212 82 14 213 81 12 213 81 12 213 83 13 211 88 16 226 111 33
222 115 32 220 116 30 220 116 28 220 116 28 220 116 28 220 116 28
220 116 28 220 116 28 220 116 28 224 127 37 224 127 37 224 127 37
224 127 37 224 127 37 224 127 37 224 127 37 224 127 37 225 128 38
223 126 35 238 144 53 235 146 53 231 144 51 230 145 51 228 146 51
228 146 51 228 146 51 228 146 51 231 146 52 231 146 52 232 147 53
232 147 53 233 148 54 233 148 54 234 146 53 232 147 53 230 148 53
230 148 53 231 146 54 238 146 56 208 106 20 214 105 21 216 102 20
218 101 20 218 101 20 218 101 22 219 100 24 219 100 24 221 99 24
221 99 24 204 79 7 204 79 7 206 78 7 207 77 7 207 77 9 207 77 9
207 77 9 208 75 8 207 74 7 209 76 9 215 82 15 216 83 16 213 83 15
213 83 15 211 84 13 211 84 13 210 85 13 208 86 13 208 88 12 209 89 14
213 96 19 214 97 21 216 98 22 216 98 22 214 99 22 214 99 22 217 97 22
217 97 22 215 100 23 220 98 23 212 75 5 216 75 7 209 75 4 206 77 4
208 76 4 208 76 4 208 76 4 208 76 4 209 75 4 209 75 6 194 58 0
196 57 0 196 57 1 196 57 1 196 57 1 196 57 1 197 56 1 197 56 1
197 58 4 197 58 4 197 58 4 197 58 4 198 57 4 198 57 4 198 57 4
198 57 4 200 56 2 200 56 2 198 57 2 198 57 2 209 70 12 207 71 10
207 73 11 208 72 13 208 72 13 207 73 13 203 77 12 200 79 10 197 79 5
185 85 0 238 170 72 228 172 68 232 172 67 234 171 67 234 171 67
234 171 67 234 171 69 236 170 69 236 170 67 236 170 67 236 170 69
236 170 69 236 170 67 236 170 67 237 169 69 237 169 69 237 169 69
234 170 71 228 171 72 232 165 72 197 97 15 207 90 14 204 86 12
207 85 12 212 82 12 213 81 12 211 81 11 209 82 11 209 82 11 209 82 11
209 82 11 209 82 11 209 82 11 209 82 11 210 83 14 212 82 14 213 81 12
213 81 12 213 83 13 211 88 16 226 111 33 224 114 32 222 115 30
222 115 28 222 115 28 222 115 28 222 115 28 222 115 28 222 115 28
222 115 28 224 127 37 224 127 37 224 127 37 224 127 37 224 127 37
224 127 37 224 127 37 224 127 37 225 128 38 221 127 35 237 145 53
235 146 53 231 144 51 230 145 51 228 146 51 228 146 51 228 146 51
230 145 51 231 146 52 231 146 52 232 147 53 234 146 53 235 148 54
235 148 54 234 146 53 232 147 53 232 147 53 232 147 53 233 145 54
240 145 56 210 105 20 216 104 21 218 101 20 218 101 20 218 101 20
219 100 22 219 100 24 219 100 24 221 99 24 221 99 24 204 79 7
204 79 7 206 78 7 206 78 7 207 77 9 207 77 9 207 77 9 206 76 8
205 75 7 207 77 9 213 83 15 214 84 16 211 84 15 211 84 15 210 85 13
210 85 13 208 86 13 207 87 13 208 88 12 207 90 14 213 96 19 214 97 21
216 98 22 214 99 22 214 99 22 214 99 22 216 98 22 216 98 22
215 100 23 218 99 23 209 77 5 212 77 7 206 77 4 204 77 6 206 76 6
206 76 6 206 76 6 206 76 6 208 76 6 208 75 8 194 58 0 194 58 0
196 57 1 196 57 1 196 57 1 196 57 1 197 56 1 197 56 1 197 58 4
197 58 4 197 58 4 197 58 4 198 57 4 198 57 4 198 57 4 198 57 4
200 56 2 200 56 2 198 57 2 198 57 0 209 70 10 207 71 10 207 73 11
207 73 11 207 73 13 205 74 13 203 77 12 200 79 10 197 79 5 185 85 0
238 170 72 226 173 68 232 172 67 236 170 67 236 170 67 236 170 67
236 170 69 236 170 69 236 170 67 236 170 67 236 170 69 236 170 69
236 170 67 236 170 69 237 169 69 237 169 69 237 169 69 234 170 71
228 171 72 234 165 72 197 97 15 209 89 14 207 85 12 209 84 12
213 81 12 213 81 12 211 81 11 209 82 11 209 82 11 209 82 11 209 82 11
209 82 11 209 82 11 209 82 11 210 83 14 212 82 14 213 81 12 213 81 12
213 83 13 211 88 16 226 111 33 224 114 32 224 114 30 224 115 28
224 115 28 224 115 28 224 115 28 224 115 28 224 115 28 224 115 28
224 127 37 224 127 37 224 127 37 224 127 37 224 127 37 224 127 37
222 128 37 222 128 37 223 129 38 221 127 35 237 145 53 235 146 53
231 144 49 230 145 49 228 146 49 228 146 49 228 146 49 228 146 49
229 147 50 229 147 50 229 147 50 231 146 50 232 148 51 232 148 51
229 149 51 229 149 51 230 148 51 232 147 53 231 146 54 238 146 56
212 105 20 219 103 21 218 101 20 219 101 20 219 101 20 219 100 22
221 99 24 221 99 24 221 99 24 221 99 24 204 79 7 206 78 7 206 78 7
206 78 7 207 77 9 207 77 9 207 77 9 206 76 8 206 76 8 208 78 11
212 82 14 213 83 15 213 83 15 211 84 15 210 85 15 210 85 15 208 86 13
208 86 13 208 88 14 208 88 14 216 96 23 216 96 23 217 97 24 217 97 24
219 96 24 219 96 24 220 95 24 220 95 24 218 95 23 219 94 23 205 75 5
206 76 6 206 76 6 206 76 8 206 76 8 206 76 8 208 75 8 208 75 8
208 75 10 208 74 12 194 58 0 194 58 0 194 58 0 196 57 0 196 57 0
197 56 0 197 56 1 197 56 1 198 57 2 198 57 2 198 57 2 198 57 2
198 57 2 198 57 2 200 56 4 200 56 4 200 56 4 200 56 2 198 57 2
198 57 0 209 70 10 207 72 8 205 72 8 204 73 10 205 74 11 205 74 11
203 75 11 202 76 7 199 77 2 187 82 0 240 167 71 228 170 67 233 170 66
236 168 66 236 168 68 236 168 68 237 169 69 237 169 69 237 169 69
237 169 69 236 170 67 236 170 67 236 170 69 236 170 69 236 170 71
236 170 71 236 170 71 236 169 73 231 170 72 239 163 70 202 94 15
212 88 14 210 83 10 212 83 10 213 81 12 213 81 12 212 82 12 210 83 12
210 83 12 210 83 12 210 83 12 210 83 12 210 83 14 210 83 14 210 83 14
212 82 14 213 81 14 213 81 12 213 83 13 211 88 14 226 111 33
224 114 32 222 115 30 222 115 28 222 115 28 222 115 28 222 115 28
222 115 28 222 115 28 222 115 28 224 127 37 224 127 37 224 127 37
224 127 37 224 127 37 224 127 37 222 128 37 222 128 37 223 129 38
219 127 35 235 146 53 235 146 53 231 144 49 231 144 49 230 145 49
228 146 49 228 146 49 227 147 49 228 148 50 228 148 50 229 147 50
229 147 50 230 148 51 229 149 51 226 151 51 227 150 51 230 148 51
230 148 53 229 146 54 236 146 56 212 105 20 219 103 21 219 101 20
219 101 20 219 101 20 219 100 22 219 100 24 221 99 24 221 99 24
221 99 24 206 78 7 206 78 7 206 78 7 206 78 7 207 77 9 207 77 9
207 77 9 206 76 8 206 76 8 208 78 11 212 82 14 213 83 15 213 83 15
213 83 15 211 84 15 210 85 15 210 85 13 208 86 13 209 87 14 209 87 14
218 95 23 218 95 23 219 96 24 219 96 24 220 95 24 222 95 24 222 95 24
222 95 24 221 93 23 221 93 23 203 76 5 204 77 6 206 76 8 206 76 8
206 76 10 208 75 10 208 75 10 208 75 10 208 74 12 208 74 12 194 58 0
194 58 0 194 58 0 196 57 0 197 56 0 197 56 0 197 56 1 197 56 1
198 57 2 198 57 2 198 57 2 198 57 2 198 57 2 198 57 2 200 56 4
200 56 4 200 56 4 200 56 4 198 57 2 198 58 0 209 71 8 205 72 8
204 73 8 204 73 8 205 74 11 203 75 11 203 75 9 203 76 7 201 76 2
188 81 0 242 166 71 230 169 67 234 169 66 236 168 66 236 168 68
236 168 68 237 169 69 237 169 69 237 169 69 236 170 69 236 170 67
236 170 67 236 170 69 236 170 69 236 170 71 236 170 71 236 169 73
236 169 73 233 169 72 242 161 70 205 93 15 214 87 14 212 83 10
213 82 10 213 81 12 212 82 12 210 83 12 210 83 12 210 83 12 210 83 12
210 83 12 210 83 12 210 83 14 210 83 14 210 83 14 212 82 14 213 81 14
213 81 14 213 83 13 211 88 14 226 111 31 224 114 32 222 115 30
220 116 28 220 116 28 220 116 28 220 116 28 220 116 28 220 116 28
220 116 28 222 128 37 222 128 37 222 128 37 222 128 37 222 128 37
222 128 37 222 128 37 221 128 37 221 128 37 218 126 34 234 144 52
234 144 52 230 143 47 230 143 47 230 143 47 229 144 47 230 145 49
228 146 49 229 147 50 229 147 50 228 148 50 228 148 50 229 149 51
227 150 51 224 152 51 226 151 51 229 149 51 229 149 53 226 148 54
235 147 56 212 105 20 220 104 22 218 101 20 218 101 20 218 101 20
218 101 22 218 101 24 219 100 24 219 100 24 221 99 24 206 78 7
207 77 7 207 77 7 207 77 7 207 77 9 207 77 9 207 77 9 206 76 8
207 77 9 208 78 11 212 82 14 213 83 15 213 83 15 213 83 15 211 84 15
211 84 15 211 84 13 210 85 13 209 84 12 209 84 12 220 95 24 220 95 24
220 95 24 220 95 24 220 96 22 220 96 22 220 96 22 220 96 22 219 95 21
219 95 21 202 77 3 203 78 4 206 76 8 208 75 10 208 75 10 208 75 10
209 73 12 209 73 12 209 73 12 209 73 12 194 58 0 194 58 0 194 58 0
196 57 0 197 56 1 197 56 1 197 56 1 197 56 1 198 57 2 198 57 2
198 57 2 198 57 2 198 57 2 198 57 2 200 56 4 200 56 4 203 56 6
201 57 6 200 58 4 200 59 0 209 71 8 205 73 6 204 74 6 202 74 8
203 75 9 203 75 9 203 75 9 205 75 7 202 75 2 190 80 0 242 166 71
230 169 67 233 170 66 234 169 66 234 169 68 234 169 68 236 170 69
236 170 69 236 170 69 236 170 69 236 170 67 236 170 67 236 170 69
236 170 69 236 170 69 236 170 71 236 170 71 236 170 71 233 169 72
242 161 70 207 92 15 217 85 14 213 82 10 213 82 10 213 81 12
212 82 12 210 83 12 210 83 12 210 83 12 210 83 12 210 83 12 210 83 12
210 83 14 210 83 14 210 83 14 212 82 14 213 81 14 213 81 14 213 83 13
211 88 14 226 111 31 224 114 32 222 115 30 220 116 28 220 116 28
220 116 28 220 116 28 220 116 28 220 116 28 220 116 28 222 128 37
222 128 37 222 128 37 222 128 37 222 128 37 222 128 37 221 128 37
221 128 37 221 128 37 218 126 34 234 144 52 234 144 52 229 142 46
229 142 46 230 143 47 230 143 47 230 143 47 229 144 47 229 144 47
227 145 47 228 148 50 226 149 50 226 151 51 224 152 51 222 152 51
222 152 51 226 151 51 227 150 53 225 149 54 233 148 56 210 105 20
220 106 23 216 102 20 218 101 20 218 101 20 218 101 22 218 101 24
218 101 24 218 101 24 219 100 24 206 78 7 207 77 7 207 77 7 207 77 7
207 77 9 207 77 9 207 77 9 206 76 8 207 77 9 208 78 11 211 81 13
212 82 14 212 82 14 212 82 14 212 82 14 212 82 14 212 82 12 209 82 11
209 82 11 209 82 11 222 95 24 222 95 24 222 95 24 222 95 24 222 95 24
222 95 24 222 95 24 222 95 24 221 93 23 221 93 23 203 76 5 204 77 6
208 75 10 209 73 12 209 73 12 209 73 12 209 73 12 209 73 12 209 73 12
209 73 14 194 58 0 194 58 0 194 58 0 196 57 0 197 56 1 197 56 1
197 56 1 197 56 1 198 57 2 198 57 2 198 57 2 198 57 2 198 57 2
200 56 2 200 56 4 200 56 4 204 57 7 204 57 7 202 59 5 199 61 1
207 72 8 205 73 6 204 74 6 202 74 6 202 76 9 203 75 9 205 74 9
205 75 7 204 74 2 191 79 0 242 166 71 228 170 67 231 171 66
231 170 68 231 170 68 231 170 68 232 172 69 234 171 69 234 171 69
234 171 69 233 170 66 234 169 66 234 169 68 234 169 68 233 168 67
233 168 67 233 167 69 233 167 69 231 167 70 239 159 67 206 89 12
216 82 11 213 79 8 213 79 8 212 80 11 211 81 11 209 82 11 209 82 11
209 82 11 209 82 11 209 82 11 208 81 10 209 81 13 209 81 13 208 80 12
210 79 12 215 80 14 215 80 14 213 83 13 212 88 14 226 111 31
222 113 31 221 114 29 219 115 27 219 115 27 219 115 27 219 115 27
219 115 27 219 115 27 219 115 27 228 133 42 228 133 42 228 133 42
228 133 42 228 133 42 228 133 42 226 134 42 225 133 41 225 133 41
226 134 42 228 139 46 228 141 47 229 142 46 228 141 45 229 140 45
229 140 45 229 140 45 229 140 45 229 142 46 227 143 46 245 166 67
242 167 67 240 168 67 237 170 67 236 170 67 237 170 67 240 168 67
240 168 69 236 166 69 242 161 68 216 114 28 219 108 25 221 109 26
222 108 26 222 108 26 222 108 28 222 107 30 222 107 30 222 107 30
224 106 30 204 79 7 207 77 7 207 77 7 207 77 7 207 77 9 207 77 9
207 77 9 207 77 9 207 77 9 208 78 11 211 81 13 211 81 13 212 80 13
212 80 13 213 81 14 212 80 13 212 80 13 210 79 12 210 79 12 208 78 11
205 73 6 204 72 5 203 70 4 203 70 4 205 69 8 205 69 8 205 69 8
205 69 8 205 69 8 205 69 8 198 62 1 198 62 1 198 62 1 199 61 3
199 61 3 199 61 3 199 61 3 199 61 3 200 62 4 200 62 4 200 61 6
200 61 6 202 63 7 202 63 7 203 62 7 203 62 7 203 62 7 203 62 7
204 63 8 204 63 8 204 63 8 204 63 8 206 62 8 206 62 8 208 61 10
208 61 10 205 59 8 205 59 8 204 60 6 200 62 2 220 84 21 218 86 19
217 87 17 215 87 19 215 89 22 216 88 22 218 88 20 218 88 18 217 87 15
204 92 12 255 179 84 241 183 80 242 184 81 242 184 81 242 184 83
242 184 83 244 185 84 245 184 84 245 184 82 245 184 82 230 169 67
232 169 67 232 169 67 232 169 67 232 167 66 232 167 66 232 166 68
232 166 68 229 165 69 238 157 66 205 88 11 215 81 10 212 77 7
212 77 7 211 79 10 210 80 10 210 80 10 210 80 10 211 81 11 210 80 10
210 80 10 208 79 9 208 78 11 208 78 11 208 78 13 210 77 13 210 75 9
210 75 9 208 76 6 202 77 3 228 111 32 222 113 31 221 114 29
219 115 29 219 115 29 219 115 29 219 115 29 219 115 29 219 115 29
219 115 29 228 133 42 228 133 42 228 133 42 228 133 42 228 133 42
228 133 42 226 134 42 225 133 41 225 133 41 225 135 42 227 139 46
228 141 47 228 141 45 227 140 44 228 139 44 228 139 44 233 139 45
233 139 45 229 140 45 226 142 45 244 166 67 240 168 67 237 170 67
236 170 67 234 171 67 234 171 67 237 170 67 239 168 69 235 166 69
240 162 68 213 116 28 219 110 26 219 110 26 221 109 26 221 109 26
221 108 28 221 108 30 221 108 30 221 108 30 222 107 30 204 79 7
207 77 7 207 77 7 207 77 7 207 77 9 207 77 9 207 77 9 207 77 9
207 77 9 208 78 11 210 79 12 210 79 12 211 79 12 211 79 12 212 80 13
211 79 12 211 79 12 210 77 11 210 77 11 210 75 9 207 72 6 207 70 5
206 69 4 206 68 6 206 68 10 208 66 12 208 66 12 208 66 12 208 66 12
208 66 12 201 59 5 199 61 3 199 61 3 199 61 3 199 61 3 199 61 3
199 61 3 199 61 3 200 62 4 200 62 4 200 61 6 200 61 6 202 63 7
202 63 7 203 62 7 203 62 7 203 62 7 203 62 7 204 63 8 204 63 8
204 63 8 204 63 8 206 62 8 206 62 8 208 61 10 208 61 10 206 60 9
205 61 7 203 62 5 202 63 3 220 84 21 218 86 19 217 87 17 215 88 17
216 88 20 216 88 22 218 88 20 218 88 18 217 87 15 204 92 12
255 179 84 241 183 80 241 185 81 239 186 81 239 185 83 239 185 83
242 186 84 242 186 84 242 186 82 244 185 82 229 168 66 231 167 66
231 167 66 231 167 66 231 165 65 231 165 65 231 165 67 231 165 67
228 164 67 237 156 65 204 87 10 214 80 9 210 76 5 209 77 5 208 79 9
208 79 9 208 79 9 208 79 9 210 80 10 208 79 9 208 79 9 207 77 7
207 77 9 207 77 9 207 77 11 209 76 11 210 75 9 210 75 9 208 76 6
202 77 3 228 111 32 221 112 30 220 113 28 218 114 28 218 114 28
218 114 28 218 114 28 218 114 28 218 114 28 218 114 28 226 134 42
226 134 42 226 134 42 226 134 42 226 134 42 226 134 42 226 134 42
224 134 41 224 134 41 225 135 42 227 139 46 228 141 47 228 141 45
227 140 44 227 140 44 230 138 44 234 138 45 236 137 45 231 139 45
226 142 45 244 166 67 239 169 67 234 171 67 232 172 67 231 173 67
232 172 67 236 170 67 236 170 69 233 167 69 239 163 68 212 117 28
217 112 27 217 110 26 219 110 26 219 110 26 219 109 28 219 109 30
219 109 30 219 109 30 222 107 30 204 79 7 207 77 9 207 77 9 207 77 9
207 77 9 207 77 9 207 77 9 207 77 9 208 78 11 208 78 11 210 79 12
210 79 12 211 78 14 211 78 14 212 79 15 211 78 14 213 77 14 212 76 13
210 75 11 211 73 10 209 71 8 209 69 7 208 68 6 206 68 6 206 68 8
206 68 10 206 68 10 206 68 10 206 68 10 206 68 10 199 61 3 199 61 3
199 61 3 201 59 5 201 59 5 201 59 5 201 59 5 201 59 5 202 61 6
202 61 6 200 61 6 200 61 6 202 63 7 202 63 7 203 62 7 203 62 7
202 63 7 202 63 7 203 64 8 203 64 8 203 64 6 204 63 6 206 63 6
206 62 8 208 61 8 208 61 8 206 62 8 206 62 8 204 63 6 203 65 4
220 84 21 218 86 19 217 87 17 215 88 17 216 88 20 218 88 20 218 88 20
218 88 18 217 87 15 204 92 12 255 179 84 240 184 80 239 186 81
238 187 81 238 186 83 238 186 83 239 187 84 239 187 84 239 188 82
240 187 82 229 168 66 232 167 66 232 167 66 232 167 66 231 165 65
231 165 65 231 165 67 231 165 67 230 163 67 239 155 65 202 87 10
212 81 9 209 77 5 207 78 5 208 79 9 207 79 9 208 79 9 208 79 9
210 80 10 208 79 9 208 79 9 207 77 7 207 77 9 207 77 9 207 77 9
209 76 9 210 75 9 210 75 9 208 76 6 202 77 3 228 111 32 221 112 30
220 113 28 218 114 28 218 114 28 218 114 28 218 114 28 218 114 28
218 114 28 218 114 28 226 134 42 226 134 42 226 134 42 226 134 42
226 134 42 226 134 42 225 135 42 224 134 41 224 134 41 225 135 42
227 139 46 228 141 47 228 141 45 227 140 44 227 140 44 228 139 44
234 138 45 234 138 45 231 139 45 226 142 45 244 166 67 239 169 67
236 170 67 232 172 67 231 173 67 232 172 67 236 170 67 237 169 69
233 167 69 239 163 68 212 117 28 217 112 27 217 110 26 217 110 26
217 110 26 217 110 26 217 110 28 217 110 30 217 110 30 221 108 30
204 79 7 209 76 9 209 76 9 209 76 9 209 76 9 207 77 9 207 77 9
207 77 9 208 78 11 208 78 11 210 79 12 210 79 12 210 79 14 210 79 14
211 80 15 211 78 14 211 78 14 212 76 13 210 75 11 211 73 10 210 70 8
209 68 9 208 67 8 208 67 8 206 68 8 206 68 10 206 68 10 206 68 10
206 68 10 206 68 10 199 61 3 199 61 3 201 59 5 201 59 5 201 59 5
201 59 5 201 59 5 201 59 5 202 61 6 202 61 6 200 61 6 200 61 6
202 63 7 202 63 7 203 62 7 203 62 7 202 63 7 202 63 7 203 64 8
203 64 8 203 64 6 203 64 6 204 63 6 204 63 6 206 63 6 206 62 8
204 63 8 204 63 8 203 64 6 201 65 4 218 85 21 217 86 19 215 88 17
215 88 17 218 88 20 218 88 20 218 88 18 218 88 18 215 88 15 203 93 12
253 180 84 238 185 80 238 187 81 236 187 81 236 187 83 236 187 83
237 188 84 237 188 84 237 189 82 240 187 82 231 167 66 232 167 66
232 167 66 232 167 66 231 165 65 231 165 67 231 165 67 231 165 67
231 163 67 239 155 65 202 87 10 211 81 9 206 79 5 206 79 5 207 79 9
207 79 9 208 79 9 208 79 9 210 80 10 208 79 9 207 77 7 206 76 6
206 76 8 206 76 8 207 77 9 209 76 9 210 75 9 210 76 7 208 76 6
202 77 3 228 111 32 221 112 30 220 113 28 218 114 28 218 114 28
218 114 28 218 114 28 218 114 28 218 114 28 218 114 28 225 135 42
225 135 42 225 135 42 225 135 42 225 135 42 225 135 42 225 135 42
222 135 41 222 135 41 223 136 42 227 139 46 226 141 47 226 141 47
225 140 46 227 139 46 227 139 46 229 140 47 229 140 47 228 141 47
226 141 47 245 165 69 242 167 69 239 168 69 236 170 69 232 172 69
234 171 69 237 169 69 239 168 69 236 166 69 242 161 68 216 114 28
220 111 27 217 110 26 217 110 26 217 110 26 217 110 26 217 110 28
217 110 28 217 110 28 222 107 30 206 78 7 210 75 9 210 75 9 210 75 9
210 75 9 209 76 9 209 76 9 209 76 9 208 78 11 208 78 11 207 79 11
207 79 11 208 80 14 208 80 14 208 80 14 208 80 14 210 79 16 211 78 16
212 76 15 212 74 13 211 71 11 210 69 12 211 67 11 211 67 11 209 68 11
209 68 13 209 68 13 209 68 13 209 68 13 209 68 13 202 61 6 202 61 6
201 59 5 201 59 5 201 59 5 201 59 5 201 59 5 201 59 5 202 61 6
202 61 6 202 63 7 202 63 7 203 64 8 203 64 8 203 64 8 203 64 8
203 64 6 203 64 6 203 64 6 203 64 6 201 65 6 201 65 6 201 65 4
201 65 4 201 65 4 201 65 6 203 64 6 203 64 6 201 65 6 201 65 4
218 85 21 217 86 19 215 88 17 215 88 17 218 88 18 219 87 18 219 87 18
218 88 18 213 89 15 198 95 12 248 182 84 233 187 82 236 187 83
238 186 83 238 186 83 238 186 83 239 187 84 239 187 84 239 187 84
242 186 84 231 167 66 234 166 66 234 165 68 234 165 68 234 165 68
234 165 68 234 165 70 234 165 70 234 163 69 243 155 66 203 89 11
210 83 10 205 81 7 204 81 7 205 80 9 207 79 9 210 80 10 211 79 10
211 79 10 209 77 7 209 77 7 208 76 6 208 76 6 208 76 6 206 76 8
208 75 8 209 75 6 209 75 6 207 74 5 201 76 2 227 110 31 220 110 29
220 112 30 220 112 30 220 113 28 220 113 28 220 113 28 220 113 28
220 113 28 220 113 28 226 134 42 226 134 42 226 134 42 226 134 42
226 134 42 226 134 42 225 135 42 224 134 41 224 134 41 225 135 42
227 139 46 228 141 47 228 141 47 227 139 46 227 139 46 227 139 46
228 141 47 226 141 47 226 141 47 225 142 47 244 166 69 242 167 69
239 168 69 236 170 69 234 171 69 234 171 69 237 169 69 239 168 69
236 166 69 242 161 68 215 115 28 220 111 27 219 110 26 219 110 26
219 110 26 219 110 26 219 109 28 219 109 28 219 109 28 222 107 30
207 77 7 210 75 9 210 75 9 210 75 9 210 75 9 209 76 9 209 76 9
209 76 9 208 78 11 208 78 11 208 78 11 208 78 11 210 79 14 208 80 14
208 80 14 208 80 14 210 79 16 211 78 16 210 77 15 210 75 13 210 71 13
209 70 12 209 68 11 209 68 11 209 68 13 209 68 13 209 68 13 209 68 13
209 68 13 209 68 13 202 61 6 202 61 6 201 59 5 201 59 5 201 59 5
201 59 5 201 59 5 201 59 5 202 61 6 202 61 6 202 63 7 202 63 7
203 64 8 203 64 8 203 64 8 203 64 8 203 64 6 203 64 6 203 64 6
203 64 6 201 65 6 201 65 6 200 66 4 200 66 4 200 66 4 200 66 4
200 66 4 201 65 4 201 65 4 200 67 2 217 86 21 217 86 19 215 87 19
215 88 17 216 89 18 218 88 18 218 88 18 215 90 16 210 91 13 195 97 12
245 184 84 232 187 82 236 187 83 238 186 83 238 186 83 238 186 83
239 187 84 239 187 84 239 187 84 242 186 84 231 167 66 234 166 66
234 165 68 234 165 68 234 165 68 234 165 68 234 165 70 235 164 70
237 161 69 245 154 68 203 89 11 210 83 10 204 81 7 204 81 9 205 80 9
207 79 9 210 80 10 211 79 10 211 79 10 209 77 7 208 76 6 207 74 5
207 74 5 207 74 5 206 76 8 208 75 8 209 75 6 209 75 6 207 74 5
201 76 4 227 110 33 220 110 29 220 112 30 218 113 30 218 114 28
218 114 28 218 114 28 218 114 28 218 114 28 218 114 28 228 133 42
228 133 42 228 133 42 228 133 42 228 133 42 228 133 42 228 133 42
225 133 41 225 133 41 226 134 42 230 138 46 229 140 47 229 140 47
228 139 46 228 139 46 227 139 46 228 141 47 226 141 47 223 143 47
221 144 47 242 167 69 239 168 69 237 169 69 234 171 69 232 172 69
234 171 69 237 169 69 237 169 69 233 167 69 239 163 68 212 117 28
217 112 27 219 110 26 221 109 26 221 109 26 221 109 26 221 108 28
221 108 30 221 108 30 224 106 30 206 79 5 209 77 7 209 77 7 209 77 7
209 77 7 207 77 7 207 77 7 207 77 7 210 78 9 210 78 9 210 78 9
210 77 11 211 79 12 210 79 12 210 79 12 211 78 14 211 78 14 211 78 14
210 77 13 209 75 13 207 73 11 204 73 10 203 72 9 204 70 11 206 70 11
207 69 11 207 69 11 207 69 11 207 69 11 207 69 11 200 62 4 200 62 4
201 59 5 201 59 5 201 59 5 201 59 5 201 59 5 201 59 5 202 61 6
202 61 6 202 63 7 202 63 7 203 64 8 203 64 8 203 64 8 203 64 8
201 65 6 201 65 6 201 65 6 201 65 6 201 65 4 200 66 4 200 66 4
200 66 4 200 66 4 200 66 4 200 66 4 200 67 2 200 67 2 200 67 2
217 86 21 217 86 21 217 86 19 215 87 19 213 90 18 213 90 18 213 91 16
211 92 16 207 92 13 193 98 12 244 184 86 230 188 84 234 188 83
236 187 83 236 187 83 236 187 83 237 188 84 237 188 84 237 188 84
240 187 84 231 167 66 232 167 66 232 167 66 232 166 68 232 166 68
232 166 70 232 166 70 235 164 70 239 160 71 248 152 68 207 87 13
212 82 12 205 80 9 204 81 9 207 79 11 208 78 11 211 79 10 211 79 10
211 79 12 209 76 9 208 76 6 208 76 6 208 76 6 208 76 6 206 76 6
208 76 6 209 75 6 209 75 6 207 74 5 201 76 4 227 110 33 220 110 29
218 113 30 216 114 30 216 114 28 216 114 28 216 114 28 216 114 28
216 114 28 216 114 28 230 133 42 230 133 42 230 133 42 230 133 42
230 133 42 230 133 42 228 133 42 227 132 41 227 132 41 228 133 42
230 138 46 231 139 47 231 139 47 230 138 46 228 139 46 227 139 46
226 141 47 225 142 47 223 143 47 220 145 47 240 168 69 237 169 69
236 170 69 234 171 69 234 171 69 236 170 69 237 169 69 237 169 69
232 168 69 235 165 68 207 119 28 214 114 27 219 110 26 222 108 26
222 108 26 222 108 28 222 108 28 222 107 30 222 107 30 224 106 30
206 79 5 207 78 5 207 78 5 207 78 5 207 78 5 207 77 7 207 77 7
209 77 7 210 78 9 210 78 9 210 78 9 210 78 9 211 79 10 211 79 12
211 79 12 211 79 12 211 79 12 211 78 14 210 77 13 209 76 11 205 74 9
204 73 10 201 72 9 203 72 9 206 70 9 207 69 11 207 69 11 207 69 11
207 69 11 207 69 11 200 62 4 200 62 4 201 59 5 201 59 5 201 59 5
201 59 5 201 59 5 201 59 5 202 61 6 202 61 6 202 63 7 202 63 7
203 64 8 203 64 8 203 64 8 203 64 8 201 65 6 201 65 6 201 65 6
201 65 6 200 66 4 200 66 4 200 66 4 200 66 4 200 66 4 200 66 4
198 67 2 198 67 2 200 67 2 200 67 2 217 86 21 217 86 21 217 86 19
215 87 19 211 91 18 210 92 18 210 92 18 210 92 16 209 91 15 195 97 12
247 183 86 233 186 84 236 187 83 236 187 83 236 187 83 236 187 83
237 188 84 237 188 84 237 188 84 240 187 84 231 167 66 232 167 66
232 167 66 232 166 68 232 166 70 232 166 70 232 166 70 237 163 70
242 159 71 251 150 68 208 86 13 213 81 12 208 81 10 208 81 10
210 79 12 211 79 12 212 80 11 212 80 11 212 80 13 210 77 11 209 77 7
208 76 6 208 76 6 208 76 6 206 76 6 208 76 6 209 75 6 209 75 6
208 76 6 201 76 4 227 110 33 220 110 29 218 113 30 216 114 30
216 114 30 216 114 30 216 114 30 216 114 30 216 114 30 216 114 30
227 132 41 227 132 41 227 132 41 227 132 41 227 132 41 227 132 41
227 132 41 225 133 41 226 134 42 229 137 45 232 140 48 232 142 49
232 142 49 231 141 48 229 140 47 228 141 47 226 141 47 225 142 47
220 143 46 219 143 46 236 166 67 235 167 67 232 169 67 232 169 67
233 168 67 235 167 67 236 166 67 235 167 67 238 177 77 238 172 74
201 119 26 209 111 23 218 108 27 223 106 27 223 106 27 223 106 27
223 106 27 223 106 27 223 106 27 224 105 27 204 78 2 208 76 2
208 76 2 208 76 2 208 76 2 209 77 5 210 78 7 211 79 8 213 79 8
214 80 9 214 80 9 213 79 8 213 79 8 212 77 9 210 78 9 210 78 9
210 78 9 208 78 11 208 78 11 209 76 9 209 76 9 208 75 10 209 74 10
209 74 10 205 69 6 205 69 8 205 69 8 205 69 8 205 69 8 205 69 8
199 63 2 200 64 3 198 59 2 200 58 4 200 58 4 200 58 4 200 58 4
200 58 4 201 59 5 201 59 5 200 62 4 199 63 4 200 64 5 200 64 5
200 64 5 200 64 5 201 65 6 200 66 4 200 66 4 200 66 4 201 67 5
199 69 3 199 69 3 199 69 3 199 69 3 199 69 3 199 69 3 199 69 3
199 69 3 199 69 3 214 84 18 214 84 18 214 84 16 213 85 16 209 88 18
207 89 18 209 89 16 211 88 16 213 91 16 201 93 14 255 183 90
240 186 86 239 187 86 239 187 86 239 187 86 238 186 85 238 186 83
237 185 82 237 185 82 240 183 82 232 168 69 235 166 69 235 166 69
235 166 69 235 166 71 235 166 71 235 166 71 240 164 71 242 154 65
253 148 67 206 78 7 214 77 10 210 78 9 210 78 9 212 77 11 213 76 11
214 77 10 213 78 10 213 78 12 212 77 11 212 77 11 210 75 9 209 77 7
209 77 7 207 77 7 209 77 7 210 76 7 210 76 7 208 76 6 203 78 6
219 102 25 215 105 26 219 111 31 217 112 31 217 112 31 217 112 31
217 112 31 217 112 31 217 112 31 217 112 31 233 129 41 233 129 41
233 129 41 233 129 41 233 129 41 232 130 41 232 130 41 230 129 40
230 129 40 231 132 42 235 135 46 236 137 47 236 137 47 233 136 46
232 135 45 232 135 45 230 136 45 229 137 45 226 136 44 223 138 44
243 161 66 240 162 66 239 163 66 239 163 66 243 161 66 245 160 66
245 160 66 242 162 66 241 170 74 239 163 68 208 118 28 211 109 22
218 106 26 223 104 26 223 104 26 221 104 26 221 104 26 221 104 26
221 104 26 223 104 26 204 82 5 205 81 5 205 81 5 205 81 5 205 81 5
204 82 5 204 82 5 202 81 3 204 80 3 204 80 3 206 82 6 206 82 6
206 82 6 204 82 5 204 82 5 202 82 7 199 84 7 199 84 7 199 82 5
201 79 6 202 75 4 203 72 5 205 70 4 205 70 4 203 70 6 203 70 6
203 70 6 203 70 6 203 70 6 203 70 6 195 62 0 195 60 0 200 62 4
202 61 6 202 61 6 202 61 6 202 61 6 202 61 6 202 61 6 202 61 6
202 63 5 200 64 5 200 64 5 200 64 5 200 64 5 200 64 5 200 66 4
200 66 4 200 66 4 200 66 4 199 69 3 199 69 3 199 69 3 199 69 3
199 69 3 199 69 3 199 69 3 199 69 3 199 69 3 199 69 3 219 88 23
219 88 23 219 89 21 217 90 21 215 92 22 215 92 22 217 92 20 220 90 20
219 88 16 214 97 21 255 178 88 255 187 92 249 180 85 247 181 85
247 181 85 246 180 84 246 180 82 245 179 81 245 179 81 248 177 81
242 161 68 245 160 68 245 160 68 245 160 68 245 159 70 245 159 70
245 159 70 246 158 70 251 156 70 254 144 65 215 82 13 214 72 6
211 74 6 211 74 6 212 73 8 212 73 8 212 75 7 212 75 7 210 75 9
209 74 8 212 77 11 210 75 9 209 77 7 209 77 7 207 77 7 209 77 7
210 76 7 210 76 7 208 76 6 205 80 9 220 103 26 223 110 32 222 109 31
222 109 31 222 109 31 222 109 31 222 109 31 222 109 31 222 109 31
222 109 31 212 91 9 212 91 9 212 91 9 212 91 9 212 91 9 210 92 9
210 92 9 209 90 8 208 89 6 207 91 8 211 95 11 212 96 12 212 96 12
211 95 11 210 94 10 210 94 10 210 94 10 208 94 10 207 95 10 205 96 10
205 98 11 202 101 12 202 103 13 204 102 13 208 100 13 210 99 13
210 99 13 205 101 13 198 103 14 200 103 15 204 94 11 211 94 13
214 94 16 215 94 16 215 94 16 214 94 16 214 94 16 214 94 16 214 95 14
212 96 14 232 122 39 230 123 39 230 123 39 230 123 39 230 123 39
229 124 39 229 124 39 229 124 39 228 126 40 233 131 44 239 136 50
242 140 54 242 140 54 239 140 53 239 140 53 236 141 53 231 143 55
231 143 55 236 141 55 241 138 55 204 92 14 211 88 16 215 86 16
217 84 18 213 81 14 212 82 14 212 82 14 212 82 14 213 83 15 211 81 13
200 70 2 198 65 1 203 64 6 204 63 8 204 63 8 204 63 8 204 63 8
204 63 8 204 63 8 204 63 8 214 76 18 213 77 18 213 77 18 213 77 18
213 77 18 213 77 18 212 79 17 212 79 17 212 79 17 212 79 17 212 81 16
212 81 16 212 81 16 212 81 16 212 81 16 212 81 16 212 81 16 212 81 16
211 80 15 208 78 13 206 76 10 204 73 8 203 72 5 203 72 5 202 74 6
204 74 6 209 72 4 212 70 4 211 65 0 200 66 0 214 112 28 202 111 23
207 112 26 209 111 26 209 111 26 207 110 24 207 110 22 206 109 21
206 109 21 209 107 21 203 91 8 206 90 8 206 90 8 206 90 8 206 89 10
206 89 10 206 89 10 203 91 10 199 95 12 204 92 14 203 66 0 209 64 1
205 66 0 205 66 0 209 64 1 207 65 1 207 67 0 205 68 0 206 71 5
206 70 7 209 74 8 210 75 9 210 78 9 210 78 9 207 77 7 209 77 7
212 77 9 212 77 9 210 78 9 203 78 6 200 83 7 200 85 8 203 85 9
204 85 9 204 85 9 204 85 9 204 85 9 204 85 9 204 85 9 204 85 9
217 88 11 217 88 11 217 88 11 217 88 11 217 88 11 217 88 11 215 89 11
215 89 11 209 83 5 211 85 7 213 90 11 215 91 12 215 91 12 213 90 11
214 88 10 214 88 10 214 88 10 212 88 10 212 88 10 212 90 11 211 92 12
211 94 13 210 96 14 212 96 14 215 94 14 217 93 14 217 93 14 212 94 13
207 95 12 204 92 12 214 92 15 213 89 13 213 91 14 213 91 14 213 91 14
213 91 14 211 92 14 211 92 14 211 92 12 208 94 12 232 126 41
228 128 41 228 128 39 226 129 39 226 129 39 226 129 39 224 130 39
224 130 39 215 123 31 221 128 37 228 139 46 234 144 52 232 142 51
232 142 49 230 143 49 227 145 49 221 148 49 221 148 49 225 145 49
233 141 51 198 90 8 206 86 10 210 83 12 212 82 12 211 81 13 211 81 13
209 82 11 209 82 11 213 83 15 208 78 11 198 65 1 195 60 0 204 65 7
205 64 9 205 64 9 205 64 9 205 64 9 205 64 9 205 64 9 204 65 7
212 75 17 212 75 17 212 75 17 212 75 17 212 75 17 212 75 17 211 78 16
211 78 16 211 78 16 211 78 16 211 80 15 211 80 15 211 80 15 211 80 15
211 80 15 211 80 15 211 80 15 211 80 15 211 80 15 210 79 14 208 78 13
207 77 11 207 77 9 207 77 9 210 77 11 212 77 11 216 74 11 220 73 9
213 64 0 210 71 2 219 107 27 216 114 30 218 108 27 219 107 27
219 107 27 218 106 26 218 106 23 217 105 22 217 105 22 220 104 22
214 88 10 217 86 10 217 86 10 217 86 10 217 86 12 217 86 12 217 86 12
215 90 14 209 97 16 206 89 12 210 73 5 210 65 2 206 63 2 207 64 3
209 64 3 207 64 3 207 66 4 205 67 4 207 70 7 205 69 6 209 74 8
210 75 9 210 78 9 210 78 9 207 77 7 209 77 7 212 77 9 212 77 9
210 78 9 207 79 9 211 92 16 208 88 12 208 83 9 208 83 9 208 83 9
208 83 9 208 83 9 208 83 9 208 83 9 208 83 9 213 85 14 213 85 14
213 85 14 213 85 14 213 85 14 213 85 14 213 85 14 213 86 12 210 85 11
210 86 9 213 89 13 215 90 14 215 90 14 213 89 13 213 89 13 213 89 13
213 89 15 212 90 15 212 90 15 212 90 15 214 92 17 212 93 17 212 93 17
212 93 17 214 92 17 214 92 17 214 92 17 214 92 17 212 93 17 212 93 17
214 92 17 214 92 15 213 91 14 213 91 14 213 91 14 213 91 14 211 92 14
211 92 14 210 93 12 208 94 12 233 124 40 230 125 40 227 127 38
227 127 38 225 128 38 225 128 38 223 129 38 221 127 35 219 127 35
223 131 39 231 141 48 235 146 53 235 146 53 234 144 52 233 146 50
229 147 50 223 149 49 222 149 49 225 148 49 233 143 51 200 91 9
208 86 11 211 84 13 211 84 13 209 82 11 209 82 11 208 83 9 208 83 9
209 82 11 212 82 14 200 64 3 203 64 6 204 63 8 204 63 8 203 64 6
203 64 6 203 64 6 203 64 6 203 64 6 201 65 6 214 78 19 214 78 19
212 79 17 212 79 17 212 79 17 212 79 17 213 80 18 212 81 16 212 81 16
212 81 16 214 84 18 214 84 18 214 84 18 214 84 18 215 85 20 215 85 20
213 85 16 213 85 16 213 85 16 213 85 16 202 74 6 202 74 6 202 74 8
204 73 8 205 72 8 209 71 8 210 70 6 212 70 4 211 69 1 205 74 2
221 101 23 217 105 24 216 104 23 216 104 23 216 104 23 216 104 23
216 104 23 216 104 23 216 104 23 219 102 23 213 89 13 217 88 13
217 88 13 217 88 13 217 88 13 217 88 13 217 88 13 213 89 13 210 91 13
209 87 12 200 65 0 205 62 3 205 61 5 205 61 5 203 63 3 203 63 3
204 63 6 204 63 6 203 65 4 203 68 4 210 75 9 209 76 9 210 78 9
208 79 9 210 78 9 210 78 9 212 77 9 212 77 9 211 79 10 210 80 10
209 82 11 209 82 11 209 82 11 209 82 11 209 82 9 209 82 9 209 82 9
209 82 9 209 82 9 209 82 9 213 85 16 213 85 16 213 85 16 213 85 16
213 85 16 213 85 16 213 85 16 213 85 16 210 85 13 210 85 11 213 89 15
215 90 16 215 90 16 213 89 15 213 89 15 213 89 15 212 89 17 212 89 17
212 89 17 212 89 17 214 92 19 214 92 19 214 92 19 214 92 19 214 92 19
214 92 19 214 92 19 214 92 19 214 92 17 214 92 17 214 92 17 214 92 17
214 92 15 214 92 15 214 92 15 214 92 15 212 93 15 212 93 15 211 94 13
209 95 13 233 124 40 230 125 40 228 126 38 227 127 38 225 128 38
225 128 38 223 129 38 221 127 35 219 127 35 223 131 39 231 141 48
235 146 53 235 146 53 234 144 52 233 146 50 231 147 48 225 148 47
222 150 47 223 149 49 231 144 51 202 90 7 210 85 11 211 84 13
211 84 13 209 82 11 209 82 11 208 83 9 208 83 9 209 82 11 212 82 14
202 63 5 204 63 8 204 63 8 204 63 8 203 64 6 203 64 6 203 64 6
203 64 6 201 65 4 201 65 4 214 78 19 214 78 19 212 79 17 212 79 17
212 79 17 212 79 17 212 81 16 212 81 16 212 81 16 212 81 16 214 84 18
214 84 18 214 84 18 214 84 18 215 85 20 215 85 20 213 85 16 213 85 16
213 85 16 213 85 16 202 74 6 202 74 6 202 74 8 204 73 8 205 72 8
209 71 8 210 70 6 210 70 6 207 70 3 204 74 2 222 100 23 220 103 24
217 103 23 216 104 23 216 104 23 216 104 23 216 104 23 216 104 23
216 104 23 219 102 23 213 89 13 215 88 13 215 88 13 215 88 13
215 88 13 215 88 13 215 88 13 213 89 13 212 90 13 211 86 12 198 66 0
203 63 3 205 61 9 205 61 9 203 63 3 202 63 3 204 63 8 204 63 8
203 65 4 204 66 3 210 75 9 209 76 9 208 79 9 208 79 9 210 78 9
210 78 9 212 77 9 213 78 10 211 79 10 211 79 10 211 81 11 211 81 11
211 81 11 211 81 11 209 82 9 209 82 9 209 82 9 209 82 9 209 82 9
209 82 9 213 85 16 213 85 16 213 85 16 213 85 16 213 85 16 213 85 16
213 85 16 213 85 16 210 85 13 210 85 11 213 89 15 215 90 16 215 90 16
213 89 15 213 89 15 213 89 15 212 89 17 212 89 17 212 89 17 212 89 17
214 92 19 214 92 19 214 92 19 214 92 19 214 92 19 214 92 19 214 92 19
214 92 19 214 92 17 214 92 17 214 92 17 214 92 17 214 92 15 214 92 15
214 92 15 214 92 15 212 93 15 212 93 15 211 94 13 208 96 13
233 124 40 230 125 40 228 126 38 227 127 38 225 128 38 225 128 38
223 129 38 221 127 35 219 127 35 223 131 39 231 141 48 235 146 53
235 146 53 234 144 52 233 146 50 231 147 48 225 149 45 222 150 47
223 149 47 231 144 49 202 90 7 210 85 11 211 84 13 211 84 15
209 82 11 209 82 11 208 83 9 208 83 9 209 82 11 212 82 14 202 63 5
204 63 8 204 63 8 204 63 8 203 64 6 203 64 6 203 64 6 203 64 6
201 65 4 201 65 4 214 78 19 214 78 19 212 79 17 212 79 17 212 79 17
212 79 17 212 81 16 212 81 16 212 81 16 212 81 16 214 84 18 214 84 18
214 84 18 214 84 18 215 85 20 215 85 20 213 85 16 213 85 16 213 85 16
213 85 16 202 74 6 202 74 6 202 74 8 204 73 8 205 72 8 209 71 8
210 70 6 210 70 6 207 70 3 204 74 2 222 100 23 220 103 24 217 103 23
216 104 23 216 104 23 216 104 23 216 104 23 216 104 23 216 104 23
219 102 23 213 89 13 215 88 13 215 88 13 215 88 13 215 88 13
215 88 13 215 88 13 213 89 13 212 90 13 211 86 12 198 65 1 203 62 5
205 61 9 205 61 9 203 62 5 202 63 5 204 63 8 204 63 8 203 64 6
204 66 3 212 77 11 210 77 11 208 79 9 208 79 9 210 78 9 210 78 9
213 78 10 213 78 10 211 79 10 211 79 10 211 81 11 211 81 11 211 81 11
211 81 11 209 82 9 209 82 9 209 82 9 209 82 9 209 82 9 209 82 9
213 85 16 213 85 16 213 85 16 213 85 16 213 85 16 213 85 16 213 85 16
213 85 16 210 85 13 210 85 11 213 89 15 215 90 16 215 90 16 213 89 15
213 89 15 213 89 15 212 89 17 212 89 17 212 89 17 212 89 17 214 92 19
214 92 19 214 92 19 214 92 19 214 92 19 214 92 19 214 92 19 214 92 19
214 92 17 214 92 17 214 92 17 214 92 17 214 92 15 214 92 15 214 92 15
214 92 15 212 93 15 212 93 15 211 94 13 208 96 13 233 124 40
230 125 40 228 126 38 227 127 38 225 128 38 225 128 38 223 129 38
221 127 35 219 127 35 223 131 39 231 141 48 235 146 53 235 146 53
234 144 52 233 146 50 229 148 48 223 149 45 222 150 45 223 149 47
231 144 49 201 89 6 210 83 10 210 83 12 210 83 14 209 82 11 209 82 11
208 83 9 208 83 9 209 82 11 212 82 14 202 63 5 204 63 8 204 63 8
204 63 8 203 64 6 203 64 6 203 64 6 203 64 6 201 65 4 201 65 4
214 78 19 214 78 19 212 79 17 212 79 17 212 79 17 212 79 17 212 81 16
212 81 16 212 81 16 212 81 16 214 84 18 214 84 18 214 84 18 214 84 18
215 85 20 215 85 20 213 85 16 213 85 16 213 85 16 213 85 16 202 74 6
202 74 6 202 74 8 204 73 8 205 72 8 209 71 8 210 70 8 210 70 6
207 70 3 204 74 2 222 100 23 220 103 24 217 103 23 216 104 23
216 104 23 216 104 23 216 104 23 216 104 23 216 104 23 219 102 23
213 89 13 215 88 13 215 88 13 215 88 13 215 88 13 215 88 13 215 88 13
213 89 13 212 90 13 211 86 12 198 65 1 203 62 5 205 61 9 205 61 9
203 62 5 202 63 5 204 63 8 204 63 8 203 64 6 203 65 4 212 76 13
210 77 11 208 79 9 208 79 9 210 78 9 210 78 9 213 78 10 213 78 10
211 79 10 211 79 10 211 81 11 211 81 11 211 81 11 211 81 11 209 82 9
209 82 9 209 82 9 209 82 9 209 82 9 209 82 9 213 85 16 213 85 16
213 85 16 213 85 16 213 85 16 213 85 16 213 85 16 213 85 16 210 85 13
211 86 12 213 89 15 215 90 16 215 90 16 213 89 15 213 89 15 213 89 15
212 89 17 212 89 17 212 89 17 212 89 17 214 92 19 214 92 19 214 92 19
214 92 19 214 92 19 214 92 19 214 92 19 214 92 19 214 92 17 214 92 17
214 92 17 214 92 17 214 92 17 214 92 17 214 92 17 214 92 17 212 93 15
212 93 15 211 94 13 209 95 13 233 124 40 230 125 40 228 126 38
227 127 38 225 128 38 223 129 38 223 129 38 219 127 35 219 127 35
223 131 39 231 141 48 234 146 53 235 146 53 234 144 52 233 146 50
229 148 48 225 150 46 223 151 46 225 150 48 233 146 50 202 88 6
210 83 10 212 82 12 212 82 14 209 82 11 209 82 11 208 83 9 208 83 9
209 82 11 212 82 14 202 63 5 204 63 8 204 63 8 204 63 8 203 64 6
203 64 6 203 64 6 203 64 6 201 65 4 201 65 4 212 79 17 212 79 17
212 79 17 211 80 15 211 80 15 211 80 15 212 81 16 210 83 14 210 83 14
210 83 14 213 85 16 213 85 16 213 85 16 213 85 16 214 86 18 214 86 18
213 85 16 213 85 16 213 85 16 213 85 16 202 74 6 202 74 6 202 74 8
204 73 8 205 72 10 209 70 10 210 70 8 210 70 6 207 70 3 204 74 2
222 100 23 220 103 24 217 103 23 216 104 23 216 104 23 216 104 23
216 104 23 216 104 23 216 103 25 219 102 25 213 89 13 215 88 13
215 88 13 215 88 13 215 88 13 215 88 13 215 88 13 213 89 13 212 90 11
211 86 12 198 65 1 203 62 5 205 61 9 205 61 9 203 62 5 202 63 5
204 63 8 204 63 8 203 64 6 203 65 4 212 76 13 210 77 11 208 79 9
208 79 9 208 79 9 210 78 9 210 78 9 210 78 9 211 79 10 211 79 10
210 80 10 210 80 10 211 81 11 211 81 11 209 82 11 209 82 11 209 82 11
209 82 11 209 82 11 209 82 11 213 85 16 213 85 16 213 85 16 213 85 16
213 85 16 213 85 16 213 85 16 213 85 16 210 85 13 211 86 12 213 89 15
215 90 16 215 90 16 213 89 15 213 89 15 213 89 15 212 89 17 212 89 17
212 89 17 212 89 17 214 92 19 214 92 19 214 92 19 214 92 19 214 92 19
214 92 19 214 92 19 214 92 19 214 92 17 214 92 17 214 92 17 214 92 17
214 92 17 214 92 17 214 92 17 214 92 17 212 93 15 212 93 15 211 94 13
209 95 13 233 124 40 230 125 40 228 126 38 227 127 38 223 129 38
222 130 38 222 130 38 219 127 35 219 127 35 221 132 39 229 142 48
234 146 53 234 146 53 234 144 52 233 146 50 229 148 48 225 150 46
221 152 46 223 151 48 233 146 50 201 87 5 209 82 9 211 81 11
211 81 13 209 82 11 209 82 11 208 83 9 208 83 9 209 82 11 212 82 14
202 63 5 204 63 8 204 63 8 204 63 8 203 64 6 203 64 6 203 64 6
203 64 6 201 65 4 201 65 4 212 79 17 212 79 17 211 80 15 211 80 15
211 80 15 211 80 15 210 83 14 210 83 14 210 83 14 210 83 14 213 85 16
213 85 16 213 85 16 213 85 16 214 86 18 214 86 18 213 85 16 213 85 16
213 85 16 213 85 16 202 74 6 202 74 6 202 74 8 204 73 8 205 72 10
209 70 10 210 70 8 210 70 8 207 70 5 205 73 4 224 99 25 220 103 24
217 103 23 216 104 23 216 104 23 216 104 23 216 104 23 216 104 23
216 103 25 219 102 25 213 89 13 215 88 13 215 88 13 215 88 13
215 88 13 215 88 13 215 88 13 213 89 13 212 90 11 211 86 12 198 65 1
203 62 5 205 61 9 205 61 9 203 62 5 203 62 5 206 62 8 206 62 8
204 63 6 203 65 4 212 76 13 210 77 13 208 78 11 208 79 9 208 79 9
208 79 9 210 78 9 210 78 9 211 79 10 211 79 10 210 80 10 210 80 10
211 81 11 211 81 11 209 82 11 209 82 11 209 82 11 209 82 11 209 82 11
209 82 11 213 85 16 213 85 16 213 85 16 213 85 16 213 85 16 213 85 16
213 85 16 213 85 16 210 85 13 211 86 12 213 89 15 215 90 16 215 90 16
213 89 15 213 89 15 213 89 15 212 89 17 212 89 17 212 89 17 212 89 17
214 92 19 214 92 19 214 92 19 214 92 19 214 92 19 214 92 19 214 92 19
214 92 19 214 92 17 214 92 17 214 92 17 214 92 17 214 92 17 214 92 17
214 92 17 214 92 17 212 93 15 212 93 15 211 94 13 209 95 13
233 124 40 230 125 40 228 126 38 227 127 38 223 129 38 220 130 38
220 130 38 218 128 35 218 128 35 222 135 41 227 143 48 232 147 53
234 146 53 233 145 52 233 146 50 229 148 48 223 151 46 221 152 46
223 151 48 233 146 50 202 88 6 210 83 10 212 82 12 212 82 14
209 82 11 209 82 11 208 83 9 208 83 9 209 82 11 212 82 14 202 63 5
204 63 8 204 63 8 204 63 8 203 64 6 203 64 6 203 64 6 203 64 6
201 65 4 201 65 4 212 79 17 212 79 17 211 80 15 211 80 15 211 80 15
211 80 15 210 83 14 210 83 14 209 84 12 209 84 12 211 86 14 211 86 14
211 86 14 211 86 14 212 87 16 212 87 16 213 85 14 213 85 14 213 85 14
213 85 14 202 75 4 202 74 6 202 74 8 204 73 8 205 72 10 209 70 10
210 70 8 210 70 8 207 70 5 205 73 4 224 99 25 220 103 24 217 103 23
216 104 23 216 103 25 216 103 25 216 103 25 216 103 25 216 103 25
219 102 25 213 89 13 215 88 13 215 88 13 215 88 13 215 88 13
215 88 13 215 88 13 213 89 13 212 90 11 211 86 12 198 65 1 203 62 5
205 61 9 205 61 9 203 62 5 203 62 5 206 62 8 206 62 8 204 63 6
203 65 4 213 77 14 210 77 13 208 78 11 208 79 9 207 79 9 208 79 9
210 78 9 210 78 9 211 81 11 210 80 10 210 80 10 210 80 10 211 81 11
211 81 11 209 82 9 209 82 9 209 82 9 209 82 9 209 82 9 209 82 9
211 86 14 211 86 14 211 86 14 211 86 14 211 86 14 211 86 14 211 86 14
211 86 14 210 85 11 211 86 12 213 89 15 215 90 16 215 90 16 213 89 15
213 89 15 213 89 15 213 88 17 213 88 17 213 88 17 213 88 17 216 91 19
216 91 19 216 91 19 216 91 19 216 91 19 216 91 19 216 91 19 214 92 19
214 92 17 214 92 17 214 92 17 214 92 17 214 92 17 214 92 17 214 92 17
214 92 17 214 92 15 212 93 15 212 94 13 208 96 13 230 125 40
227 127 40 225 128 38 223 129 38 220 130 38 220 130 38 220 130 38
216 129 35 216 129 35 222 137 42 226 143 48 229 149 53 229 149 53
228 148 52 228 148 50 226 149 48 221 152 46 220 153 46 221 152 48
233 146 50 202 88 6 212 83 10 213 81 12 213 81 14 211 81 11 209 82 11
208 83 9 208 83 9 209 82 11 212 82 14 202 63 5 204 63 8 204 63 8
204 63 8 203 64 6 203 64 6 203 64 6 203 64 6 201 65 4 201 65 4
212 79 17 212 79 17 211 80 15 211 80 15 211 80 15 211 80 15 210 83 14
210 83 14 209 84 12 209 84 12 211 86 14 211 86 14 211 86 14 211 86 14
212 87 16 212 87 16 211 86 14 211 86 14 211 86 14 211 86 14 201 76 4
199 76 4 199 76 6 201 75 6 202 74 6 204 74 6 204 74 6 204 74 4
203 73 1 202 75 2 222 100 23 222 102 24 219 102 23 217 103 23
217 103 25 217 103 25 217 103 25 217 103 25 217 103 25 221 101 25
215 88 17 217 87 17 217 87 17 217 87 17 217 87 17 217 87 17 217 87 17
217 87 17 215 88 15 213 85 14 199 63 2 202 61 6 204 59 8 204 59 8
202 61 6 202 61 6 203 62 7 203 62 7 202 63 5 202 63 5 213 77 16
210 77 13 208 78 11 208 79 9 207 79 9 208 79 9 210 78 9 210 78 9
211 81 11 208 81 10 206 81 10 206 81 10 208 83 11 208 83 11 208 83 9
208 83 9 208 83 9 208 83 9 208 83 9 208 83 9 218 99 23 218 99 23
218 99 23 218 99 23 218 99 23 218 99 23 218 99 23 220 98 23 222 97 23
223 98 24 212 88 14 212 88 14 213 89 15 213 89 15 213 89 15 213 89 15
213 88 17 215 88 17 215 88 17 215 88 17 209 82 11 209 82 11 209 82 11
209 82 11 209 82 11 209 82 11 209 82 11 208 83 11 209 84 10 210 85 11
212 88 14 215 90 16 215 90 16 215 90 16 215 90 16 215 90 16 213 91 14
213 91 14 211 92 12 205 96 12 238 146 56 233 148 56 233 148 54
233 148 54 233 148 54 235 148 54 235 148 54 233 148 54 229 147 52
222 142 46 246 166 70 241 166 68 239 168 69 236 170 69 236 170 67
236 171 65 236 171 63 237 170 63 239 169 65 250 163 67 203 89 7
213 84 11 215 82 13 215 82 15 214 84 14 213 85 14 211 86 12 211 86 12
213 85 14 215 85 18 205 66 9 208 66 12 206 68 10 206 68 10 206 68 10
205 69 8 205 69 8 205 69 8 205 69 8 203 70 6 218 85 21 217 86 21
217 86 21 215 87 19 215 87 19 215 87 19 215 87 19 213 88 17 213 88 17
214 92 17 218 95 21 219 97 22 219 97 22 219 97 22 219 97 22 219 97 22
220 98 23 220 98 23 218 99 23 218 99 23 230 112 36 228 113 36
226 114 36 226 114 34 228 113 34 226 114 34 226 114 34 226 115 32
229 117 34 231 114 33 206 86 8 207 85 8 207 85 8 207 85 8 207 85 10
207 85 10 207 85 10 207 85 10 207 85 10 209 84 12 196 63 0 199 61 1
199 61 1 199 61 1 199 61 1 199 61 1 199 61 1 199 61 1 198 62 1
198 62 1 200 62 4 202 61 6 204 59 8 204 59 8 202 61 6 202 61 6
202 61 6 202 61 6 200 62 4 200 62 4 214 78 17 216 83 18 214 84 16
213 85 14 213 85 14 214 84 14 216 84 14 216 84 14 212 82 12 211 86 14
224 106 30 224 110 32 223 108 31 225 108 31 225 108 31 225 108 31
225 108 31 225 108 31 225 108 31 225 108 31 217 100 21 217 100 21
217 100 21 217 100 21 217 100 21 217 100 21 217 100 21 218 99 21
220 98 23 223 98 24 212 88 14 212 88 14 213 89 15 213 89 15 213 89 15
213 89 15 215 88 17 215 88 17 215 88 17 215 88 17 209 82 11 209 82 11
209 82 11 209 82 11 209 82 11 209 82 11 209 82 11 209 82 11 209 84 10
210 85 11 212 88 14 215 90 16 215 90 16 215 90 16 215 90 16 215 90 16
213 91 14 213 91 14 211 92 12 205 96 12 235 147 56 228 150 56
228 151 54 230 150 54 232 149 54 233 148 54 233 148 54 232 149 54
228 148 52 221 144 47 245 167 70 239 166 68 236 170 69 232 172 69
231 173 67 231 173 65 234 172 63 237 170 63 239 169 65 248 164 67
202 90 7 213 84 11 215 82 15 215 82 15 214 84 14 213 85 14 211 86 12
211 86 12 213 85 14 215 85 18 205 66 9 208 66 12 206 68 10 206 68 10
205 69 8 205 69 8 205 69 8 205 69 8 203 70 6 203 70 6 217 86 21
217 86 21 215 87 19 215 87 19 215 87 19 215 87 19 213 88 17 213 88 17
212 90 15 214 92 17 218 95 21 219 97 22 219 97 22 219 97 22 219 97 22
219 97 22 220 98 23 218 99 23 217 99 23 217 99 23 228 113 36
226 114 34 225 115 32 223 116 32 223 116 32 222 117 32 220 118 30
220 118 30 224 120 32 228 116 33 206 86 8 207 85 8 209 85 8 209 85 8
209 84 10 209 84 10 209 84 10 209 84 10 209 84 10 212 82 14 199 61 3
201 59 5 201 59 5 201 59 5 201 59 5 201 59 5 201 59 5 201 59 5
201 59 5 201 59 5 201 59 5 201 59 5 202 58 7 202 58 7 201 59 5
201 59 5 201 59 5 201 59 5 199 61 3 199 61 3 214 78 17 216 83 18
214 84 16 213 85 14 213 85 14 213 85 14 214 84 14 216 84 14 212 82 12
209 87 14 221 108 30 221 111 32 222 109 31 222 109 31 222 109 31
222 109 31 222 109 31 222 109 31 222 109 31 222 109 31 217 100 21
217 100 21 217 100 21 217 100 21 217 100 21 217 100 21 217 100 21
218 99 21 220 98 23 223 98 24 212 88 14 212 88 14 213 89 15 213 89 15
213 89 15 213 89 15 215 88 17 215 88 17 215 88 17 215 88 17 209 82 11
209 82 11 209 82 11 209 82 11 209 82 11 209 82 11 209 82 11 209 82 11
209 84 10 210 85 11 212 88 14 215 90 16 215 90 16 215 90 16 215 90 16
215 90 16 213 91 14 213 91 14 211 92 12 205 96 12 235 147 56
228 150 56 228 151 54 228 151 54 230 150 54 232 149 54 232 149 54
230 150 54 228 148 52 224 146 49 243 168 70 238 167 68 234 171 69
232 172 69 231 173 67 231 173 65 232 173 63 236 171 63 239 169 65
248 164 69 203 91 10 214 84 14 217 82 16 217 82 16 214 84 14
213 85 14 211 86 12 211 86 12 213 85 14 215 85 18 205 66 9 208 66 12
206 68 10 206 68 10 205 69 8 205 69 8 205 69 8 205 69 8 203 70 6
203 70 6 217 86 21 217 86 21 215 87 19 215 87 19 215 87 19 215 87 19
213 88 17 213 88 17 212 90 15 212 93 15 216 97 19 217 98 20 217 98 20
217 98 20 217 98 20 217 98 20 218 99 21 218 99 21 217 100 21
217 100 21 228 113 34 226 114 34 225 115 32 223 116 32 223 116 32
222 117 32 220 118 32 220 118 32 224 119 34 228 116 33 206 86 8
207 85 8 209 85 8 209 85 8 209 84 10 209 84 10 209 84 10 209 84 10
209 84 10 212 82 14 199 61 3 201 59 5 201 59 5 201 59 5 201 59 5
201 59 5 201 59 5 201 59 5 201 59 5 201 59 5 201 59 5 201 59 5
201 59 5 201 59 5 201 59 5 201 59 5 201 59 5 201 59 5 199 61 3
199 61 3 215 79 18 216 83 18 214 84 16 213 85 14 211 86 14 213 85 14
214 84 14 216 84 14 213 83 13 209 87 14 221 108 30 221 111 32
222 109 31 222 109 31 222 110 29 222 110 29 222 110 29 222 110 29
222 110 29 222 110 29 217 100 21 217 100 21 217 100 21 217 100 21
217 100 21 217 100 21 217 100 21 218 99 21 220 98 23 223 98 24
212 88 14 212 88 14 213 89 15 213 89 15 213 89 15 213 89 15 215 88 17
215 88 17 215 88 17 215 88 17 209 82 11 209 82 11 209 82 11 209 82 11
209 82 11 209 82 11 209 82 11 209 82 11 209 84 10 210 85 11 212 88 14
215 90 16 215 90 16 215 90 16 215 90 16 215 90 16 213 91 14 213 91 14
211 92 12 205 96 12 235 147 56 228 150 56 228 151 54 228 151 54
230 150 54 230 150 54 230 150 54 230 150 54 226 149 52 222 147 49
242 169 70 238 167 68 234 171 69 232 172 69 231 173 67 231 173 65
232 173 63 236 171 65 237 170 67 248 164 69 203 91 10 214 84 14
217 82 16 217 82 18 214 84 16 213 85 14 211 86 12 211 86 12 213 85 14
215 85 18 205 66 9 208 66 12 206 68 10 206 68 10 205 69 8 205 69 8
205 69 8 205 69 8 203 70 6 203 70 6 217 86 21 217 86 21 215 87 19
215 87 19 215 87 19 215 87 19 213 88 17 213 88 17 212 90 15 212 93 15
216 97 19 217 98 20 217 98 20 217 98 20 217 98 20 217 98 20 218 99 21
218 99 21 217 100 21 215 101 21 226 114 34 225 115 34 223 116 32
223 116 32 223 116 32 222 117 32 220 118 32 220 118 32 224 119 34
226 117 33 204 87 8 207 85 8 209 85 8 209 85 8 209 84 10 209 84 10
209 84 10 209 84 10 209 84 10 212 82 14 198 62 1 201 59 5 201 59 5
201 59 5 201 59 5 201 59 5 201 59 5 201 59 5 201 59 5 201 59 5
201 59 5 201 59 5 201 59 5 201 59 5 201 59 5 201 59 5 201 59 5
201 59 5 199 61 3 198 61 3 213 80 18 214 84 18 213 85 16 213 85 14
211 86 14 213 85 14 214 84 14 216 84 14 213 83 13 209 87 14
221 108 30 221 111 32 222 109 31 222 109 31 222 110 29 222 110 29
222 110 29 222 110 29 222 110 29 222 110 29 217 100 19 217 100 19
217 100 19 217 100 19 217 100 19 217 100 19 217 100 19 218 99 21
220 98 21 223 99 22 212 88 12 212 88 12 213 89 13 213 89 13 213 89 13
213 89 15 215 88 15 215 88 15 215 88 15 215 88 15 209 82 9 209 82 9
209 82 9 209 82 9 209 82 11 209 82 11 208 83 11 208 83 11 209 84 10
208 86 11 211 88 14 213 91 16 213 91 16 213 91 16 213 91 16 213 91 16
213 91 14 213 91 14 213 92 12 205 96 12 235 147 56 228 150 56
228 150 56 228 150 56 228 150 56 228 150 56 228 150 56 228 150 56
226 149 52 222 147 49 242 169 70 236 168 68 234 171 69 232 172 69
231 173 67 231 173 65 232 172 65 234 172 65 237 170 67 248 164 69
205 90 10 216 84 14 219 82 16 219 81 18 214 84 16 213 85 14 211 86 12
211 86 12 213 85 14 215 85 18 205 66 9 208 66 12 206 68 10 206 68 10
205 69 8 205 69 8 205 69 8 205 69 8 203 70 6 203 70 6 217 86 21
217 86 21 215 87 19 215 87 19 215 87 19 215 87 19 213 88 17 213 88 17
212 90 15 212 93 15 216 97 19 217 98 20 217 98 20 217 98 20 217 98 20
217 98 20 218 99 21 218 99 21 217 100 21 215 101 21 226 114 34
225 115 34 223 116 32 222 117 32 222 117 32 222 117 32 218 119 32
218 119 32 224 119 34 226 117 33 204 87 8 207 85 8 209 85 8 209 85 8
209 84 10 209 84 10 210 83 12 210 83 12 210 83 12 212 82 14 198 62 1
199 61 3 199 61 3 199 61 3 199 61 3 199 61 3 199 61 3 199 61 3
201 60 3 201 60 3 201 60 3 201 60 3 201 60 3 201 60 3 201 59 5
201 59 5 201 59 5 201 59 5 199 61 3 198 61 3 213 80 18 214 84 18
213 85 16 211 86 14 211 86 12 213 86 12 214 85 12 216 84 12 213 84 11
209 87 12 221 108 30 221 112 30 222 110 29 222 110 29 222 110 29
222 110 27 222 110 27 222 110 27 222 110 27 222 110 27 217 100 19
217 100 19 217 100 19 217 100 19 217 100 19 217 100 19 217 100 19
218 99 19 220 98 21 223 99 22 212 88 12 212 88 12 213 89 13 213 89 13
213 89 13 213 89 13 215 88 15 215 88 15 215 88 15 215 88 15 209 82 9
209 82 9 209 82 9 209 82 9 209 82 11 209 82 11 208 83 11 208 83 11
207 85 10 208 86 11 211 88 14 213 91 16 213 91 16 213 91 16 213 91 16
213 91 16 213 91 14 213 91 14 213 92 12 205 96 12 235 147 56
228 150 56 228 150 56 228 150 56 228 150 56 228 150 56 228 150 56
228 150 56 226 149 52 222 147 49 242 169 70 236 168 68 234 171 69
232 172 69 231 173 67 231 173 65 232 172 65 234 172 65 237 170 67
248 164 69 205 90 10 216 84 14 219 81 18 219 81 18 214 84 16
213 85 14 211 86 12 211 86 12 213 85 14 215 85 18 205 66 9 208 66 12
206 68 10 206 68 10 205 69 8 205 69 8 205 69 8 205 69 8 203 70 6
203 70 6 217 86 21 217 86 21 215 87 19 215 87 19 215 87 19 215 87 19
213 88 17 213 88 17 212 90 15 212 93 15 216 97 19 217 98 20 217 98 20
217 98 20 217 98 20 217 98 20 218 99 21 218 99 21 217 100 21
215 101 21 226 114 34 225 115 34 223 116 32 222 117 32 222 117 32
220 118 32 218 119 32 218 119 32 222 120 34 226 117 33 204 87 8
207 85 8 209 85 8 209 85 8 209 84 10 209 84 10 210 83 12 210 83 12
210 83 12 212 82 14 198 62 1 199 61 3 199 61 3 199 61 3 199 61 3
199 61 3 199 61 3 199 61 3 201 60 3 201 60 3 201 60 3 201 60 3
201 60 3 201 60 3 201 59 5 201 59 5 201 59 5 201 59 5 199 61 3
198 61 3 213 80 18 214 84 18 213 85 16 211 86 14 211 86 12 213 86 12
214 85 12 216 84 12 213 84 11 209 87 12 221 108 28 221 112 30
222 110 29 222 110 29 222 110 27 222 110 27 222 110 27 222 110 27
222 110 27 222 110 27 217 100 19 217 100 19 217 100 19 217 100 19
217 100 19 217 100 19 217 100 19 218 99 19 220 98 21 223 99 22
212 88 12 212 88 12 213 89 13 213 89 13 213 89 13 213 89 13 215 88 15
215 88 15 215 88 15 215 88 15 209 82 9 209 82 9 209 82 9 209 82 9
208 83 11 208 83 11 208 83 11 208 83 11 207 85 10 208 86 11 211 88 14
213 91 16 213 91 16 213 91 16 213 91 16 213 91 16 211 92 14 211 92 14
211 92 12 205 96 12 235 147 56 228 150 56 228 150 56 228 150 56
228 150 56 228 150 56 228 150 56 228 150 56 226 149 52 222 147 49
242 169 70 236 168 68 234 171 69 232 172 69 231 173 67 231 173 65
232 172 65 234 172 65 237 170 67 248 163 71 205 90 12 216 83 16
219 81 18 219 81 18 214 84 16 213 85 14 211 86 12 211 86 12 213 85 14
215 85 18 205 66 9 208 66 12 206 68 10 206 68 10 205 69 8 205 69 8
205 69 8 205 69 8 203 70 6 203 70 6 217 86 21 217 86 21 215 87 19
215 87 19 215 87 19 215 87 19 213 88 17 213 88 17 212 90 15 212 93 15
216 97 19 217 98 20 217 98 20 217 98 20 217 98 20 217 98 20 218 99 21
218 99 21 217 100 21 215 101 21 226 114 34 225 115 34 223 116 32
222 117 32 222 117 32 220 118 32 218 119 32 218 119 32 222 120 34
226 117 33 204 87 8 207 85 8 209 85 8 209 85 8 209 84 10 209 84 10
210 83 12 210 83 12 210 83 12 212 82 14 198 62 1 199 61 3 199 61 3
199 61 3 199 61 3 199 61 3 199 61 3 199 61 3 201 60 3 201 60 3
201 60 3 201 60 3 201 60 3 201 60 3 201 59 5 201 59 5 201 59 5
201 59 5 199 61 3 198 61 3 215 81 19 214 84 18 213 85 16 211 86 14
211 86 12 213 86 12 214 85 12 216 84 12 213 84 11 211 86 12
221 108 28 221 112 30 222 110 29 222 110 29 222 110 27 222 110 27
222 110 27 222 110 27 222 110 27 222 110 27 217 100 19 217 100 19
217 100 19 217 100 19 217 100 19 217 100 19 217 100 19 217 100 19
217 100 21 218 101 22 211 89 12 212 88 12 213 89 13 213 89 13
213 89 13 213 89 13 213 89 15 215 88 15 215 88 15 217 87 15 211 81 9
211 81 9 212 81 9 211 81 9 209 82 11 208 83 11 208 83 11 208 83 11
207 85 10 208 86 11 211 88 14 213 91 16 213 91 16 213 91 16 213 91 16
213 91 16 211 92 14 211 92 14 211 92 12 205 96 12 235 147 56
228 150 56 228 150 56 228 150 56 228 150 56 228 150 56 228 150 56
228 150 56 226 149 52 222 147 49 242 169 70 236 168 68 236 170 69
234 171 67 232 172 67 231 173 65 232 172 65 234 171 67 237 169 69
248 163 71 205 90 12 214 84 16 217 82 20 217 82 18 214 84 16
213 85 14 211 86 12 211 86 12 213 85 14 215 85 18 203 68 6 206 68 10
206 68 10 206 68 10 206 68 8 206 68 8 206 68 8 205 69 8 205 69 8
203 70 6 217 86 21 215 87 19 215 87 19 215 87 19 215 87 19 213 88 17
213 88 17 212 90 15 210 91 13 212 93 15 216 97 19 217 98 20 217 98 20
217 98 20 217 98 20 217 98 20 218 99 21 217 100 21 215 101 21
215 101 21 225 113 32 224 114 32 222 115 30 220 116 30 220 116 30
219 117 30 217 118 30 217 118 30 221 119 33 225 115 34 203 86 7
206 84 7 209 85 8 209 85 8 209 84 10 209 84 10 210 83 12 210 83 12
210 83 12 212 82 14 198 62 1 199 61 3 199 61 3 199 61 3 199 61 3
199 61 3 199 61 3 199 61 3 201 60 3 201 60 3 201 60 3 201 60 3
200 59 2 200 59 2 200 58 4 200 58 4 200 58 4 198 59 4 196 60 2
196 60 2 215 81 19 214 84 16 213 85 14 211 86 14 211 86 12 213 86 12
214 85 12 216 84 12 213 84 11 211 88 14 217 110 28 216 114 30
219 111 29 220 110 29 220 111 27 220 111 27 220 111 27 220 111 27
220 111 27 220 111 27 218 101 20 218 101 20 218 101 20 218 101 20
218 101 20 218 101 20 218 101 20 215 103 20 210 105 20 212 108 22
210 96 14 214 93 13 215 89 11 213 86 8 209 88 8 208 88 10 209 88 10
211 87 10 213 86 10 216 84 10 217 83 12 219 82 12 221 82 12 219 82 12
213 86 12 209 87 12 209 87 12 209 87 12 211 88 14 210 90 15 212 93 17
215 95 19 215 95 19 215 95 19 215 95 19 215 95 19 215 95 17 213 96 17
213 96 17 207 100 17 236 146 58 230 149 58 228 150 56 228 150 56
228 151 54 228 151 54 227 152 54 227 152 54 222 147 49 228 155 56
238 167 68 245 174 75 241 173 71 241 173 71 239 174 71 238 175 71
236 176 71 236 176 71 239 174 73 250 167 77 205 92 17 215 87 21
217 86 23 218 85 23 217 84 18 215 86 16 215 86 16 215 86 16 217 87 17
215 82 13 207 74 7 202 67 3 206 68 8 208 67 10 208 67 10 208 67 10
208 67 10 206 68 10 206 68 10 205 69 8 214 86 18 212 87 16 212 87 16
212 87 16 212 87 16 211 88 14 211 88 14 211 88 14 211 92 14 214 94 16
217 98 20 219 100 22 218 99 19 218 99 19 218 99 19 218 99 19
217 100 19 217 100 19 215 101 19 215 101 19 225 113 30 224 114 30
222 115 30 220 116 30 220 116 30 219 117 30 217 118 30 217 118 30
220 117 34 224 113 35 202 84 8 205 83 8 209 84 10 210 83 10 210 83 10
210 83 10 210 83 12 210 83 12 210 83 14 212 82 14 195 62 0 196 61 0
196 61 0 196 61 0 198 59 2 198 59 2 198 59 2 198 59 2 200 59 2
200 59 2 200 59 2 198 57 0 200 59 2 198 57 0 200 59 2 200 59 2
198 59 4 198 59 4 196 60 2 196 60 2 215 81 19 214 84 16 213 85 14
211 86 12 213 86 12 213 86 10 214 85 10 214 85 10 216 84 10 210 91 13
208 113 27 211 121 30 210 111 23 215 108 23 215 108 23 215 108 21
215 108 21 215 108 21 215 108 21 215 108 21 210 105 20 210 105 20
210 105 20 210 105 20 210 105 20 210 105 20 210 105 20 207 107 20
202 111 21 203 111 21 200 93 8 203 89 7 211 92 12 211 92 12 208 94 12
207 95 12 208 94 14 210 93 14 212 90 13 213 86 10 215 83 11 214 80 9
216 77 8 213 79 8 208 81 8 205 83 8 205 83 8 205 83 8 204 85 9
206 86 10 208 88 12 210 90 15 210 90 15 210 90 15 210 90 15 210 90 15
209 92 13 209 92 13 209 92 13 204 94 13 245 147 62 240 149 62
240 150 60 240 150 60 240 150 58 238 151 58 238 151 58 237 150 56
234 150 55 238 153 59 243 161 66 247 164 69 247 165 67 246 164 66
244 164 66 244 164 66 242 165 66 242 165 68 244 164 70 252 159 72
211 91 18 219 86 22 219 86 26 219 86 26 217 84 20 217 84 18 217 84 18
217 84 18 220 88 21 215 82 15 208 75 8 201 66 2 206 68 8 208 67 10
208 67 10 208 67 10 208 67 10 208 67 10 208 67 10 205 69 8 215 88 17
212 90 15 212 90 15 212 90 15 212 90 15 212 90 15 212 90 15 212 90 15
211 92 14 214 94 16 217 98 20 219 100 22 218 99 19 218 99 19
218 99 19 218 99 19 217 100 19 217 100 19 215 101 19 215 101 19
228 116 33 226 117 33 224 117 33 223 118 33 223 118 33 221 119 33
220 120 33 220 119 35 221 118 37 225 115 36 203 85 9 208 83 9
210 83 10 210 83 10 210 83 10 210 83 10 210 83 12 210 83 12 210 83 14
212 81 16 194 60 0 195 60 0 195 60 0 195 60 0 197 58 0 198 59 2
198 59 2 199 61 3 201 60 3 202 61 4 202 61 4 202 61 4 202 61 4
201 60 3 201 60 3 201 60 3 200 61 6 200 61 6 199 63 4 199 63 4
215 81 19 214 84 16 213 85 14 211 86 12 213 86 10 213 86 10 214 85 10
214 85 10 218 87 13 205 88 9 208 118 28 199 118 25 206 116 26
209 114 26 209 115 24 209 115 24 209 115 24 209 115 24 209 115 24
209 115 24 242 161 68 242 161 68 242 161 68 242 161 68 242 161 68
242 161 68 242 161 68 240 162 68 242 166 71 241 160 67 231 139 49
232 130 43 232 126 41 232 126 41 229 127 41 228 128 41 229 127 43
231 126 43 234 124 43 237 123 43 219 100 24 221 99 24 223 98 24
223 98 24 221 99 24 221 99 24 221 99 24 221 99 24 221 101 25
222 102 26 224 104 29 226 107 31 226 107 31 226 107 31 226 107 31
226 107 31 225 108 29 225 108 29 225 108 29 223 109 29 210 98 17
208 99 17 208 99 15 210 98 15 210 99 13 208 100 13 208 100 13
208 100 13 207 98 12 207 98 12 210 101 14 208 100 13 207 101 11
206 100 10 206 100 10 207 99 10 210 97 10 210 97 12 209 97 14
214 94 18 202 64 0 206 61 3 205 61 5 202 63 7 203 67 9 202 68 9
202 68 9 202 68 9 198 65 5 198 65 5 203 69 10 203 67 9 206 68 10
208 67 10 208 67 10 208 67 10 208 67 10 208 67 10 208 67 10 205 69 8
218 91 20 215 93 18 215 93 18 215 93 18 215 93 18 215 93 18 215 93 18
215 93 18 211 92 14 214 94 16 217 98 20 219 100 22 218 99 19
218 99 19 218 99 19 218 99 19 217 100 19 217 100 19 215 101 19
215 101 19 231 119 36 229 120 36 228 121 36 226 122 36 226 122 36
225 123 36 223 123 36 223 123 38 225 122 40 228 118 39 206 89 12
211 86 12 210 83 10 210 83 10 210 83 10 210 83 10 210 83 12 210 83 12
210 83 14 211 80 15 212 79 17 213 77 16 213 77 16 213 77 16 214 76 18
213 75 17 213 75 17 212 73 15 214 73 15 212 71 14 212 71 14 210 69 12
208 67 10 207 66 9 207 66 9 207 66 9 205 66 11 205 66 11 203 67 9
203 67 9 217 84 22 215 85 18 214 86 16 212 88 14 214 87 12 214 87 12
215 86 12 215 86 12 215 83 9 210 91 13 248 158 68 243 168 72
231 158 62 231 158 62 231 158 60 231 158 60 231 158 60 231 158 60
231 158 60 231 158 60 236 166 69 236 166 69 236 166 69 236 166 69
236 166 69 236 166 69 236 166 69 235 166 69 238 172 74 236 163 67
222 136 44 218 126 36 232 133 46 232 133 46 228 135 46 228 135 46
229 134 48 231 133 48 232 132 48 236 131 48 208 98 19 212 97 19
213 96 19 215 95 19 215 95 19 216 94 19 216 94 19 216 94 19 216 96 21
217 97 22 219 100 24 222 102 26 222 102 26 222 102 26 222 102 26
222 102 26 220 103 24 220 103 24 220 103 24 219 102 23 218 101 22
217 100 21 218 99 19 218 99 19 218 99 19 218 100 17 218 100 17
218 100 17 218 100 17 216 97 14 214 95 12 211 93 10 209 90 8 209 90 8
209 90 8 211 90 8 217 86 8 219 86 8 214 88 10 215 86 14 206 64 0
209 61 4 204 63 6 201 65 8 201 67 9 201 66 11 201 66 11 201 66 11
201 66 11 203 68 14 204 70 15 203 67 11 206 68 10 208 67 10 208 67 10
208 67 10 208 67 10 208 67 10 208 67 10 205 69 8 220 92 21 216 94 19
216 94 19 216 94 19 216 94 19 216 94 19 216 94 19 216 94 19 211 92 14
214 94 16 217 98 20 219 100 22 218 99 19 218 99 19 218 99 19
218 99 19 217 100 19 217 100 19 215 101 19 214 102 19 232 122 39
230 123 39 229 124 39 229 124 39 229 124 39 227 125 39 225 126 39
225 125 41 227 124 43 229 119 40 207 90 14 212 90 15 209 84 10
210 83 10 210 83 10 210 83 10 210 83 12 210 83 12 210 83 14 211 81 13
211 78 14 212 76 15 212 76 15 212 76 15 213 75 17 213 75 17 213 75 17
213 75 17 215 74 17 215 74 17 215 74 17 212 71 14 210 69 12 209 68 11
209 68 11 209 68 11 207 68 13 207 68 13 206 70 11 204 70 11 215 84 22
214 86 18 212 87 16 212 88 14 214 87 12 214 87 12 215 86 12 215 86 12
217 86 12 207 87 9 250 160 70 237 164 68 231 163 65 231 163 65
231 163 63 231 163 63 231 163 63 231 163 63 231 163 63 231 163 63
238 165 67 238 165 67 238 165 67 238 165 67 238 165 67 238 165 67
238 165 67 235 167 67 232 169 67 235 167 67 216 136 40 222 135 41
224 130 39 224 130 39 221 134 40 221 133 42 222 132 42 224 132 42
227 132 43 230 130 45 206 102 19 210 100 19 213 98 19 214 97 19
216 96 21 216 96 21 218 95 21 218 95 21 217 97 22 218 99 23
221 101 25 223 103 28 221 104 28 221 104 28 221 104 28 221 104 28
221 104 26 220 105 26 219 104 24 217 103 23 216 102 22 215 101 21
212 100 20 212 100 20 215 101 19 215 101 19 215 101 19 215 101 19
215 101 19 213 99 17 210 96 14 209 95 13 209 95 13 212 96 14
212 96 14 215 94 14 222 91 14 222 91 14 215 94 16 215 93 18 202 67 1
202 66 5 196 69 7 194 70 9 198 66 10 200 65 12 200 65 12 200 65 12
198 63 11 200 65 12 202 67 15 206 69 15 206 67 12 208 67 10 208 67 10
208 67 10 208 67 10 208 67 10 208 67 10 205 69 8 218 91 20 215 93 18
215 93 18 215 93 18 215 93 18 215 93 18 215 93 18 215 93 18 211 92 14
214 94 16 217 98 20 219 100 22 218 99 19 218 99 19 218 99 19
218 99 19 217 100 19 217 100 19 215 101 19 214 102 19 232 122 39
230 123 39 229 124 39 227 125 39 227 125 39 227 125 39 224 126 39
224 126 41 228 125 44 228 120 40 205 88 11 205 83 8 208 83 9 209 82 9
209 82 9 209 82 9 212 82 12 212 82 14 212 82 14 210 79 12 210 77 13
209 76 11 209 76 11 210 75 13 213 75 15 213 75 15 213 75 15 213 75 15
213 75 15 212 74 13 209 70 10 206 68 8 209 68 9 210 70 10 210 69 12
210 69 12 207 68 13 207 68 13 206 70 11 204 70 11 217 86 23 215 87 19
213 88 17 213 89 15 214 87 12 214 88 10 214 88 10 215 87 10 219 88 12
209 90 10 241 151 61 234 159 61 235 160 62 235 160 62 235 160 62
235 160 60 236 161 61 236 161 61 236 161 61 236 161 61 236 166 67
236 166 67 236 166 67 236 166 67 236 166 67 236 166 67 236 166 67
235 167 67 232 169 67 235 167 67 216 136 40 222 135 41 224 130 39
224 130 39 221 134 40 221 134 40 222 132 42 224 132 42 228 131 43
230 130 43 206 102 19 210 100 19 213 98 19 214 97 19 216 96 21
218 95 21 218 95 21 218 95 21 217 97 22 218 99 23 221 101 25
223 103 28 221 104 28 221 104 28 221 104 28 221 104 28 220 105 26
220 105 26 217 105 24 216 104 23 215 103 22 214 101 21 212 100 20
212 100 20 214 102 19 215 101 19 215 101 19 215 101 19 215 101 19
213 99 17 210 96 14 209 95 13 211 94 13 212 96 14 212 96 14 215 94 16
220 91 16 220 91 16 214 94 16 214 94 18 201 68 1 201 67 5 194 70 7
194 70 9 198 66 10 200 65 12 200 65 12 200 65 12 198 63 11 200 65 12
202 67 15 206 69 15 206 67 12 208 67 10 208 67 10 208 67 10 208 67 10
208 67 10 208 67 10 205 69 8 218 91 20 215 93 18 215 93 18 215 93 18
215 93 18 215 93 18 215 93 18 215 93 18 211 92 14 214 94 16 217 98 20
219 100 22 218 99 19 218 99 19 218 99 19 218 99 19 217 100 19
215 101 19 214 102 19 212 103 19 230 123 39 229 124 39 227 125 39
227 125 39 227 125 39 225 126 39 224 126 39 224 126 39 227 126 42
228 120 40 202 87 10 205 83 8 208 83 9 209 82 9 209 82 9 209 82 9
212 82 12 212 82 14 212 82 14 210 79 12 210 77 13 209 76 11 209 76 11
210 75 11 213 75 15 213 75 15 213 75 15 213 75 15 213 75 15 212 74 13
209 70 10 206 68 8 208 67 8 209 68 9 209 68 11 209 68 11 209 68 13
207 68 13 206 70 11 204 71 9 215 87 21 213 88 19 212 89 17 212 90 15
212 88 12 214 88 10 214 88 10 214 88 10 219 88 12 211 92 12
241 151 59 234 159 61 235 160 62 235 160 62 235 160 60 235 160 60
236 161 61 236 161 61 236 161 61 236 161 61 232 169 67 232 169 67
232 169 67 232 169 67 232 169 67 232 169 67 232 169 67 233 168 67
233 168 67 238 165 67 219 134 40 227 132 41 228 128 39 228 128 39
226 131 40 224 132 40 226 131 42 229 129 42 232 130 43 235 128 43
211 99 19 213 98 19 216 97 19 218 96 19 218 96 19 218 96 19 218 96 19
218 96 19 217 97 22 218 99 23 221 101 25 223 103 28 221 104 26
221 104 26 221 104 26 221 104 26 220 105 26 220 106 23 219 104 22
217 103 21 216 102 22 215 101 21 214 99 20 214 99 20 215 101 19
217 100 19 217 100 19 217 100 19 218 99 19 216 97 17 215 94 14
214 93 13 214 92 15 215 94 16 217 93 16 217 93 16 218 91 18 217 92 18
212 95 18 215 93 20 202 67 3 205 65 5 201 67 7 199 67 9 200 65 8
200 65 10 200 65 10 200 65 10 198 64 9 200 65 10 202 67 13 206 69 13
206 68 10 208 67 10 208 67 10 208 67 10 208 67 10 208 67 10 208 67 10
205 69 8 218 91 20 215 93 18 215 93 18 215 93 18 215 93 18 215 93 18
215 93 18 215 93 18 211 92 14 214 94 16 217 98 20 219 100 22
218 99 19 218 99 19 218 99 19 218 99 19 217 100 19 215 101 19
214 102 19 212 103 19 230 123 39 229 124 39 227 125 37 225 126 37
227 125 37 225 126 37 224 127 37 224 126 39 227 126 42 228 121 38
202 88 8 205 83 6 208 83 7 209 83 7 209 83 7 209 82 9 212 82 12
212 82 14 212 82 14 210 79 12 211 78 14 210 77 13 210 77 13 212 76 13
213 75 15 213 75 15 213 75 15 213 75 15 213 75 15 212 74 13 207 71 10
206 68 8 208 67 8 209 68 9 209 68 11 209 68 11 209 68 13 209 68 13
206 70 11 204 71 9 216 88 22 215 89 20 211 91 18 211 92 16 213 89 13
215 89 11 213 90 11 213 90 11 218 89 12 210 93 12 241 151 59
234 159 61 233 161 62 233 161 62 233 161 60 233 161 60 235 162 61
235 162 61 235 162 61 235 162 61 232 169 67 232 169 67 232 169 67
232 169 67 232 169 67 232 169 67 232 169 67 233 168 67 236 166 67
240 164 67 219 134 40 225 133 41 226 129 39 226 129 39 224 132 40
224 132 40 226 131 42 227 130 42 230 130 43 233 129 43 211 99 19
214 97 19 214 97 19 216 97 19 216 97 19 218 96 19 216 97 19 216 97 19
216 99 20 217 99 23 219 102 25 221 104 26 220 105 26 220 105 26
220 105 26 220 106 23 220 106 23 220 106 23 219 104 22 217 103 21
216 102 22 217 100 21 216 99 20 216 99 20 217 100 21 218 99 21
218 99 21 218 99 19 220 99 19 218 96 17 217 93 14 216 92 15 216 92 15
217 93 16 218 92 16 218 91 18 218 91 18 217 92 20 215 93 20 217 92 22
204 66 5 205 64 7 202 66 9 202 66 9 201 65 8 201 65 8 201 65 8
201 65 8 200 63 7 201 65 8 203 67 11 206 69 13 206 68 10 208 67 10
208 67 10 208 67 10 208 67 10 208 67 10 208 67 10 205 69 8 218 91 20
215 93 18 215 93 18 215 93 18 215 93 18 215 93 18 215 93 18 215 93 18
211 92 14 214 94 16 217 98 20 219 100 22 218 99 19 218 99 19
218 99 19 217 100 19 215 101 19 215 101 19 214 102 19 212 103 19
230 123 39 229 124 39 227 125 37 225 126 37 227 125 37 225 126 37
222 128 37 222 128 37 227 127 40 228 121 38 206 86 8 206 82 6
209 83 7 209 83 7 209 83 7 209 82 9 212 82 12 212 82 14 212 82 14
210 79 12 211 79 12 210 77 13 210 77 13 210 77 13 212 76 13 212 76 15
212 76 15 212 76 15 212 76 15 210 75 13 207 71 10 205 69 8 206 68 8
209 68 9 209 68 11 209 68 11 211 67 13 209 68 11 207 69 9 204 71 9
216 88 22 213 90 20 211 91 18 211 92 16 213 89 13 215 89 11 212 90 11
213 90 11 216 90 12 210 93 12 241 151 61 234 159 61 233 161 62
232 161 62 232 161 62 232 162 60 233 163 61 233 163 61 233 163 61
233 163 61 233 168 67 233 168 67 233 168 67 233 168 67 233 168 67
233 168 67 235 167 67 236 166 67 238 165 67 240 164 67 216 136 40
219 136 41 219 134 40 219 134 40 219 134 40 219 134 40 224 134 43
224 134 43 222 134 43 227 132 43 208 101 17 213 99 17 210 100 17
210 100 17 213 98 19 213 98 19 213 98 19 213 98 19 212 100 20
214 101 21 216 104 23 218 106 23 218 106 23 218 106 23 218 106 23
218 106 23 218 106 23 218 106 23 217 105 22 217 103 21 216 102 20
217 100 19 217 98 18 217 98 20 218 99 21 220 98 23 220 98 23
220 98 21 220 98 21 218 96 19 215 94 16 213 91 14 215 90 16 216 91 17
217 90 17 217 90 17 220 90 20 220 90 20 220 90 22 222 89 24 204 66 5
204 65 7 204 65 9 204 65 9 203 64 6 203 64 6 203 64 6 203 64 6
202 63 5 203 64 6 205 66 9 207 69 11 206 68 10 206 68 10 206 68 10
206 68 10 206 68 10 206 68 10 206 68 10 205 69 8 218 91 22 215 93 20
215 93 20 215 93 20 215 93 20 215 93 20 215 93 20 215 93 18 211 92 14
212 96 14 216 99 18 218 101 20 217 100 19 217 100 19 217 100 19
217 100 19 215 101 19 215 101 19 214 102 19 212 103 19 230 123 39
229 124 39 227 125 37 225 126 37 227 125 37 225 126 37 221 128 37
221 128 37 227 127 40 229 120 36 210 84 6 213 79 4 211 82 7 209 83 7
209 83 7 209 83 7 210 83 10 210 83 12 210 83 12 211 81 11 210 80 10
208 78 11 208 78 11 208 78 11 211 78 14 211 78 14 210 79 14 210 79 14
207 78 15 206 77 13 204 73 10 203 70 8 205 69 8 207 69 9 209 68 11
209 68 11 211 67 11 211 67 11 207 69 9 204 71 9 216 88 22 213 90 20
210 92 18 211 92 16 215 90 14 216 90 14 213 91 14 213 91 14 216 92 15
209 95 15 242 152 62 235 159 64 233 160 64 233 160 64 233 161 62
233 161 62 235 162 63 235 162 63 235 162 63 235 162 63 233 168 67
233 168 67 233 168 67 233 168 67 235 167 67 235 167 67 235 167 67
238 165 67 241 164 67 243 163 67 216 136 40 217 137 41 218 135 40
218 135 40 218 135 40 219 134 40 224 134 43 224 134 43 220 135 43
225 133 43 210 100 17 213 99 17 210 100 17 210 100 17 211 99 19
213 98 19 213 98 19 213 98 19 212 101 18 214 102 19 216 104 21
218 106 23 218 107 21 218 107 21 218 107 21 218 107 21 218 106 23
218 106 23 219 104 22 217 103 21 218 101 20 217 100 19 217 98 18
217 98 20 220 98 23 220 98 23 220 98 23 220 98 23 220 98 21 218 96 19
215 94 16 213 91 16 215 90 16 216 91 17 217 90 17 219 89 19 222 89 20
222 89 22 223 88 24 223 87 26 204 65 7 204 65 7 204 65 9 204 65 9
203 64 6 203 64 6 203 64 6 203 64 6 202 63 5 203 64 6 205 66 9
207 69 11 206 68 10 206 68 10 206 68 10 206 68 10 206 68 10 206 68 10
206 68 10 205 69 8 218 91 22 217 92 20 217 92 20 217 92 20 217 92 20
217 92 20 217 92 20 215 93 18 211 92 14 214 94 16 217 98 20
219 100 22 218 99 21 218 99 21 218 99 21 217 100 21 217 100 21
215 101 21 214 101 21 212 102 21 230 123 41 229 124 39 227 125 39
227 125 39 227 125 39 225 126 37 221 128 37 221 128 37 227 127 40
231 119 36 213 82 6 214 79 4 211 82 7 209 83 7 209 83 7 209 83 7
210 83 10 210 83 10 210 83 10 209 82 9 210 80 10 208 79 9 208 79 9
208 79 9 210 79 12 210 79 14 208 80 14 206 81 14 204 80 13 202 79 13
201 74 10 201 70 8 203 70 8 206 70 9 207 69 11 209 68 11 211 67 11
209 68 9 207 69 9 204 71 7 216 88 20 213 90 18 210 92 16 211 92 16
216 90 14 216 90 14 213 91 14 211 92 14 214 92 15 208 96 15
242 152 62 237 159 64 235 159 64 235 159 64 235 160 62 235 160 62
236 161 63 236 161 63 236 161 63 236 161 63 234 169 68 234 169 68
234 169 68 234 169 68 234 169 68 234 169 68 234 169 68 239 166 68
244 162 67 248 160 67 221 134 40 222 135 41 221 134 40 221 134 40
221 134 40 222 133 40 227 132 43 227 132 43 224 134 43 228 131 43
213 99 17 216 97 17 213 99 17 213 99 17 214 98 17 216 97 17 216 97 17
216 97 17 216 99 18 217 101 17 219 103 19 221 105 21 221 105 21
221 105 21 221 105 21 221 105 21 221 105 21 221 105 21 220 104 20
219 103 19 219 101 20 218 99 19 217 98 18 217 98 20 219 97 22
219 97 22 219 97 22 219 97 22 219 97 22 218 95 21 215 93 18 213 91 16
215 90 18 216 91 19 217 90 19 219 89 19 222 89 22 222 89 22 223 88 24
223 87 26 204 65 7 204 65 7 204 65 7 204 65 7 203 64 6 203 64 6
203 64 6 203 64 6 202 63 5 203 64 6 205 66 9 207 69 11 206 68 10
206 68 10 206 68 10 206 68 10 206 68 10 206 68 10 206 68 10 205 69 8
220 90 22 218 91 20 218 91 20 218 91 20 218 91 20 218 91 20 218 91 20
217 92 20 213 91 16 215 93 18 219 97 22 221 99 24 220 98 23 220 98 23
220 98 23 218 99 23 218 99 23 217 99 23 215 100 23 214 101 23
232 122 43 230 123 41 229 124 41 229 124 41 229 124 41 227 125 39
224 126 39 224 126 39 230 125 40 233 118 36 212 83 6 213 79 4
211 82 7 209 83 7 209 83 7 209 83 7 212 83 8 212 83 8 212 83 8
211 81 9 211 81 9 210 80 8 210 80 8 210 80 10 211 79 10 210 79 12
208 80 12 206 81 12 204 81 11 201 80 11 199 76 8 198 73 6 201 71 6
204 71 9 207 69 9 207 69 9 209 68 9 207 69 9 206 70 7 203 72 5
215 87 19 213 90 18 211 92 16 211 92 14 216 90 14 215 88 13 210 91 13
209 92 13 211 92 14 205 95 14 241 153 62 237 159 64 237 159 64
237 159 64 237 159 62 237 159 62 238 160 63 238 160 63 238 160 63
238 160 63 234 169 68 234 169 68 234 169 68 234 169 68 234 169 68
234 169 68 236 170 69 237 169 69 242 165 68 246 163 68 218 135 40
219 136 41 218 135 40 218 135 40 218 135 40 219 134 40 224 134 43
224 134 43 220 135 43 224 134 43 208 101 17 213 99 17 210 100 17
208 101 17 211 99 17 213 99 17 213 99 17 211 99 17 212 101 16
214 102 17 216 105 19 218 107 21 218 107 21 218 107 21 218 107 21
217 108 21 217 108 21 217 108 21 215 106 20 216 105 19 216 99 18
216 97 17 216 97 17 216 97 19 218 95 21 218 95 21 218 95 21 219 97 22
218 95 21 215 93 18 212 90 15 213 90 18 215 90 18 216 90 21 217 90 21
219 89 21 222 89 22 222 89 24 223 87 26 223 87 26 204 65 7 203 64 6
203 64 6 203 64 6 203 64 6 203 64 6 203 64 6 203 64 6 202 63 5
203 64 6 205 66 9 207 69 11 206 68 10 206 68 10 206 68 10 206 68 10
206 68 10 206 68 10 206 68 10 205 69 8 220 90 22 220 90 20 220 90 20
220 90 20 220 90 20 220 90 20 220 90 20 218 91 20 215 90 18 217 92 20
220 95 24 223 98 26 222 97 25 222 97 25 222 97 25 220 97 25 220 97 25
218 98 25 217 99 25 215 100 25 233 120 45 232 122 43 230 122 43
230 122 43 232 122 43 230 123 41 227 124 41 229 124 41 233 123 42
234 117 38 210 84 8 211 80 6 211 82 7 209 83 7 209 83 7 209 83 7
212 83 8 212 83 8 212 83 8 209 83 7 208 83 7 205 83 6 205 83 6
205 83 8 205 83 8 205 83 8 205 83 8 203 83 10 200 83 9 199 82 7
196 78 4 195 75 4 198 73 4 203 72 7 204 71 7 206 70 7 206 70 9
206 70 7 204 72 5 203 72 5 214 86 16 213 88 17 212 90 15 212 90 13
214 87 12 212 88 12 207 90 12 206 91 12 210 91 13 203 93 12
241 153 62 238 158 64 240 157 64 240 157 64 240 157 62 240 157 62
241 159 63 241 159 63 241 159 63 241 159 63 236 170 69 236 170 69
236 170 69 236 170 69 236 170 69 236 170 69 235 172 70 235 172 70
237 171 70 237 171 70 239 174 73 239 174 73 239 174 73 239 174 73
240 175 74 242 174 74 246 173 75 246 173 75 243 175 75 246 173 75
224 134 41 228 132 41 225 133 41 224 134 41 227 132 43 228 131 43
228 131 43 227 132 43 228 133 42 229 135 44 231 137 46 234 139 48
234 139 48 234 139 48 234 139 48 232 140 48 232 140 48 232 140 48
232 140 48 237 138 48 213 99 17 216 95 15 216 95 15 216 95 17
216 94 19 216 94 19 216 94 19 216 94 19 216 94 21 213 90 18 207 85 12
199 76 4 199 74 5 201 75 8 202 74 8 204 73 8 207 74 9 207 73 11
207 71 10 205 69 8 204 65 7 203 64 6 202 63 5 202 63 5 199 61 3
199 61 3 199 61 3 199 61 3 198 59 2 199 61 3 202 63 5 204 65 7
203 64 6 203 64 6 203 64 6 203 64 6 203 64 6 203 64 6 203 64 6
201 65 4 210 77 11 210 78 9 210 78 9 210 78 9 210 78 9 210 78 9
210 78 9 208 79 9 206 78 7 207 79 11 208 80 12 208 80 12 210 83 14
210 83 14 210 83 14 209 83 14 209 83 14 207 84 14 206 85 14 204 86 14
210 95 22 209 96 20 209 96 20 209 96 20 209 96 20 209 96 18 207 97 18
207 97 18 212 97 19 213 96 19 218 93 19 220 93 17 221 94 19 221 94 19
221 94 19 221 94 19 222 95 20 222 95 20 222 96 18 219 97 18
233 122 39 229 124 39 229 124 39 229 124 39 229 124 41 230 123 41
230 123 41 230 123 41 230 122 43 232 122 43 212 100 22 214 97 21
219 96 24 220 95 24 222 94 26 224 93 26 225 92 28 225 92 28 225 93 26
224 93 26 211 84 13 214 86 16 212 88 14 211 86 12 211 85 9 211 87 10
206 89 10 205 90 10 208 88 10 199 89 8 226 138 47 220 139 46
223 138 46 224 137 46 224 137 44 223 136 42 223 136 42 222 135 41
222 135 41 222 135 41 236 170 69 236 170 69 237 171 70 237 171 70
237 171 70 237 171 70 236 173 72 235 174 72 236 175 73 236 175 73
235 177 74 235 177 74 235 177 74 235 177 74 237 178 75 238 177 75
243 177 76 243 177 76 239 179 76 244 176 76 220 136 41 224 134 41
220 136 41 220 136 41 222 134 43 224 134 43 224 134 43 224 134 43
223 136 42 224 137 44 227 139 46 229 142 48 229 142 48 229 142 48
229 142 48 229 142 48 227 143 48 227 143 48 227 143 48 234 139 48
210 98 15 215 94 14 215 94 14 215 94 16 215 93 18 215 93 18 215 93 18
215 93 18 214 92 19 212 89 17 205 82 10 200 77 7 201 75 8 202 76 9
203 75 9 205 74 9 208 74 12 208 74 12 208 72 11 206 70 9 204 65 7
202 63 5 200 62 4 200 62 4 199 61 3 199 61 3 199 61 3 199 61 3
198 59 2 199 61 3 202 63 5 204 65 7 203 64 6 203 64 6 203 64 6
203 64 6 203 64 6 203 64 6 203 64 6 203 65 4 212 77 11 210 78 9
210 78 9 210 78 9 210 78 9 210 78 9 210 78 9 210 78 9 207 77 9
207 79 11 208 80 12 208 80 12 210 83 14 210 83 14 210 83 14 210 83 14
210 83 14 209 83 14 207 84 14 206 85 14 212 94 22 210 95 22 210 95 22
210 95 20 210 95 20 210 95 20 210 95 20 210 96 18 213 96 19 215 95 19
216 94 19 218 93 19 219 95 19 221 94 19 221 94 19 221 94 19 222 95 20
222 95 20 222 96 18 217 98 18 229 124 39 224 126 39 224 127 37
224 127 37 224 126 39 224 126 39 225 126 39 225 126 39 227 125 39
229 124 41 211 101 20 211 99 19 216 99 20 219 97 22 220 96 22
222 95 24 224 93 28 224 93 28 224 93 26 224 93 26 212 82 12 214 84 14
214 85 12 213 84 11 210 84 8 210 86 9 205 88 9 203 89 9 207 87 9
198 86 6 227 137 47 220 139 46 224 137 46 228 135 46 228 135 44
226 134 42 226 134 42 225 133 41 225 133 41 225 133 41 238 172 72
238 172 72 239 174 73 239 174 73 239 174 73 239 174 73 239 174 73
238 174 73 238 174 73 238 174 73 239 175 74 239 175 74 239 175 74
239 175 74 240 177 75 241 176 75 246 175 76 246 175 76 243 177 76
247 175 76 224 134 41 227 132 41 224 134 41 224 134 41 225 133 43
227 132 43 227 132 43 227 132 43 226 134 42 228 135 44 230 138 46
232 140 48 232 140 48 232 140 48 232 140 48 232 140 48 231 141 48
231 141 48 231 141 48 235 139 48 212 97 15 215 94 14 215 94 14
215 94 16 214 92 17 214 92 17 214 92 17 214 92 17 212 89 17 212 89 17
206 83 11 201 78 8 202 76 9 203 77 10 204 76 10 206 76 10 209 75 13
209 75 15 210 74 15 210 74 15 200 62 4 200 62 4 202 61 4 202 61 4
199 61 3 199 61 3 199 61 3 199 61 3 198 59 2 199 61 3 202 63 5
204 65 7 203 64 6 203 64 6 203 64 6 203 64 6 203 64 6 203 64 6
203 64 6 203 65 4 212 77 11 212 77 9 212 77 9 212 77 9 212 77 9
212 77 9 212 77 9 210 78 9 207 77 9 208 78 13 210 79 14 210 79 14
212 81 16 212 81 16 212 81 16 212 81 16 210 82 16 209 83 16 207 84 16
206 85 16 212 94 24 212 94 24 210 95 22 210 95 22 212 94 22 212 94 22
214 94 20 214 94 20 215 95 19 216 94 19 216 94 19 216 94 19 218 95 21
219 95 21 221 94 21 221 94 21 222 95 20 222 95 20 222 96 18 217 99 16
230 124 37 225 126 37 225 126 37 225 126 37 225 126 37 225 126 37
225 126 37 225 126 37 227 125 37 229 124 39 209 102 18 210 100 17
214 100 18 216 99 18 217 98 18 219 97 22 220 95 28 220 94 30
222 94 26 224 94 24 211 81 11 216 84 14 216 84 12 215 83 11 212 83 8
209 85 8 204 87 8 202 88 8 206 86 8 197 85 5 227 137 47 221 138 46
226 136 46 229 134 46 229 135 44 228 133 42 228 133 42 227 132 41
227 132 41 227 132 41 236 173 72 236 173 72 238 174 73 238 174 73
238 174 73 238 174 73 238 174 73 236 175 73 236 175 73 236 175 73
237 176 74 237 176 74 237 176 74 237 176 74 238 177 75 240 177 75
244 176 76 246 175 76 243 177 76 247 175 76 225 133 41 230 131 41
228 132 41 227 132 41 228 131 43 228 131 43 228 131 43 227 132 43
228 133 42 229 135 44 231 137 46 234 139 48 234 139 48 232 140 48
232 140 48 232 140 48 232 140 48 231 141 48 231 141 48 235 139 48
210 98 15 214 95 14 214 95 14 214 94 16 212 93 17 212 93 17 212 93 17
214 92 17 212 89 17 213 88 17 208 83 11 204 79 7 203 78 8 206 78 11
206 78 11 206 78 11 207 76 13 209 75 15 209 75 15 212 75 17 200 62 4
202 61 4 202 61 4 202 61 4 201 60 3 199 61 3 199 61 3 199 61 3
198 59 2 199 61 3 202 63 5 204 65 7 203 64 6 203 64 6 203 64 6
203 64 6 203 64 6 203 64 6 203 64 6 203 65 4 212 77 11 212 77 11
212 77 11 212 77 11 212 77 11 212 77 11 212 77 11 210 77 11 209 76 9
208 78 13 210 79 14 210 79 14 212 81 16 212 81 16 212 81 16 212 81 16
210 82 16 210 82 16 209 83 16 207 84 16 214 93 24 214 93 22 212 94 22
212 94 22 212 94 22 214 94 20 215 93 20 215 93 20 216 94 19 216 94 19
215 95 19 215 95 19 216 96 21 218 95 21 219 95 21 219 95 21 220 96 20
220 97 18 220 97 18 217 99 16 230 124 37 225 126 37 225 126 35
225 126 35 225 126 37 225 126 37 225 126 37 225 126 37 225 126 37
227 125 37 209 103 16 211 100 14 214 100 18 216 99 18 217 98 18
217 98 20 219 96 26 220 95 28 220 95 26 222 95 24 212 80 11 217 83 14
217 83 12 215 83 11 212 83 8 209 85 8 206 86 8 206 86 8 207 85 8
197 85 5 230 135 49 224 137 46 229 134 46 231 133 46 231 133 46
230 133 42 230 133 42 228 132 41 228 132 41 228 132 41 233 177 73
233 177 73 233 177 73 233 177 73 233 177 73 233 177 73 234 178 74
232 179 74 232 179 74 232 179 74 231 180 74 231 180 74 232 181 73
232 181 73 232 181 73 233 180 73 239 179 76 241 178 76 241 178 76
247 175 76 227 132 41 233 129 41 233 129 41 232 130 41 228 132 41
227 132 41 227 132 41 225 133 41 226 134 42 228 135 44 230 138 46
232 140 48 232 140 48 231 141 48 231 141 48 231 141 48 231 141 48
229 142 48 229 142 48 234 139 48 208 99 15 212 96 14 212 96 14
212 95 16 212 95 18 212 95 18 212 95 18 212 93 17 213 88 17 217 90 19
206 78 7 204 77 6 206 78 9 206 78 9 206 78 9 206 78 11 206 77 13
207 76 15 209 75 15 209 73 14 200 62 4 202 61 4 204 60 4 204 60 4
201 59 5 201 59 5 201 59 5 201 59 5 200 58 4 201 59 5 203 62 7
205 64 9 203 64 6 203 64 6 203 64 6 203 64 6 203 64 6 203 64 6
203 64 6 203 65 4 212 76 13 210 77 13 210 77 13 210 77 13 210 77 13
210 77 13 210 77 13 210 77 11 209 76 9 210 77 11 211 79 12 211 79 12
212 80 13 212 80 13 212 80 13 211 81 13 209 81 13 209 81 13 209 81 13
208 82 13 216 90 21 216 91 19 214 92 19 214 92 19 214 94 20 214 94 18
215 93 18 215 93 18 214 92 17 215 94 16 216 97 19 216 99 20 216 99 20
214 97 19 216 97 19 216 97 19 217 98 20 217 98 18 217 98 18
214 100 18 231 125 38 228 126 38 228 126 38 228 126 38 228 126 38
228 126 38 228 126 38 227 127 38 227 127 38 228 126 38 212 103 17
214 100 16 217 98 18 217 98 18 217 98 18 217 98 20 219 97 22
220 95 24 220 95 24 222 95 24 212 80 11 217 83 14 219 82 12 216 82 11
211 85 11 210 85 11 211 85 11 211 85 11 210 85 11 202 84 8 238 133 50
232 134 49 231 133 48 229 134 48 229 134 46 229 134 46 228 133 44
228 133 44 228 133 44 228 133 44 233 177 73 233 177 73 233 177 73
233 177 73 233 177 73 233 177 73 234 178 74 232 179 74 232 179 74
231 180 74 231 180 74 229 180 74 230 182 73 230 182 73 230 182 73
232 181 73 238 179 76 239 179 76 238 179 76 246 175 76 225 133 41
232 130 41 232 130 41 230 131 41 228 132 41 227 132 41 225 133 41
225 133 41 226 134 42 228 135 44 228 139 46 231 141 48 231 141 48
231 141 48 229 142 48 229 142 48 229 142 48 229 142 48 227 143 48
232 140 48 208 99 15 212 96 14 212 96 14 212 95 16 212 95 18
212 95 18 212 95 18 214 92 17 218 88 18 222 89 20 208 76 6 208 76 6
209 76 9 209 76 9 207 77 9 207 77 11 204 76 12 204 76 14 206 75 14
209 73 14 200 62 4 202 61 4 204 60 4 204 60 4 202 59 5 202 58 7
202 58 7 202 58 7 201 57 6 202 58 7 205 61 9 205 64 9 203 64 6
203 64 6 203 64 6 203 64 6 203 64 6 203 64 6 203 64 6 203 64 6
212 76 15 210 77 13 210 77 13 210 77 13 210 77 13 210 77 13 210 77 13
210 77 13 209 76 9 210 77 11 211 79 12 211 79 12 212 80 13 212 80 13
212 80 13 212 80 13 211 81 11 209 82 11 209 82 11 209 82 11 217 90 19
217 90 19 216 91 19 216 91 19 215 93 18 214 94 18 215 93 18 215 93 18
214 92 15 215 94 16 216 97 19 216 99 20 216 99 20 214 97 19 216 97 19
216 97 19 217 98 18 217 98 18 217 98 18 214 100 18 230 126 38
228 126 38 228 126 38 228 126 38 228 126 38 228 126 38 228 126 38
227 127 38 227 127 38 230 126 38 214 102 17 217 98 18 219 97 18
219 97 18 217 98 20 217 98 20 219 97 20 220 96 20 220 96 22 222 95 24
212 80 11 217 83 14 217 83 12 215 83 11 211 85 11 211 85 11 213 84 11
213 84 11 210 85 11 202 84 8 241 131 50 235 133 49 229 134 48
228 135 48 228 135 46 228 135 46 226 134 44 226 134 44 226 134 44
226 134 44 239 175 74 239 175 74 239 175 74 239 175 74 239 175 74
239 175 74 237 176 74 237 176 74 235 177 74 235 177 74 234 178 74
234 178 74 235 179 73 235 179 73 235 179 73 235 179 73 238 179 76
238 179 76 236 180 76 243 177 76 220 136 41 227 132 41 225 133 41
225 133 41 227 132 41 227 132 41 225 133 41 225 133 41 226 134 42
228 135 44 228 139 46 231 141 48 231 141 48 231 141 48 230 143 49
230 143 49 230 143 49 230 143 49 229 144 49 235 140 49 210 98 15
215 94 14 215 94 14 215 94 16 215 93 18 215 93 18 215 93 18 218 91 18
221 86 18 225 88 20 211 74 6 211 74 6 212 75 9 212 74 11 212 74 11
210 75 11 204 76 10 204 76 12 206 75 12 208 74 12 200 62 2 202 61 2
204 61 2 204 60 4 202 58 7 204 57 9 204 57 9 204 57 9 203 56 8
204 57 9 206 59 11 207 63 11 204 63 8 203 64 6 203 64 6 203 64 6
203 64 6 203 64 6 203 64 6 203 64 6 212 76 15 210 77 13 210 77 13
210 77 13 210 77 13 210 77 13 210 77 13 210 77 13 209 76 9 210 77 11
211 79 12 211 79 12 212 80 13 212 80 13 212 80 13 212 80 13 211 81 11
209 82 11 209 82 11 209 82 11 217 90 19 217 90 19 216 91 19 216 91 19
215 93 18 214 94 18 215 93 18 215 93 18 214 92 15 215 94 16 216 97 19
216 99 20 217 98 20 218 96 19 218 96 19 218 96 19 219 97 18 219 97 18
219 97 18 216 99 18 230 125 40 227 127 40 227 127 40 227 127 40
227 127 40 227 127 40 227 127 40 227 127 40 228 126 40 231 124 40
217 100 19 219 97 18 222 95 20 222 95 20 220 96 20 219 97 20
219 97 20 219 97 20 219 97 22 220 96 22 211 81 11 216 84 14 216 84 12
215 83 11 211 85 11 211 85 11 213 84 11 213 84 11 210 85 11 202 84 8
241 131 50 233 133 49 228 135 48 224 136 48 224 137 46 224 137 46
223 136 44 223 136 44 223 136 44 223 136 44 240 175 74 240 175 74
240 175 74 240 175 74 240 175 74 239 175 74 239 175 74 237 176 74
237 176 74 235 177 74 235 177 74 235 177 74 237 179 73 237 179 73
237 179 73 237 179 73 241 178 76 241 178 76 238 179 76 243 177 76
220 136 41 225 133 41 222 135 41 224 134 41 225 133 41 227 132 41
227 132 41 227 132 41 228 133 42 225 133 41 229 140 47 229 140 47
231 141 48 229 142 48 230 143 49 230 143 49 230 143 49 230 143 49
229 144 49 235 140 49 210 98 15 215 94 14 215 94 14 215 94 16
215 93 18 215 93 18 215 93 18 218 91 18 221 86 18 225 88 20 211 74 6
211 74 6 212 75 9 212 74 11 212 74 11 210 75 11 204 76 10 203 77 10
204 76 10 206 76 10 199 63 0 200 62 2 202 61 2 204 60 4 202 58 7
204 57 9 204 57 9 204 57 9 203 56 8 204 57 9 206 59 11 207 63 11
204 63 8 203 64 6 203 64 6 203 64 6 203 64 6 203 64 6 203 64 6
203 64 6 212 76 15 210 77 13 210 77 13 210 77 13 210 77 13 210 77 13
210 77 13 210 77 13 209 76 9 210 77 11 211 79 12 211 79 12 212 80 13
212 80 13 212 80 13 212 80 13 211 81 11 209 82 11 209 82 11 209 82 11
217 90 19 217 90 19 216 91 19 216 91 19 215 93 18 214 94 18 215 93 18
215 93 18 214 92 15 215 94 16 216 97 19 216 99 20 217 98 20 218 96 19
218 96 19 218 96 19 219 97 18 219 97 18 219 97 18 216 99 18
228 126 40 223 128 40 223 128 40 223 128 40 223 128 40 223 128 40
223 128 40 225 128 40 228 126 40 231 124 40 217 100 19 219 97 18
222 95 20 222 95 20 220 96 20 219 97 20 217 98 20 217 98 20 217 97 22
219 97 22 209 82 11 214 84 14 214 85 12 213 84 11 210 85 11 211 85 11
213 84 11 213 84 11 210 85 11 203 83 8 241 131 50 233 133 49
228 135 48 224 136 48 224 137 46 224 137 46 223 136 44 223 136 44
223 136 44 223 136 44 238 174 73 238 174 73 238 174 73 238 174 73
238 174 73 236 175 73 237 176 74 235 177 74 237 178 75 235 179 75
236 180 76 236 180 76 237 182 75 237 182 75 237 182 75 241 180 75
248 178 79 250 177 79 247 179 79 250 177 79 221 134 40 224 132 40
221 134 38 221 134 38 224 132 40 226 131 40 226 131 40 227 130 40
230 133 42 222 128 37 232 140 48 226 136 44 231 144 51 230 145 51
230 145 51 230 145 51 229 144 49 229 144 49 229 144 49 233 141 49
206 97 13 212 94 13 212 94 13 212 93 15 212 93 17 212 93 17 212 93 17
214 92 17 217 87 17 222 87 19 208 74 5 208 74 5 209 74 8 209 74 8
209 74 8 206 76 8 200 77 7 199 78 7 200 77 7 203 76 7 196 65 0
197 64 0 199 63 0 200 62 2 200 58 4 201 57 6 201 57 6 201 57 6
206 62 10 201 57 6 208 64 13 201 59 5 202 63 5 202 63 5 202 63 5
202 63 5 203 64 6 203 64 6 203 64 6 203 64 6 210 75 13 209 76 11
209 76 11 209 76 11 209 76 11 209 76 11 209 76 11 209 76 11 210 77 11
211 79 12 212 80 13 212 80 13 211 79 12 211 79 12 211 79 12 211 79 12
210 80 10 208 81 10 208 81 10 208 81 10 218 91 20 218 91 20 217 92 20
217 92 20 216 94 19 215 95 19 216 94 19 216 94 19 214 92 15 216 95 17
216 97 19 218 101 22 218 101 22 218 101 22 219 100 22 219 100 22
221 102 21 221 102 21 221 102 21 216 104 21 224 124 37 219 127 37
219 127 37 219 127 37 219 127 37 219 127 37 219 127 37 221 126 37
227 130 42 230 125 40 209 97 14 210 91 11 220 98 21 220 98 21
218 99 21 217 100 21 215 101 21 215 101 21 217 99 23 218 99 23
211 88 16 210 85 13 213 85 14 210 85 13 210 85 11 210 85 11 213 84 11
213 84 11 210 83 10 200 80 4 243 131 50 234 131 48 228 133 46
225 134 46 225 134 46 225 134 46 224 133 45 224 133 45 224 133 45
224 133 45 244 171 73 244 171 73 244 171 73 244 171 73 244 171 73
244 171 73 245 172 74 243 173 74 245 174 75 243 175 75 244 176 76
243 177 76 244 179 75 244 179 75 245 178 75 249 176 75 255 173 79
255 172 79 254 174 79 255 173 79 224 127 37 225 126 37 221 129 35
219 130 35 221 128 37 222 128 37 224 127 37 224 127 37 226 129 39
219 124 33 233 141 49 227 139 46 231 146 52 231 146 52 230 145 51
230 145 51 229 144 49 229 144 49 229 144 49 233 141 49 204 100 14
209 97 14 209 97 14 209 97 14 209 97 16 209 96 18 209 96 18 212 95 18
215 90 18 218 91 20 204 77 6 204 77 6 206 78 9 206 78 9 206 78 9
204 79 9 200 79 8 198 80 8 200 79 8 201 78 8 193 65 0 194 64 0
196 63 0 198 63 0 198 62 1 199 61 3 199 61 3 199 61 3 198 59 2
198 59 2 203 64 6 203 64 6 203 64 6 203 64 6 203 64 6 203 64 6
204 65 7 204 65 7 204 65 7 204 65 7 209 73 12 208 75 10 208 75 10
208 75 10 208 75 10 208 75 10 208 75 10 208 75 10 209 76 9 210 77 11
211 79 12 211 79 12 211 79 12 211 79 12 211 79 12 211 79 12 210 80 10
208 81 10 208 81 10 208 81 10 217 90 19 217 90 19 216 91 19 216 91 19
215 93 18 214 94 18 215 93 18 215 93 18 214 92 15 212 93 15 214 97 19
213 98 19 211 99 19 211 99 19 211 99 19 211 99 19 212 101 18
212 101 18 212 101 18 209 102 18 223 128 40 220 130 40 220 130 40
220 130 40 220 130 40 220 130 40 220 130 40 220 130 40 224 132 42
226 129 41 209 102 18 210 98 15 213 96 17 213 96 17 212 97 17
210 98 17 210 98 17 210 98 17 210 98 19 212 97 19 209 89 16 208 86 13
209 87 14 210 85 13 208 86 11 210 85 11 213 84 11 213 84 11 204 78 4
201 81 5 237 125 44 236 131 48 231 131 46 230 132 46 230 132 46
230 132 46 228 131 45 228 131 45 228 131 45 228 131 45 213 113 24
213 113 24 213 113 24 213 113 24 213 113 24 213 113 24 212 115 25
212 115 25 212 117 26 212 117 26 211 119 27 211 119 27 212 121 26
212 121 26 214 120 26 216 119 26 220 118 30 220 118 30 216 122 31
218 121 31 226 117 31 226 117 31 221 122 30 218 123 30 218 123 32
218 123 32 219 123 30 221 122 30 220 123 33 216 122 31 235 146 53
233 145 52 231 146 50 229 147 50 229 147 50 229 147 50 230 145 51
230 145 51 231 144 51 233 143 51 219 124 33 222 123 33 222 122 35
222 122 35 223 121 37 223 121 37 223 121 39 227 119 39 229 114 37
233 116 39 219 102 25 219 101 27 220 102 28 220 102 28 219 103 28
219 103 28 217 102 27 217 102 27 219 101 27 221 101 27 209 84 12
210 83 12 212 82 12 212 82 12 214 84 16 214 84 16 214 84 16 214 84 16
217 86 19 214 84 16 204 74 6 203 70 6 205 69 8 206 68 10 206 68 10
206 68 10 206 68 10 206 68 10 206 68 10 206 68 10 207 71 10 205 72 8
205 72 8 205 72 8 205 72 8 205 72 8 205 72 8 205 72 8 207 74 7
208 75 8 209 76 9 209 76 9 211 79 12 211 79 12 211 79 12 211 79 12
210 80 10 208 81 10 208 81 10 208 81 10 215 88 17 215 88 17 213 88 17
213 88 17 213 91 16 211 92 16 213 91 16 213 91 16 211 89 12 211 92 14
231 114 35 231 119 38 228 121 36 226 122 36 226 122 36 226 122 36
227 123 37 227 123 35 227 123 35 224 125 35 232 142 49 230 143 49
230 143 49 230 143 49 230 143 49 230 143 49 230 143 49 229 144 49
226 141 49 231 141 50 217 119 32 222 117 32 228 121 38 228 121 38
226 121 38 226 121 38 228 121 38 229 120 38 229 120 38 231 118 40
207 90 16 207 87 13 209 87 14 208 86 13 208 86 11 210 85 11 211 85 11
211 85 11 219 95 21 211 92 16 219 107 27 214 105 23 213 103 22
213 103 22 213 103 22 213 103 22 212 102 21 212 102 21 212 102 21
212 102 21 221 109 24 221 109 24 221 109 24 221 109 24 221 109 24
219 110 24 220 111 25 220 111 25 220 113 26 220 113 26 219 115 27
219 115 27 220 117 26 220 117 26 222 116 26 224 115 26 225 116 30
223 117 30 220 118 30 222 117 30 225 114 28 225 114 28 220 119 28
217 120 28 215 121 30 217 120 30 218 119 28 218 119 28 217 120 30
214 120 28 235 148 54 236 151 56 229 147 50 229 147 50 229 147 50
229 147 50 230 145 51 230 145 51 230 145 51 231 144 51 219 127 35
221 127 35 221 126 37 221 126 37 223 125 39 223 125 39 223 125 39
224 124 41 225 120 39 229 121 41 217 106 28 218 106 28 219 107 29
219 106 31 218 107 31 218 107 31 218 105 30 220 104 30 221 104 28
223 103 28 207 85 10 210 83 10 212 83 10 212 83 10 214 86 16
214 86 16 214 86 16 214 86 16 211 84 13 214 86 16 202 75 4 206 76 8
208 72 11 210 71 13 210 71 13 210 71 13 209 70 12 209 70 12 209 70 12
207 71 10 206 70 7 204 71 7 204 71 7 204 71 7 204 71 7 204 71 7
204 71 7 204 71 7 205 73 6 207 74 7 208 75 8 208 75 8 211 79 12
211 79 12 211 79 12 211 79 12 210 79 12 210 80 10 210 80 10 208 81 10
214 86 16 214 86 16 212 87 16 212 87 16 212 90 15 212 90 15 212 90 15
212 90 15 211 88 14 208 88 10 228 115 35 224 117 33 221 119 33
220 120 33 220 120 33 220 120 33 221 121 32 221 121 32 221 121 32
219 122 32 234 144 52 231 146 52 231 146 52 231 146 52 231 146 52
231 146 52 231 146 52 231 146 52 225 142 49 229 143 51 219 124 35
224 124 37 225 120 37 225 120 37 223 121 37 223 121 37 225 121 35
227 120 35 227 120 35 228 119 37 207 90 14 207 87 13 209 87 14
208 86 13 208 86 11 208 86 11 210 85 11 211 85 11 215 90 16 211 92 16
215 101 21 216 104 23 216 102 22 216 102 22 216 102 22 216 102 22
215 101 21 215 101 21 215 101 21 215 101 21 222 113 27 222 113 27
222 113 27 222 113 27 221 112 26 220 113 26 220 113 26 220 113 26
221 114 27 221 114 27 221 114 27 221 114 27 220 116 28 220 116 28
220 116 28 222 115 28 223 117 30 222 117 30 222 117 30 222 117 30
220 116 28 220 116 28 219 117 28 217 118 28 216 119 26 216 119 26
219 117 26 219 117 26 217 118 26 212 121 26 234 150 53 235 153 56
230 148 51 230 148 51 230 148 51 230 148 51 229 147 50 229 147 50
229 147 50 233 146 50 221 128 37 224 127 37 224 127 37 224 126 39
224 126 39 224 126 39 224 126 39 224 126 41 225 127 42 227 126 42
215 108 26 216 104 23 219 104 24 219 104 26 217 105 26 215 105 26
216 103 25 217 103 25 219 102 25 221 101 25 209 87 12 213 86 12
214 85 12 214 85 12 215 86 16 215 85 18 215 85 18 215 85 18 215 85 18
217 86 19 203 72 5 204 74 6 206 70 9 206 70 9 206 70 9 206 70 9
207 71 10 207 71 10 207 71 10 207 71 10 206 70 7 206 70 7 206 70 7
206 70 7 206 70 7 206 70 7 206 70 7 206 70 7 203 70 6 205 72 8
209 76 11 211 78 14 211 78 14 211 78 14 211 78 14 211 78 14 213 78 12
213 78 12 211 79 12 210 79 12 214 86 18 214 86 18 212 87 18 212 87 16
213 89 15 213 89 15 213 88 17 213 88 17 215 90 16 210 91 13
227 120 35 222 123 33 222 123 33 222 123 33 222 123 33 222 123 33
223 124 34 223 124 34 223 124 34 221 125 34 232 142 49 229 144 49
229 144 49 229 144 49 229 144 49 229 144 49 229 144 49 229 144 49
225 142 49 230 143 51 219 124 35 226 124 37 226 122 36 226 122 36
225 123 36 225 123 36 225 123 34 225 123 32 225 123 34 228 121 36
210 90 15 211 86 14 211 88 16 209 87 14 209 87 14 209 87 14 211 86 12
211 86 12 212 88 14 209 89 14 213 98 21 215 100 23 216 101 24
218 101 24 216 102 22 216 102 22 216 102 22 216 102 22 216 102 22
216 102 22 221 114 27 221 114 27 221 114 27 221 114 27 220 113 26
220 113 26 220 113 26 220 113 26 221 114 27 221 114 27 221 114 27
221 114 27 220 116 28 220 116 28 220 116 28 220 116 28 222 117 30
222 117 30 222 117 30 222 117 30 220 118 30 220 118 30 220 118 30
218 119 30 217 120 28 217 120 28 220 119 28 220 119 28 218 119 28
214 122 28 233 151 53 234 154 56 229 149 51 230 148 51 230 148 51
230 148 51 229 147 50 229 147 50 229 147 50 231 146 50 221 128 37
224 127 37 224 127 37 224 127 37 224 126 39 224 126 39 224 126 39
224 126 39 223 128 40 225 128 40 213 109 26 216 104 23 219 104 24
219 104 24 217 105 24 215 106 24 216 103 25 217 103 25 219 102 25
221 101 25 211 86 12 213 86 12 214 85 12 214 84 14 215 85 18
215 85 18 215 85 18 215 85 18 215 85 18 217 86 19 203 72 5 205 72 8
206 70 9 206 70 9 206 70 9 206 70 9 206 70 9 206 70 9 206 70 9
206 70 9 206 70 7 206 70 7 206 70 7 206 70 7 206 70 7 206 70 7
206 70 7 206 70 7 203 70 6 205 72 8 209 76 11 211 78 14 211 78 14
211 78 14 211 78 14 213 77 14 214 77 12 214 77 12 213 78 12 211 79 12
215 85 18 214 86 18 212 87 18 212 87 18 215 88 17 215 88 17 213 88 19
213 88 19 216 89 18 210 91 13 223 122 33 220 124 31 222 123 33
222 123 33 222 123 33 222 123 33 223 124 34 223 124 34 223 124 34
221 125 34 232 142 49 229 144 49 229 144 49 229 144 49 229 144 49
229 144 49 229 144 49 229 144 49 225 142 49 230 143 51 219 124 35
226 124 37 226 122 36 228 121 36 226 122 36 225 123 34 225 123 32
225 123 32 223 124 34 226 122 36 212 90 15 213 85 14 212 87 16
209 87 14 209 87 14 209 87 14 211 86 12 211 86 12 211 88 14 209 89 14
214 97 21 215 100 23 218 101 24 218 101 24 216 102 22 216 102 22
216 102 22 216 102 22 216 102 22 216 102 22 221 114 27 221 114 27
221 114 27 221 114 27 220 113 26 220 113 26 220 113 26 220 113 26
221 114 27 221 114 27 221 114 27 221 114 27 220 116 28 220 116 28
220 116 28 220 116 28 222 117 30 222 117 30 222 117 30 222 117 30
220 118 30 220 118 30 220 118 30 218 119 30 217 120 28 218 119 28
222 118 26 222 118 26 218 120 26 214 122 26 233 151 51 232 155 54
229 149 51 229 149 51 229 149 51 229 149 51 228 148 50 228 148 50
228 148 50 231 146 50 221 129 35 224 127 35 224 127 35 224 127 37
224 127 37 224 127 37 224 127 37 224 127 37 223 128 40 225 128 40
213 109 23 216 104 21 219 104 24 219 104 24 217 105 24 215 106 24
216 103 25 217 103 25 219 102 25 222 100 25 211 86 12 213 86 12
214 85 12 216 84 14 215 85 18 215 85 18 215 85 18 215 85 18 215 85 18
217 86 19 203 72 5 205 72 8 206 70 9 206 70 9 206 70 9 206 70 9
206 70 9 206 70 9 206 70 9 206 70 9 206 70 7 206 70 7 206 70 7
206 70 7 206 70 7 206 70 7 206 70 7 206 70 7 203 70 6 205 72 8
209 76 11 211 78 14 211 78 14 211 78 14 211 78 14 213 77 14 214 77 12
214 77 12 213 78 12 211 79 12 215 85 18 214 86 18 212 87 18 212 87 18
215 88 17 215 88 17 213 88 19 213 88 19 216 89 18 210 91 13
223 122 33 220 124 31 222 123 31 222 123 31 222 123 31 222 123 31
223 124 32 223 124 32 223 124 32 221 125 32 232 142 47 229 144 47
229 144 47 229 144 47 229 144 49 229 144 49 229 144 49 229 144 49
225 142 47 230 143 49 219 124 33 226 124 35 226 122 36 228 121 36
226 122 36 225 123 34 225 123 32 225 123 32 223 124 34 226 122 36
212 90 15 213 85 14 212 87 16 211 86 14 209 87 14 209 87 14 209 87 12
209 87 12 211 88 14 209 89 14 214 97 21 217 99 23 218 101 24
218 101 24 216 102 22 216 102 22 216 102 22 216 102 22 216 102 22
216 102 22 220 113 26 220 113 26 220 113 26 220 113 26 220 113 26
220 113 26 220 113 26 220 113 26 221 114 27 221 114 27 221 114 27
221 114 27 220 116 28 220 116 28 220 116 28 220 116 28 222 117 30
222 117 30 222 117 30 222 117 30 220 118 30 220 118 30 220 118 30
220 118 30 218 119 28 218 119 28 222 118 26 222 118 26 218 120 26
214 122 26 231 152 51 230 156 54 227 150 51 229 149 51 229 149 51
229 149 51 228 148 50 228 148 50 228 148 50 231 146 50 221 129 35
224 127 35 224 127 35 224 127 35 224 127 37 224 127 37 224 127 37
224 127 37 223 128 40 225 128 40 213 109 23 216 104 21 219 104 24
219 104 24 217 105 24 217 105 24 217 103 25 219 102 25 221 101 25
222 100 25 211 86 12 214 85 12 216 84 12 216 84 14 215 85 18
215 85 18 215 85 18 215 85 18 215 85 18 217 86 19 203 72 5 205 72 8
206 70 9 206 70 9 206 70 9 206 70 9 206 70 9 206 70 9 206 70 9
206 70 9 206 70 7 206 70 7 206 70 7 206 70 7 206 70 7 206 70 7
206 70 7 206 70 7 203 70 6 205 72 8 209 76 11 211 78 14 211 78 14
211 78 14 211 78 14 213 77 14 214 77 12 214 77 12 213 78 12 211 79 12
215 85 18 214 86 18 212 87 18 212 87 18 215 88 17 215 88 17 213 88 19
213 88 19 216 89 18 210 91 13 223 122 33 220 124 31 222 123 31
222 123 31 222 123 31 222 123 31 223 124 32 223 124 32 223 124 32
221 125 32 232 142 47 229 144 47 229 144 47 229 144 47 229 144 49
229 144 49 229 144 49 229 144 49 225 142 47 230 143 49 219 124 33
226 124 35 226 122 36 228 121 36 226 122 36 225 123 34 225 123 32
225 123 32 223 124 34 226 122 36 212 90 15 214 84 14 214 86 16
211 86 14 209 87 14 209 87 14 209 87 12 209 87 12 211 88 14 211 88 14
216 96 21 217 99 23 218 101 24 218 101 24 216 102 22 216 102 22
216 102 22 216 102 22 216 102 22 216 102 22 220 113 26 220 113 26
220 113 26 220 113 26 220 113 26 220 113 26 220 113 26 220 113 26
221 114 27 221 114 27 221 114 27 221 114 27 220 116 28 220 116 28
220 116 28 220 116 28 222 117 32 222 117 32 222 117 32 222 117 32
220 118 32 220 118 32 220 118 30 220 118 30 218 119 28 218 119 28
223 117 26 223 117 26 220 119 26 214 122 26 231 152 51 230 156 54
227 150 51 229 149 51 229 149 51 229 149 51 229 149 51 229 149 51
229 149 51 232 148 51 222 130 36 225 128 36 225 128 36 225 128 36
225 128 38 225 128 38 225 128 38 225 128 38 222 127 39 224 126 39
212 108 22 215 103 20 217 103 23 217 103 23 216 104 23 216 104 23
217 103 25 219 102 25 221 101 25 222 100 25 211 86 12 214 85 12
216 84 12 216 84 14 215 85 18 215 85 18 215 85 18 215 85 18 215 85 18
217 86 19 203 72 5 205 72 8 206 70 9 206 70 9 206 70 9 206 70 9
206 70 9 206 70 9 206 70 9 206 70 9 206 70 7 206 70 7 206 70 7
206 70 7 206 70 7 206 70 7 206 70 7 206 70 7 203 70 6 205 72 8
209 76 11 211 78 14 211 78 14 211 78 14 211 78 14 213 77 14 214 77 12
214 77 12 213 78 12 211 79 12 215 85 18 214 86 18 212 87 18 212 87 18
215 88 17 215 88 17 213 88 19 213 88 19 216 89 18 210 91 13
223 122 33 220 124 31 222 123 31 222 123 31 222 123 31 222 123 31
223 124 32 223 124 32 223 124 32 221 125 32 232 142 47 229 144 47
229 144 47 229 144 47 229 144 49 229 144 49 229 144 49 229 144 49
225 142 47 230 143 49 219 124 33 226 124 35 227 123 37 229 122 37
227 123 37 226 124 35 226 124 33 226 124 33 224 125 35 227 123 37
213 91 16 215 86 16 215 88 17 212 87 16 211 88 16 211 88 16 211 88 14
211 88 14 212 90 15 212 90 15 217 97 22 219 100 24 218 101 24
218 101 24 216 101 24 216 101 24 216 101 24 216 101 24 216 101 24
216 101 24 219 112 25 219 112 25 219 112 25 219 112 25 220 113 26
220 113 26 220 113 26 220 113 26 221 114 27 221 114 27 221 114 27
221 114 27 220 116 28 220 116 28 220 116 28 220 116 28 222 117 32
222 117 32 222 117 32 222 117 32 220 118 32 220 118 32 220 118 30
220 118 30 218 119 28 218 119 28 223 117 26 223 117 26 220 119 26
214 122 26 231 152 51 230 156 54 227 150 51 229 149 51 229 149 51
229 149 51 229 149 51 229 149 51 229 149 51 232 148 51 222 130 36
225 128 36 225 128 36 225 128 36 225 128 38 225 128 38 225 128 38
225 128 38 222 127 39 224 126 39 212 108 22 215 103 20 217 103 23
217 103 23 216 104 23 216 104 23 217 103 25 219 102 25 221 101 25
222 100 25 211 86 12 214 85 12 216 84 12 216 84 14 215 85 18
215 85 18 215 85 18 215 85 18 215 85 18 217 86 19 203 72 5 205 72 8
206 70 9 206 70 9 206 70 9 206 70 9 206 70 9 206 70 9 206 70 9
206 70 9 206 70 7 206 70 7 206 70 7 206 70 7 206 70 7 206 70 7
206 70 7 206 70 7 203 70 6 205 72 8 209 76 11 211 78 14 211 78 14
211 78 14 211 78 14 213 77 14 214 77 12 214 77 12 213 78 12 211 79 12
215 85 18 214 86 18 212 87 18 212 87 18 215 88 17 215 88 17 213 88 19
213 88 19 216 89 18 210 91 13 223 122 33 220 124 31 222 123 31
222 123 31 222 123 31 222 123 31 223 124 32 223 124 32 223 124 32
221 125 32 232 142 47 229 144 47 229 144 47 229 144 47 229 144 49
229 144 49 229 144 49 229 144 49 225 142 47 230 143 49 219 124 33
226 124 35 227 123 37 229 122 37 227 123 37 226 124 35 226 124 33
226 124 33 224 125 35 227 123 37 213 91 16 215 86 16 215 88 17
212 87 16 211 88 16 211 88 16 211 88 14 211 88 14 212 90 15 212 90 15
217 97 22 219 100 24 218 101 24 218 101 24 216 101 24 216 101 24
216 101 24 216 101 24 216 101 24 216 101 24 219 112 25 219 112 25
219 112 25 219 112 25 220 113 26 220 113 26 220 113 26 220 113 26
221 114 27 221 114 27 221 114 27 221 114 27 220 116 28 220 116 28
220 116 28 220 116 28 222 117 32 222 117 32 222 117 32 222 117 32
220 118 32 220 118 32 220 118 30 220 118 30 218 119 28 218 119 28
223 117 26 223 117 26 220 119 26 214 122 26 231 152 51 230 156 54
227 150 51 229 149 51 229 149 51 229 149 51 229 149 51 229 149 51
229 149 51 232 148 51 222 130 36 225 128 36 225 128 36 225 128 36
225 128 38 225 128 38 225 128 38 225 128 38 222 127 39 224 126 39
212 108 22 215 103 20 217 103 23 217 103 23 216 104 23 216 104 23
217 103 25 219 102 25 221 101 25 222 100 25 211 86 12 214 85 12
216 84 12 216 84 14 215 85 18 215 85 18 215 85 18 215 85 18 215 85 18
217 86 19 203 72 5 205 72 8 206 70 9 206 70 9 206 70 9 206 70 9
206 70 9 206 70 9 206 70 9 206 70 9 206 70 7 206 70 7 206 70 7
206 70 7 206 70 7 206 70 7 206 70 7 206 70 7 203 70 6 205 72 8
209 76 11 211 78 14 211 78 14 211 78 14 211 78 14 213 77 14 214 77 12
214 77 12 213 78 12 211 79 12 215 85 18 214 86 18 212 87 18 212 87 18
215 88 17 215 88 17 213 88 19 213 88 19 216 89 18 210 91 13
223 122 33 220 124 31 222 123 31 222 123 31 222 123 31 222 123 31
223 124 32 223 124 32 223 124 32 221 125 32 232 142 47 229 144 47
229 144 47 229 144 47 229 144 49 229 144 49 229 144 49 229 144 49
225 142 47 230 143 49 219 124 33 226 124 35 227 123 37 229 122 37
227 123 37 226 124 35 226 124 33 226 124 33 224 125 35 227 123 37
213 91 16 215 86 16 215 88 17 212 87 16 211 88 16 211 88 16 211 88 14
211 88 14 212 90 15 212 90 15 217 97 22 219 100 24 218 101 24
218 101 24 216 101 24 216 101 24 216 101 24 216 101 24 216 101 24
216 101 24 219 112 25 219 112 25 219 112 25 219 112 25 220 113 26
220 113 26 220 113 26 220 113 26 221 114 27 221 114 27 221 114 27
221 114 27 220 116 28 220 116 28 220 116 28 220 116 28 222 117 32
222 117 32 222 117 32 222 117 32 220 118 32 220 118 32 220 118 30
220 118 30 218 119 28 218 119 28 223 117 26 223 117 26 220 119 26
214 122 26 231 152 51 230 156 54 227 150 51 229 149 51 229 149 51
229 149 51 229 149 51 229 149 51 229 149 51 232 148 51 222 130 36
225 128 36 225 128 36 225 128 36 225 128 38 225 128 38 225 128 38
225 128 38 222 127 39 224 126 39 212 108 22 215 103 20 217 103 23
217 103 23 216 104 23 216 104 23 217 103 25 219 102 25 221 101 25
222 100 25 211 86 12 214 85 12 216 84 12 216 84 14 215 85 18
215 85 18 215 85 18 215 85 18 215 85 18 217 86 19 203 72 5 205 72 8
206 70 9 206 70 9 206 70 9 206 70 9 206 70 9 206 70 9 206 70 9
206 70 9 206 70 7 206 70 7 206 70 7 206 70 7 206 70 7 206 70 7
206 70 7 206 70 7 203 70 6 205 72 8 209 76 11 211 78 14 211 78 14
211 78 14 211 78 14 213 77 14 214 77 12 214 77 12 213 78 12 211 79 12
215 85 18 214 86 18 212 87 18 212 87 18 215 88 17 215 88 17 213 88 19
213 88 19 216 89 18 210 91 13 223 122 33 220 124 31 222 123 31
222 123 31 222 123 31 222 123 31 223 124 32 223 124 32 223 124 32
221 125 32 232 142 47 229 144 47 229 144 47 229 144 47 229 144 49
229 144 49 229 144 49 229 144 49 225 142 47 230 143 49 219 124 33
226 124 35 227 123 37 229 122 37 227 123 37 226 124 35 226 124 33
226 124 33 224 125 35 227 123 37 213 91 16 215 86 16 215 88 17
212 87 16 211 88 16 211 88 16 211 88 14 211 88 14 212 90 15 212 90 15
217 97 22 219 100 24 218 101 24 218 101 24 216 101 24 216 101 24
216 101 24 216 101 24 216 101 24 216 101 24
