P3
160 160
255
205 72 12 205 72 12 205 72 12 205 72 12 207 71 12 207 71 12 207 71 12
208 72 13 210 71 13 207 69 11 203 64 6 200 62 4 203 62 5 204 63 6
204 63 6 204 63 6 203 64 6 203 64 6 203 64 6 203 64 6 203 64 6
203 64 6 203 64 6 203 64 6 203 64 6 203 64 6 203 64 6 202 63 5
202 63 5 204 65 7 207 69 11 210 71 13 209 70 12 209 70 12 209 70 12
209 70 12 209 70 12 209 70 12 207 71 12 206 70 11 206 70 11 205 68 10
203 69 10 203 69 10 203 69 10 203 69 10 203 69 10 203 69 10 205 68 10
205 68 10 205 68 10 205 68 10 205 68 10 205 68 10 205 69 8 205 69 8
205 69 8 205 69 8 205 69 6 205 69 6 212 76 13 212 76 13 212 76 13
212 76 13 210 77 13 210 77 13 210 77 13 209 76 11 209 76 11 211 78 14
214 84 16 215 85 18 213 85 14 211 84 13 210 85 11 210 85 11 208 86 11
208 86 11 208 86 11 208 86 11 218 99 23 218 99 23 218 99 23 218 99 23
216 98 22 216 98 22 216 99 20 216 99 20 216 99 18 211 99 17
223 124 34 217 125 33 215 126 33 215 126 33 219 124 33 220 123 33
222 122 35 220 123 35 219 124 35 222 122 35 208 96 15 211 94 15
209 95 15 211 94 15 217 92 18 218 91 18 218 91 18 220 93 19 221 93 23
218 91 20 215 88 17 211 84 13 210 85 13 210 85 13 210 85 13 210 85 13
211 84 13 211 84 13 211 84 13 210 83 12 210 83 12 209 82 11 209 82 11
209 82 11 211 81 11 211 81 11 211 81 13 209 81 13 209 83 14 206 88 16
225 119 41 221 126 39 218 128 35 218 129 33 223 126 31 224 126 29
223 127 29 223 127 29 221 127 31 218 129 31 233 149 50 230 151 50
228 152 50 228 152 50 230 151 50 228 152 50 224 154 50 224 154 50
226 151 51 230 145 49 212 116 23 215 111 21 215 108 21 217 108 21
217 108 21 217 108 21 217 107 23 217 107 23 217 107 23 217 107 23
205 72 12 205 72 12 205 72 12 205 72 12 207 71 12 207 71 12 207 71 12
208 72 13 210 71 13 207 69 11 203 64 6 200 62 4 203 62 5 204 63 6
204 63 6 204 63 6 203 64 6 203 64 6 203 64 6 203 64 6 203 64 6
203 64 6 203 64 6 203 64 6 203 64 6 203 64 6 203 64 6 202 63 5
202 63 5 204 65 7 207 69 11 210 71 13 209 70 12 209 70 12 209 70 12
209 70 12 209 70 12 209 70 12 207 71 12 206 70 11 206 70 11 205 68 10
203 69 10 203 69 10 203 69 10 203 69 10 203 69 10 203 69 10 205 68 10
205 68 10 205 68 10 205 68 10 205 68 10 205 68 10 205 69 8 205 69 8
205 69 8 205 69 8 205 69 6 205 69 6 212 76 13 212 76 13 212 76 13
212 76 13 210 77 13 210 77 13 210 77 13 209 76 11 209 76 11 211 78 14
214 84 16 215 85 18 213 85 14 211 84 13 210 85 11 210 85 11 208 86 11
208 86 11 208 86 11 208 86 11 218 99 23 218 99 23 218 99 23 218 99 23
216 98 22 216 98 22 216 99 20 216 99 20 216 99 18 211 99 17
223 124 34 217 125 33 215 126 33 215 126 33 219 124 33 220 123 33
222 122 35 220 123 35 219 124 35 222 122 35 208 96 15 211 94 15
209 95 15 211 94 15 217 92 18 218 91 18 218 91 18 220 93 19 221 93 23
218 91 20 215 88 17 211 84 13 210 85 13 210 85 13 210 85 13 210 85 13
211 84 13 211 84 13 211 84 13 210 83 12 210 83 12 209 82 11 209 82 11
209 82 11 211 81 11 211 81 11 211 81 13 209 81 13 209 83 14 206 88 16
225 119 41 221 126 39 218 128 35 218 129 33 223 126 31 224 126 29
223 127 29 223 127 29 221 127 31 218 129 31 233 149 50 230 151 50
228 152 50 228 152 50 230 151 50 228 152 50 224 154 50 224 154 50
226 151 51 230 145 49 212 116 23 215 111 21 215 108 21 217 108 21
217 108 21 217 108 21 217 107 23 217 107 23 217 107 23 217 107 23
205 72 12 205 72 12 205 72 12 205 72 12 207 71 12 207 71 12 207 71 12
208 72 13 210 71 13 207 69 11 203 64 6 200 62 4 203 62 5 204 63 6
204 63 6 204 63 6 203 64 6 203 64 6 203 64 6 203 64 6 203 64 6
203 64 6 203 64 6 203 64 6 203 64 6 203 64 6 203 64 6 202 63 5
202 63 5 204 65 7 207 69 11 210 71 13 209 70 12 209 70 12 209 70 12
209 70 12 209 70 12 209 70 12 207 71 12 206 70 11 206 70 11 205 68 10
203 69 10 203 69 10 203 69 10 203 69 10 203 69 10 203 69 10 205 68 10
205 68 10 205 68 10 205 68 10 205 68 10 205 68 10 205 69 8 205 69 8
205 69 8 205 69 8 205 69 6 205 69 6 212 76 13 212 76 13 212 76 13
212 76 13 210 77 13 210 77 13 210 77 13 209 76 11 209 76 11 211 78 14
214 84 16 215 85 18 213 85 14 211 84 13 210 85 11 210 85 11 208 86 11
208 86 11 208 86 11 208 86 11 218 99 23 218 99 23 218 99 23 218 99 23
216 98 22 216 98 22 216 99 20 216 99 20 216 99 18 211 99 17
223 124 34 217 125 33 215 126 33 215 126 33 219 124 33 220 123 33
222 122 35 220 123 35 219 124 35 222 122 35 208 96 15 211 94 15
209 95 15 211 94 15 217 92 18 218 91 18 218 91 18 220 93 19 221 93 23
218 91 20 215 88 17 211 84 13 210 85 13 210 85 13 210 85 13 210 85 13
211 84 13 211 84 13 211 84 13 210 83 12 210 83 12 209 82 11 209 82 11
209 82 11 211 81 11 211 81 11 211 81 13 209 81 13 209 83 14 206 88 16
225 119 41 221 126 39 218 128 35 218 129 33 223 126 31 224 126 29
223 127 29 223 127 29 221 127 31 218 129 31 233 149 50 230 151 50
228 152 50 228 152 50 230 151 50 228 152 50 224 154 50 224 154 50
226 151 51 230 145 49 212 116 23 215 111 21 215 108 21 217 108 21
217 108 21 217 108 21 217 107 23 217 107 23 217 107 23 217 107 23
205 72 12 205 72 12 205 72 12 207 71 12 207 71 12 207 71 12 207 71 12
208 72 13 210 71 13 207 69 11 203 64 6 200 62 4 203 62 5 204 63 6
204 63 6 204 63 6 203 64 6 203 64 6 203 64 6 203 64 6 203 64 6
203 64 6 203 64 6 203 64 6 203 64 6 203 64 6 203 64 6 202 63 5
202 63 5 204 65 7 207 69 11 210 71 13 209 70 12 209 70 12 209 70 12
209 70 12 209 70 12 209 70 12 207 71 12 206 70 11 206 70 11 205 68 10
203 69 10 203 69 10 203 69 10 203 69 10 203 69 10 203 69 10 205 68 10
205 68 10 205 68 10 205 68 10 205 68 10 205 68 10 205 69 8 205 69 8
205 69 8 205 69 8 205 69 6 205 69 6 212 76 13 212 76 13 212 76 13
212 76 13 210 77 13 210 77 13 210 77 13 209 76 11 209 76 11 211 78 14
214 84 16 215 85 18 213 85 14 211 84 13 210 85 11 210 85 11 208 86 11
208 86 11 208 86 11 208 86 11 218 99 23 218 99 23 218 99 23 218 99 23
216 98 22 216 98 22 216 99 20 216 99 20 216 99 18 211 99 17
223 124 34 219 124 33 215 126 33 215 126 33 219 124 33 220 123 33
222 122 35 220 123 35 219 124 35 222 122 35 208 96 15 211 94 15
209 95 15 211 94 15 217 92 18 218 91 18 218 91 18 220 93 19 220 92 21
217 90 19 214 86 16 210 83 12 210 85 13 210 85 13 210 85 13 210 85 13
211 84 13 211 84 13 211 84 13 210 83 12 209 82 11 209 82 11 209 82 11
209 82 11 211 81 11 211 81 11 211 81 13 209 81 13 209 83 14 206 88 16
225 119 41 221 126 39 218 128 35 218 129 33 223 126 31 224 126 29
223 127 29 223 127 29 221 127 31 218 129 31 233 149 50 230 151 50
228 152 50 228 152 50 230 151 50 228 152 50 224 154 50 224 154 50
226 151 51 230 145 49 212 116 23 215 111 21 215 108 21 217 108 21
217 108 21 217 108 21 217 107 23 217 107 23 217 107 23 217 107 23
207 71 12 207 71 12 207 71 12 207 71 12 209 70 12 209 70 12 207 71 12
208 72 13 210 71 13 207 69 11 203 64 6 200 62 4 203 62 5 204 63 6
204 63 6 204 63 6 203 64 6 203 64 6 203 64 6 203 64 6 203 64 6
203 64 6 203 64 6 203 64 6 203 64 6 203 64 6 203 64 6 202 63 5
202 63 5 204 65 7 207 69 11 210 71 13 209 70 12 209 70 12 209 70 12
209 70 12 209 70 12 209 70 12 207 71 12 206 70 11 206 70 11 205 68 10
205 68 10 205 68 10 205 68 10 205 68 10 205 68 10 205 68 10 205 68 10
205 68 10 205 68 10 205 68 10 205 68 10 205 68 10 205 69 8 205 69 8
205 69 8 205 69 8 205 69 6 205 69 6 212 76 13 212 76 13 212 76 13
212 76 13 210 77 13 210 77 13 212 76 13 210 75 11 209 76 11 211 78 14
214 84 16 215 85 18 213 85 14 211 84 13 210 85 11 210 85 11 208 86 11
208 86 11 208 86 11 208 86 11 218 99 23 218 99 23 218 99 23 218 99 23
217 99 23 217 99 23 217 100 21 217 100 21 217 100 19 212 101 18
226 124 35 220 125 34 218 126 34 218 126 34 220 125 34 221 125 34
223 123 36 221 124 36 220 125 36 223 123 36 209 97 16 212 95 16
210 96 16 212 95 16 217 92 18 218 91 18 218 91 18 220 93 19 220 92 21
217 90 19 214 86 16 210 83 12 209 84 12 209 84 12 209 84 12 209 84 12
211 84 13 211 84 13 211 84 13 211 84 13 209 82 11 208 81 10 208 81 10
208 81 10 210 80 10 211 79 10 211 79 12 210 79 12 208 82 13 205 87 15
224 118 40 220 124 40 218 128 37 218 129 33 223 126 31 224 126 29
223 127 29 223 127 29 221 127 31 218 129 31 233 149 50 230 151 50
228 152 50 228 152 50 230 151 50 228 152 50 224 154 50 224 154 50
226 151 51 230 145 49 212 116 23 215 111 21 216 110 23 218 109 23
218 109 23 218 109 23 218 108 25 218 108 25 218 108 25 218 108 25
207 71 12 207 71 12 207 71 12 207 71 12 209 70 12 209 70 12 207 71 12
208 72 13 210 71 13 207 69 11 203 64 6 200 62 4 203 62 5 204 63 6
204 63 6 204 63 6 203 64 6 203 64 6 203 64 6 203 64 6 203 64 6
203 64 6 203 64 6 203 64 6 203 64 6 203 64 6 203 64 6 202 63 5
202 63 5 204 65 7 207 69 11 210 71 13 209 70 12 209 70 12 209 70 12
209 70 12 209 70 12 209 70 12 207 71 12 206 70 11 206 70 11 205 68 10
205 68 10 205 68 10 205 68 10 205 68 10 205 68 10 205 68 10 205 68 10
205 68 10 205 68 10 205 68 10 205 68 10 205 68 10 205 69 8 205 69 8
205 69 8 205 69 8 205 69 6 205 69 6 212 76 13 212 76 13 212 76 13
212 76 13 210 77 13 210 77 13 212 76 13 210 75 11 209 76 11 211 78 14
214 84 16 215 85 18 213 85 14 211 84 13 210 85 11 210 85 11 208 86 11
208 86 11 208 86 11 208 86 11 218 99 23 218 99 23 218 99 23 218 99 23
217 99 23 217 99 23 217 100 21 217 100 21 217 100 19 212 101 18
226 124 35 220 125 34 218 126 34 218 126 34 220 125 34 221 125 34
223 123 36 221 124 36 220 125 36 223 123 36 209 97 16 212 95 16
210 96 16 210 96 16 215 93 18 218 91 18 218 91 18 220 93 19 218 91 20
216 89 18 213 85 14 209 82 11 209 84 12 209 84 12 209 84 12 209 84 12
211 84 13 211 84 13 211 84 13 211 84 13 208 81 10 208 81 10 208 81 10
210 80 10 211 79 10 211 79 10 211 79 12 210 79 12 208 82 13 203 88 15
224 118 40 220 124 40 218 128 37 218 128 35 223 126 31 224 126 29
223 127 29 223 127 29 221 127 31 218 129 31 233 149 50 230 151 50
228 152 50 228 152 50 230 151 50 228 152 50 224 154 50 224 154 50
226 151 49 230 145 49 212 116 23 215 111 21 216 110 21 218 109 23
218 109 23 218 109 23 218 108 25 218 108 25 218 108 25 218 108 25
207 71 12 207 71 12 207 71 12 207 71 12 209 70 12 209 70 12 207 71 12
208 72 13 210 71 13 207 69 11 201 65 6 200 62 4 202 63 5 203 64 6
203 64 6 203 64 6 203 64 8 203 64 8 203 64 8 203 64 8 203 64 6
203 64 6 203 64 6 203 64 6 203 64 6 203 64 6 203 64 6 202 63 5
202 63 5 204 65 7 207 69 11 210 71 13 209 70 12 209 70 12 209 70 12
209 70 12 209 70 12 209 70 12 207 71 12 206 70 11 206 70 11 205 68 10
205 68 10 205 68 10 205 68 10 205 68 10 205 68 10 205 68 10 205 68 10
205 68 10 205 68 10 205 68 10 205 68 10 205 68 10 205 69 8 205 69 8
205 69 8 205 69 8 203 70 6 203 70 6 210 77 13 210 77 13 210 77 13
210 77 13 210 77 11 210 77 11 212 77 11 212 77 11 209 76 9 211 79 12
214 84 16 215 86 16 213 85 14 211 85 11 210 85 11 210 86 9 208 87 9
208 87 9 208 87 9 208 87 9 218 99 21 218 99 21 218 99 21 218 99 21
217 100 21 217 100 21 217 100 21 217 100 21 217 100 19 212 101 18
226 124 35 220 125 34 218 126 34 218 126 34 220 125 34 221 125 34
223 123 36 221 124 36 220 125 36 223 123 36 209 97 16 212 95 16
210 96 16 210 96 16 215 93 18 217 92 18 217 92 18 218 93 19 217 92 20
215 90 18 211 86 14 208 83 11 209 84 12 209 84 12 209 84 12 209 84 12
211 84 13 211 84 13 211 84 13 211 84 13 208 81 10 208 81 10 208 81 10
210 80 10 211 79 10 211 79 10 211 79 12 210 79 12 206 83 13 203 88 15
224 118 40 221 123 40 218 127 39 218 128 35 223 126 33 224 126 31
223 126 31 223 126 31 221 127 31 218 129 31 233 149 50 230 151 50
228 152 50 228 152 50 230 151 48 228 152 48 224 154 48 224 154 48
226 152 47 230 146 47 212 116 21 215 111 19 216 110 21 218 109 21
218 109 23 218 109 23 218 108 25 218 108 25 218 108 25 218 108 25
208 72 13 208 72 13 208 72 13 208 72 13 210 71 13 210 71 13 208 72 13
208 72 13 210 71 13 207 69 11 201 65 6 198 61 3 200 62 4 202 63 5
202 63 5 202 63 7 204 63 8 206 62 8 204 63 8 204 63 8 204 63 6
203 64 6 203 64 6 203 64 6 203 64 6 203 64 6 203 64 6 202 63 5
202 63 5 204 65 7 207 69 11 210 71 13 209 70 12 209 70 12 209 70 12
209 70 12 209 70 12 209 70 12 207 71 12 206 70 11 205 68 10 205 68 10
205 68 10 205 68 10 205 68 10 205 68 10 205 68 10 205 68 10 205 68 10
205 68 10 205 68 10 205 68 10 205 68 10 205 68 10 205 69 8 205 69 8
205 69 8 205 69 8 203 70 6 203 70 6 210 77 13 210 77 13 210 77 13
210 77 13 208 78 11 210 77 11 212 77 11 212 77 11 209 76 9 207 77 9
213 85 14 212 87 16 213 86 12 211 85 11 210 86 9 210 86 9 208 87 9
208 87 9 208 87 9 208 87 9 220 98 21 220 98 21 220 98 21 218 99 21
218 99 21 218 99 21 218 99 21 217 100 21 215 101 19 211 101 18
223 122 33 221 125 34 220 125 34 220 125 34 221 125 34 221 125 34
223 123 36 221 124 36 220 125 36 223 123 36 209 97 16 212 95 16
210 96 16 210 96 16 215 93 18 217 92 18 217 92 18 218 93 19 217 92 20
215 90 18 211 86 14 208 83 11 211 84 13 211 84 13 211 84 13 211 84 13
213 83 15 213 83 15 213 83 15 213 83 15 210 79 12 210 79 12 210 79 12
210 79 12 210 79 12 210 79 12 210 79 12 208 80 12 207 84 14 201 85 13
225 117 42 223 122 42 221 126 39 221 126 37 224 125 33 224 125 33
221 127 33 219 128 31 218 129 31 216 130 31 233 149 50 230 151 50
228 152 50 228 152 48 230 151 48 228 152 48 225 154 46 225 154 46
227 151 47 230 146 45 211 117 19 211 113 19 215 111 21 215 110 23
215 110 23 216 110 23 216 109 25 216 109 25 216 109 25 216 109 25
210 71 13 210 71 13 210 71 13 210 71 13 210 71 13 210 71 13 210 71 13
209 70 12 206 70 11 205 68 10 202 66 7 199 63 4 200 64 5 201 65 6
201 65 8 204 63 8 209 60 10 211 59 10 209 60 8 206 60 7 204 60 4
201 60 3 199 61 1 199 61 1 199 61 3 199 61 3 201 59 5 201 59 5
197 58 0 199 61 3 204 65 7 207 69 11 210 71 13 210 71 13 210 71 13
210 71 13 208 72 11 208 72 11 208 72 11 208 72 11 206 68 10 205 66 9
203 67 9 203 67 9 203 67 9 203 67 9 203 67 9 203 67 9 205 68 10
205 68 10 205 68 10 205 68 10 206 70 11 206 70 11 204 71 9 204 71 9
204 71 9 204 71 9 204 71 7 204 71 7 211 79 12 211 79 12 211 79 12
211 79 12 210 79 12 211 79 12 213 78 12 212 77 11 210 78 9 203 76 5
210 92 18 204 87 10 209 87 12 211 86 12 211 87 10 211 87 10 211 87 10
212 88 12 213 89 13 215 90 14 216 92 15 217 93 16 218 94 17 218 96 19
218 96 19 218 96 19 218 96 17 214 98 17 206 97 13 208 106 20
220 120 33 223 125 37 220 125 36 220 125 36 221 124 36 223 123 36
223 123 36 221 124 36 220 125 36 223 123 36 209 97 16 212 95 16
210 96 16 210 96 16 214 94 18 215 93 18 215 93 18 215 93 18 215 93 20
212 89 19 208 85 15 206 81 12 213 83 15 215 82 15 215 82 15 215 82 15
215 82 17 215 82 17 215 82 17 215 82 17 211 78 14 211 78 14 211 78 14
210 79 14 208 80 14 208 80 14 206 81 14 206 81 14 206 83 15 199 81 11
234 121 48 222 114 37 227 122 41 227 123 37 227 123 37 224 125 35
218 128 35 215 130 33 215 131 31 215 131 31 230 149 47 232 150 48
230 151 48 231 152 49 234 153 50 234 155 52 234 155 52 235 156 53
232 150 48 233 146 46 207 118 21 207 113 17 209 115 22 211 114 24
211 114 26 213 113 26 214 112 26 214 112 26 214 112 26 214 112 26
207 69 11 207 69 11 207 69 11 207 69 11 207 69 11 207 69 11 207 69 11
207 69 11 205 68 10 205 68 10 205 68 10 203 67 9 205 68 10 206 70 11
206 69 13 209 68 13 214 65 15 215 64 15 214 65 13 212 66 11 201 60 3
199 61 1 198 62 1 196 63 0 196 63 0 198 62 1 198 62 1 198 62 1
200 64 3 201 65 4 202 66 5 205 69 8 207 71 10 207 71 10 207 71 10
207 71 10 207 71 10 207 71 10 207 71 10 207 71 10 205 66 9 205 66 9
203 67 9 203 67 9 203 67 9 203 67 9 203 67 9 203 67 9 205 68 10
205 68 10 205 68 10 205 68 10 206 70 11 206 70 11 204 71 9 204 71 9
204 71 9 204 71 9 204 71 7 204 71 7 211 79 12 211 79 12 211 79 12
211 79 12 210 79 12 210 79 12 211 79 12 212 77 11 210 78 9 203 78 6
211 99 21 206 96 17 205 88 11 207 87 11 207 87 9 207 87 9 207 87 9
208 88 10 209 90 12 210 91 13 211 92 14 212 93 15 214 94 16 215 95 17
215 95 17 215 95 17 215 96 15 212 97 15 210 105 20 211 112 25
217 119 32 221 124 36 220 125 36 221 124 36 223 123 36 223 123 36
223 123 36 221 124 36 220 125 36 223 123 36 209 97 16 212 95 16
210 96 16 210 96 16 214 94 18 215 93 18 215 93 18 215 93 20 215 92 22
212 89 19 208 85 15 206 81 12 213 81 14 215 80 14 215 80 14 215 80 16
215 79 18 215 79 18 215 79 18 215 79 18 214 78 17 214 78 17 212 79 17
212 79 17 209 81 17 209 81 17 208 81 17 208 81 17 199 76 8 199 76 8
235 114 43 234 116 42 236 121 44 236 122 42 236 122 42 233 124 40
227 127 40 223 129 38 223 129 36 223 129 36 237 144 48 237 144 48
238 145 49 238 145 49 238 145 49 238 145 49 240 146 50 240 146 52
240 144 51 240 142 50 217 118 26 217 118 28 211 112 23 213 111 25
213 111 25 213 110 27 215 110 27 216 109 27 216 109 27 216 109 27
203 64 6 203 64 6 203 64 6 203 64 6 203 64 6 203 64 6 203 64 6
203 64 6 202 66 7 205 68 10 204 70 11 204 70 11 205 72 12 205 72 12
208 72 15 210 71 15 211 70 15 211 70 15 210 71 15 208 72 13 226 93 31
223 95 29 222 96 27 222 97 25 222 97 25 222 97 25 223 96 25 223 96 25
221 93 23 220 92 21 218 91 20 217 90 19 217 86 19 217 86 19 217 86 19
217 86 19 217 86 19 218 85 21 218 85 21 218 85 21 203 68 6 205 66 9
203 67 9 203 67 9 203 67 9 203 67 9 203 67 9 203 67 9 205 68 10
205 68 10 206 70 11 205 68 10 206 70 11 206 70 11 204 71 9 204 71 9
204 71 9 204 71 9 203 72 7 203 72 7 210 79 12 210 79 12 210 79 12
210 79 12 210 79 12 210 79 12 211 79 10 213 78 10 209 77 7 204 79 5
218 106 28 215 108 26 220 112 30 220 112 30 220 112 30 220 113 28
220 113 28 221 114 29 222 115 30 223 116 32 224 117 33 225 119 34
227 120 35 228 121 36 228 121 36 228 121 36 228 121 36 225 121 35
220 118 32 218 119 32 219 122 34 220 123 35 221 124 36 221 124 36
223 123 36 223 123 36 223 123 36 221 124 36 220 125 36 223 123 36
209 97 16 212 95 16 210 96 16 210 96 16 212 95 18 214 94 18 214 94 18
214 94 20 215 94 23 211 91 20 207 86 15 206 81 12 211 79 12 213 78 12
213 78 12 213 77 14 213 77 16 213 77 16 213 77 16 213 77 16 202 66 5
202 66 5 202 66 5 201 67 5 201 67 5 199 68 5 199 68 5 201 70 8
204 73 8 203 72 7 208 80 12 206 78 7 204 78 4 204 78 4 204 78 4
203 79 2 201 80 2 200 81 0 202 83 3 203 84 4 206 87 4 207 88 5
208 89 6 208 89 8 208 89 8 208 89 8 207 88 7 207 87 9 209 90 12
211 92 14 194 75 0 196 77 0 202 83 5 200 83 5 200 83 5 200 83 7
200 83 7 202 82 7 202 82 7 202 82 7 199 61 3 199 61 3 199 61 3
199 61 3 199 61 3 199 61 3 199 61 3 198 59 2 198 61 3 202 66 7
204 70 11 204 70 11 205 72 12 205 72 12 208 72 15 208 72 15 208 72 15
207 73 13 207 73 13 205 74 11 217 91 24 215 92 22 214 94 20 214 94 18
214 94 16 214 94 16 214 94 16 215 94 16 220 98 21 219 95 21 215 90 16
211 86 12 212 88 14 214 86 16 214 86 16 214 86 16 214 86 16 215 85 18
215 85 18 215 85 18 203 68 6 205 66 9 203 67 9 203 67 9 203 67 9
203 67 9 203 67 9 203 67 9 203 67 9 205 68 10 206 70 11 205 68 10
206 70 11 206 70 11 204 71 9 204 71 9 204 71 9 204 71 9 203 72 7
203 72 7 210 79 12 210 79 12 210 79 12 210 79 12 208 80 12 210 79 12
211 79 10 213 78 10 208 76 4 206 82 8 223 111 30 220 115 32
216 114 30 215 115 30 215 115 28 215 115 28 215 115 28 216 116 29
217 118 30 218 119 32 220 120 33 221 121 34 222 122 35 223 123 36
223 123 36 225 123 36 225 123 36 223 123 36 224 124 37 223 123 36
220 123 35 220 123 35 220 123 35 221 124 36 223 123 36 223 123 36
223 123 36 221 124 36 220 125 36 223 123 36 209 97 16 212 95 16
210 96 16 210 96 16 212 95 18 214 94 18 214 94 18 214 94 20 215 94 23
211 91 20 206 85 14 206 81 12 210 77 11 212 77 11 212 77 11 212 76 13
212 76 15 212 76 15 212 76 15 212 76 15 205 69 8 205 69 8 205 69 8
205 69 8 205 69 8 205 69 8 205 69 8 202 66 5 203 68 4 207 72 8
209 74 8 214 79 13 214 79 11 212 77 9 212 77 9 210 78 7 210 78 7
210 78 7 211 79 8 212 81 9 213 82 8 213 82 8 215 83 11 213 82 10
212 81 9 211 79 8 211 79 10 210 78 9 215 82 13 220 88 19 204 74 6
210 79 12 207 77 7 206 78 7 206 78 7 206 78 7 206 78 7 206 78 7
206 78 7 206 78 7 201 60 3 201 60 3 201 60 3 201 60 3 201 60 3
201 60 3 199 61 3 197 58 0 196 60 2 202 66 7 204 70 11 204 70 11
205 72 12 205 72 12 207 73 13 207 73 13 207 73 13 205 74 13 203 75 11
202 76 9 219 96 24 217 97 22 216 99 20 216 99 18 216 99 18 216 99 18
216 99 18 217 98 18 219 101 20 219 97 20 214 92 15 211 89 12
209 88 10 211 86 12 211 86 12 211 86 12 211 86 12 213 85 14 213 85 14
214 84 16 203 68 6 205 66 9 205 66 9 205 66 9 205 66 9 205 66 9
205 66 9 205 66 9 203 67 9 203 67 9 206 70 9 208 72 11 206 70 9
206 70 9 204 71 9 204 71 7 204 71 9 204 71 9 203 72 7 203 72 7
210 79 12 210 79 12 210 79 12 210 79 12 208 80 12 210 79 12 213 78 12
213 78 10 208 76 4 206 82 8 223 111 30 220 115 32 215 115 30
213 116 30 213 116 28 213 116 28 213 116 28 214 117 29 214 117 29
216 118 30 216 118 30 217 119 32 217 119 32 218 121 33 220 123 35
222 122 35 222 122 35 220 123 35 220 123 35 220 123 35 220 123 35
220 123 35 223 123 36 223 123 36 223 123 36 223 123 36 223 123 36
221 124 36 220 125 36 223 123 36 209 97 16 212 95 16 210 96 16
210 96 16 212 95 18 214 94 18 214 94 18 214 94 20 216 95 25 211 91 20
206 85 14 208 82 13 210 77 11 212 77 11 212 77 11 212 76 13 213 77 16
213 77 16 213 77 16 213 77 16 206 70 11 206 70 11 206 70 11 206 70 11
206 70 11 207 69 11 207 69 11 207 69 9 206 68 6 209 71 8 210 72 9
210 72 7 210 72 7 210 72 7 211 73 8 209 75 6 208 76 6 208 76 6
207 77 7 208 79 9 210 80 10 211 81 11 212 82 14 212 82 14 211 81 13
211 81 13 211 80 15 211 80 15 210 79 14 211 80 15 206 75 12 205 74 11
205 74 9 206 76 10 206 76 10 206 76 10 208 75 10 208 75 10 208 75 10
208 75 10 201 60 3 201 60 3 201 60 3 201 60 3 201 60 3 201 60 3
199 61 3 198 59 2 198 61 3 202 66 7 204 70 11 204 70 11 205 72 12
205 72 12 207 73 13 207 73 13 207 73 13 205 74 11 203 75 9 202 76 7
219 96 24 217 98 20 216 99 18 216 99 18 216 99 18 216 99 18 217 98 18
217 98 18 219 101 20 219 97 20 214 92 15 211 89 12 209 88 10
209 88 10 209 88 10 209 88 10 211 86 12 211 86 12 211 86 12 213 85 14
203 68 6 205 66 9 205 66 9 205 66 9 205 66 9 205 66 9 205 66 9
205 66 9 202 66 7 203 67 9 206 70 9 208 72 11 206 70 9 206 70 9
204 71 7 204 71 7 204 71 9 204 71 9 203 72 7 203 72 7 210 79 12
210 79 12 210 79 12 210 79 12 208 80 12 210 79 12 213 78 12 213 78 12
209 77 7 206 82 8 223 111 30 220 115 32 215 115 30 213 116 30
213 116 28 213 116 28 213 116 28 214 117 29 214 117 29 216 118 30
216 118 30 217 119 32 217 119 32 218 121 33 222 122 35 222 122 35
222 122 35 222 122 35 222 122 35 220 123 35 220 123 35 220 123 35
223 123 36 223 123 36 223 123 36 223 123 36 223 123 36 221 124 36
220 125 36 223 123 36 209 97 16 212 95 16 210 96 16 210 96 16
212 95 18 214 94 18 214 94 18 214 94 20 216 95 25 211 91 20 204 84 13
206 83 13 210 79 12 213 78 12 213 78 12 213 78 12 213 77 14 213 77 16
213 77 16 213 77 16 206 70 11 206 70 11 206 70 11 206 70 11 206 70 11
207 69 11 207 69 11 207 69 11 209 70 10 209 71 8 210 72 9 210 72 9
210 72 7 210 72 7 211 73 8 209 74 8 209 74 8 208 75 8 209 76 9
210 77 11 210 79 12 211 81 13 212 81 16 212 81 16 211 80 15 211 80 15
211 80 15 211 80 15 211 78 14 212 79 17 208 74 12 207 73 11 207 73 11
208 74 12 208 74 14 208 74 14 208 74 14 208 74 14 208 74 14 208 74 14
201 60 3 201 60 3 201 60 3 201 60 3 201 60 3 201 60 3 199 61 3
198 59 2 198 61 5 202 66 9 206 69 13 207 70 14 205 72 12 205 72 12
208 72 11 208 72 11 208 72 11 207 73 11 207 74 9 205 75 7 222 95 22
220 96 20 219 97 18 217 98 18 217 98 18 219 97 20 219 97 20 219 97 20
221 99 22 220 96 22 216 91 17 211 88 14 209 87 12 209 87 12 209 87 12
209 87 12 209 87 12 209 87 12 209 87 14 213 85 16 203 68 6 207 66 9
207 65 11 207 65 11 207 65 11 207 65 11 207 65 11 205 66 11 203 67 9
203 67 9 206 70 9 207 71 10 206 70 9 206 70 9 204 71 7 204 71 7
204 71 9 204 71 9 203 72 7 204 73 8 208 78 11 210 79 12 210 79 12
210 79 12 208 80 14 210 79 14 213 78 12 213 78 12 209 77 7 206 82 8
223 111 30 221 114 31 218 113 30 216 114 30 216 114 28 216 114 28
216 114 28 218 116 29 218 116 29 218 116 29 220 118 32 221 119 33
221 119 33 221 119 33 223 121 35 223 121 35 223 121 35 223 121 35
223 121 35 222 122 35 222 122 35 222 122 35 223 123 36 223 123 36
223 123 36 223 123 36 221 124 36 221 124 36 220 125 36 223 123 36
209 97 16 212 95 16 210 96 16 210 96 16 212 95 18 212 95 18 212 95 18
212 94 20 216 97 26 211 93 21 203 85 13 206 83 13 210 79 12 211 79 12
211 79 12 211 79 12 211 78 14 211 78 14 211 78 14 211 78 16 206 70 11
206 70 11 206 70 11 206 70 11 206 70 11 206 70 11 206 70 11 206 70 11
206 70 9 206 70 7 208 73 9 208 73 9 208 73 9 208 73 9 209 74 10
209 74 10 209 74 10 209 74 8 210 75 9 210 75 9 216 78 15 216 78 15
217 79 14 217 79 14 216 78 13 216 78 13 216 78 13 216 78 13 213 78 12
214 79 13 209 74 10 207 74 9 207 73 11 206 75 14 206 74 16 204 75 16
204 75 16 204 75 16 204 75 16 204 75 16 201 60 3 201 60 3 201 60 3
201 60 3 201 60 3 201 60 3 199 61 3 198 59 4 201 59 5 205 64 9
207 68 13 207 70 14 205 72 12 205 72 12 208 72 11 210 72 11 210 72 11
210 72 9 208 73 9 207 74 7 222 95 22 220 96 20 219 97 18 217 98 18
217 98 20 219 97 20 219 97 22 219 97 22 221 99 24 220 96 22 216 91 17
211 88 14 209 87 12 209 87 12 209 87 12 209 87 12 209 87 12 209 87 14
209 87 14 213 85 16 203 68 6 207 66 9 207 65 11 207 65 11 207 65 11
207 65 11 207 65 11 205 66 11 205 66 9 203 67 9 206 70 9 207 71 10
206 70 9 206 70 9 204 71 7 204 71 7 204 71 9 204 71 9 203 72 7
204 73 8 208 78 11 210 79 12 210 79 12 210 79 14 208 80 14 210 79 14
213 78 12 213 78 12 210 78 9 206 82 8 223 111 30 221 114 31
220 112 30 218 113 30 218 114 28 218 114 28 218 114 28 219 115 29
219 115 29 219 115 29 222 117 32 223 118 33 223 118 33 223 118 33
225 121 35 225 121 35 223 121 35 223 121 35 223 121 35 223 121 35
222 122 35 222 122 35 221 124 36 221 124 36 221 124 36 221 124 36
221 124 36 221 124 36 221 124 36 225 122 38 209 97 16 210 96 16
210 96 16 210 96 18 212 95 18 212 95 18 212 95 18 212 94 20 216 97 26
211 93 21 203 85 13 206 83 13 210 79 12 211 79 12 211 79 12 211 79 12
211 78 14 211 78 14 211 78 14 211 78 16 206 70 11 206 70 11 206 70 11
206 70 11 206 70 11 206 70 11 206 70 11 204 70 11 204 71 9 204 71 7
207 74 9 207 74 9 207 74 9 207 74 9 208 75 10 208 75 10 208 75 10
208 75 10 210 75 9 210 75 9 214 79 15 216 78 15 217 79 14 217 79 14
216 78 13 216 78 13 216 79 11 214 79 11 213 78 10 214 79 13 208 75 8
207 74 9 205 74 11 206 75 14 204 75 16 204 75 16 204 75 16 204 75 16
204 75 16 204 75 16 199 61 3 199 61 3 199 61 3 199 61 3 199 61 3
199 61 3 199 60 5 202 59 5 207 56 7 211 59 10 209 67 15 207 70 14
207 73 13 207 73 13 208 72 11 211 71 11 214 69 9 214 69 9 211 71 9
207 74 7 222 95 24 219 97 20 216 99 18 214 100 18 216 99 20 216 99 20
217 97 22 218 99 23 218 98 25 219 96 24 214 92 19 209 89 16 209 89 14
209 89 14 209 89 14 209 89 14 211 88 16 211 88 18 211 88 18 214 86 20
205 69 8 208 67 10 208 67 10 208 67 10 206 67 12 206 67 12 206 68 10
206 68 10 205 66 9 206 68 8 207 69 9 207 69 9 206 70 9 206 70 9
204 71 7 204 71 7 204 71 7 204 71 7 204 73 8 204 73 8 208 78 13
208 78 13 210 79 14 210 79 14 208 80 14 210 79 14 213 77 14 213 78 12
210 78 9 208 83 9 222 110 29 220 112 30 220 113 28 220 113 28
220 113 28 220 113 28 220 113 26 220 113 26 218 114 26 220 116 28
222 117 30 223 119 31 221 119 31 222 121 32 223 122 33 223 122 33
223 122 33 223 122 33 225 121 33 223 122 33 222 123 33 220 123 33
220 125 36 220 125 36 218 126 36 220 125 36 221 124 38 221 124 38
223 123 38 226 121 38 209 96 18 210 96 18 210 96 18 212 95 18
212 94 20 212 94 20 212 94 20 212 94 20 216 97 26 211 93 21 203 85 13
206 83 13 208 78 11 210 77 11 210 77 11 210 77 11 210 77 13 210 77 13
210 77 13 210 77 15 205 68 10 206 68 10 206 68 10 206 68 10 206 68 10
206 68 10 206 68 10 203 67 9 205 69 8 206 70 9 207 71 10 209 73 12
209 73 12 209 73 12 209 74 10 208 75 10 206 76 10 204 76 10 204 77 8
206 78 9 209 81 13 212 82 14 212 82 14 212 82 14 212 82 14 212 82 14
212 82 14 212 82 14 211 81 13 212 81 16 207 77 11 205 74 9 204 76 10
204 76 12 204 76 12 204 76 12 204 76 14 206 75 14 206 75 14 206 75 14
199 61 3 199 61 3 199 61 3 199 61 3 199 61 3 199 61 3 199 60 5
202 59 5 209 55 7 212 58 10 209 67 15 205 71 14 205 74 13 205 74 11
208 72 11 211 71 9 216 69 9 216 69 9 211 71 9 208 73 7 222 95 24
217 98 20 214 100 18 214 100 18 214 100 18 216 99 20 216 99 20
218 99 23 218 99 23 217 97 24 212 92 19 209 89 14 209 89 14 209 89 14
209 89 14 211 88 14 211 88 16 212 87 18 212 87 18 214 86 20 205 69 8
206 68 10 206 68 10 206 68 10 206 67 12 206 67 12 206 68 10 206 68 10
205 67 6 206 68 8 207 69 9 207 69 9 206 70 9 206 70 9 204 71 7
204 71 7 204 71 7 204 71 7 204 73 8 204 73 8 208 78 13 208 78 13
210 79 16 210 79 16 208 80 14 210 79 14 213 77 14 213 77 14 211 79 12
208 83 11 222 109 31 220 112 30 221 112 28 221 112 28 220 113 28
220 113 28 220 113 26 220 113 26 218 114 26 220 116 28 222 117 30
223 119 31 221 119 31 222 121 32 223 122 33 223 122 33 223 122 33
223 122 33 225 121 33 223 122 33 223 122 33 222 123 33 220 125 36
220 125 36 218 126 36 220 125 36 221 124 38 223 123 38 225 122 38
228 121 38 209 96 18 212 95 18 212 95 18 214 94 18 214 94 20
214 94 20 214 94 20 214 94 20 217 97 26 212 92 21 204 84 13 206 83 13
208 78 11 210 77 11 210 77 11 210 77 11 210 77 13 210 77 13 210 77 13
212 76 15 206 68 10 206 68 10 206 68 10 206 68 10 206 68 10 206 68 10
206 68 10 205 66 9 205 69 8 206 70 9 207 71 10 209 73 12 209 73 12
209 73 12 209 74 10 208 75 10 204 76 10 203 77 10 203 78 8 204 79 9
208 82 13 209 83 14 209 83 14 209 83 14 209 83 14 209 83 14 209 83 14
210 82 16 209 81 15 210 82 16 206 78 11 203 75 9 204 76 10 204 76 10
204 76 10 206 75 12 206 75 12 206 75 12 206 75 12 206 75 12 200 62 4
200 62 4 200 62 4 200 62 4 200 62 4 200 62 4 200 61 6 204 60 6
208 57 8 212 60 11 207 68 13 205 74 13 203 75 11 203 75 9 208 73 7
211 71 7 214 70 7 214 70 7 213 71 7 208 73 7 222 95 22 219 97 20
216 99 18 214 100 16 216 99 16 216 99 18 217 98 18 218 99 21
220 98 21 219 97 22 214 92 17 211 89 12 211 89 12 211 89 12 211 89 12
211 88 14 212 87 16 214 86 16 214 86 18 215 85 20 203 70 8 205 69 8
205 69 8 206 68 10 206 68 10 206 68 10 206 68 10 206 68 8 205 69 8
205 69 8 205 69 8 205 69 8 206 70 9 206 70 9 204 71 7 204 71 7
204 71 7 204 71 7 204 73 8 205 74 9 207 77 11 208 78 13 210 79 16
210 79 16 208 79 16 210 79 16 213 77 14 213 77 14 211 79 12 208 83 11
222 109 31 219 111 29 221 112 28 221 112 28 220 113 28 220 113 28
220 113 26 221 114 27 219 115 27 220 116 28 222 117 30 223 119 31
221 119 31 222 121 32 223 122 33 223 122 33 223 122 33 223 122 33
223 122 33 223 122 33 223 122 33 222 123 33 223 123 36 221 124 36
221 124 36 221 124 36 223 123 38 225 122 38 228 121 38 229 120 38
210 96 18 214 94 18 214 94 18 215 93 18 215 93 20 215 93 20 215 93 20
215 93 20 219 96 26 214 91 21 206 83 13 208 82 13 208 78 13 212 76 13
212 76 13 212 76 13 212 76 13 212 76 13 212 76 13 212 76 15 206 68 10
206 68 10 206 68 10 206 68 10 206 68 10 206 68 10 206 68 10 205 66 9
203 68 6 205 69 8 207 71 10 209 73 12 209 73 12 209 73 12 209 73 12
208 74 12 206 76 10 204 76 10 204 76 10 204 76 10 210 82 16 210 82 16
210 82 16 210 82 16 210 82 16 210 82 16 210 82 16 210 82 16 211 80 17
212 81 18 207 76 13 205 74 11 206 75 12 206 75 12 206 75 12 206 75 12
208 74 14 208 74 14 208 74 14 208 74 14 202 63 5 202 63 5 202 63 5
202 63 5 202 63 5 202 63 5 202 63 7 203 62 7 207 58 6 209 62 9
206 70 11 203 75 11 200 77 7 202 77 5 205 75 5 208 74 5 210 73 5
208 74 5 207 74 5 203 76 5 217 98 20 212 101 18 209 103 16 208 104 14
209 103 14 209 103 16 211 102 16 212 103 19 214 102 19 212 101 18
208 96 13 204 92 10 204 92 10 204 92 10 204 92 10 204 92 12 206 91 14
207 90 16 207 90 16 211 88 18 200 72 6 203 70 6 203 70 6 205 69 8
205 69 8 205 69 8 205 69 8 205 69 8 205 69 8 205 69 8 203 68 6
205 69 8 206 70 9 206 70 9 204 71 7 203 70 6 203 70 6 203 70 6
204 71 7 204 73 8 205 74 9 206 76 10 208 77 15 208 77 15 207 76 13
207 76 13 213 77 14 213 77 14 211 79 12 208 83 11 222 109 31
219 111 29 221 112 30 221 112 28 220 113 28 220 113 28 220 113 28
221 114 27 219 115 27 220 116 28 222 117 30 223 119 31 221 119 31
222 121 32 223 122 33 223 122 33 223 122 33 223 122 33 223 122 33
222 121 32 223 122 33 223 122 33 225 123 36 225 123 36 225 123 36
225 123 36 226 121 38 228 121 38 229 120 38 233 118 38 214 94 18
215 93 18 217 92 18 217 92 20 217 92 20 217 92 20 217 92 20 217 92 22
220 95 26 216 90 23 208 82 15 209 81 15 210 77 13 212 76 13 212 76 13
212 76 13 212 76 13 212 76 15 212 76 15 213 75 15 206 68 10 206 68 10
206 68 10 206 68 10 206 68 10 206 68 10 206 68 10 205 66 9 203 68 6
205 69 8 207 71 10 209 73 12 209 73 12 209 73 12 209 73 12 208 74 12
206 75 12 206 75 12 206 75 12 206 75 12 212 81 18 212 81 18 212 81 18
212 81 18 212 81 18 212 81 18 212 81 18 212 81 18 212 79 17 213 80 20
209 75 15 207 73 13 208 74 14 208 74 14 208 74 14 208 74 14 209 73 14
209 73 16 209 73 16 209 73 16 204 65 7 204 65 7 204 65 7 204 65 7
204 65 7 204 65 7 204 65 7 205 64 7 206 61 5 208 65 9 226 95 32
222 99 29 224 104 31 224 104 29 227 103 27 227 103 27 226 104 29
223 105 29 219 107 29 216 109 27 237 137 50 232 141 46 229 143 44
227 143 44 229 143 44 229 143 44 231 141 46 232 142 47 233 141 49
232 140 48 228 135 44 225 133 41 226 134 42 228 135 44 228 135 44
228 135 44 229 134 46 229 134 48 229 133 50 236 130 50 208 88 14
214 84 16 214 84 16 214 84 18 216 83 18 216 83 18 216 83 18 216 83 18
218 85 21 219 86 22 202 69 4 202 69 4 205 69 6 205 69 6 205 69 6
205 69 6 205 69 6 203 68 4 203 70 6 204 71 7 205 72 8 207 74 9
208 74 12 208 74 12 206 75 12 208 74 12 208 72 11 208 73 9 209 76 9
203 78 6 219 104 26 215 105 26 214 105 23 214 105 23 213 105 23
213 105 23 213 106 21 213 106 21 211 107 21 211 107 21 223 119 31
224 120 32 222 121 32 222 121 32 223 122 33 223 122 33 222 123 33
222 123 33 222 121 32 222 121 32 204 100 12 205 98 11 206 99 14
206 99 14 206 99 14 206 99 14 207 98 16 209 97 16 210 96 16 214 94 16
200 78 3 203 76 5 205 75 5 205 75 5 205 75 7 205 75 7 205 75 7
205 75 7 208 78 13 204 73 10 197 64 2 197 64 2 200 64 3 200 64 3
202 63 3 202 63 3 202 63 3 202 63 5 202 63 5 202 63 5 203 64 6
203 64 8 203 64 8 203 64 8 203 64 6 203 64 6 203 64 6 202 63 5
200 64 5 201 65 6 203 67 9 206 70 11 206 70 9 206 70 9 206 70 9
206 70 9 204 71 9 204 70 11 204 70 11 204 70 11 200 66 6 200 66 6
200 66 6 200 66 6 200 66 6 200 66 6 200 66 6 201 65 6 201 65 6
201 65 8 201 65 8 200 63 7 200 63 7 199 62 6 199 62 6 200 61 6
200 61 6 200 61 8 200 61 8 200 61 8 205 66 9 205 66 9 205 66 9
205 66 9 205 66 9 205 66 9 205 66 9 207 66 9 206 63 6 205 67 6
224 97 28 221 101 27 221 106 27 223 106 25 226 104 25 224 105 25
221 107 25 218 108 27 215 110 27 210 113 25 231 141 46 227 143 44
224 145 42 223 146 42 223 146 42 224 145 42 224 145 44 227 145 45
227 145 45 227 143 46 223 138 42 220 136 39 222 137 40 223 138 42
223 138 42 223 138 42 223 138 44 224 137 46 224 137 46 231 133 48
206 89 12 213 85 14 213 85 14 213 85 16 213 85 16 214 84 18 214 84 18
214 84 16 218 86 19 219 87 20 201 68 1 202 69 2 205 69 6 205 69 6
205 69 6 203 68 4 203 68 4 202 67 3 202 69 4 203 70 6 204 71 7
205 72 8 207 73 11 207 73 11 205 74 11 207 73 11 208 72 11 208 73 9
208 75 8 203 78 6 219 104 26 215 105 26 214 105 23 214 105 23
213 105 23 213 105 23 213 106 21 213 106 21 211 107 21 211 107 21
223 119 31 224 120 32 222 121 32 222 121 32 223 122 33 223 122 33
222 123 33 222 123 33 222 121 32 223 119 31 206 99 12 206 97 11
207 98 14 209 97 14 209 97 14 209 97 14 210 96 16 210 96 16 214 94 16
215 93 18 203 76 5 205 75 5 207 74 5 207 74 5 207 74 7 207 74 7
207 74 7 207 74 9 210 77 15 207 71 10 199 63 2 199 63 2 200 64 3
202 63 3 202 63 3 202 63 5 202 63 5 202 63 5 203 62 5 203 62 5
203 64 8 203 64 8 203 64 8 203 64 8 203 64 6 203 64 6 203 64 6
202 63 5 200 64 5 201 65 6 203 67 9 206 70 11 206 70 9 206 70 9
206 70 9 206 70 11 206 70 11 206 69 13 206 69 13 206 69 13 201 65 8
201 65 8 201 65 8 201 65 8 201 65 8 201 65 8 201 65 8 203 64 8
203 64 8 203 63 10 203 63 10 202 63 7 202 63 7 200 61 6 200 61 6
202 60 8 202 60 8 202 60 10 202 60 10 202 60 10 206 68 10 206 68 10
206 68 10 206 68 10 206 68 10 206 68 10 206 68 8 206 68 8 205 65 5
205 69 6 223 98 26 219 102 25 219 108 25 221 107 23 224 106 23
224 106 23 221 107 23 219 108 25 216 109 25 211 112 23 232 141 44
229 143 42 226 145 40 224 146 40 224 146 40 226 145 42 226 145 42
229 145 43 229 145 43 229 143 44 224 138 40 222 136 37 223 137 38
224 138 40 224 138 40 224 137 42 224 137 42 226 136 44 226 136 44
231 133 46 205 91 8 211 87 10 211 86 12 211 86 12 211 86 14 213 85 16
213 85 16 214 84 14 217 87 17 218 88 18 201 68 1 202 69 2 205 69 6
205 69 6 205 69 6 203 68 4 203 68 4 202 67 3 202 69 4 203 70 6
204 71 7 205 72 8 207 73 11 207 73 11 205 74 11 207 73 11 208 73 9
208 73 9 206 76 8 201 79 6 219 104 26 215 105 26 214 105 23
214 105 23 213 105 23 213 105 23 213 106 21 213 106 21 211 107 21
211 107 21 223 119 31 224 120 32 222 121 32 222 121 32 223 122 33
223 122 33 222 123 33 222 123 33 222 121 32 223 119 31 206 99 12
206 97 11 210 96 14 212 96 14 212 96 14 214 95 14 212 95 16 214 94 16
215 94 16 217 92 18 205 75 5 208 74 5 208 74 5 208 74 5 208 73 7
208 73 7 208 73 9 208 73 9 212 76 15 207 71 10 200 62 4 200 62 4
202 63 5 202 63 5 203 62 5 203 62 5 203 62 7 203 62 7 203 62 7
203 62 7 204 63 8 204 63 8 203 64 8 203 64 8 203 64 6 203 64 6
203 64 6 202 63 5 202 63 5 203 64 6 205 66 9 207 69 11 207 69 11
207 69 11 207 69 11 207 69 11 207 68 13 207 68 15 207 68 15 207 68 15
203 63 10 203 63 10 203 63 10 203 63 10 203 63 10 203 63 10 203 63 10
203 63 10 204 63 10 204 62 12 204 62 12 203 61 9 203 61 9 202 60 8
202 60 8 202 60 8 204 59 10 204 59 12 204 59 12 204 59 12 206 68 10
206 68 10 206 68 10 206 68 10 206 68 10 206 68 10 206 68 8 206 68 8
204 66 3 203 70 4 221 99 26 217 103 23 218 108 25 219 108 23
223 107 21 223 107 21 221 107 23 219 108 23 218 109 23 213 112 21
232 141 44 227 144 42 226 145 40 226 145 40 226 145 40 226 145 42
227 144 42 229 145 43 230 144 43 229 143 42 224 138 38 222 136 35
223 137 38 224 138 40 224 138 40 224 138 40 226 137 42 226 137 42
226 136 44 231 134 44 205 91 8 209 88 8 211 87 10 211 86 12 211 86 14
211 86 14 211 86 14 213 85 14 215 88 17 218 88 18 199 69 1 202 69 2
205 69 6 205 69 6 205 69 6 203 68 4 203 68 4 202 67 3 203 68 4
203 70 6 204 71 7 205 72 8 207 73 11 207 73 11 207 73 11 207 73 11
208 73 9 207 74 9 206 76 8 201 79 6 219 104 26 215 105 26 214 105 23
214 105 23 214 105 23 214 105 23 214 105 21 214 105 21 213 106 21
213 106 21 223 119 31 222 121 32 222 121 32 222 121 32 223 122 33
222 123 33 222 123 33 222 123 33 222 121 32 223 119 31 207 98 12
209 95 13 212 96 14 214 95 14 214 95 14 214 94 16 214 94 16 215 94 16
217 93 16 218 91 18 207 74 5 210 73 5 210 73 5 210 72 7 208 73 7
208 73 7 208 73 9 208 73 9 212 76 15 207 71 10 200 62 4 200 62 4
202 63 5 202 63 5 203 62 5 203 62 5 203 62 7 203 62 7 203 62 7
203 62 7 204 63 8 204 63 8 203 64 8 203 64 8 203 64 6 203 64 6
203 64 6 202 63 5 202 63 5 203 64 6 205 66 9 207 69 11 207 69 11
207 69 11 207 69 11 207 69 11 207 68 13 209 67 15 209 67 15 209 67 15
204 63 10 204 63 10 204 63 10 203 63 10 203 63 10 203 63 10 203 63 10
203 63 10 204 62 12 204 62 12 204 62 12 203 61 11 203 61 9 202 60 8
202 60 8 202 60 8 204 59 10 204 59 10 204 59 10 204 59 10 206 68 10
206 68 10 206 68 10 206 68 10 206 68 10 206 68 10 206 68 10 206 68 8
204 66 3 201 71 4 219 99 26 216 104 23 215 108 23 217 108 21
220 106 21 220 106 21 221 107 23 219 108 23 221 107 23 216 110 21
231 142 44 226 145 42 226 145 40 227 144 40 227 144 42 227 144 42
227 143 44 229 145 45 230 144 45 229 143 44 224 138 40 222 136 37
223 137 38 224 138 40 224 138 40 224 138 40 226 137 42 226 137 42
226 137 42 231 134 44 205 91 8 209 88 8 209 88 10 209 87 12 209 87 14
209 87 14 209 87 16 211 86 16 213 88 19 216 88 20 199 69 1 202 69 2
205 69 6 206 68 6 206 68 6 206 68 6 205 67 6 205 67 6 205 69 6
206 70 7 207 72 8 208 73 9 209 74 10 209 74 10 208 75 10 208 75 10
209 74 10 208 75 10 205 75 7 200 78 5 217 103 25 216 103 25
216 103 25 216 103 25 216 104 23 216 104 23 216 104 21 216 104 21
216 104 21 214 105 21 221 119 33 221 121 34 221 121 34 221 121 34
222 123 33 220 123 33 220 123 33 222 123 33 221 121 32 223 119 31
209 97 14 211 94 13 215 94 16 215 94 16 214 94 16 214 94 18 214 94 18
215 93 18 217 92 18 220 90 20 208 74 5 210 72 7 211 71 7 210 72 7
208 73 9 208 73 9 208 73 9 208 73 9 212 76 15 207 71 10 200 62 2
200 62 2 202 63 5 202 63 5 203 62 5 203 62 5 203 62 7 203 62 7
203 62 7 203 62 7 204 63 8 204 63 8 203 64 8 203 64 8 203 64 8
203 64 8 203 64 8 202 63 7 202 63 7 203 64 8 205 66 11 207 68 13
207 69 11 207 69 11 207 69 11 207 69 11 209 68 13 211 67 13 211 67 13
211 67 13 206 62 10 206 62 10 206 62 10 204 63 10 204 63 10 204 63 10
204 63 10 204 63 10 204 62 12 204 62 12 204 62 12 204 62 12 203 61 9
203 62 7 203 62 7 203 62 7 203 62 7 203 62 7 203 62 7 203 62 7
206 68 10 206 68 10 206 68 10 206 68 10 206 68 10 206 68 10 206 68 10
206 68 10 202 66 5 201 71 6 219 99 26 216 103 25 215 108 23
215 108 21 218 107 21 220 106 21 219 108 23 221 107 23 223 106 23
216 110 23 231 142 44 226 145 42 227 144 42 227 144 42 227 144 42
227 143 44 227 143 44 230 143 47 230 143 47 229 142 46 224 137 42
222 136 37 223 137 38 224 138 40 224 138 40 226 137 42 226 137 42
226 137 42 226 137 42 231 134 44 205 91 8 209 88 8 209 88 10
209 87 12 209 87 14 209 87 14 209 87 16 209 87 16 213 88 19 216 88 20
199 69 1 202 69 2 205 69 6 206 68 6 206 68 6 206 68 6 205 67 6
205 67 6 205 69 6 206 70 7 207 72 8 208 73 9 209 74 10 209 74 10
208 75 10 208 75 10 209 74 10 208 75 10 205 75 7 202 76 7 219 101 27
216 103 25 216 103 25 216 103 25 216 104 23 216 104 23 216 104 21
216 104 21 216 104 21 214 105 21 221 119 33 221 121 32 221 121 32
221 121 32 222 123 33 222 123 31 222 123 31 222 123 33 219 122 32
221 119 33 209 97 14 211 94 15 215 94 16 215 93 18 212 95 18
212 95 18 214 94 18 217 92 20 218 91 20 220 90 22 208 73 7 210 72 7
211 71 7 211 71 7 210 72 9 208 73 9 208 73 9 208 73 9 212 76 15
207 71 10 200 62 2 200 62 2 202 63 5 202 63 5 203 62 5 203 62 5
203 62 7 203 62 7 203 62 7 203 62 7 204 63 8 204 63 8 203 64 8
203 64 8 203 64 8 203 64 8 203 64 8 202 63 7 202 63 7 203 64 8
205 66 11 207 68 13 207 69 11 207 69 11 207 69 11 207 69 11 209 68 13
211 67 13 211 67 13 211 67 13 206 62 10 206 62 10 206 62 10 204 63 10
204 63 10 204 63 10 204 63 10 204 63 10 204 62 12 204 62 12 204 62 12
204 63 10 203 62 7 203 62 7 203 62 7 203 62 7 203 62 5 203 62 5
203 62 5 203 62 5 206 68 10 206 68 10 206 68 10 206 68 10 206 68 10
206 68 10 206 68 10 206 68 10 202 66 5 201 71 6 221 98 28 217 103 25
215 108 26 215 108 23 218 107 21 220 106 21 221 107 25 221 107 25
223 106 25 218 109 23 231 141 46 226 144 44 227 144 42 227 144 42
229 143 44 229 142 46 229 142 46 230 143 49 232 142 49 231 141 48
226 136 44 224 134 39 225 136 40 226 137 42 226 137 42 226 137 42
228 135 44 228 135 44 228 135 44 232 133 44 205 91 8 209 88 8
209 88 10 209 87 12 209 87 14 209 87 14 209 87 14 209 87 14 213 88 17
216 88 20 199 69 1 202 69 4 206 68 6 208 68 6 208 68 6 208 68 6
205 67 6 205 67 6 205 69 6 206 70 7 207 72 8 208 73 9 209 74 10
209 74 10 208 75 8 208 75 8 208 75 8 208 75 8 205 75 7 202 76 7
219 101 27 216 103 25 214 104 25 214 104 25 214 105 23 214 105 21
214 105 21 214 105 21 214 105 19 213 106 19 223 119 31 224 120 30
224 120 30 224 120 30 225 121 31 225 122 29 225 122 29 223 122 31
219 122 34 220 119 35 206 98 16 209 94 17 212 95 18 212 95 18
210 95 20 210 95 20 214 94 20 217 92 22 218 91 22 222 89 22 208 73 7
210 72 7 211 71 9 211 71 9 210 72 9 208 73 9 208 73 9 208 73 9
212 76 15 207 71 10 200 62 2 200 62 2 202 63 5 202 63 5 203 62 5
203 62 5 203 62 7 203 62 7 203 62 7 203 62 7 204 63 8 204 63 8
203 64 8 203 64 8 203 64 8 203 64 8 203 64 8 202 63 7 202 63 5
203 64 6 205 66 9 207 69 11 207 69 11 207 69 11 207 69 11 207 69 11
207 69 11 209 68 11 209 68 11 209 68 13 204 63 8 204 63 8 204 63 8
204 63 8 204 63 8 204 63 8 204 63 8 204 63 10 204 63 10 204 63 10
204 63 10 204 63 10 203 62 7 203 62 7 203 62 7 203 62 7 203 62 7
203 62 7 203 62 7 203 62 7 206 68 10 206 68 10 206 68 10 206 68 10
206 68 10 206 68 10 206 68 10 206 68 10 201 65 4 200 70 4 221 98 28
219 103 28 215 107 28 215 108 26 218 106 23 220 106 23 221 106 27
223 106 27 224 105 25 218 108 25 231 141 46 226 144 44 227 143 44
227 143 44 229 142 46 229 142 46 229 142 48 230 143 49 232 142 49
231 141 48 227 137 45 225 135 42 226 137 42 226 137 42 226 137 42
226 137 42 228 135 44 228 135 44 228 135 44 232 133 44 205 91 8
209 88 8 209 88 10 209 88 10 209 87 12 209 87 14 209 87 14 209 87 14
215 90 18 216 90 21 200 70 4 203 70 6 206 68 6 208 68 6 208 68 6
208 68 6 207 66 6 205 67 6 206 68 6 206 70 7 207 72 8 207 72 8
208 73 9 208 73 9 209 74 10 208 75 8 208 75 8 208 75 8 205 75 7
202 76 7 219 101 27 216 103 27 214 104 27 213 105 25 213 105 23
213 106 21 213 106 21 213 106 21 213 106 21 213 106 19 224 118 31
225 119 30 225 119 30 225 119 30 227 121 31 227 121 29 227 121 29
223 122 31 219 122 34 218 120 37 206 98 18 208 95 17 212 95 18
212 94 20 209 96 20 210 95 22 214 93 22 217 92 22 218 90 24 222 89 24
209 74 10 211 73 10 212 72 10 212 72 10 211 73 10 209 74 10 209 74 10
209 73 12 212 76 15 209 70 10 203 65 4 202 63 5 202 63 5 202 63 5
203 62 5 203 62 7 203 62 7 203 62 7 203 62 7 203 62 7 204 63 8
204 63 8 203 64 8 203 64 8 203 64 8 203 64 8 203 64 8 202 63 7
202 63 5 203 64 6 205 66 9 207 69 11 207 69 11 207 69 11 207 69 11
207 69 11 207 69 11 207 69 11 207 69 11 207 69 11 203 64 6 203 64 8
203 64 8 203 64 8 203 64 8 204 63 8 204 63 8 204 63 8 204 63 8
203 61 9 203 61 9 204 63 8 203 62 7 203 62 7 203 62 7 203 62 7
203 62 7 203 62 7 203 62 7 203 62 7 205 68 10 205 68 10 205 68 10
205 68 10 205 68 10 205 68 10 205 69 8 205 69 8 202 66 5 200 70 4
221 98 28 219 103 28 215 107 28 215 108 26 217 105 22 219 104 22
219 104 24 220 103 24 221 101 23 214 105 21 227 137 45 222 140 43
224 140 41 224 140 41 226 139 43 226 139 43 227 139 46 227 139 46
228 139 46 228 139 46 228 139 46 227 137 45 226 136 44 226 136 44
226 136 44 226 136 44 228 135 44 228 135 44 229 135 44 232 133 44
205 91 8 208 89 8 209 88 10 209 88 10 209 87 12 209 87 12 209 87 14
209 87 14 213 90 18 216 90 21 200 70 4 205 69 6 208 67 8 209 66 8
209 66 8 209 66 8 208 67 8 208 67 8 207 69 9 207 69 9 207 69 9
209 70 10 210 72 11 210 72 11 208 73 9 208 73 9 207 74 9 207 74 9
204 73 8 202 76 7 220 102 30 217 104 30 216 103 29 214 104 27
214 104 25 214 105 23 214 105 23 214 105 23 213 105 23 213 106 21
225 119 34 227 120 33 225 121 33 225 121 33 224 120 32 224 120 30
224 120 30 222 121 32 218 120 35 217 116 37 205 94 18 206 91 16
215 95 21 215 94 23 212 96 23 212 96 23 215 94 25 218 92 25 220 91 25
223 90 25 208 73 9 210 72 11 211 71 11 211 71 11 210 72 11 210 72 11
210 72 11 210 72 11 210 71 13 207 69 11 205 64 7 204 63 6 200 61 6
200 61 6 202 61 6 202 61 6 202 60 8 202 60 8 202 60 8 202 61 6
205 64 9 205 64 7 204 65 7 204 65 7 202 66 7 202 66 7 202 66 7
202 66 7 202 66 7 200 64 3 208 72 11 205 69 8 205 69 8 205 69 8
205 69 8 205 69 8 205 69 8 205 69 8 205 69 8 205 69 8 201 65 4
201 65 6 201 65 6 201 65 6 203 64 6 203 64 6 203 64 6 203 64 6
204 63 6 203 62 7 202 61 6 198 57 2 203 62 7 203 62 7 203 62 7
203 62 7 203 62 7 203 62 7 203 62 7 203 62 7 205 68 10 205 68 10
205 68 10 205 68 10 205 68 10 205 68 10 205 69 8 205 69 8 203 70 8
203 72 7 220 97 27 215 100 25 219 111 31 219 111 29 221 109 26
222 108 26 222 108 28 224 107 28 224 105 27 218 108 25 231 141 48
226 144 46 227 143 44 227 143 44 229 142 46 229 142 46 229 142 48
228 139 46 227 137 45 226 136 44 226 136 44 226 136 44 225 135 42
225 135 42 225 135 42 226 134 42 226 134 42 228 133 42 228 133 42
233 131 42 205 94 11 210 91 11 212 90 13 212 90 13 212 90 15
212 90 15 212 89 17 212 89 17 214 92 19 216 91 19 200 70 2 205 69 8
208 67 10 209 66 10 209 66 8 209 66 8 208 67 8 208 67 8 207 69 9
207 69 9 207 69 9 207 69 9 209 70 10 209 70 10 208 73 9 208 73 9
207 74 9 207 74 9 203 72 7 204 78 11 219 101 29 221 105 33 219 101 29
219 101 29 217 102 27 217 103 25 217 103 25 217 103 25 217 103 25
217 103 25 228 113 34 229 115 35 228 115 35 228 115 35 226 114 34
226 114 34 226 114 34 225 115 34 219 114 35 221 112 37 209 94 21
214 91 21 218 93 23 218 93 23 216 93 23 215 94 25 216 93 25 218 92 25
220 91 25 223 90 25 206 70 9 207 69 9 209 68 9 209 68 9 207 69 9
207 69 9 207 69 9 207 69 9 206 68 10 204 65 7 204 63 6 203 62 5
200 61 6 200 61 6 202 61 6 202 61 6 202 60 8 202 60 8 202 60 8
202 60 8 205 64 9 205 64 7 204 65 7 204 65 7 202 66 7 202 66 7
202 66 7 202 66 7 198 62 1 196 61 0 206 70 9 203 70 6 203 70 6
203 70 6 203 70 6 203 70 6 203 70 6 203 70 6 203 70 6 203 70 6
199 63 2 199 63 2 197 64 2 197 64 2 199 63 2 200 62 2 200 62 2
200 62 2 208 67 10 205 64 7 203 62 5 202 61 4 202 61 6 203 62 7
203 62 7 203 62 7 203 62 7 203 62 7 203 62 7 203 62 7 206 70 11
206 70 11 206 70 11 206 70 11 206 70 11 206 70 11 206 70 9 206 70 9
209 75 13 205 74 9 218 95 25 209 94 19 202 94 15 202 95 13 204 92 10
206 92 10 207 90 12 207 90 14 208 88 10 203 91 8 214 125 32
210 127 30 211 127 28 211 127 28 213 126 30 214 125 30 215 126 33
215 126 33 218 126 34 219 127 35 221 128 37 221 128 37 222 130 38
222 130 38 222 130 38 222 130 38 223 129 38 223 129 38 225 128 38
228 126 38 210 98 15 215 96 15 215 95 17 215 95 17 215 95 19
215 95 19 215 95 19 215 95 19 215 93 18 218 93 21 201 71 4 205 69 8
208 67 10 209 66 10 209 66 8 209 66 8 208 67 8 208 67 8 207 69 9
207 69 9 207 69 9 207 69 9 209 70 10 209 70 10 208 73 9 208 73 9
207 74 9 207 74 9 205 74 9 199 74 7 196 78 6 190 72 0 198 75 5
199 74 5 199 74 3 199 74 3 201 74 3 201 74 3 201 74 3 201 74 3
208 81 10 209 82 11 209 81 13 209 81 13 210 79 12 210 79 12 210 79 12
206 81 12 198 82 9 200 84 14 192 67 0 199 69 3 202 67 3 202 67 3
199 69 3 197 69 3 196 70 5 196 70 5 199 68 5 201 67 5 202 66 5
204 66 5 205 65 5 205 65 5 204 66 5 204 66 5 204 66 5 204 66 5
203 64 6 202 63 5 202 61 4 202 61 4 200 61 6 200 61 6 202 61 6
202 61 6 202 60 8 202 60 8 202 60 8 202 60 8 205 64 9 205 64 7
204 65 7 202 66 7 202 66 7 202 66 7 201 67 7 201 67 5 202 69 4
202 69 4 216 83 18 214 84 16 214 84 16 214 84 16 214 84 16 214 84 16
214 84 16 214 84 16 216 83 16 216 83 18 208 75 10 208 75 10 208 75 10
208 75 10 209 74 10 209 74 10 211 73 10 211 73 12 209 70 12 206 68 10
205 64 7 204 63 6 203 62 5 203 62 5 203 62 5 203 62 5 203 62 7
203 62 7 203 62 7 203 62 7 206 70 11 206 70 11 206 70 11 206 70 11
206 70 11 206 70 11 206 70 9 206 70 9 212 79 17 206 76 10 215 92 22
207 90 16 209 96 18 207 97 18 209 95 15 211 94 15 211 94 17 212 93 17
213 91 14 207 95 12 221 127 35 215 130 33 216 130 31 218 129 31
218 129 33 218 129 33 218 128 35 219 127 35 218 126 34 218 126 34
218 126 34 218 126 34 219 127 35 219 127 35 219 127 35 219 127 35
221 127 35 221 127 35 223 126 35 226 124 35 212 101 18 216 99 18
217 98 20 217 98 20 217 97 22 217 97 22 217 97 22 217 97 22 216 94 19
218 93 21 201 71 4 205 69 8 208 67 10 209 66 10 209 66 8 209 66 8
208 67 8 208 67 8 207 69 9 207 69 9 207 69 9 207 69 9 209 70 10
209 70 10 208 73 9 208 73 9 207 74 9 207 74 9 205 74 9 202 74 8
204 81 11 195 73 2 201 73 5 203 72 5 203 73 3 203 73 3 204 72 3
204 72 3 204 72 5 205 73 6 208 75 8 212 77 11 212 76 13 212 76 13
210 75 11 212 74 11 212 74 13 209 75 13 199 76 8 204 80 13 198 67 2
205 69 6 204 66 3 204 66 5 202 66 5 201 67 5 197 69 5 197 69 5
199 68 5 201 65 4 202 63 3 200 62 2 202 61 2 202 61 2 200 62 2
200 62 2 200 62 2 200 62 4 200 62 4 200 61 6 202 61 6 202 61 6
200 61 6 200 61 6 202 61 6 202 61 6 202 60 8 202 60 8 202 60 8
202 60 8 205 64 9 204 65 7 202 66 7 202 66 7 202 66 7 202 66 7
201 67 7 201 67 5 198 65 1 200 67 0 212 82 14 214 84 16 214 84 16
214 84 16 213 85 14 213 85 14 214 84 16 214 84 16 216 83 16 216 83 16
205 72 8 205 72 8 205 72 8 205 72 8 207 72 8 207 72 8 209 71 8
210 72 11 210 71 13 209 70 12 208 67 10 205 64 7 203 62 5 203 62 5
203 62 5 203 62 5 203 62 7 203 62 7 203 62 7 203 62 7 207 71 10
207 71 10 207 71 10 207 71 10 207 71 10 207 71 10 207 71 10 207 71 10
208 75 10 206 76 10 214 91 21 210 90 17 210 92 16 210 92 16 210 92 18
210 92 18 211 92 16 211 92 16 213 91 14 208 94 12 224 125 35
221 127 33 221 127 31 221 127 31 219 128 33 219 128 33 219 127 35
219 127 35 220 125 34 220 125 34 220 125 34 220 125 34 218 126 34
218 126 34 218 126 34 218 126 34 220 125 36 221 124 36 221 124 36
225 123 36 214 102 19 217 100 19 217 100 19 217 100 21 218 99 21
218 99 21 218 99 23 218 99 23 218 96 19 219 95 21 203 70 6 206 68 8
209 66 10 209 66 10 209 66 8 208 67 8 208 67 10 206 68 10 206 68 8
206 68 8 207 69 9 207 69 9 207 69 9 207 69 9 207 72 8 207 72 8
207 72 8 205 72 8 204 73 8 204 73 8 202 74 6 204 74 6 204 74 6
205 73 6 204 74 6 204 74 6 204 74 6 204 74 6 205 75 7 205 75 7
205 74 9 207 74 9 208 75 10 208 75 10 209 75 13 210 75 13 210 75 13
209 75 13 206 75 12 205 74 11 203 70 8 202 68 6 203 68 6 203 67 9
203 67 9 203 68 6 203 68 6 202 68 6 202 68 6 203 68 6 202 63 5
203 62 5 203 62 5 203 62 5 202 63 5 202 63 5 202 63 5 200 62 4
202 61 6 201 59 7 201 59 7 201 59 5 202 61 6 202 61 6 202 61 6
202 61 6 202 60 8 202 60 8 200 61 8 200 61 8 205 66 11 205 66 9
203 68 6 203 68 6 202 68 6 202 68 6 202 68 6 202 69 4 196 65 0
197 67 0 213 83 13 215 86 16 214 86 16 214 86 16 214 86 16 214 86 16
215 85 18 215 85 18 214 84 16 212 82 14 208 78 13 206 76 10 207 74 9
207 74 9 208 73 9 208 73 9 208 73 9 208 72 11 207 69 11 210 71 13
200 62 4 203 64 6 202 63 5 202 63 5 202 63 5 202 63 5 203 62 7
203 62 7 203 62 7 203 62 7 207 71 10 207 71 10 207 71 10 207 71 10
207 71 10 207 71 10 207 71 10 207 71 10 208 75 10 206 76 10 213 90 20
210 90 19 211 91 18 211 91 18 210 92 20 210 92 20 211 91 18 213 91 16
213 91 14 210 93 14 227 123 37 223 126 35 224 125 33 223 126 31
221 127 33 219 128 33 219 127 35 221 127 35 220 125 34 220 125 34
220 125 34 220 125 34 220 125 34 218 126 34 218 126 34 220 125 34
221 124 36 221 124 36 221 124 36 225 123 36 212 101 18 216 99 18
216 99 18 216 99 18 217 98 20 217 98 20 217 97 22 217 97 22 219 97 20
219 95 21 203 70 6 206 68 10 209 66 12 211 65 12 209 66 10 208 67 8
206 68 10 206 68 10 206 68 8 206 68 8 207 69 9 207 69 9 207 69 9
207 69 9 207 72 8 207 72 8 207 72 8 207 72 8 205 72 8 204 73 8
205 73 6 205 73 6 205 73 6 205 73 6 204 74 6 204 74 6 204 74 6
204 74 6 205 75 7 205 75 7 205 74 9 205 74 9 206 76 10 206 76 10
209 75 13 209 75 13 209 75 13 209 75 13 208 74 12 207 73 11 203 70 8
202 68 6 203 67 9 203 67 9 203 67 9 203 67 9 205 67 6 205 67 6
203 68 6 203 68 6 202 63 5 203 62 5 203 62 5 203 62 5 202 63 5
202 63 5 202 63 5 200 61 6 202 60 8 201 59 7 201 59 7 201 59 7
202 61 6 202 61 6 202 61 6 202 61 6 202 60 8 202 60 8 200 61 8
200 61 8 205 66 11 205 66 9 203 68 6 203 68 6 202 68 6 202 68 6
202 69 4 202 69 4 197 67 0 198 68 0 213 83 13 215 86 16 214 86 16
214 86 16 214 86 16 214 86 16 215 85 18 215 85 18 214 84 16 212 82 14
208 78 13 206 76 10 207 74 9 207 74 9 208 73 9 208 73 9 208 73 9
208 72 11 207 69 11 210 71 13 200 62 4 203 64 6 202 63 5 202 63 5
202 63 5 202 63 5 203 62 7 203 62 7 203 62 7 203 62 7 208 72 11
208 72 11 208 72 11 208 72 11 208 72 11 208 72 11 208 72 11 208 72 11
208 75 10 206 76 10 215 89 20 212 89 19 211 91 18 211 91 18 210 92 20
210 92 20 211 91 18 213 91 16 215 90 14 210 93 14 227 123 37
223 126 35 224 125 33 223 126 31 221 127 33 221 127 33 221 127 35
221 127 35 221 125 34 221 125 34 221 125 34 221 125 34 220 125 34
220 125 34 220 125 34 220 125 34 221 124 36 223 123 36 223 123 36
225 123 36 212 101 18 214 100 18 214 100 18 216 99 18 216 99 20
216 99 20 216 99 20 217 98 20 219 97 20 220 96 22 203 70 6 205 66 9
209 66 12 211 65 12 209 66 10 208 67 8 206 68 10 206 68 10 206 68 8
206 68 8 207 69 9 207 69 9 207 69 9 207 69 9 207 72 8 207 72 8
207 72 8 207 72 8 205 72 8 205 72 8 205 73 6 205 73 6 205 73 6
205 73 6 204 74 6 204 74 6 204 74 6 204 74 6 205 75 7 205 75 7
205 74 9 205 74 9 206 76 10 206 76 10 209 75 13 209 75 13 209 75 13
209 75 13 208 74 12 207 73 11 203 70 8 202 68 6 203 67 9 203 67 9
203 67 9 203 67 9 205 67 6 205 67 6 203 68 6 203 68 6 202 63 5
203 62 5 203 62 5 203 62 5 202 63 5 202 63 5 202 63 5 200 61 6
202 60 8 201 59 7 201 59 7 201 59 7 202 61 6 202 61 6 202 61 6
202 61 6 202 60 8 202 60 8 200 61 8 200 61 8 205 66 11 205 66 9
203 67 9 203 68 6 202 68 6 202 69 4 202 69 4 202 69 4 197 67 0
198 68 0 213 83 15 215 85 18 214 86 16 214 86 16 214 86 16 214 86 16
215 85 18 215 85 18 214 84 16 212 82 14 208 78 13 206 76 10 207 74 9
207 74 9 208 73 9 208 73 9 208 73 9 208 72 11 207 69 11 210 71 13
200 62 4 203 64 6 202 63 5 202 63 5 202 63 5 202 63 5 203 62 7
203 62 7 203 62 7 203 62 7 208 72 11 208 72 11 208 72 11 208 72 11
208 72 11 208 72 11 208 72 11 208 72 11 208 75 10 206 76 10 215 89 20
212 89 19 211 91 18 211 91 18 210 92 20 211 91 20 213 90 18 213 90 18
215 90 16 210 93 14 227 123 37 223 126 35 224 125 33 224 125 33
223 126 33 221 127 35 221 127 35 221 127 35 221 125 34 221 125 34
221 125 34 221 125 34 220 125 34 220 125 36 220 125 36 221 124 36
223 123 36 223 123 36 223 123 36 226 122 36 211 101 18 214 100 18
214 100 18 214 100 18 216 99 20 216 99 20 216 99 20 216 99 20
218 99 19 220 96 22 203 70 6 205 66 9 209 66 12 211 65 12 209 66 10
208 67 10 206 68 10 206 68 10 206 68 10 206 68 8 207 69 9 207 69 9
207 69 9 207 69 9 207 71 10 207 72 8 207 72 8 207 72 8 205 72 8
205 72 8 205 72 8 205 73 6 205 73 6 205 73 6 204 74 6 204 74 6
204 74 6 204 74 6 205 75 7 205 75 7 205 74 9 205 74 9 206 76 10
206 76 10 209 75 13 209 75 13 209 75 13 209 75 13 208 74 12 207 73 11
203 70 8 202 68 6 203 67 9 203 67 9 203 67 9 203 67 9 205 67 6
205 67 6 203 68 6 205 67 6 203 62 5 203 62 5 203 62 5 203 62 5
202 63 5 202 63 5 202 63 5 202 61 6 202 60 8 201 59 7 201 59 7
201 59 7 202 61 6 202 61 6 202 61 6 202 60 8 202 60 8 202 60 8
200 61 8 200 61 8 205 66 9 205 66 9 203 67 9 203 68 6 202 69 4
202 69 4 202 69 4 202 69 4 197 67 0 198 68 0 213 83 15 215 85 18
214 86 16 214 86 16 214 86 16 214 86 16 215 85 18 215 85 18 214 84 16
212 82 14 208 78 13 206 76 10 207 74 9 207 74 9 208 73 9 208 73 9
208 73 9 208 72 11 207 69 11 210 71 13 200 62 4 203 64 6 202 63 5
202 63 5 202 63 5 202 63 5 203 62 7 203 62 7 203 62 7 203 62 7
207 73 11 207 73 11 207 73 11 207 73 11 207 73 11 207 73 11 207 74 9
207 74 9 208 75 10 204 76 10 215 89 20 212 89 19 211 91 18 211 91 18
210 92 20 211 91 20 213 90 18 213 90 18 215 90 16 210 93 14
227 123 37 223 126 35 224 125 35 224 125 35 223 126 35 221 127 35
221 126 37 221 126 37 221 124 36 221 124 36 221 124 36 221 124 36
220 125 36 220 125 38 220 125 38 221 124 38 223 123 38 223 123 38
225 122 38 226 121 38 211 101 20 212 100 20 214 99 20 214 99 20
216 99 20 216 99 20 216 99 20 216 99 20 218 99 19 220 96 22 203 70 6
207 66 9 211 65 12 211 65 12 209 66 10 208 67 10 208 66 12 208 66 12
206 67 12 206 68 10 207 69 11 207 69 11 207 69 11 207 69 11 207 71 10
207 71 10 207 71 10 207 71 10 205 72 10 205 72 10 205 72 8 205 72 8
205 72 8 205 72 8 204 74 6 204 74 6 204 74 6 204 74 6 204 74 6
204 74 6 205 74 9 205 74 9 205 74 9 205 74 9 208 74 12 208 74 12
208 74 12 208 74 12 208 74 12 207 73 11 204 71 9 202 68 6 203 67 9
205 66 9 203 67 9 203 67 9 205 67 6 205 67 6 203 68 6 205 67 6
203 62 5 203 62 5 203 62 5 203 62 5 203 62 5 203 62 5 203 62 5
202 61 6 204 59 8 202 58 7 202 58 7 202 58 7 202 60 8 202 60 8
202 60 8 202 60 8 202 60 10 202 60 10 200 61 10 200 61 8 205 66 9
205 67 6 203 68 6 203 68 6 202 69 4 202 69 4 202 69 4 202 69 4
198 65 1 200 67 0 213 83 15 215 86 16 214 86 16 214 87 14 214 86 16
214 86 16 215 86 16 215 86 16 214 84 14 212 82 14 210 77 11 208 75 8
207 74 9 207 74 9 207 73 11 207 73 11 207 73 11 208 72 11 207 69 11
210 71 13 200 62 4 203 64 6 202 63 5 202 63 5 202 63 5 202 63 5
203 62 7 203 62 7 203 62 7 203 62 7 207 73 11 207 73 11 207 73 11
207 73 11 207 73 11 207 73 11 207 74 9 207 74 9 206 76 10 204 76 10
215 89 20 212 89 19 211 91 18 211 91 18 210 92 20 211 91 20 213 90 18
213 90 18 215 90 16 210 92 16 227 122 39 223 125 37 224 125 35
224 125 35 223 126 35 221 127 35 221 126 37 221 126 37 221 124 36
221 124 36 221 124 36 221 124 36 221 124 38 221 124 38 221 124 38
221 124 38 223 123 38 225 122 38 225 122 38 226 121 38 211 101 20
212 100 20 214 99 20 214 99 20 216 99 20 216 99 20 216 99 20
216 99 20 218 99 19 220 96 20 203 70 4 207 66 9 211 65 12 211 65 12
209 66 10 208 67 10 208 66 12 208 66 12 206 67 12 206 67 12 207 69 11
207 69 11 207 69 11 207 69 11 207 71 10 207 71 10 207 71 10 207 71 10
205 72 10 205 72 10 205 72 8 205 72 8 205 72 8 205 72 8 204 74 6
204 74 6 204 74 6 204 74 6 204 74 6 204 74 6 205 74 9 205 74 9
205 74 9 205 74 9 208 74 12 208 74 12 208 74 12 208 74 12 208 74 12
207 73 11 204 71 9 203 68 6 205 66 9 205 66 9 203 67 9 205 66 9
207 66 6 207 66 6 205 67 6 205 67 6 203 62 5 203 62 5 203 62 5
203 62 5 203 62 5 203 62 5 203 62 5 202 61 6 204 59 8 202 58 7
202 58 7 202 58 7 202 60 8 202 60 8 202 60 8 202 60 8 202 60 10
202 60 10 200 61 10 200 61 8 205 66 9 205 67 6 203 68 6 203 68 6
202 69 4 202 69 4 202 69 4 202 69 4 198 65 1 200 67 0 213 83 13
215 86 14 214 87 14 214 87 14 214 87 14 214 86 16 215 86 16 215 86 16
214 84 14 212 82 12 210 77 11 208 75 8 207 74 9 207 74 9 207 73 11
207 73 11 207 73 11 207 73 11 206 70 11 210 71 13 200 62 4 203 64 6
202 63 5 202 63 5 202 63 5 202 63 5 203 62 7 203 62 7 203 62 7
203 62 7 207 74 9 207 74 9 207 74 9 207 74 9 207 74 9 207 74 9
207 74 9 207 74 7 206 76 8 204 77 8 215 89 20 212 89 17 211 91 18
211 91 18 210 92 18 211 91 18 213 90 18 215 90 18 215 90 16 210 92 16
227 122 39 223 125 37 224 125 35 224 125 35 223 126 35 223 126 35
223 125 37 223 125 37 221 124 36 221 124 36 221 124 36 221 124 36
221 124 38 223 123 38 223 123 38 223 123 38 223 123 38 225 122 38
226 121 38 226 121 38 211 101 20 212 100 20 212 100 20 214 99 20
214 99 22 214 99 22 214 99 20 216 99 20 218 99 19 220 96 20 203 70 4
205 66 9 211 65 12 211 65 12 209 66 10 208 67 10 208 66 12 208 66 12
206 67 12 206 67 12 209 70 12 207 69 11 206 70 9 206 70 9 207 71 10
207 72 8 207 72 8 207 72 8 207 72 8 207 72 8 205 72 8 205 72 8
205 72 8 205 72 8 204 74 6 204 74 6 204 74 6 204 74 6 204 74 6
204 74 6 205 74 9 205 74 9 205 74 9 205 74 9 208 74 12 208 74 12
206 75 12 206 75 12 206 75 12 205 74 11 204 71 9 203 68 6 205 67 6
205 67 6 203 68 6 205 67 6 207 66 6 207 66 6 205 67 6 205 67 6
203 62 5 203 62 5 203 62 5 203 62 5 203 62 5 203 62 5 203 62 5
202 61 6 202 60 8 202 60 8 202 60 8 202 60 8 202 60 8 202 60 8
202 60 8 202 60 8 202 60 8 202 60 8 200 61 8 200 61 6 203 67 9
203 68 6 203 68 6 203 68 6 202 69 4 202 69 4 202 69 4 202 69 4
198 65 1 200 67 0 213 83 13 215 86 14 214 87 12 214 87 12 214 87 12
214 87 14 215 86 14 215 86 14 214 85 12 212 82 12 211 79 12 209 76 9
208 75 10 208 75 10 205 74 11 205 74 11 205 74 11 207 73 11 206 70 11
210 71 13 200 62 4 203 64 6 202 63 5 202 63 5 202 63 5 202 63 5
203 62 5 203 62 5 203 62 5 203 62 5 207 74 9 207 74 9 207 74 9
207 74 9 207 74 9 207 74 9 207 74 7 207 74 7 206 76 8 206 76 8
216 89 18 213 88 17 213 90 18 213 90 18 211 91 18 213 90 18 213 88 17
213 88 17 213 89 15 210 90 15 229 122 39 226 124 37 226 124 37
226 124 35 226 124 35 226 124 35 226 124 37 226 124 37 225 123 36
225 123 36 225 123 36 225 123 36 226 121 38 226 121 38 226 121 38
226 121 38 228 121 38 228 121 38 229 120 38 231 119 38 214 99 20
214 99 20 216 99 20 216 98 22 217 97 22 217 97 22 217 97 22 217 97 22
220 98 21 220 96 22 203 70 6 204 65 7 208 64 11 210 64 11 208 65 9
207 66 9 207 65 11 207 65 11 205 66 11 205 66 11 209 70 12 209 70 12
206 70 9 206 70 9 207 72 8 207 72 8 207 72 8 207 72 8 205 72 8
205 72 8 205 72 8 204 73 8 204 73 8 204 73 8 202 74 6 202 74 6
202 74 6 204 74 6 204 74 6 204 74 6 205 74 9 205 74 9 205 74 9
205 74 9 208 74 12 208 74 12 206 75 12 206 75 12 206 75 12 205 74 11
204 71 9 203 68 6 204 66 5 204 66 5 204 66 5 204 66 5 205 65 5
205 65 5 205 65 5 205 64 7 203 62 5 203 62 5 203 62 5 203 62 5
203 62 5 203 62 5 203 62 5 202 61 6 202 61 6 202 60 8 202 60 8
202 60 8 202 60 8 202 60 8 202 60 8 202 60 8 202 60 8 202 60 8
200 61 8 200 61 6 203 67 9 203 68 6 203 68 6 203 68 6 202 69 4
202 69 4 202 69 4 202 69 4 198 65 1 198 68 0 208 86 11 209 90 12
209 90 10 207 91 10 207 91 10 207 90 12 209 90 12 209 90 12 208 88 10
207 85 10 211 81 11 210 77 11 208 75 10 206 76 10 206 76 10 206 76 10
205 74 9 207 74 9 206 70 9 208 72 11 199 63 2 201 65 4 200 64 5
200 64 5 200 64 5 200 64 5 202 63 5 202 63 5 202 63 5 202 63 5
211 78 14 211 78 14 211 78 14 211 78 14 211 78 14 211 78 14 210 79 12
210 79 12 210 79 12 211 81 13 213 85 14 215 88 17 211 86 12 211 86 12
211 86 12 211 86 12 214 87 14 214 87 14 212 88 14 211 88 14 214 99 20
211 101 20 211 101 18 211 101 18 212 101 18 212 101 18 214 100 18
214 100 18 214 99 20 212 97 17 208 94 14 206 91 12 205 90 10
205 90 10 205 90 10 205 90 10 206 89 12 206 89 12 208 88 12 209 87 12
202 77 3 202 77 3 203 76 3 203 76 3 205 75 5 205 75 5 205 75 7
205 75 7 205 75 7 204 73 8 202 68 6 204 65 7 205 64 9 205 64 9
205 64 7 205 64 7 205 64 9 205 64 11 205 64 9 204 65 9 210 71 13
208 72 11 210 75 13 210 77 13 210 77 13 210 77 13 210 77 13 210 77 13
208 78 13 207 77 11 217 90 21 217 90 21 216 90 21 216 90 21 216 90 21
216 90 21 216 90 21 217 90 21 217 90 21 217 90 21 210 82 16 210 82 16
210 82 16 212 81 16 213 83 17 213 83 17 213 83 17 213 83 17 212 81 16
213 83 17 200 67 2 202 66 5 204 66 5 205 64 7 207 64 7 207 64 7
205 64 7 205 64 7 205 64 7 207 64 7 205 61 7 205 61 7 203 62 7
203 62 7 203 62 7 203 62 7 202 63 7 202 63 7 203 62 7 202 61 6
202 61 6 202 61 6 203 62 7 203 62 7 203 62 7 203 62 7 203 61 9
203 61 9 203 61 9 202 63 7 212 76 15 212 76 13 210 77 13 210 77 13
210 77 13 210 77 13 210 77 13 210 77 13 211 78 16 206 81 12
232 125 45 229 129 42 229 130 40 229 130 40 226 131 42 226 131 42
227 130 42 229 129 42 227 130 44 234 126 46 207 85 12 211 81 13
211 81 13 212 82 14 212 82 14 213 83 15 213 83 15 214 84 16 214 84 16
215 85 18 204 74 6 204 73 8 207 73 11 207 73 11 207 73 11 207 73 11
207 73 13 207 73 13 207 73 13 207 73 13 211 78 14 211 78 14 211 78 14
211 78 14 211 78 14 211 78 14 210 79 12 210 79 12 210 79 12 211 81 13
213 85 14 215 88 17 213 86 12 213 86 12 213 86 12 213 86 12 213 86 12
213 86 12 211 86 12 209 87 12 216 99 20 214 99 20 212 101 18
214 100 18 216 99 18 216 99 18 217 98 18 217 98 18 217 98 20
215 95 17 211 92 14 209 90 12 208 88 10 208 88 10 208 88 10 208 88 10
209 87 12 209 87 12 211 86 12 213 86 12 205 76 3 205 76 3 207 75 3
207 74 5 208 74 5 208 73 7 208 73 9 208 73 9 207 73 11 205 72 10
203 67 9 201 65 6 203 64 8 203 64 8 204 63 6 204 63 8 204 63 10
204 63 10 204 63 8 204 63 8 210 71 13 210 75 13 210 77 13 210 77 13
210 77 13 210 77 13 210 77 13 210 77 13 208 78 13 206 78 11 216 90 21
216 90 21 214 91 21 214 91 21 214 91 21 214 91 21 216 90 21 216 90 21
216 90 21 216 90 21 210 82 16 210 82 16 210 82 16 210 82 16 213 83 17
213 83 17 213 83 17 213 83 17 212 81 16 213 83 17 200 67 2 202 67 3
203 65 4 204 63 6 206 63 6 208 62 6 206 63 6 204 63 6 206 63 6
206 63 6 205 61 7 205 61 7 203 62 7 203 62 7 203 62 7 203 62 7
202 63 7 202 63 7 203 62 7 202 61 6 202 61 6 202 61 6 203 62 7
203 62 7 203 62 7 203 62 7 203 61 9 203 61 9 203 61 9 202 63 7
212 76 15 212 76 13 210 77 13 210 77 13 210 77 13 210 77 13 210 77 13
210 77 13 211 78 16 205 81 14 228 127 45 222 133 40 224 132 38
222 133 38 218 135 40 218 135 42 221 134 40 222 133 40 221 133 42
227 129 46 207 87 13 211 81 13 210 83 14 210 83 14 213 83 15
213 83 15 214 84 14 214 84 14 213 85 14 214 86 16 202 75 4 202 74 6
205 74 9 205 74 11 205 74 11 205 74 11 205 74 13 205 74 13 205 74 13
205 74 13 211 79 12 211 79 12 211 79 12 211 79 12 211 79 12 211 79 12
210 79 12 210 80 10 210 80 10 211 81 11 213 85 14 215 88 15 213 86 12
213 86 12 213 86 12 213 86 12 213 86 10 213 86 10 211 87 10 208 88 10
216 98 22 214 99 20 212 101 18 214 100 18 216 99 18 216 99 18
217 98 18 217 98 18 217 98 20 215 95 17 211 92 14 209 90 12 208 88 10
208 88 10 208 88 10 208 88 10 209 87 12 209 87 14 211 86 14 213 85 14
205 75 5 205 75 5 207 74 5 207 74 5 208 73 7 208 73 7 208 73 9
208 73 9 207 73 11 205 72 12 202 68 9 201 65 6 203 64 6 203 64 6
204 63 6 204 63 8 204 63 10 204 63 10 204 63 8 204 63 8 212 73 15
212 76 15 210 77 13 210 77 11 210 77 11 210 77 11 210 77 11 210 77 11
208 78 11 206 78 9 216 90 21 216 90 21 214 91 21 214 91 21 214 91 21
214 91 21 216 90 21 216 90 21 216 90 21 216 90 21 210 82 16 210 82 16
210 82 16 210 82 16 213 83 17 213 83 17 211 83 17 211 83 17 210 82 16
213 83 17 200 67 2 202 67 3 203 65 4 204 64 4 206 63 4 208 62 4
206 63 6 204 63 6 206 63 6 206 63 6 205 61 7 205 61 7 203 62 7
203 62 7 203 62 7 203 62 7 202 63 7 202 63 7 202 63 7 202 63 7
202 63 7 202 63 7 203 62 7 203 62 7 203 62 7 203 62 7 203 62 7
203 62 7 203 62 7 202 63 5 212 76 15 210 77 13 210 77 13 210 77 13
210 77 13 210 77 13 210 77 13 210 77 13 211 78 16 205 81 14
228 127 45 222 133 40 224 132 38 222 133 38 218 135 40 218 135 40
221 134 40 222 133 40 221 133 42 227 129 46 208 88 14 212 82 14
211 83 17 211 83 17 211 84 15 211 84 13 213 85 14 213 85 14 213 85 14
214 86 16 202 75 4 202 74 6 205 74 9 205 74 11 205 74 11 205 74 11
205 74 11 205 74 11 205 74 11 205 74 11 211 79 12 211 79 12 211 79 12
211 79 12 211 79 12 211 79 12 210 80 10 210 80 10 210 80 10 211 81 11
213 86 12 215 88 15 213 86 12 213 86 12 213 86 12 213 86 12 213 86 10
213 86 10 211 87 10 208 88 10 216 98 22 214 99 22 212 100 20
214 100 18 216 99 18 216 99 18 217 98 18 217 98 20 217 98 20
215 95 17 211 92 14 209 90 12 208 88 10 208 88 10 208 88 10 208 88 12
209 87 14 209 87 14 211 86 14 213 85 14 205 75 5 205 75 7 207 74 7
207 74 7 208 73 7 208 73 9 208 73 9 208 72 11 207 73 11 205 72 12
202 68 9 201 65 6 203 64 6 203 64 6 204 63 6 204 63 8 204 63 10
204 63 10 204 63 8 203 64 6 212 76 15 212 76 13 210 77 11 210 77 11
210 77 11 210 77 11 210 77 11 208 78 11 207 79 11 206 78 9 216 90 21
216 90 21 214 91 21 214 91 21 214 91 21 214 91 21 216 90 21 216 90 21
216 90 21 216 90 21 210 82 16 210 82 16 210 82 16 210 82 16 213 83 17
213 83 17 211 83 17 211 83 17 210 82 16 213 83 17 200 67 2 202 67 3
203 65 4 204 64 4 206 63 4 206 63 4 206 63 6 204 63 6 206 63 6
206 63 6 205 61 7 205 61 7 203 62 7 203 62 7 203 62 7 203 62 7
202 63 7 202 63 7 202 63 7 202 63 7 202 63 7 202 63 7 203 62 7
203 62 7 203 62 7 203 62 7 203 62 7 203 62 7 203 62 7 202 63 5
212 76 15 210 77 13 210 77 13 210 77 13 210 77 13 210 77 13 210 77 13
210 77 13 211 78 16 205 81 14 228 128 43 222 133 40 224 132 38
222 133 38 218 135 40 218 135 40 221 134 38 222 133 40 221 133 42
227 129 46 208 88 14 212 81 16 211 83 19 211 83 19 211 84 15
211 84 13 213 85 14 213 85 14 213 85 14 214 86 16 202 75 4 202 74 6
205 74 9 205 74 11 205 74 11 205 74 11 205 74 11 205 74 11 205 74 11
205 74 11 210 79 12 210 79 12 210 79 12 210 79 12 210 79 12 210 79 12
210 80 10 210 80 10 210 80 10 211 81 11 213 86 12 215 88 15 213 86 12
213 86 12 213 86 12 213 86 12 213 86 12 213 86 12 211 86 12 208 88 12
214 97 21 213 98 21 211 99 19 213 98 19 216 99 20 216 99 20 217 98 20
217 98 20 217 97 22 215 95 19 211 92 16 209 89 14 208 88 12 208 88 12
208 88 12 208 88 12 209 87 14 209 87 16 211 86 16 213 85 16 205 75 7
207 74 9 207 74 9 207 74 9 208 73 9 208 72 11 208 72 11 208 72 11
208 72 11 207 71 10 203 68 6 201 65 4 203 64 6 204 63 6 204 63 8
204 63 8 206 62 10 204 63 10 204 63 8 203 64 6 212 76 15 210 77 13
210 77 11 208 79 9 208 79 9 208 79 9 208 79 9 208 79 9 207 79 9
204 79 7 216 91 19 214 92 19 214 92 19 212 92 19 212 92 19 214 92 19
214 92 19 214 92 19 214 92 19 216 90 21 210 82 16 210 82 16 210 82 16
210 82 16 213 83 17 213 83 17 211 83 17 211 83 17 212 81 16 213 83 17
200 67 2 202 67 3 204 66 5 205 65 5 207 64 5 207 64 5 206 63 6
206 63 6 206 63 6 206 63 6 205 61 7 205 61 7 203 62 7 203 62 7
203 62 7 203 62 7 202 63 7 202 63 7 202 63 7 202 63 7 202 63 7
202 63 7 203 62 7 203 62 7 203 62 7 203 62 7 203 62 7 203 62 7
203 62 7 202 63 5 212 76 15 210 77 13 210 77 13 210 77 13 210 77 13
210 77 13 210 77 13 210 77 13 213 77 16 205 81 14 228 128 43
222 133 40 224 132 38 222 133 38 218 135 40 218 135 40 221 134 38
222 133 38 221 133 42 227 130 44 208 88 14 212 81 16 211 83 19
211 83 19 213 83 17 213 83 15 214 84 16 214 84 16 214 84 16 215 85 18
204 74 6 204 74 6 205 74 9 205 74 11 205 74 9 205 74 9 205 74 9
205 74 9 205 74 9 205 74 9 210 79 12 210 79 12 210 79 12 210 79 12
210 79 12 210 79 12 210 80 10 210 80 10 210 80 10 211 81 11 213 86 12
215 88 15 213 86 12 213 86 12 213 86 12 213 86 12 213 86 12 213 86 12
211 86 12 208 88 12 214 97 21 213 98 21 211 99 21 213 98 19 216 99 20
216 99 20 217 98 20 217 98 20 217 97 22 215 95 19 211 92 16 209 89 14
208 88 12 208 88 12 208 88 12 208 88 14 209 87 16 209 87 16 211 86 16
213 85 16 205 74 9 207 74 9 207 74 9 207 74 9 208 72 11 208 72 11
208 72 11 208 72 11 208 72 11 207 71 10 203 68 6 203 65 4 204 63 6
204 63 6 204 63 8 204 63 8 206 62 10 206 62 10 204 63 8 203 64 6
212 76 15 210 77 13 208 78 11 208 79 9 208 79 9 208 79 9 208 79 9
208 79 9 207 79 9 204 79 7 214 92 19 214 92 19 212 92 19 212 92 19
212 92 19 212 92 19 214 92 19 214 92 19 214 92 19 216 90 21 210 82 16
210 82 16 210 82 16 210 82 16 213 83 17 213 83 17 211 83 17 211 83 17
212 81 16 213 83 17 200 67 2 202 67 3 204 66 5 205 65 5 207 64 5
207 64 5 206 63 6 206 63 6 206 63 6 206 63 6 205 61 7 205 61 7
203 62 7 203 62 7 203 62 7 203 62 7 202 63 7 202 63 7 202 63 7
202 63 7 202 63 7 202 63 7 203 62 7 203 62 7 203 62 7 203 62 7
203 62 7 203 62 7 203 62 7 202 63 5 212 76 15 210 77 13 210 77 13
210 77 13 210 77 13 210 77 13 210 77 13 210 77 13 211 78 16 205 81 14
228 128 43 222 133 40 224 132 38 222 133 38 218 135 40 218 135 40
221 134 38 222 133 38 221 133 42 227 130 44 208 88 14 212 81 16
211 83 21 211 83 19 213 83 17 213 83 15 214 84 16 214 84 16 214 84 16
215 85 18 204 74 6 204 73 8 205 74 11 205 74 11 205 74 9 205 74 9
205 74 9 205 74 9 205 74 9 205 74 9 210 79 12 210 79 12 210 79 12
210 79 12 210 79 12 210 79 12 210 80 10 210 80 10 210 80 10 211 81 11
213 86 12 215 88 15 213 86 12 213 86 12 213 86 12 213 86 12 213 86 12
213 86 12 211 86 12 208 88 12 214 97 23 213 97 23 211 99 21 213 98 21
216 99 20 216 99 20 217 98 20 217 98 20 217 97 22 215 95 19 211 92 16
209 89 14 208 88 12 208 88 12 208 88 12 208 88 14 209 87 16 209 87 16
211 86 16 213 85 16 205 74 9 207 74 9 207 74 9 207 74 9 208 72 11
208 72 11 208 72 11 208 72 11 208 72 11 207 71 10 203 68 6 203 65 4
204 63 6 204 63 6 204 63 8 204 63 8 206 62 10 206 62 10 204 63 8
203 64 6 212 76 15 210 77 13 208 78 11 208 79 9 208 79 9 208 79 9
208 79 9 208 79 9 207 79 9 204 79 7 214 92 19 214 92 19 212 92 19
212 92 19 212 92 19 212 92 19 214 92 19 214 92 19 214 92 19 216 90 21
210 82 16 210 82 16 210 82 16 210 82 16 213 83 17 213 83 17 211 83 17
211 83 17 212 81 16 213 83 17 200 67 2 202 67 3 204 66 5 205 65 5
207 64 5 207 64 5 206 63 6 206 63 6 206 63 6 206 63 6 205 61 7
205 61 7 203 62 7 203 62 7 203 62 7 203 62 7 202 63 7 202 63 7
202 63 7 202 63 7 202 63 7 202 63 7 203 62 7 203 62 7 203 62 7
203 62 7 203 62 7 203 62 7 203 62 7 202 63 5 212 76 15 210 77 13
210 77 13 210 77 13 210 77 13 210 77 13 210 77 13 210 77 13 210 79 16
203 82 14 226 128 43 222 133 40 224 132 38 222 133 38 218 135 40
218 135 40 221 134 38 222 133 40 221 133 42 227 129 46 208 87 16
212 81 18 211 83 21 211 83 21 213 83 17 213 83 15 214 84 16 214 84 16
214 84 16 215 85 18 204 74 6 205 74 9 205 74 11 205 74 11 205 74 9
205 74 9 205 74 9 205 74 9 205 74 9 205 74 9 208 78 11 208 78 11
208 78 11 208 78 11 208 78 11 208 78 11 208 79 9 210 80 10 208 79 9
211 81 11 213 86 12 215 88 15 213 86 12 213 85 14 213 85 14 213 86 12
213 86 12 211 86 12 212 88 14 211 88 14 214 97 23 214 97 23 213 98 21
213 98 21 216 98 22 216 99 20 216 99 20 217 97 22 217 97 22 215 95 19
211 92 16 209 89 14 208 88 12 209 87 12 209 87 12 209 87 14 209 87 16
211 86 16 211 86 16 213 85 16 205 74 9 207 74 9 207 74 9 207 73 11
208 72 11 208 72 11 208 72 11 208 72 11 209 73 12 207 71 10 205 69 8
204 66 5 204 63 6 204 63 6 204 63 8 204 63 8 206 62 10 204 63 10
203 64 8 203 64 6 210 75 13 209 76 11 207 77 9 207 77 7 207 77 7
207 77 7 207 77 7 207 77 7 206 78 7 203 78 6 213 90 18 213 90 18
211 91 18 211 91 18 211 91 18 211 91 18 213 90 18 213 90 18 213 90 18
215 89 20 209 83 14 210 82 16 210 82 16 210 82 16 213 83 17 213 83 17
211 83 17 213 83 17 212 81 16 215 82 17 201 68 3 202 66 5 204 66 5
205 65 5 207 64 5 207 64 7 206 63 6 206 63 6 206 63 6 206 63 6
205 61 7 205 61 7 203 62 7 203 62 7 203 62 7 203 62 7 202 63 7
202 63 7 202 63 7 202 63 7 202 63 7 202 63 7 203 62 7 203 62 7
203 62 7 203 62 7 203 62 7 203 62 7 203 62 7 202 63 5 212 76 15
210 77 13 210 77 13 210 77 13 210 77 13 210 77 13 210 77 13 208 78 13
210 82 18 200 82 11 228 127 45 224 132 42 224 132 40 222 133 40
219 134 42 219 134 42 221 134 40 222 133 40 222 132 42 229 128 46
207 89 18 210 84 19 210 83 21 213 84 22 213 83 17 213 83 15 214 84 16
214 84 16 214 84 16 215 85 18 205 75 7 205 75 7 205 74 9 205 74 11
205 74 9 205 74 9 205 74 9 205 74 9 205 74 9 205 74 9 207 79 9
207 79 9 207 79 9 207 79 9 208 79 9 208 79 9 207 79 9 206 78 7
207 79 9 209 82 11 214 86 16 217 90 19 213 85 14 213 85 16 214 86 18
214 86 16 211 86 14 211 86 14 212 87 16 211 88 16 218 95 23 216 96 23
216 96 23 214 97 23 216 98 24 216 98 22 216 98 22 216 98 22
221 104 30 216 98 24 207 90 16 203 85 11 208 86 13 210 85 13
210 85 13 210 85 13 210 85 15 211 84 15 211 84 15 211 84 15 206 76 10
208 74 12 209 73 12 209 73 12 209 73 14 209 73 14 209 73 14 209 73 14
208 72 13 207 71 12 205 68 10 205 66 9 205 64 7 205 64 7 207 63 9
207 63 9 205 64 11 205 64 11 204 65 9 204 65 7 209 73 12 208 75 10
206 76 8 206 76 6 207 77 7 207 77 7 207 77 7 207 77 7 206 78 7
203 78 6 213 90 18 213 90 18 212 92 19 212 92 19 214 92 19 214 92 19
214 91 21 214 91 21 216 90 21 216 90 21 208 82 13 205 80 11 208 80 12
208 80 14 208 80 14 208 79 16 211 80 17 211 80 17 212 79 17 209 75 13
203 68 6 201 65 4 203 64 6 204 63 6 204 63 6 204 63 6 204 63 8
204 63 8 204 63 8 204 63 8 203 62 7 203 62 7 203 62 7 203 62 7
203 62 7 203 62 7 203 62 7 203 62 7 203 62 7 203 62 7 203 62 7
203 62 7 204 63 8 204 63 8 204 63 8 204 63 8 204 63 8 204 63 8
204 63 8 203 64 6 212 76 15 210 77 13 210 77 13 210 77 13 210 77 11
210 77 11 208 78 11 207 79 13 210 84 17 198 80 8 240 135 54
225 128 40 228 133 42 225 135 42 223 136 44 223 136 44 225 135 42
226 134 42 228 133 44 233 130 48 201 91 16 205 86 19 207 85 21
209 85 22 214 85 22 215 85 20 215 85 20 215 85 20 217 86 21 213 83 17
207 77 9 205 75 7 208 75 10 208 75 10 208 75 10 208 75 10 208 75 10
208 75 10 208 75 10 208 75 10 208 81 10 208 81 10 208 81 10 208 81 10
210 80 10 210 80 10 208 81 10 208 81 10 209 82 11 210 83 12 213 85 14
213 85 14 211 84 15 210 83 14 210 83 14 210 83 14 211 84 13 210 85 13
210 85 13 210 85 13 218 93 21 218 93 21 216 94 21 216 94 21 216 96 23
216 96 23 216 96 23 216 96 23 218 98 25 215 94 23 209 88 18 207 84 14
211 86 16 213 85 16 213 85 16 213 85 16 213 85 16 214 84 18 214 84 18
214 84 18 207 73 11 207 73 11 208 72 11 208 72 11 208 72 13 208 72 13
208 72 13 208 72 13 206 70 11 205 68 10 203 67 9 204 65 7 205 64 7
205 64 7 207 63 9 207 63 9 205 64 11 205 64 11 204 65 9 204 65 7
212 76 15 210 77 13 208 78 11 208 79 9 210 80 10 210 80 10 210 80 10
210 80 10 208 81 10 205 80 9 215 93 20 215 93 20 215 95 21 215 95 21
216 94 21 216 94 21 216 93 23 216 93 23 218 93 23 218 93 23 211 86 16
209 83 14 210 83 14 209 81 15 208 79 16 207 78 15 208 77 15 208 77 15
209 75 13 205 72 10 202 66 5 199 63 2 203 64 6 203 64 6 204 63 6
204 63 6 204 63 8 204 63 8 204 63 8 204 63 8 203 62 7 203 62 7
203 62 7 203 62 7 203 62 7 203 62 7 203 62 7 203 62 7 203 62 7
203 62 7 203 62 7 203 62 7 204 63 8 204 63 8 204 63 8 204 63 8
204 63 8 204 63 8 204 63 8 203 64 6 212 76 15 210 77 13 210 77 13
210 77 13 210 77 11 210 77 11 208 78 11 207 79 11 206 81 14 202 82 11
244 131 53 241 133 51 230 128 42 227 130 40 226 131 42 226 131 42
226 131 40 229 129 42 232 127 44 235 125 46 202 87 14 203 84 17
207 83 22 211 85 22 214 85 22 217 86 21 217 86 21 217 86 21 211 80 15
210 79 14 207 77 9 205 75 7 208 75 10 208 75 10 208 75 10 208 75 10
208 75 10 208 75 10 208 75 10 208 75 10 211 84 13 211 84 13 211 84 13
211 84 13 213 83 13 213 83 13 211 84 13 213 85 14 213 85 14 213 85 14
210 83 12 209 82 11 208 78 11 208 78 11 210 79 12 210 79 12 208 81 10
208 81 10 209 82 11 209 82 11 201 73 5 201 73 5 201 73 5 201 73 5
202 74 6 202 74 6 202 74 6 202 74 6 200 72 4 199 71 4 197 69 3
199 69 3 199 69 3 200 70 4 200 70 4 200 70 4 200 70 4 202 68 6
202 68 6 202 68 6 202 68 6 202 68 6 203 68 6 203 68 6 203 67 9
203 67 9 203 67 9 203 67 9 203 67 9 202 66 7 202 66 7 204 65 7
205 64 7 205 64 7 207 63 9 207 63 9 205 64 11 205 64 11 204 65 9
204 65 7 215 79 18 213 81 16 212 82 14 212 82 12 213 83 13 213 83 13
213 83 13 213 83 13 211 84 13 209 84 12 219 96 24 219 96 24 218 98 25
218 98 25 220 97 25 220 97 25 220 97 27 220 97 27 222 96 27 222 96 27
199 74 5 197 72 2 200 72 4 200 72 6 201 72 9 201 72 9 204 73 10
205 74 11 205 72 10 203 70 8 201 65 4 200 64 3 202 63 5 203 64 6
204 63 6 204 63 6 204 63 8 204 63 8 204 63 8 204 63 8 203 62 7
203 62 7 203 62 7 203 62 7 203 62 7 203 62 7 203 62 7 203 62 7
203 62 7 203 62 7 203 62 7 203 62 7 204 63 8 204 63 8 204 63 8
204 63 8 204 63 8 204 63 8 204 63 8 203 64 6 212 76 15 210 77 13
210 77 13 210 77 13 210 77 11 210 77 11 210 77 11 210 77 11 207 77 9
200 72 4 214 92 17 208 88 10 205 91 8 201 92 8 200 93 8 200 93 8
200 93 8 203 91 8 205 88 9 206 83 11 208 80 14 207 76 15 210 74 18
212 75 19 203 70 8 201 71 6 201 71 6 201 71 6 203 72 7 204 73 8
206 76 8 207 77 9 208 75 10 208 75 10 208 75 10 208 75 10 208 75 10
208 75 10 208 75 10 208 75 10 213 85 14 213 85 14 213 85 14 213 85 14
214 84 14 214 84 14 213 85 14 214 86 16 215 88 17 214 86 16 209 82 11
206 78 7 206 76 8 207 77 9 207 77 9 207 77 9 208 79 9 208 79 9
208 79 9 208 78 11 201 71 4 203 70 6 203 70 6 203 70 6 204 71 7
204 71 7 204 71 7 204 71 7 200 65 1 201 65 4 202 66 5 203 68 6
206 70 9 206 70 9 206 70 9 206 70 9 206 70 9 206 70 11 206 70 11
204 71 9 201 67 5 202 66 5 202 66 5 202 66 5 202 66 7 202 66 7
202 66 7 202 66 7 202 66 7 202 66 7 202 66 7 204 65 7 205 64 7
205 64 7 207 63 9 207 63 9 205 64 11 205 64 11 204 65 9 202 66 7
216 82 20 216 83 16 214 84 14 214 84 14 215 86 16 215 86 16 215 86 16
214 86 16 212 87 16 211 86 14 221 99 26 221 99 26 221 101 27
221 101 27 222 100 27 222 100 27 222 99 29 222 99 29 224 99 29
224 99 29 203 78 8 201 75 6 202 74 6 202 74 8 201 72 9 201 72 9
203 72 9 203 72 9 204 71 9 203 70 8 201 65 4 200 64 3 202 63 5
203 64 6 204 63 6 204 63 6 204 63 8 204 63 8 204 63 8 204 63 8
203 62 7 203 62 7 203 62 7 203 62 7 203 62 7 203 62 7 203 62 7
203 62 7 203 62 7 203 62 7 203 62 7 203 62 7 204 63 8 204 63 8
204 63 8 204 63 8 204 63 8 204 63 8 204 63 8 203 64 6 210 75 13
209 76 11 209 76 11 209 76 11 209 76 9 209 76 9 210 75 9 210 75 9
206 71 5 207 74 7 218 88 18 222 95 22 207 85 8 206 87 6 204 87 6
202 88 6 204 87 6 206 86 8 209 84 10 210 80 10 208 73 9 210 69 12
212 68 14 212 68 14 207 71 10 203 72 7 203 72 7 203 72 7 197 66 1
200 70 4 205 74 9 208 78 11 208 75 10 208 75 10 208 75 10 208 75 10
208 75 10 208 75 10 208 75 10 208 75 10 211 86 16 211 86 16 211 86 16
213 85 16 213 85 16 213 85 16 213 85 14 214 86 16 215 88 17 213 85 14
209 82 11 208 81 10 210 79 12 211 79 12 211 79 12 211 79 12 211 79 12
211 79 12 210 77 11 210 77 11 203 68 4 203 68 4 203 68 6 203 68 6
205 69 8 205 69 8 205 69 8 206 68 8 205 67 6 205 66 9 205 66 9
205 66 9 206 68 10 206 68 10 206 68 10 206 68 10 206 68 10 206 67 12
206 67 12 205 68 10 203 67 9 203 67 9 205 66 9 205 66 9 205 66 9
205 66 9 205 66 9 205 66 9 205 66 9 205 66 9 205 66 9 205 66 9
207 66 9 208 65 9 208 64 11 208 64 11 207 65 11 207 65 11 205 66 11
203 67 9 217 84 20 215 85 18 215 86 16 214 86 16 214 87 14 214 87 14
214 87 14 214 87 14 212 88 14 209 87 12 221 99 24 219 100 24
221 101 25 221 101 25 221 101 25 221 101 27 221 101 27 222 100 27
222 100 27 222 100 27 201 75 6 198 73 4 200 72 4 200 72 6 199 70 6
199 70 6 200 69 6 201 70 8 203 70 8 205 69 8 201 65 4 200 64 3
203 64 6 203 64 6 203 64 6 203 64 6 204 63 8 204 63 8 204 63 8
204 63 8 203 62 7 203 62 7 203 62 7 203 62 7 203 62 7 203 62 7
203 62 7 203 62 7 203 62 7 203 62 7 203 62 7 203 62 7 204 63 8
204 63 8 204 63 8 204 63 8 204 63 8 204 63 8 204 63 8 203 64 6
210 75 13 209 76 11 209 76 11 209 76 11 209 76 9 209 76 9 210 75 9
211 73 8 207 70 5 212 75 9 220 85 17 219 88 16 215 88 13 212 88 12
211 89 12 209 90 12 209 88 8 211 87 10 214 85 12 217 83 14 208 68 6
210 64 9 213 64 12 212 66 13 207 69 11 203 70 8 203 70 8 202 68 6
201 67 5 203 70 8 207 74 9 209 76 11 209 76 11 209 76 11 209 76 11
209 76 11 209 76 11 209 76 11 209 76 11 209 76 11 211 86 16 211 86 16
211 86 16 211 86 16 213 85 16 213 85 16 213 85 14 214 86 16 214 86 16
213 85 14 209 82 11 208 81 10 210 79 12 212 80 13 212 80 13 212 80 13
211 79 12 211 79 12 211 79 12 213 77 14 205 67 4 205 67 4 205 67 6
205 67 6 206 68 8 206 68 10 206 68 10 206 68 10 205 66 9 207 66 9
207 66 9 205 66 11 206 67 12 206 67 12 206 67 12 206 67 12 206 67 12
206 67 12 206 67 12 206 67 12 203 67 9 203 67 9 205 66 9 205 66 9
205 66 9 205 66 9 205 66 9 205 66 9 205 66 9 205 66 9 205 66 9
207 66 9 208 65 9 208 65 9 208 64 11 208 64 11 207 65 11 205 66 11
203 67 9 202 68 6 215 85 20 215 85 18 214 86 16 214 86 16 214 87 14
214 87 14 214 87 14 212 88 14 211 88 14 209 87 12 219 100 24
219 100 24 219 102 25 219 102 25 219 102 25 221 101 25 221 101 27
221 101 27 221 101 27 222 100 27 201 75 6 200 72 4 200 72 4 200 72 4
199 71 4 200 69 6 200 69 6 203 70 8 203 70 8 205 69 8 201 65 4
200 64 3 203 64 6 203 64 6 203 64 6 203 64 6 204 63 8 204 63 8
204 63 8 204 63 8 203 62 7 203 62 7 203 62 7 203 62 7 203 62 7
203 62 7 203 62 7 203 62 7 203 62 7 203 62 7 203 62 7 203 62 7
204 63 8 204 63 8 204 63 8 204 63 8 204 63 8 204 63 8 204 63 8
203 64 6 209 73 12 208 75 10 208 75 10 208 75 10 208 75 8 208 75 8
209 74 8 210 72 7 210 72 7 212 75 9 220 85 17 219 88 16 215 88 15
212 88 14 211 88 14 209 89 14 209 88 10 211 87 10 214 85 12 217 83 14
208 68 6 210 64 9 213 64 12 212 66 13 207 69 11 203 70 8 203 70 8
202 68 6 202 66 5 205 69 8 207 74 9 209 76 11 209 76 11 209 76 11
209 76 11 209 76 11 209 76 11 209 76 11 209 76 11 209 76 11 209 87 16
209 87 16 209 87 16 211 86 16 211 86 16 211 86 16 211 86 14 212 87 16
212 87 16 211 86 14 209 82 9 208 81 10 210 80 10 211 81 11 212 80 11
212 80 13 213 78 12 213 77 14 213 77 14 213 77 14 205 67 6 205 67 6
205 67 6 205 67 6 205 68 10 205 68 12 205 68 12 205 68 12 203 67 11
205 66 11 205 66 11 205 66 11 206 67 14 206 67 14 206 67 14 206 67 14
208 66 12 208 66 12 206 67 12 206 67 12 205 66 11 205 66 11 205 66 9
205 66 9 205 66 9 205 66 9 205 66 9 205 66 9 207 66 9 207 66 9
207 66 9 207 66 9 208 65 6 208 65 9 208 65 9 208 65 9 207 66 9
205 66 9 203 67 9 202 68 6 215 85 20 214 86 18 214 86 16 212 87 16
212 88 14 212 88 14 212 88 14 212 88 14 211 88 14 208 88 12
219 100 24 218 101 24 219 102 25 217 103 25 217 103 25 219 102 25
219 101 27 219 101 27 219 101 27 221 101 27 201 75 6 201 71 4
201 71 4 201 71 4 200 70 4 202 69 4 202 68 6 203 70 8 203 70 8
203 70 8 200 66 4 200 64 3 203 64 6 203 64 6 203 64 6 203 64 6
204 63 8 204 63 8 204 63 8 204 63 8 203 62 7 203 62 7 203 62 7
203 62 7 203 62 7 203 62 7 203 62 7 203 62 7 203 62 7 203 62 7
203 62 7 203 62 7 204 63 8 204 63 8 204 63 8 204 63 8 203 64 8
203 64 8 203 64 8 203 64 6 209 73 12 208 75 10 208 75 10 208 75 10
208 75 8 208 75 8 208 75 8 208 73 7 208 73 7 209 76 9 217 87 17
215 90 18 212 89 17 209 89 14 207 90 14 206 91 14 206 89 12 208 88 12
209 87 12 213 85 16 203 70 6 205 66 9 209 66 12 209 68 13 206 70 11
203 69 10 203 70 8 202 68 6 202 66 5 205 69 8 207 74 9 209 76 11
209 76 11 209 76 11 209 76 11 209 76 11 209 76 11 209 76 11 209 76 11
209 76 11 209 87 16 209 87 16 209 87 16 209 87 16 211 86 16 211 86 16
211 86 14 212 87 16 212 87 16 211 86 14 209 82 9 208 81 8 210 80 10
211 81 11 212 80 11 212 80 11 213 77 14 213 77 16 213 77 16 213 77 16
205 67 6 205 67 6 205 67 6 205 66 9 205 68 12 205 68 12 205 68 12
205 68 12 203 67 11 203 67 11 203 67 11 205 66 11 206 67 12 206 67 14
206 67 14 206 67 12 208 66 12 208 66 12 206 67 12 206 67 12 205 66 11
205 66 11 205 66 9 205 66 9 205 66 9 205 66 9 205 66 9 207 66 9
207 66 9 207 66 9 207 66 9 207 66 9 208 65 6 208 65 6 208 65 9
207 66 9 207 66 9 205 66 9 203 68 6 202 68 6 215 85 20 214 86 18
212 87 18 212 87 16 212 87 16 212 88 14 212 88 14 212 88 14 211 88 14
208 88 12 218 101 24 218 101 24 217 103 25 217 103 25 217 103 25
217 103 25 217 102 27 217 102 27 217 102 27 221 101 27 202 74 6
203 70 4 203 70 4 203 70 4 202 69 4 202 69 4 202 68 6 203 70 8
203 70 8 203 70 8 200 66 4 200 64 3 203 64 6 203 64 6 203 64 6
203 64 6 204 63 8 204 63 8 204 63 8 204 63 8 203 62 7 203 62 7
203 62 7 203 62 7 203 62 7 203 62 7 203 62 7 203 62 7 203 62 7
203 62 7 203 62 7 203 62 7 204 63 8 204 63 8 204 63 8 204 63 8
203 64 8 203 64 8 203 64 8 203 64 6 209 73 12 208 75 10 208 75 10
208 75 10 208 75 8 208 75 8 208 75 8 207 74 7 207 74 7 207 77 9
215 87 19 215 90 18 212 89 17 209 89 16 207 90 16 207 90 14 208 88 12
208 88 14 209 87 14 213 85 16 201 71 6 203 68 6 206 68 10 207 69 11
206 70 11 203 69 10 203 70 8 202 68 6 202 66 5 205 69 8 207 74 9
209 76 11 209 76 11 209 76 11 209 76 11 209 76 11 209 76 11 209 76 11
209 76 11 209 76 11 209 87 16 209 87 16 209 87 16 209 87 16 211 86 16
211 86 16 211 86 16 212 87 18 212 87 16 211 86 14 209 82 9 208 81 8
208 81 8 211 81 9 211 81 9 212 80 11 212 79 15 212 79 19 214 78 19
214 78 19 205 68 10 205 68 10 206 68 10 206 68 10 206 67 12 206 67 14
206 67 14 206 67 14 206 67 12 206 67 12 206 67 12 206 67 12 208 66 12
208 66 12 208 66 12 208 66 12 208 66 12 208 66 12 208 67 10 208 67 10
207 66 9 207 66 9 205 66 9 205 66 9 205 67 6 205 67 6 207 66 6
207 66 6 208 65 6 208 65 6 208 65 6 208 65 6 208 65 6 208 65 6
207 66 6 205 67 6 205 67 6 203 68 6 202 68 6 202 68 6 215 85 20
214 86 20 212 87 18 212 87 18 212 87 16 212 87 16 212 87 16 212 87 16
211 88 16 208 88 14 218 101 24 218 101 24 217 103 25 217 103 25
217 103 25 217 103 25 217 103 25 217 103 25 217 102 27 221 101 27
204 74 4 205 70 2 205 70 4 205 70 4 205 69 6 205 69 6 205 69 6
205 69 8 205 69 8 205 68 10 202 66 7 201 65 6 203 64 6 203 64 6
203 64 6 203 64 6 204 63 8 204 63 8 204 63 8 204 63 8 203 62 7
203 62 7 203 62 7 203 62 7 203 62 7 203 62 7 203 62 7 203 62 7
202 63 7 202 63 7 202 63 7 202 63 7 203 64 8 203 64 8 203 64 8
203 64 8 203 64 8 203 64 8 203 64 8 203 64 6 209 73 12 208 75 10
208 75 10 208 75 10 208 75 10 208 75 10 208 75 10 207 74 9 208 75 8
210 77 11 215 85 18 217 86 19 217 86 19 215 87 19 215 88 17 215 88 17
214 86 16 214 86 18 215 85 18 215 85 20 204 71 9 205 69 8 206 70 9
207 71 10 206 70 9 205 69 8 205 69 8 203 68 6 202 66 5 205 69 8
208 72 11 210 75 13 210 75 13 210 75 13 209 76 11 209 76 11 209 76 11
209 76 11 209 76 11 209 76 11 211 86 16 211 86 16 211 86 16 211 86 16
211 86 16 211 86 16 211 86 16 212 87 18 212 87 18 213 85 14 209 82 11
208 81 10 208 81 10 211 81 11 211 81 11 211 81 13 212 79 17 212 79 19
214 78 19 214 78 19 205 68 10 205 68 10 206 68 10 206 67 12 206 67 12
206 67 14 206 67 14 206 67 14 206 67 12 206 67 12 206 67 12 206 67 12
208 67 10 208 67 10 208 67 10 208 67 10 208 66 12 208 66 12 208 67 10
208 67 10 207 66 9 207 66 9 205 66 9 205 66 9 205 67 6 205 67 6
207 66 6 207 66 6 208 65 6 208 65 6 208 65 6 208 65 6 208 65 6
207 66 6 205 67 6 205 67 6 203 68 6 203 68 6 202 68 6 200 69 6
214 86 20 214 86 20 212 87 18 212 87 18 212 87 16 212 87 16 212 87 16
211 88 16 209 89 16 208 88 14 218 101 24 218 101 24 217 103 25
217 103 25 217 103 25 217 103 25 217 103 25 217 103 25 217 102 27
221 101 27 204 74 4 205 70 2 205 70 4 205 70 4 205 69 6 205 69 6
205 69 6 205 69 8 205 68 10 205 68 10 202 66 7 201 65 6 203 64 6
203 64 6 203 64 6 203 64 6 204 63 8 204 63 8 204 63 8 204 63 8
203 62 7 203 62 7 203 62 7 203 62 7 203 62 7 203 62 7 203 62 7
203 62 7 202 63 7 202 63 7 202 63 7 202 63 7 203 64 8 203 64 8
203 64 8 203 64 8 203 64 8 203 64 8 203 64 8 201 65 6 208 74 12
208 75 10 208 75 10 208 75 10 208 75 10 208 75 10 208 75 10 207 74 9
208 75 8 210 77 11 217 84 20 218 85 21 218 86 19 218 86 19 218 86 19
218 86 19 217 84 18 217 84 18 217 84 20 217 84 20 206 70 9 205 69 8
206 70 9 207 71 10 206 70 9 205 69 8 205 69 8 203 68 6 202 66 5
205 69 8 208 72 11 210 75 13 210 75 13 210 75 13 209 76 11 209 76 11
209 76 11 209 76 11 209 76 11 209 76 11 213 85 16 213 85 16 213 85 16
213 85 16 213 85 16 213 85 16 213 84 18 214 86 20 214 86 18 213 85 16
211 81 13 210 79 12 210 79 12 211 81 13 212 79 15 212 79 15 212 79 17
212 79 17 214 78 19 214 78 19 205 68 10 205 68 10 206 67 12 206 67 12
206 67 12 206 67 12 206 67 12 206 67 12 206 67 12 206 67 12 206 67 12
206 67 12 208 67 10 208 67 10 208 67 10 208 67 10 208 67 10 208 67 10
208 67 10 208 67 10 207 66 9 207 66 9 205 66 9 205 66 9 205 67 6
205 67 6 207 66 6 207 66 6 208 65 6 208 65 6 207 66 6 207 66 6
207 66 4 205 67 4 205 67 4 203 68 4 203 68 4 202 69 4 202 69 4
200 70 4 214 86 20 212 86 20 212 87 18 211 88 18 211 88 16 211 88 16
211 88 16 211 88 16 209 89 16 206 89 14 218 101 24 216 101 24
217 103 25 216 103 25 216 103 25 216 103 25 216 103 25 216 103 25
216 103 27 219 101 27 204 74 4 205 70 2 205 70 4 205 70 4 205 70 4
205 70 4 205 69 6 205 69 8 205 68 10 205 68 10 202 66 7 201 65 6
203 64 6 203 64 6 203 64 6 203 64 6 205 64 9 205 64 9 205 64 9
205 64 9 203 62 7 203 62 7 203 62 7 203 62 7 203 62 7 203 62 7
203 62 7 203 62 7 202 63 7 202 63 7 202 63 7 202 63 7 203 64 8
203 64 8 203 64 8 203 64 8 201 65 8 201 65 8 201 65 8 201 65 6
209 75 13 209 76 11 209 76 11 209 76 11 209 76 11 209 76 11 209 76 11
208 75 10 208 75 10 210 77 13 216 83 18 217 84 20 218 85 21 218 85 21
218 86 19 218 86 19 217 84 20 217 84 20 217 84 20 217 84 20 206 70 7
205 69 6 206 70 7 207 72 8 206 70 9 205 69 8 205 69 8 203 68 6
202 66 5 205 69 8 208 72 11 210 75 13 210 75 13 210 75 13 209 76 11
209 76 11 209 76 11 209 76 11 209 76 11 209 76 11 214 84 16 214 84 16
214 84 16 214 84 16 214 84 16 214 84 18 214 84 18 215 85 20 215 85 20
214 84 18 211 80 15 210 79 14 210 79 14 212 79 17 212 79 17 212 79 17
212 79 17 212 79 19 214 78 19 214 78 19 205 68 10 206 68 10 206 67 12
206 67 12 206 67 12 206 67 12 206 67 12 206 67 12 206 67 12 206 67 12
206 67 12 206 67 12 208 67 10 208 67 10 208 67 10 208 67 10 208 67 10
208 67 10 208 67 10 208 67 10 205 64 7 205 64 7 205 66 9 205 66 9
205 67 6 205 67 6 207 66 6 207 66 6 205 65 5 205 65 5 207 66 6
205 67 6 205 67 4 203 68 4 203 68 4 202 69 4 202 69 4 202 69 4
200 70 4 199 71 4 211 85 18 211 85 18 209 87 16 209 87 16 209 87 14
209 87 14 209 87 14 209 87 14 208 88 14 205 87 13 215 100 23
215 100 23 215 102 24 215 102 24 215 102 24 215 102 24 215 102 24
215 102 24 215 102 26 218 100 26 204 74 4 205 70 4 205 70 4 205 70 4
205 70 4 205 70 4 205 69 6 205 69 8 205 68 10 205 68 10 202 66 7
201 65 6 203 64 6 203 64 6 203 64 6 203 64 6 205 64 9 205 64 9
205 64 9 205 64 9 203 62 7 203 62 7 203 62 7 203 62 7 203 62 7
203 62 7 203 62 7 203 62 7 202 63 7 202 63 7 202 63 7 202 63 7
203 64 8 203 64 8 203 64 8 203 64 8 201 65 8 201 65 8 201 65 8
201 65 6 209 75 13 209 76 11 209 76 11 209 76 11 209 76 11 209 76 11
209 76 11 208 75 10 208 75 10 209 76 11 213 81 16 215 82 17 218 85 21
218 85 21 218 86 19 218 86 19 217 84 20 217 84 20 217 84 20 217 84 20
206 70 7 205 69 6 205 69 6 206 70 7 205 69 8 205 69 8 203 68 6
203 68 6 202 66 5 203 68 6 208 72 11 210 75 13 210 75 13 210 75 13
210 75 11 209 76 11 209 76 11 209 76 11 209 76 11 209 76 11 205 72 8
205 72 8 205 72 8 205 72 8 205 72 8 205 72 10 205 72 10 205 72 10
205 72 10 204 71 9 201 67 5 198 65 3 198 65 3 201 65 6 201 65 6
201 65 6 201 65 6 201 65 8 201 65 8 200 63 7 202 63 7 200 61 6
200 61 6 200 61 6 200 61 6 200 61 6 200 61 6 200 61 6 200 61 6
200 61 6 200 61 6 200 61 6 203 62 5 203 62 5 203 62 5 203 62 5
203 62 5 203 62 5 204 63 6 204 63 6 205 64 7 205 64 7 204 65 7
204 65 7 204 66 5 204 66 5 205 65 5 205 65 5 205 65 5 204 66 5
216 80 19 215 79 18 215 80 16 213 81 16 213 81 16 213 81 16 213 81 16
213 81 16 212 82 14 210 83 14 210 85 15 210 85 15 208 85 15 208 85 15
211 86 16 211 86 16 209 87 16 209 87 16 208 88 14 205 87 13
215 100 23 215 100 23 215 102 24 215 102 24 215 102 24 215 102 24
215 102 24 215 102 24 215 102 24 218 100 26 205 75 5 206 71 5
206 70 7 206 70 7 206 70 7 206 70 7 206 70 7 206 70 9 206 70 11
206 70 11 203 67 9 202 66 7 204 65 7 204 65 7 204 65 7 204 65 7
205 64 9 205 64 9 205 64 9 205 64 9 203 62 7 203 62 7 203 62 7
203 62 7 203 62 7 203 62 7 203 62 7 203 62 7 200 61 6 203 64 8
206 67 12 207 68 13 206 67 12 206 67 12 206 67 12 206 67 12 205 68 12
205 68 12 205 68 12 205 68 10 209 75 13 209 75 13 209 76 11 209 76 11
209 76 11 209 76 11 209 76 11 209 76 11 208 75 10 209 76 11 211 78 14
211 78 14 207 74 9 207 74 9 207 74 9 207 74 9 205 72 8 205 72 8
205 72 8 204 71 7 205 69 6 203 68 4 203 68 4 203 68 4 203 68 6
203 68 6 203 68 6 202 66 5 204 65 7 205 66 9 203 67 9 203 67 9
205 67 6 205 67 6 205 69 8 205 69 8 205 69 8 205 69 8 205 69 8
205 69 8 207 72 8 207 72 8 207 72 8 207 72 8 207 71 10 207 71 10
207 71 10 207 71 10 207 71 12 206 70 11 202 66 7 200 64 5 200 64 5
201 65 8 201 65 8 201 65 8 201 65 8 201 65 8 201 65 8 202 63 7
203 62 7 202 61 6 200 61 6 200 61 6 200 61 6 200 61 6 200 61 6
200 61 6 200 61 6 200 61 6 200 61 6 200 61 6 203 62 5 203 62 5
203 62 5 203 62 5 203 62 5 203 62 5 204 63 6 204 63 6 204 63 6
204 63 6 204 65 7 204 65 7 204 66 5 204 66 5 205 65 5 205 65 5
203 65 4 201 65 4 215 81 19 213 80 18 213 81 16 212 81 16 212 81 16
212 81 16 213 81 16 213 81 16 212 82 14 210 83 14 209 83 14 209 83 14
207 84 14 207 84 14 210 85 15 210 85 15 208 85 15 208 85 15 207 87 13
204 86 12 214 99 22 214 99 22 214 101 23 214 101 23 214 101 23
214 101 23 214 101 23 214 101 23 214 101 23 217 99 25 205 75 7
206 71 5 206 70 7 206 70 7 206 70 7 206 70 7 206 70 7 206 70 9
206 70 11 206 70 11 203 67 9 202 66 7 204 65 7 204 65 7 204 65 7
204 65 7 205 64 9 205 64 9 205 64 9 205 64 9 203 62 7 203 62 7
203 62 7 203 62 7 203 62 7 203 62 7 203 62 7 203 62 7 202 61 6
203 64 8 206 67 12 207 68 13 206 67 12 206 67 12 206 67 12 206 67 12
205 68 12 205 68 12 205 68 12 205 68 12 209 75 15 209 75 13 209 76 11
209 76 11 209 76 11 209 76 11 209 76 11 209 76 11 208 75 10 208 75 10
209 76 11 209 76 11 207 74 9 207 74 9 207 74 9 207 74 9 205 72 8
205 72 8 205 72 8 206 70 7 205 69 6 203 68 4 203 68 4 203 68 4
202 66 5 202 66 5 202 66 5 202 66 5 204 65 7 204 65 7 203 67 9
203 67 9 205 67 6 205 67 6 205 69 8 205 69 8 205 69 8 205 69 8
205 69 8 205 69 8 209 71 8 209 71 8 209 71 8 209 71 8 209 71 8
209 71 8 209 71 8 209 70 10 209 70 14 207 68 13 204 65 9 202 63 7
202 63 7 203 63 10 203 63 10 203 64 8 203 64 8 203 64 8 203 64 8
202 63 7 203 62 7 202 61 6 200 61 6 200 61 6 200 61 6 200 61 6
200 61 6 200 61 6 200 61 6 200 61 6 200 61 6 200 61 6 203 62 5
203 62 5 203 62 5 203 62 5 203 62 5 203 62 5 204 63 6 204 63 6
205 64 7 205 64 7 204 65 7 204 65 7 204 66 5 204 66 5 204 66 5
204 66 5 203 65 4 201 65 4 215 81 19 212 81 18 212 81 16 212 81 16
209 83 16 210 82 16 212 81 16 213 81 16 212 82 14 210 83 14 209 83 14
209 83 14 207 84 14 207 84 14 210 85 15 210 85 15 208 85 15 208 85 15
207 87 13 204 86 12 214 99 22 214 99 22 214 101 23 214 101 23
214 101 23 214 101 23 214 101 23 214 101 23 214 101 23 217 99 25
205 75 7 206 71 5 206 70 7 206 70 7 206 70 7 206 70 7 206 70 7
206 70 9 206 70 11 206 70 11 203 67 9 202 66 7 204 65 7 204 65 7
204 65 7 204 65 7 207 65 11 207 65 11 207 65 11 207 65 11 203 62 7
203 62 7 203 62 7 203 62 7 203 62 7 203 62 7 205 61 7 205 61 7
202 61 6 204 63 8 206 67 12 207 68 13 206 67 12 206 67 12 206 67 12
206 67 12 205 68 12 205 68 12 205 68 12 206 69 13 209 75 15 210 77 15
210 77 15 210 77 15 210 77 15 210 77 15 209 75 13 209 75 13 209 76 11
209 76 11 208 75 10 208 75 10 207 74 9 207 74 9 207 74 9 207 74 9
207 72 8 207 72 8 207 72 8 207 72 8 206 68 6 205 67 4 205 67 4
205 67 4 204 66 5 204 66 5 204 65 7 204 65 7 204 65 7 204 65 7
205 66 9 205 66 9 205 66 9 205 66 9 205 69 8 205 69 8 205 69 8
205 69 8 205 69 8 205 69 8 209 71 8 209 71 8 209 71 8 209 71 8
209 71 8 209 71 8 209 71 8 209 70 10 209 70 14 207 68 13 204 65 9
202 63 7 202 63 7 203 63 10 203 63 10 203 64 8 203 64 8 203 64 8
203 64 8 202 63 7 203 62 7 202 61 6 200 61 6 200 61 6 200 61 6
200 61 6 200 61 6 200 61 6 200 61 6 200 61 6 200 61 6 200 61 6
203 62 5 203 62 5 203 62 5 203 62 5 203 62 5 203 62 5 204 63 6
204 63 6 205 64 7 205 64 7 204 65 7 204 65 7 204 66 5 204 66 5
204 66 5 204 66 5 201 65 4 201 65 4 215 81 19 212 81 18 212 81 16
210 82 16 209 83 16 209 83 16 212 81 16 212 81 16 210 83 14 210 83 14
209 83 14 209 83 14 207 84 14 207 84 14 210 85 15 210 85 15 210 85 15
210 85 15 208 86 13 206 85 12 216 98 22 214 99 22 214 101 23
214 101 23 214 101 23 214 101 23 214 101 23 214 101 23 214 101 23
217 99 25 205 75 7 206 71 5 206 70 7 206 70 7 206 70 7 206 70 7
206 70 7 206 70 9 206 70 9 206 70 11 203 67 9 202 66 7 204 65 7
204 65 7 204 65 7 204 65 7 207 65 11 207 65 11 207 65 11 207 65 11
203 62 7 203 62 7 203 62 7 203 62 7 205 61 7 206 60 7 206 60 7
205 61 7 202 61 6 204 63 8 206 67 12 207 68 13 206 67 12 205 68 12
205 68 12 205 68 12 205 68 12 203 69 12 203 69 12 204 70 11 209 75 13
208 77 15 208 77 15 208 77 15 208 77 15 208 77 15 207 76 13 207 76 13
207 77 11 209 76 11 208 75 10 208 75 10 207 74 9 207 74 9 207 74 9
207 74 9 207 72 8 207 72 8 207 72 8 207 72 8 206 68 6 205 67 4
205 67 4 205 67 6 204 66 5 204 66 5 204 65 7 204 65 7 204 65 7
204 65 7 205 66 9 205 66 9 205 66 9 205 66 9 205 69 8 205 69 8
205 69 8 205 69 8 205 69 8 205 69 8 209 71 8 209 71 8 209 71 8
209 71 8 209 70 10 209 70 10 209 70 10 209 70 10 210 71 13 207 69 11
204 65 7 202 63 5 204 63 6 204 63 8 204 63 8 204 63 8 203 62 7
203 62 7 203 62 7 203 62 7 203 62 7 203 62 7 203 62 7 203 62 7
203 62 7 203 62 7 202 63 7 202 63 7 202 63 7 202 63 7 202 63 7
202 63 7 203 62 7 203 62 7 203 62 7 203 62 7 203 62 7 203 62 7
202 63 5 202 63 5 204 65 7 204 65 7 205 67 6 205 67 6 205 67 6
205 67 6 205 67 6 205 67 6 202 67 3 202 67 3 216 83 18 213 83 17
213 83 17 211 83 17 210 85 15 210 85 15 211 84 15 211 84 15 211 84 15
211 84 15 210 85 13 210 85 13 210 85 13 210 85 13 210 85 13 211 84 13
213 83 13 213 83 13 211 84 13 209 84 12 217 97 22 214 99 22
214 101 23 214 101 23 214 101 21 214 101 21 214 101 21 214 101 23
214 101 23 217 99 25 205 75 7 206 71 5 206 70 7 206 70 7 206 70 7
206 70 7 206 70 9 206 70 9 206 70 9 206 70 9 203 68 6 202 66 5
202 66 5 202 66 5 202 66 5 204 65 7 205 66 9 205 66 9 205 66 9
204 65 7 203 64 6 202 63 5 202 63 5 205 61 5 208 60 5 210 59 5
208 60 5 205 59 4 204 60 4 204 63 6 206 68 10 206 70 11 205 68 10
203 69 10 203 69 10 203 69 10 203 69 10 201 70 10 203 71 11 203 72 9
206 77 13 206 77 13 205 79 13 205 79 13 207 78 15 207 78 15 207 79 13
207 79 13 206 78 11 207 77 11 207 77 9 207 77 9 206 76 8 206 76 8
206 76 8 208 75 8 208 73 7 210 72 9 210 72 9 209 70 10 205 67 6
205 67 6 204 66 5 204 65 7 204 65 7 204 65 7 203 64 6 203 64 6
205 64 7 205 64 7 204 65 7 204 65 7 205 66 9 205 66 9 205 66 9
205 66 9 205 66 9 205 66 9 205 66 9 205 66 9 209 71 8 209 71 8
209 71 8 209 71 8 209 70 10 209 70 10 209 70 10 209 70 10 210 72 11
207 69 9 204 66 5 202 63 3 204 63 6 204 63 6 204 63 6 204 63 6
203 62 7 203 62 7 203 62 7 203 62 7 203 62 7 203 62 7 203 62 7
203 62 7 203 62 7 203 62 7 202 63 7 202 63 7 202 63 7 202 63 7
202 63 7 202 63 7 203 62 7 203 62 7 203 62 7 203 62 7 203 62 7
203 62 7 202 63 5 202 63 5 204 65 7 204 65 7 205 67 6 205 67 6
205 67 6 205 67 6 205 67 6 205 67 6 202 67 3 202 67 3 216 83 18
213 83 17 211 83 17 211 83 17 210 85 15 210 85 15 210 85 15 211 84 15
211 84 15 211 84 15 210 85 13 210 85 13 210 85 13 210 85 13 210 85 13
211 84 13 215 82 13 216 82 13 215 82 13 210 83 12 217 97 22 216 98 22
215 100 23 214 101 23 214 101 21 214 101 21 214 101 21 214 101 23
214 101 25 217 99 25 205 75 7 206 71 5 206 70 7 206 70 7 206 70 7
206 70 7 206 70 9 206 70 9 206 70 9 206 70 9 203 68 6 202 66 5
202 66 5 202 66 5 202 66 5 202 66 5 205 66 9 205 66 9 205 66 9
204 65 7 203 64 6 202 63 5 202 63 5 205 61 5 210 59 5 211 58 5
208 60 5 205 59 4 204 60 4 203 64 6 205 68 10 206 70 11 205 68 10
203 69 10 203 69 10 203 69 10 203 69 10 203 69 10 203 71 11 203 72 9
206 77 13 206 77 13 207 79 13 205 79 13 207 78 15 207 78 15 207 79 13
207 79 13 207 77 11 207 77 11 207 77 9 207 77 9 208 75 8 208 75 8
208 75 8 208 75 8 208 73 7 210 72 7 210 72 9 209 70 10 205 67 6
205 67 6 204 65 7 204 65 7 204 65 7 204 65 7 203 64 6 203 64 6
205 64 7 205 64 7 204 65 7 204 65 7 205 66 9 205 66 9 205 66 9
205 66 9 205 66 9 205 66 9 205 66 9 205 66 9 209 71 8 209 71 8
209 71 8 209 71 8 209 70 10 209 70 10 209 70 10 209 70 10 210 72 11
207 69 9 204 66 5 202 63 3 204 63 6 204 63 6 204 63 6 204 63 6
203 62 7 203 62 7 203 62 7 203 62 7 203 62 7 203 62 7 203 62 7
203 62 7 203 62 7 203 62 7 202 63 7 202 63 7 202 63 7 202 63 7
202 63 7 202 63 7 203 62 7 203 62 7 203 62 7 203 62 7 203 62 7
203 62 7 202 63 5 202 63 5 205 66 9 205 66 9 205 67 6 205 67 6
205 67 6 205 67 6 203 68 6 203 68 6 202 67 3 202 67 3 216 83 18
213 83 17 211 83 17 210 84 17 210 85 15 208 85 15 208 85 15 210 85 15
211 84 15 211 84 15 210 85 13 210 85 13 210 85 13 210 85 13 210 85 13
211 84 13 215 82 13 216 82 13 215 82 13 210 83 12 217 97 22 216 98 22
215 100 23 215 100 23 215 101 21 215 101 21 215 101 21 215 100 23
215 100 25 218 98 25 205 75 7 206 71 5 206 70 7 206 70 7 206 70 7
206 70 7 206 70 9 206 70 9 206 70 9 206 70 9 203 68 6 202 66 5
202 66 5 202 66 5 202 66 5 202 66 5 205 66 9 205 66 9 205 66 9
204 65 7 203 64 6 202 63 5 202 63 5 203 62 5 208 60 5 210 59 5
208 60 5 205 59 4 202 61 4 203 64 8 205 68 12 206 69 13 205 68 12
206 67 12 206 67 12 206 67 12 206 67 12 206 67 12 206 69 13 207 71 12
209 73 12 210 75 13 210 77 15 210 77 15 210 77 13 210 77 13 210 77 13
210 77 13 210 75 9 210 75 9 210 75 9 210 75 9 209 74 8 209 74 8
209 74 8 209 74 8 208 73 7 208 73 7 208 73 7 208 73 9 203 68 6
203 68 6 202 66 5 202 66 5 204 65 7 204 65 7 203 64 6 203 64 6
204 65 7 204 65 7 204 65 7 204 65 7 205 66 9 205 66 9 205 66 9
205 66 9 205 66 9 205 66 9 205 66 9 205 66 9 209 71 8 209 71 8
209 71 8 209 70 10 209 70 10 209 70 10 209 70 10 209 70 10 210 72 11
207 69 9 204 66 5 202 63 5 204 63 6 204 63 6 204 63 6 204 63 6
203 62 7 203 62 7 203 62 7 203 62 7 203 62 7 203 62 7 203 62 7
203 62 7 203 62 7 203 62 7 202 63 7 202 63 7 202 63 7 202 63 7
202 63 7 202 63 7 203 62 7 203 62 7 203 62 7 203 62 7 203 62 7
203 62 7 202 63 5 202 63 5 205 66 9 205 66 9 205 67 6 205 67 6
205 67 6 205 67 6 203 68 6 203 68 6 202 67 3 201 68 3 214 84 18
211 83 17 210 84 17 208 85 17 207 86 15 207 86 15 208 85 15 210 85 15
210 85 15 211 84 15 209 84 12 209 84 12 209 84 12 209 84 12 210 85 13
211 84 13 215 82 13 216 82 13 215 82 13 210 83 12 217 97 22 216 98 22
217 99 23 217 99 23 217 99 23 217 99 23 217 99 23 217 99 23 217 99 25
218 98 25 205 75 7 206 71 5 206 70 7 206 70 7 206 70 7 206 70 7
206 70 9 206 70 9 206 70 9 205 69 8 202 66 5 201 65 4 201 65 4
201 65 4 202 66 5 202 66 5 204 65 7 204 65 7 205 66 9 205 66 9
202 63 5 202 63 5 202 63 5 203 62 5 206 61 5 208 60 5 206 61 5
204 60 4 200 61 6 201 65 8 205 68 12 206 69 13 205 68 12 206 67 12
206 67 12 208 66 12 208 66 12 206 67 12 207 68 13 209 70 12 211 73 12
210 75 11 212 76 13 212 76 13 212 76 13 212 76 13 212 76 13 212 77 11
210 75 9 210 75 9 210 75 9 210 75 9 209 74 8 209 74 8 209 74 8
209 74 8 208 73 7 208 73 7 208 73 7 208 73 7 203 68 4 203 68 6
202 66 5 202 66 5 202 66 7 204 65 7 203 64 6 203 64 6 204 65 7
204 65 7 204 65 7 204 65 7 205 66 9 205 66 9 205 66 9 205 66 9
205 66 9 205 66 9 205 66 9 205 66 9 209 70 10 209 70 10 209 70 10
209 70 10 209 70 12 209 70 12 209 70 12 209 70 12 209 70 12 207 69 11
204 65 7 203 64 6 204 63 8 204 63 8 204 63 8 204 63 8 203 62 7
203 62 7 203 62 7 203 62 7 205 61 7 205 61 7 203 62 7 203 62 7
203 62 7 203 62 7 202 63 7 202 63 7 203 62 7 203 62 7 203 62 7
203 62 7 203 62 7 203 62 7 203 62 7 203 62 7 203 62 7 203 62 7
202 63 5 202 63 5 205 66 9 205 66 9 203 68 6 203 68 6 203 68 6
203 68 6 203 68 6 203 68 6 203 70 6 199 69 3 208 80 14 202 76 9
206 85 16 204 85 16 202 87 14 204 86 14 207 84 14 209 83 14 209 84 12
209 84 12 209 84 12 209 84 12 210 83 12 210 83 12 210 83 12 212 82 12
213 81 12 215 80 12 210 78 9 208 81 10 218 99 23 220 103 26
218 101 24 219 100 24 219 100 24 219 99 26 219 99 26 219 99 26
219 99 26 221 98 28 204 74 6 207 72 6 207 72 8 207 72 8 207 72 8
207 72 8 207 71 10 206 70 9 206 70 9 205 69 8 202 66 5 201 65 4
201 65 4 201 65 4 202 66 5 202 66 5 205 66 9 205 66 9 206 68 10
205 66 9 203 64 6 202 63 5 203 62 5 203 62 5 205 61 5 205 61 5
203 62 7 202 63 7 200 64 5 201 67 7 201 67 7 203 69 10 204 70 11
205 68 10 205 68 10 206 68 10 206 68 10 205 68 10 206 70 9 207 72 8
209 74 10 209 76 9 210 77 11 210 77 11 210 77 11 210 77 11 210 77 11
210 78 9 205 73 4 212 80 11 204 72 3 211 79 10 208 75 8 208 75 8
208 75 8 208 75 8 207 74 7 207 74 7 207 74 7 207 74 7 200 67 2
200 67 2 200 67 2 200 66 4 201 67 5 202 66 5 202 66 5 201 65 4
201 65 4 201 65 4 203 68 6 203 68 6 205 66 9 207 66 9 208 67 10
208 67 10 208 67 10 208 67 10 208 67 10 208 67 10 207 69 9 207 69 9
207 69 9 207 69 9 207 69 11 207 69 11 207 69 11 207 69 11 209 70 12
207 69 11 204 65 7 203 64 6 204 63 8 204 63 8 204 63 8 204 63 8
203 62 7 203 62 7 203 62 7 203 62 7 205 61 7 205 61 7 203 62 7
203 62 7 203 62 7 203 62 7 202 63 7 202 63 7 203 62 7 203 62 7
203 62 7 203 62 7 203 62 7 203 62 7 203 62 7 203 62 7 203 62 7
203 62 7 202 63 5 202 63 5 207 69 11 207 69 11 206 70 9 206 70 9
206 70 9 206 70 9 206 70 9 204 71 9 198 67 2 195 67 1 206 81 14
202 79 11 204 85 16 202 86 16 201 87 14 202 87 14 207 84 14 209 83 14
209 84 12 209 84 12 208 83 11 208 83 11 209 82 11 209 82 11 210 83 12
212 82 12 213 81 12 215 80 12 210 78 9 207 79 9 216 96 21 216 98 22
219 100 24 221 99 24 221 99 26 221 99 26 221 99 26 221 99 26
221 98 28 223 97 28 206 76 8 209 74 8 209 74 10 209 74 10 209 74 10
209 74 10 209 73 12 208 72 11 208 72 11 207 71 10 205 69 8 203 68 6
203 68 6 203 68 6 203 68 6 203 68 6 206 68 10 206 68 10 206 68 10
205 66 9 205 66 9 204 65 7 205 64 7 205 64 7 205 64 7 204 65 7
204 65 9 202 66 9 203 69 10 199 68 7 204 72 12 200 71 8 199 71 4
199 71 2 200 70 2 200 70 2 200 70 2 200 70 2 200 72 2 201 74 3
203 76 5 204 77 6 204 79 5 204 79 5 204 79 5 204 79 7 204 79 7
204 79 7 206 81 10 211 86 14 201 76 4 205 80 9 202 76 7 202 76 7
202 76 7 203 76 7 202 74 6 202 74 6 202 74 6 204 74 6 197 66 1
197 66 1 197 66 1 197 66 1 200 66 4 200 66 4 200 66 4 200 66 4
203 70 8 202 68 6 202 68 6 203 68 6 205 66 9 207 66 9 208 67 10
208 67 10 208 67 10 208 67 10 208 67 10 208 67 10 205 67 6 205 67 6
205 67 6 205 67 6 205 66 9 205 66 9 205 66 9 205 66 9 209 70 12
207 69 11 204 65 7 203 64 6 204 63 8 204 63 8 204 63 8 204 63 8
203 62 7 203 62 7 203 62 7 203 62 7 205 61 7 205 61 7 203 62 7
203 62 7 203 62 7 203 62 7 202 63 7 202 63 7 203 62 7 203 62 7
203 62 7 203 62 7 203 62 7 203 62 7 203 62 7 203 62 7 203 62 7
203 62 7 202 63 5 202 63 5 208 72 11 208 72 11 208 72 11 208 72 11
208 72 11 208 72 11 207 73 11 207 73 11 207 77 11 207 79 13 221 98 30
219 99 30 217 102 29 216 103 29 214 103 29 216 103 29 221 100 29
224 99 29 222 100 27 222 100 27 208 83 11 208 83 11 209 82 11
209 82 11 210 83 12 212 82 12 213 81 12 215 80 12 212 80 11 207 79 9
211 92 16 210 90 15 207 85 10 209 84 10 209 84 12 209 84 12 209 84 12
209 84 12 209 81 13 209 81 13 211 81 13 212 80 13 211 79 12 211 79 12
211 78 14 211 78 14 211 78 16 210 77 15 210 77 15 209 75 13 207 73 11
205 72 10 207 71 10 207 71 10 206 70 9 206 70 9 206 70 9 206 70 9
205 69 8 205 69 8 207 69 9 207 69 9 207 69 9 207 69 9 207 69 11
207 69 11 206 69 13 204 70 13 203 69 10 205 74 13 230 103 41
229 106 38 226 107 29 226 108 25 226 108 25 226 108 25 226 108 27
226 108 27 226 109 28 227 111 29 228 113 34 229 115 35 230 116 34
229 117 34 230 116 36 230 115 38 230 115 38 230 115 38 226 111 33
227 112 35 214 99 22 216 101 26 214 97 23 214 97 23 214 97 23
216 96 23 216 94 21 218 93 21 218 93 21 220 92 23 213 85 16 211 84 15
211 84 15 212 81 16 212 81 16 211 80 15 211 80 15 210 79 14 208 78 13
205 74 9 201 71 6 200 66 4 206 68 10 208 67 10 208 67 10 208 67 10
206 68 10 206 68 10 206 68 10 206 68 10 204 66 5 204 66 5 204 66 5
204 66 5 204 65 7 204 65 7 204 65 7 204 65 7 209 70 12 206 68 10
204 65 7 202 63 5 203 62 7 204 63 8 204 63 8 204 63 8 203 62 7
203 62 7 203 62 7 203 62 7 205 61 7 205 61 7 203 62 7 203 62 7
203 62 7 203 62 7 202 63 7 202 63 7 203 62 7 203 62 7 203 62 7
203 62 7 203 62 7 203 62 7 203 62 7 203 62 7 203 62 7 203 62 7
202 63 5 202 63 5 209 73 12 209 73 12 209 73 12 209 73 12 209 73 12
209 73 12 208 74 12 208 75 10 204 73 8 204 76 10 221 98 30 220 102 32
216 103 29 216 103 29 214 103 29 216 103 29 221 100 29 222 99 29
222 100 27 222 100 27 208 83 11 209 82 11 209 82 11 209 82 11
209 82 11 211 81 11 212 80 11 212 80 11 211 81 11 206 78 7 211 88 14
208 86 11 210 85 11 210 85 11 211 84 13 211 84 13 211 84 13 211 84 13
213 83 15 213 83 15 212 82 14 212 82 14 212 80 13 212 80 13 212 79 15
212 79 15 212 79 17 211 78 16 211 78 16 210 77 15 208 74 12 207 73 11
208 72 11 208 72 11 207 71 10 207 71 10 206 70 9 206 70 9 206 70 9
206 70 9 209 70 10 209 70 10 209 70 10 209 70 10 209 70 12 207 71 12
205 71 14 205 71 14 207 73 13 200 71 8 229 106 38 223 105 31
220 106 21 218 107 19 218 107 19 218 107 19 218 107 19 218 107 19
218 109 21 219 110 24 220 113 26 221 114 27 222 115 28 222 115 28
222 115 30 222 115 32 222 115 32 222 115 32 223 116 34 224 117 37
210 100 21 211 99 21 209 94 19 209 94 19 209 94 19 209 94 19
211 91 18 213 90 18 213 90 18 215 90 18 209 81 13 209 81 13 209 81 13
209 81 13 210 79 14 210 79 14 210 79 14 210 79 14 212 81 16 208 78 13
201 71 6 198 65 1 206 68 8 206 68 10 206 68 10 206 68 10 206 68 10
206 68 10 206 68 10 206 68 10 204 66 5 204 66 5 204 66 5 204 66 5
204 65 7 204 65 7 204 65 7 204 65 7 205 66 9 206 68 10 203 64 6
202 63 5 202 63 7 202 63 7 202 63 7 202 63 7 202 63 7 202 63 7
202 63 7 203 62 7 203 62 7 203 62 7 203 62 7 203 62 7 203 62 7
203 62 7 203 62 7 203 62 7 203 62 7 203 62 7 203 62 7 203 62 7
203 62 7 203 62 7 203 62 7 203 62 7 203 62 7 203 62 7 203 62 7
202 63 5 209 73 12 209 73 12 208 75 10 208 75 10 208 75 10 208 75 10
208 75 10 208 75 8 203 72 5 203 76 7 218 98 27 217 102 29 216 103 29
216 103 29 217 102 27 217 102 27 219 101 27 221 101 27 222 100 27
222 100 27 208 83 11 209 82 11 211 81 11 211 81 11 209 82 11
209 82 11 211 81 11 211 81 11 209 82 11 209 82 11 210 85 13 211 86 14
213 85 14 213 85 14 213 86 12 213 86 12 213 85 14 213 85 14 211 84 13
211 84 13 212 82 12 212 82 12 211 81 13 211 81 13 211 80 15 211 80 15
212 79 15 211 78 14 211 78 14 210 77 13 208 75 10 207 74 9 208 72 11
208 72 11 207 71 10 207 71 10 207 71 10 207 71 10 206 70 9 206 70 9
209 70 10 209 70 10 209 70 10 209 70 10 207 71 10 205 72 12 204 72 14
204 72 14 205 72 12 199 71 4 225 108 31 218 106 23 219 112 25
217 113 25 217 113 25 217 113 25 217 113 25 217 113 25 218 114 26
218 114 26 219 115 27 219 116 25 220 117 26 220 116 28 220 116 30
220 116 30 220 116 30 220 116 30 218 116 29 220 115 32 209 97 16
212 95 16 214 94 18 214 94 20 212 94 20 212 94 20 211 93 19 212 92 19
214 92 19 216 91 19 208 80 12 208 80 12 210 79 12 210 79 12 210 79 12
210 79 12 210 79 12 210 79 12 210 77 13 209 76 11 204 71 7 202 69 4
205 69 8 205 69 8 205 69 8 205 69 8 206 68 10 206 68 10 206 68 10
206 68 10 205 67 6 205 67 6 205 67 6 205 67 6 205 66 9 205 66 9
205 66 9 205 66 9 205 66 9 205 66 9 203 64 6 200 62 4 200 61 6
202 63 7 202 63 7 202 63 7 202 63 7 202 63 7 202 63 7 202 63 7
203 62 7 203 62 7 203 62 7 203 62 7 203 62 7 203 62 7 203 62 7
203 62 7 203 62 7 203 62 7 203 62 7 203 62 7 203 62 7 203 62 7
203 62 7 203 62 7 203 62 7 203 62 7 203 62 7 202 63 5 208 72 11
208 72 11 207 74 9 207 74 9 208 75 8 208 75 8 208 75 8 208 75 8
203 72 5 203 76 7 218 98 27 217 102 29 216 103 29 216 103 29
217 102 27 219 101 27 217 102 27 219 101 27 221 101 27 222 100 27
208 83 11 209 82 11 211 81 11 211 81 11 208 81 10 208 81 10 208 81 10
208 81 10 209 82 11 209 82 11 211 84 13 213 85 14 213 85 14 213 85 14
213 86 12 213 86 12 213 85 14 213 85 14 211 84 13 211 84 13 212 82 12
212 82 12 211 81 13 211 81 13 210 79 14 210 79 14 211 78 14 210 77 13
210 77 13 209 76 11 207 74 9 205 72 8 207 71 10 207 71 10 207 71 10
207 71 10 206 70 9 206 70 9 206 70 9 206 70 9 209 70 10 209 70 10
209 70 10 209 70 10 207 71 10 205 72 12 204 72 14 204 72 14 207 71 12
200 70 2 225 108 29 215 108 21 217 113 25 215 114 25 215 114 25
215 114 25 215 114 25 215 114 25 216 115 26 216 115 26 218 116 25
218 116 25 219 117 26 219 117 28 219 117 28 219 117 30 219 117 30
219 117 30 216 116 29 220 116 30 209 97 14 214 94 16 215 93 18
215 93 20 214 94 20 212 94 20 211 93 19 212 92 19 214 92 19 216 91 19
208 81 10 210 79 12 210 79 12 210 79 12 210 79 12 210 79 12 210 79 12
210 79 12 210 77 13 209 76 11 204 71 7 202 69 4 203 70 8 203 70 8
203 70 8 203 70 8 205 68 10 206 68 10 206 68 10 206 68 10 205 67 6
205 67 6 205 67 6 205 67 6 205 66 9 205 66 9 205 66 9 205 66 9
205 66 9 205 66 9 203 64 6 200 62 4 200 61 6 202 63 7 202 63 7
202 63 7 202 63 7 202 63 7 202 63 7 202 63 7 203 62 7 203 62 7
203 62 7 203 62 7 203 62 7 203 62 7 203 62 7 203 62 7 203 62 7
203 62 7 203 62 7 203 62 7 203 62 7 203 62 7 203 62 7 203 62 7
203 62 7 203 62 7 203 62 7 202 63 5 208 72 11 207 74 9 207 74 9
207 74 9 208 75 8 208 75 8 208 75 8 208 75 8 204 72 5 203 76 7
218 98 27 217 102 29 216 103 27 216 103 27 217 102 27 219 101 27
217 102 27 219 101 27 221 101 27 222 100 27 208 83 11 209 82 11
211 81 11 211 81 11 208 81 10 208 81 10 208 81 10 208 81 10 209 82 11
209 82 11 211 84 13 213 85 14 213 85 14 213 85 14 213 86 12 213 86 12
213 85 14 213 85 14 211 84 13 211 84 13 212 82 12 212 82 12 211 81 11
211 81 13 210 79 14 210 79 14 210 79 14 208 78 13 208 78 13 207 77 11
205 74 9 205 72 8 205 72 10 205 72 10 205 72 10 205 72 10 206 70 7
206 70 7 206 70 7 206 70 7 209 71 8 209 71 8 209 71 8 209 71 8
207 71 10 205 72 12 204 72 14 205 71 14 207 71 12 200 70 2 225 108 29
217 108 21 217 113 25 215 114 25 215 114 25 215 114 25 215 114 25
215 114 25 216 115 26 216 115 26 218 116 27 218 116 27 219 117 28
219 117 28 219 117 28 219 117 28 219 117 28 219 117 28 216 116 29
220 116 30 209 97 14 214 94 16 215 93 18 215 93 18 214 94 18
212 95 18 211 94 17 212 93 17 214 92 17 216 91 17 208 81 10 210 80 10
211 79 12 211 79 12 210 79 12 208 80 12 210 79 12 210 79 12 210 77 13
209 75 13 204 71 9 202 68 6 203 70 8 203 70 8 203 70 8 203 70 8
205 68 10 205 68 10 205 68 10 205 68 10 205 67 6 205 67 6 205 67 6
205 66 9 205 66 9 205 66 9 205 66 9 205 66 9 205 66 9 205 66 9
203 64 6 200 61 6 200 61 6 202 63 7 202 63 7 202 63 7 202 63 7
202 63 7 202 63 7 202 63 7 203 62 7 203 62 7 203 62 7 203 62 7
203 62 7 203 62 7 203 62 7 203 62 7 203 62 7 203 62 7 203 62 7
203 62 7 203 62 7 203 62 7 203 62 7 203 62 7 203 62 7 203 62 7
203 62 7 202 63 5 208 72 11 207 74 9 207 74 9 207 74 9 208 75 8
208 75 8 208 75 8 208 75 8 204 72 5 203 76 7 218 98 27 217 102 29
216 103 27 216 103 27 217 102 27 219 101 27 219 101 27 219 101 27
221 101 27 222 100 27 208 83 11 209 82 11 211 81 11 211 81 11
210 80 10 208 81 10 208 81 10 208 81 10 209 82 11 209 82 11 211 84 13
213 85 14 213 85 14 213 85 14 213 85 14 213 86 12 213 85 14 213 85 14
211 84 13 213 83 13 212 82 12 212 82 14 211 81 13 211 81 13 210 79 14
210 79 14 210 79 14 208 78 13 208 78 13 207 77 11 205 74 9 205 72 8
205 72 10 205 72 10 205 72 10 205 72 10 206 70 7 206 70 7 206 70 7
206 70 7 209 71 8 209 71 8 209 71 8 209 71 8 207 71 10 205 72 12
204 72 14 205 71 14 207 71 12 200 70 2 225 108 29 217 108 21
217 113 25 215 114 25 215 114 25 215 114 25 215 114 25 215 114 25
216 115 26 216 115 26 218 116 27 218 116 27 219 117 28 219 117 28
219 117 28 219 117 28 219 117 28 219 117 28 216 116 29 220 116 30
209 97 14 214 94 16 215 93 18 215 93 18 214 94 18 212 95 18 211 94 17
212 93 17 214 92 15 216 91 17 208 81 10 211 79 10 213 78 12 211 79 12
210 79 12 208 80 12 210 79 12 210 79 12 210 77 13 209 75 13 204 71 9
202 68 6 203 70 8 203 70 8 203 70 8 203 70 8 205 68 10 205 68 10
205 68 10 205 68 10 205 66 9 205 66 9 205 66 9 205 66 9 205 66 11
205 66 11 205 66 11 205 66 11 205 66 11 205 66 11 203 64 8 202 63 7
202 62 9 202 62 9 202 62 9 202 62 9 202 63 7 202 63 7 202 63 7
202 63 7 203 62 7 203 62 7 203 62 7 203 62 7 202 63 7 202 63 7
202 63 7 202 63 7 203 62 7 203 62 7 203 62 7 203 62 7 203 62 7
203 62 7 203 62 7 203 62 7 203 62 7 203 62 7 203 62 7 202 63 5
209 74 10 208 75 8 208 75 8 208 75 8 208 75 8 208 75 8 208 75 8
208 75 8 203 72 5 203 76 7 218 98 27 217 102 29 216 103 27 216 103 27
219 101 27 221 101 27 219 101 27 219 101 27 221 101 27 222 100 27
208 82 13 209 81 13 211 81 13 212 80 13 210 79 12 210 79 12 210 79 12
210 79 12 211 81 13 211 81 13 213 83 15 214 84 16 214 84 16 214 84 16
214 84 14 214 84 14 214 84 14 214 84 14 213 83 13 213 83 13 213 81 14
213 81 16 212 79 15 212 79 15 212 79 15 212 79 17 212 79 17 211 78 16
211 78 16 210 77 15 208 74 12 207 73 11 208 72 11 208 72 11 208 72 11
208 72 11 207 72 8 207 72 8 207 72 8 207 72 8 209 71 8 209 71 8
209 70 10 209 70 10 207 71 10 205 72 12 204 72 14 205 71 14 207 71 12
200 70 2 225 108 29 217 108 21 217 112 27 215 113 27 215 113 27
215 113 27 215 113 27 215 113 27 216 115 26 216 115 26 218 116 27
218 116 27 219 117 26 219 117 26 219 117 28 219 117 28 219 117 28
219 117 28 216 116 29 220 116 30 209 97 14 214 94 16 215 93 18
215 93 18 214 94 18 212 95 18 212 95 18 214 94 18 215 94 16 217 92 18
209 82 11 212 80 11 214 79 11 212 80 11 211 81 13 209 81 13 211 81 13
211 81 13 211 78 14 210 77 13 205 72 8 203 70 6 203 70 6 203 70 6
203 70 6 203 70 8 203 70 8 203 70 8 203 70 8 203 70 8 205 66 9
205 66 9 205 66 9 205 66 9 205 66 11 205 66 11 205 66 11 205 66 11
205 66 11 205 66 11 203 64 8 202 63 7 202 62 9 202 62 9 203 63 10
203 63 10 202 63 7 202 63 7 202 63 7 202 63 7 203 62 7 203 62 7
203 62 7 203 62 7 202 63 7 202 63 7 202 63 7 202 63 7 203 62 7
203 62 7 203 62 7 203 62 7 203 62 7 203 62 7 203 62 7 203 62 7
203 62 7 203 62 7 203 62 7 202 63 5 209 74 10 208 75 8 208 75 8
208 75 8 208 75 8 208 75 8 208 75 8 208 75 8 204 74 6 204 77 8
218 98 27 217 102 29 216 103 27 216 103 27 219 101 27 221 101 27
219 101 27 219 101 27 221 101 27 222 100 27 208 82 13 211 81 13
212 80 13 212 80 13 210 79 12 210 79 12 210 79 12 210 79 12 211 81 13
211 81 13 213 83 15 214 84 16 214 84 16 214 84 16 214 84 14 214 84 14
214 84 14 214 84 14 213 83 13 213 83 15 213 81 16 213 81 16 212 79 15
212 79 15 212 79 17 212 79 17 212 79 17 211 78 16 211 78 16 210 77 15
207 73 11 207 73 11 208 72 11 208 72 11 208 72 11 208 72 11 207 72 8
207 72 8 207 72 8 207 72 8 209 71 8 209 71 8 209 70 10 209 70 10
207 71 10 205 72 12 204 72 14 205 71 14 207 71 12 200 70 2 225 108 29
217 108 21 217 112 27 215 113 27 215 113 27 215 113 27 215 113 27
215 113 27 216 115 26 216 115 26 218 116 27 218 116 27 219 117 26
219 117 26 219 117 28 219 117 28 219 117 28 219 117 28 216 116 29
220 116 30 209 97 14 214 95 14 215 94 16 215 93 18 214 94 18
212 95 18 212 95 18 214 94 18 215 94 16 217 93 16 209 82 9 212 80 11
214 79 11 212 80 11 211 81 13 209 81 13 211 81 13 211 81 13 211 78 14
210 77 13 205 72 8 203 70 6 203 70 6 203 70 6 203 70 6 203 70 6
203 70 8 203 70 8 203 70 8 203 70 8 204 65 7 204 65 7 204 65 7
204 65 7 204 65 9 204 65 9 204 65 9 204 65 9 204 65 9 204 65 9
203 64 8 203 64 8 203 63 10 203 63 10 203 63 10 203 63 10 203 64 8
203 64 8 203 64 8 203 64 8 204 63 8 204 63 8 204 63 8 204 63 8
203 64 8 203 64 8 203 64 8 203 64 8 204 63 8 204 63 8 204 63 8
204 63 8 204 63 8 204 63 8 204 63 8 204 63 8 204 63 8 204 63 8
204 63 8 203 64 6 210 75 11 209 76 9 209 76 9 209 76 9 209 76 9
209 76 9 209 76 9 209 76 9 204 74 6 204 77 8 220 97 27 219 101 29
216 103 27 216 103 27 219 101 27 221 101 27 219 101 27 219 101 27
221 101 27 222 100 27 208 82 13 211 81 13 212 80 13 212 80 13
210 79 12 210 79 12 210 79 12 210 79 12 211 81 13 211 81 13 213 83 15
214 84 16 214 84 16 214 84 16 214 84 14 214 84 14 214 84 14 214 84 14
213 83 13 213 83 15 213 81 16 213 81 16 212 79 15 212 79 15 212 79 17
212 79 17 212 79 17 211 78 16 211 78 16 210 77 15 207 73 11 205 72 10
207 71 10 207 71 10 207 71 10 207 71 10 207 72 8 207 72 8 207 72 8
207 72 8 209 71 8 209 71 8 209 70 10 209 70 10 207 71 10 205 72 12
205 71 14 205 71 14 207 71 12 200 70 2 226 107 29 218 107 21
217 112 27 215 113 27 215 113 27 215 113 27 215 113 27 215 113 27
216 115 26 216 115 26 218 116 27 218 116 27 219 117 26 219 117 26
219 117 26 219 117 26 219 117 26 219 117 28 216 117 27 220 116 28
209 98 12 214 95 14 215 94 16 215 93 18 214 94 18 212 95 18 212 95 18
214 94 18 215 94 16 217 93 16 209 82 9 212 81 9 214 79 11 212 80 11
209 81 13 209 81 13 211 81 13 211 81 13 211 78 14 210 77 13 205 72 8
203 70 6 203 70 6 203 70 6 203 70 6 203 70 6 203 70 8 203 70 8
203 70 8 203 70 8 204 65 7 204 65 7 204 65 7 204 65 7 204 65 9
204 65 9 204 65 9 204 65 9 204 65 9 204 65 9 203 64 8 203 64 8
203 63 10 203 63 10 204 65 11 204 65 11 203 64 8 203 64 8 203 64 8
203 64 8 204 63 8 204 63 8 204 63 8 204 63 8 203 64 8 203 64 8
203 64 8 203 64 8 204 63 8 204 63 8 204 63 8 204 63 8 204 63 8
204 63 8 204 63 8 204 63 8 204 63 8 204 63 8 204 63 8 203 64 6
210 75 11 209 76 9 209 76 9 209 76 9 209 76 9 209 76 9 209 76 9
207 77 9 205 75 7 206 78 9 220 97 27 221 100 29 217 102 27 217 102 27
219 101 27 221 101 27 219 101 27 219 101 27 221 101 27 222 99 29
208 82 13 211 81 13 212 80 13 212 80 13 210 79 12 210 79 12 210 79 12
210 79 12 211 81 13 211 81 13 213 83 15 214 84 16 214 84 16 214 84 16
214 84 14 214 84 14 214 84 14 214 84 16 213 83 15 213 83 15 213 81 16
213 81 16 212 79 15 212 79 15 212 79 17 212 79 17 212 79 17 211 78 16
211 78 16 210 77 15 205 72 10 205 72 10 207 71 10 207 71 10 207 71 10
207 71 10 207 71 10 207 72 8 207 72 8 207 72 8 209 71 8 209 71 8
209 70 10 207 71 10 205 72 10 205 72 12 205 71 14 205 72 12 207 71 10
200 70 2 226 107 31 218 106 23 220 111 27 219 112 27 219 112 27
219 112 27 219 112 27 219 112 27 220 113 26 218 114 26 216 117 27
214 118 27 216 119 26 216 119 26 216 119 26 216 119 26 216 119 26
216 119 26 214 118 27 217 118 28 204 100 12 207 98 12 210 96 14
210 96 14 209 97 14 207 98 14 207 98 14 207 98 14 209 97 14 212 96 14
206 84 7 209 82 9 209 82 11 209 82 11 208 82 13 208 82 13 208 82 13
208 82 13 208 80 14 208 78 13 205 72 8 203 70 6 203 70 6 203 70 6
203 70 6 203 70 6 203 70 8 203 70 8 203 70 8 203 70 8 203 64 8
203 64 8 203 64 8 203 64 8 203 64 8 203 64 8 203 64 8 203 64 8
204 65 9 204 65 9 204 65 9 203 64 8 204 65 9 204 65 9 204 65 9
204 65 9 204 65 9 204 65 7 204 65 7 204 65 7 204 65 7 204 65 7
204 65 7 204 65 7 204 65 7 204 65 7 204 65 7 204 65 7 204 65 7
204 65 7 204 65 7 204 65 7 204 65 7 204 65 7 204 65 7 204 65 7
204 65 7 204 65 7 204 65 7 204 66 5 210 77 13 208 78 11 208 78 11
208 78 11 208 79 9 208 79 9 208 79 9 207 77 7 206 76 6 207 79 9
211 86 14 212 89 17 212 89 19 210 90 19 210 90 19 210 90 19 209 90 19
209 90 19 210 90 19 212 89 19 201 75 8 204 73 8 205 72 8 205 72 8
203 72 5 203 72 5 203 72 5 203 72 5 204 73 8 204 73 8 206 76 8
206 76 8 206 76 8 205 75 7 205 75 7 205 75 7 207 74 7 205 72 8
205 72 8 204 71 7 204 71 7 203 70 6 203 70 6 202 69 4 203 68 6
203 68 6 203 68 6 203 68 6 205 69 8 205 69 8 207 71 10 206 70 9
206 70 11 206 70 11 206 70 11 206 70 11 206 70 9 206 70 9 206 70 9
206 70 9 206 70 9 206 70 9 206 70 9 206 70 9 205 72 12 205 72 12
205 71 14 205 72 12 207 71 10 201 71 6 216 96 23 210 96 18 213 96 17
213 96 17 213 96 17 213 96 17 213 97 15 213 97 15 213 97 15
208 100 13 234 139 48 229 142 46 229 142 46 229 142 46 231 142 44
231 142 44 231 142 44 231 141 46 231 141 46 229 140 45 228 136 42
227 133 39 227 133 39 228 132 37 227 133 37 227 133 37 225 134 37
225 134 37 227 132 41 230 130 43 219 107 27 223 105 29 223 105 31
224 104 31 226 103 31 224 104 31 223 105 31 221 105 33 223 104 35
226 102 35 211 80 15 210 77 13 208 78 13 208 78 13 208 78 13
208 78 13 210 77 15 210 77 15 210 77 15 210 77 15 203 64 8 203 64 8
203 64 8 203 64 8 203 64 8 203 64 8 203 64 8 203 64 8 204 65 9
204 65 9 204 65 9 203 64 8 204 65 9 204 65 9 205 66 11 205 66 11
204 65 7 204 65 7 204 65 7 204 65 7 204 65 7 204 65 7 204 65 7
204 65 7 204 65 7 204 65 7 204 65 7 204 65 7 204 65 7 204 65 7
204 65 7 204 65 7 204 65 7 204 65 7 204 65 7 204 65 7 204 65 7
204 65 7 204 65 7 202 66 5 210 77 13 208 78 11 208 78 11 208 78 11
207 79 9 207 79 9 207 79 9 206 78 7 207 77 7 208 81 10 211 86 14
212 89 17 213 88 19 213 88 19 212 89 19 210 90 19 209 90 19 210 90 19
212 89 19 213 88 19 202 74 8 204 73 8 205 72 8 205 72 8 203 72 5
203 72 5 203 72 5 203 72 5 204 73 8 204 73 8 206 76 8 206 76 8
206 76 8 205 75 7 205 75 7 205 75 7 207 74 9 205 72 8 205 72 8
204 71 7 204 71 7 203 70 6 203 70 6 202 69 4 203 68 6 203 68 6
203 68 6 203 68 6 205 69 8 205 69 8 206 70 9 206 70 9 206 70 11
206 70 11 206 70 11 206 70 11 205 69 8 205 69 8 205 69 8 205 69 8
206 70 9 206 70 9 206 70 9 206 70 9 205 72 12 205 72 12 205 71 14
205 72 12 207 71 10 201 71 6 216 95 25 212 94 20 215 95 19 216 95 17
216 95 17 216 95 17 216 95 15 216 95 15 216 95 15 210 98 15
232 140 48 226 144 46 226 144 46 226 144 46 227 143 44 227 143 44
227 143 44 227 143 44 227 143 44 226 142 45 223 138 42 220 136 37
222 136 35 222 136 35 222 136 33 222 136 33 220 137 33 220 137 35
220 136 39 225 133 43 216 109 27 221 106 29 219 106 31 221 106 31
224 104 31 224 104 31 219 106 31 219 106 33 221 105 35 224 103 35
209 81 15 210 77 13 208 78 13 208 78 13 208 78 13 208 78 13 210 77 15
210 77 15 210 77 15 210 77 15 202 63 7 202 63 7 202 63 7 202 63 7
202 63 7 202 63 7 202 63 7 202 63 7 203 64 8 203 64 8 204 65 9
204 65 9 205 66 11 205 66 11 205 66 11 205 66 11 205 66 9 205 66 9
205 66 9 205 66 9 205 66 9 205 66 9 205 66 9 205 66 9 205 66 9
205 66 9 205 66 9 205 66 9 205 66 9 205 66 9 205 66 9 205 66 9
205 66 9 205 66 9 205 66 9 205 66 9 205 66 9 205 66 9 205 66 9
203 68 6 211 78 14 210 79 12 210 79 12 210 79 12 208 81 10 208 81 10
208 81 10 207 79 9 207 77 7 208 81 10 211 86 14 213 88 17 213 88 19
213 88 19 212 89 19 210 90 19 209 90 19 210 90 19 212 89 19 213 88 19
202 74 8 204 73 8 205 72 8 205 72 8 203 72 5 203 72 5 203 72 5
203 72 5 204 73 8 204 73 8 206 76 8 206 76 8 206 76 8 205 75 7
205 75 7 205 75 7 207 74 9 205 72 8 205 72 8 204 71 7 204 71 7
203 70 6 203 70 6 202 69 4 203 68 6 203 68 6 203 68 6 203 68 6
205 69 8 205 69 8 206 70 9 205 69 8 205 68 10 205 68 10 205 68 10
205 68 10 205 69 8 205 69 8 205 69 8 205 69 8 206 70 9 206 70 9
206 70 9 206 70 9 205 72 12 205 72 12 207 70 14 207 71 12 207 71 10
201 71 6 218 95 25 212 94 20 215 95 19 216 95 17 216 95 17 216 95 17
216 95 15 216 95 15 216 95 15 210 98 15 232 140 48 226 144 46
226 144 46 226 144 46 227 143 44 227 143 44 227 143 44 227 143 44
227 143 44 226 142 43 223 139 40 220 137 35 222 136 35 222 136 35
222 136 33 222 136 33 220 137 33 220 137 35 220 136 37 225 133 41
216 109 27 221 106 29 219 106 31 221 106 31 223 105 31 223 105 31
219 106 31 219 106 33 221 105 35 224 103 35 209 81 15 210 77 13
208 78 13 208 78 13 208 78 13 208 78 13 210 77 15 210 77 15 210 77 15
210 77 15 202 63 7 202 63 7 202 63 7 202 63 7 202 63 7 202 63 7
202 63 7 202 63 7 203 64 8 203 64 8 204 65 9 204 65 9 205 66 11
205 66 11 206 67 12 206 67 12 205 66 9 205 66 9 205 66 9 205 66 9
205 66 9 205 66 9 205 66 9 205 66 9 205 66 9 205 66 9 205 66 9
205 66 9 205 66 9 205 66 9 205 66 9 205 66 9 205 66 9 205 66 9
205 66 9 205 66 9 205 66 9 205 66 9 205 66 9 203 68 6 211 78 14
210 79 12 210 79 12 210 79 12 208 81 10 208 81 10 208 81 10 207 79 9
208 79 9 209 82 11 211 86 14 213 88 17 213 88 19 213 88 19 212 89 19
210 90 19 210 90 19 210 90 19 212 89 19 213 88 19 202 74 8 204 73 8
205 72 8 205 72 8 203 72 7 203 72 7 203 72 7 203 72 7 204 73 8
204 73 8 206 76 10 206 76 8 206 76 8 205 75 7 205 75 7 207 74 7
207 74 9 205 72 8 205 72 8 204 71 7 204 71 7 203 70 6 203 70 6
203 68 6 203 68 6 203 68 6 203 68 6 203 68 6 205 69 8 205 69 8
205 69 8 205 69 8 205 68 10 205 68 10 205 68 10 205 68 10 205 69 8
205 69 8 205 69 8 205 69 8 206 70 9 206 70 9 206 70 9 206 70 9
207 71 12 205 72 12 207 70 14 207 71 12 207 71 10 201 71 6 218 95 25
214 94 20 216 94 19 216 94 19 216 94 19 216 95 17 216 95 17 216 95 15
216 95 15 210 98 15 232 140 48 226 144 46 226 144 46 226 144 46
227 143 44 227 143 44 227 143 44 227 143 44 227 144 42 226 143 41
223 139 38 220 137 35 222 136 35 222 136 35 222 136 33 222 136 33
220 137 33 220 137 35 220 136 37 225 133 41 216 109 25 221 106 27
219 107 29 221 106 31 223 105 31 223 105 31 219 106 31 219 106 31
221 105 33 224 103 35 209 81 15 210 77 13 208 78 13 208 78 13
208 78 13 208 78 13 210 77 15 210 77 15 210 77 15 210 77 15 202 63 7
202 63 7 202 63 7 202 63 7 202 63 7 202 63 7 202 63 7 202 63 7
203 64 8 203 64 8 204 65 9 204 65 9 204 65 9 204 65 9 205 66 11
205 66 11 205 66 9 205 66 9 205 66 9 205 66 9 205 66 9 205 66 9
205 66 9 205 66 9 203 67 9 203 67 9 203 67 9 203 67 9 203 67 9
203 67 9 203 67 9 203 67 9 205 66 9 205 66 9 205 66 9 205 66 9
205 66 9 205 66 9 205 66 9 203 68 6 211 79 12 210 80 10 210 80 10
210 80 10 208 81 10 208 81 10 208 81 10 207 79 9 207 79 9 209 82 11
211 86 14 213 88 17 213 88 19 213 88 19 212 89 19 212 89 19 212 89 19
212 89 19 212 89 19 213 88 19 202 74 8 204 73 8 205 72 8 205 72 8
205 72 8 205 72 10 205 72 10 205 72 10 207 73 11 207 73 11 207 74 9
207 74 9 207 74 9 207 74 9 207 74 7 207 74 7 208 73 9 207 72 8
207 72 8 206 70 7 206 70 9 205 69 8 205 69 8 203 68 6 205 66 9
205 66 9 205 66 9 205 66 9 206 68 10 206 68 10 206 68 10 206 68 10
206 68 10 206 68 10 206 68 10 206 68 10 206 68 10 206 68 10 206 68 10
206 68 10 207 69 11 207 69 11 207 69 11 207 69 11 207 71 12 207 71 12
207 71 12 207 71 12 207 71 10 201 71 6 218 95 25 214 93 22 216 94 21
218 93 21 218 93 21 218 93 19 218 93 19 218 94 17 218 94 17 212 97 15
232 140 48 226 143 48 226 144 46 226 144 46 227 143 44 227 143 44
227 143 44 227 143 44 227 143 44 226 142 43 223 139 40 220 136 37
222 136 35 222 136 35 222 136 33 222 136 33 220 137 33 220 137 35
220 136 37 225 133 41 216 109 25 221 106 27 219 107 29 221 106 29
223 105 31 223 105 31 219 106 31 219 106 31 221 105 33 224 104 33
209 81 13 210 77 11 208 78 11 208 78 11 208 78 11 208 78 13 208 78 13
208 78 13 208 78 13 208 78 13 202 63 7 202 63 7 202 63 7 202 63 7
202 63 7 202 63 7 202 63 7 202 63 7 203 64 8 203 64 8 204 65 9
204 65 9 204 65 9 204 65 9 205 66 11 205 66 11 205 66 9 205 66 9
205 66 9 205 66 9 205 66 9 205 66 9 205 66 9 205 66 9 203 67 9
203 67 9 203 67 9 203 67 9 203 67 9 203 67 9 203 67 9 203 67 9
205 66 9 205 66 9 205 66 9 205 66 9 205 66 9 205 66 9 205 66 9
203 68 6 211 79 12 210 80 10 210 80 10 210 80 10 208 81 10 208 81 10
208 81 10 207 79 9 207 79 9 209 82 11 211 86 14 213 88 17 213 88 19
213 88 19 212 89 19 212 89 19 212 89 19 212 89 19 212 89 19 213 88 19
202 74 8 202 74 8 204 73 8 205 72 8 205 72 10 205 72 10 205 72 10
205 72 10 207 73 11 207 73 11 207 74 9 207 74 9 207 74 9 207 74 9
207 74 7 207 74 7 208 73 9 207 72 8 207 72 8 206 70 7 206 70 9
205 69 8 205 69 8 203 67 9 205 66 11 205 66 11 205 66 9 205 66 9
206 68 10 206 68 10 206 68 10 206 68 10 206 68 10 206 68 10 206 68 10
206 68 10 206 68 10 206 68 10 206 68 10 206 68 10 207 69 11 207 69 11
207 69 11 207 69 11 207 71 12 207 71 12 207 71 12 207 71 12 207 71 10
201 71 6 218 95 25 214 93 22 216 94 21 218 93 21 218 93 21 218 93 21
218 93 19 218 93 19 218 94 17 212 97 17 232 140 50 226 143 48
226 144 46 226 144 46 227 143 44 227 143 44 227 143 44 227 143 44
227 143 44 226 142 43 223 139 40 220 136 37 222 136 35 222 136 35
222 136 33 222 136 33 220 137 33 220 137 35 220 136 37 225 133 41
216 109 25 221 106 27 219 107 29 221 106 29 223 105 31 223 105 31
219 106 31 219 106 31 221 105 33 224 104 33 209 81 13 210 77 11
208 78 11 208 78 11 208 78 11 208 78 11 208 78 13 208 78 13 208 78 13
208 78 13 202 63 7 202 63 7 202 63 7 202 63 7 202 63 7 202 63 7
202 63 7 202 63 7 203 64 8 203 64 8 204 65 7 204 65 7 204 65 9
204 65 9 205 66 11 205 66 11 205 66 9 205 66 9 205 66 9 205 66 9
205 66 9 205 66 9 205 66 9 205 66 9 203 67 9 203 67 9 203 67 9
203 67 9 203 67 9 203 67 9 203 67 9 203 67 9 203 67 9 203 67 9
203 67 9 203 67 9 203 68 6 203 68 6 203 67 9 203 68 6 211 79 12
210 80 10 210 80 10 210 80 10 208 81 10 208 81 10 208 81 10 207 79 9
207 79 9 209 82 11 213 85 14 215 88 17 213 88 19 213 88 19 212 89 19
212 89 19 212 89 19 212 89 19 212 89 19 213 88 19 202 74 8 202 74 8
204 73 8 204 73 8 205 72 8 205 72 8 207 72 8 207 72 8 207 74 9
207 74 9 207 74 9 207 74 9 207 74 9 207 74 9 207 74 7 207 74 7
208 73 9 207 72 8 207 72 8 206 70 7 206 70 9 205 69 8 205 69 8
203 67 9 205 66 11 205 66 11 205 66 9 205 66 9 206 68 10 206 68 10
206 68 10 206 68 10 206 68 10 206 68 10 206 68 10 206 68 10 206 68 10
206 68 10 206 68 10 206 68 10 207 69 11 207 69 11 207 69 11 207 69 11
207 71 12 207 71 12 209 70 12 209 70 12 207 71 10 201 71 6 218 95 25
214 93 22 216 94 21 218 93 21 218 93 21 218 93 21 218 93 19 218 93 19
218 94 17 212 97 17 232 140 50 226 143 48 226 144 46 226 144 46
227 143 44 227 143 44 227 143 44 227 143 44 227 143 44 226 142 43
223 139 40 220 136 37 222 136 35 222 136 35 222 136 33 222 136 33
220 137 33 220 137 35 220 136 37 225 133 41 216 109 25 221 106 27
219 107 29 221 106 29 223 105 31 221 106 31 219 106 31 219 106 31
221 106 31 224 104 31 209 81 13 210 77 11 208 78 11 208 78 11
208 78 11 208 78 11 208 78 13 208 78 13 208 78 13 208 78 13 202 63 7
202 63 7 202 63 7 202 63 7 202 63 7 202 63 7 202 63 7 203 62 7
205 61 7 207 64 7 205 65 5 204 66 5 202 66 5 204 66 5 205 67 6
205 67 6 205 67 6 205 66 9 205 66 9 205 66 9 205 66 9 205 66 9
205 66 9 203 67 9 203 67 9 203 67 9 202 68 9 202 68 9 203 67 9
205 66 9 207 66 9 207 66 9 205 66 9 203 67 9 203 67 9 203 68 6
203 68 6 203 68 6 203 68 6 203 68 6 210 77 11 208 79 9 208 79 9
208 79 9 207 79 9 207 79 9 207 79 9 206 78 7 206 78 7 208 81 10
211 84 13 214 86 16 213 88 19 213 88 19 212 89 19 212 89 19 212 89 19
212 89 19 212 89 19 213 88 19 201 75 8 202 74 8 204 73 8 204 73 8
205 72 8 205 72 8 207 72 8 207 72 8 207 74 9 207 74 9 207 74 9
207 74 9 207 74 9 207 74 9 207 74 7 207 74 7 208 73 9 207 72 8
207 72 8 206 70 7 206 70 9 205 68 10 205 68 10 203 67 9 205 66 11
205 66 11 205 66 9 205 66 9 206 68 10 206 68 10 206 68 10 206 68 10
206 68 10 206 68 10 206 68 10 206 68 10 206 68 10 206 68 10 206 68 10
206 68 10 207 69 11 207 69 11 207 69 11 207 69 11 207 71 12 207 71 12
209 70 12 209 70 12 207 71 10 203 70 6 219 94 25 215 92 22 218 93 21
218 93 21 218 93 21 218 93 21 218 93 19 218 93 19 218 94 17 212 97 17
232 140 50 226 143 48 226 143 48 226 144 46 226 144 46 226 144 44
226 144 44 226 144 44 226 144 44 226 142 43 223 139 40 220 136 37
222 136 37 224 135 37 224 135 35 222 136 35 220 137 35 219 137 37
220 136 39 225 133 41 215 110 25 219 107 27 219 107 27 221 106 29
223 105 29 221 106 29 219 107 29 219 107 29 221 106 31 224 104 31
209 81 13 210 77 11 208 78 11 208 78 11 208 78 11 208 78 11 208 78 13
208 78 13 208 78 13 208 78 13 202 63 7 202 63 7 202 63 7 202 63 7
202 63 7 202 63 7 202 63 7 204 60 6 210 59 5 212 61 7 211 68 9
209 74 10 208 76 6 207 72 4 209 72 4 209 72 4 208 73 9 208 72 11
208 72 13 206 70 11 205 68 10 203 67 9 203 68 6 203 68 6 203 68 6
202 68 6 200 69 6 200 69 6 202 68 6 204 64 4 211 64 6 210 62 5
207 66 6 205 69 8 205 69 8 205 69 8 205 69 8 205 69 8 205 69 6
205 69 6 210 77 11 208 78 11 208 79 9 208 79 9 207 79 9 207 79 9
207 79 9 206 78 7 206 78 7 208 81 10 211 84 13 214 86 16 215 90 18
215 90 18 215 90 18 215 90 18 213 90 18 213 90 18 215 90 18 215 89 20
201 75 6 202 74 6 204 74 6 204 74 6 205 73 6 205 73 6 205 73 6
205 73 6 204 71 7 205 72 8 207 74 7 208 75 8 207 74 7 207 74 7
207 74 7 207 74 7 208 73 7 208 73 7 207 72 6 207 72 8 206 70 11
206 69 13 205 68 12 205 68 12 206 67 12 206 67 12 206 67 12 206 67 12
207 68 13 207 68 13 207 69 11 207 69 11 207 69 11 207 69 11 207 69 11
207 69 11 207 69 11 207 69 11 207 69 11 207 69 11 207 69 11 207 69 11
207 68 13 207 68 13 206 69 13 207 68 13 209 68 11 209 68 11 211 73 12
209 76 11 217 90 21 216 90 21 216 91 19 216 91 19 217 90 19 217 90 19
217 90 17 217 90 17 217 91 15 209 95 15 231 141 50 224 144 50
224 144 48 224 144 48 224 145 46 224 145 46 224 145 46 225 146 47
225 146 47 226 144 46 224 139 43 223 136 40 224 134 41 225 133 41
227 132 41 224 134 41 219 136 41 217 137 41 220 136 41 225 133 41
213 113 26 217 110 28 221 108 28 222 108 26 224 107 26 222 108 24
221 109 26 221 108 28 220 105 28 223 103 30 208 80 12 209 76 9
207 77 11 207 77 11 207 77 11 207 77 11 207 77 11 207 77 11 207 77 11
207 77 11 202 63 7 202 63 7 202 63 7 202 63 7 202 63 7 202 63 7
202 63 7 205 61 7 210 59 5 207 57 1 205 67 4 199 69 1 199 72 0
201 74 0 204 73 0 204 72 1 204 74 6 202 74 8 202 74 10 201 72 11
201 72 11 200 71 8 200 71 8 200 72 6 201 71 6 200 72 6 198 73 6
198 73 4 191 63 0 202 67 3 209 62 2 215 68 8 205 65 3 202 67 3
202 67 3 202 67 3 202 66 5 202 67 3 202 67 1 201 68 1 211 81 13
211 81 13 211 81 11 211 81 11 209 82 11 209 82 11 209 82 11 208 81 10
208 81 10 210 83 12 214 86 16 216 89 18 215 90 18 215 90 18 215 90 18
215 90 18 213 90 18 213 90 18 215 90 18 215 90 18 201 75 6 202 74 6
202 74 6 204 74 6 204 74 6 205 73 6 205 73 6 207 74 7 209 76 11
209 76 11 208 75 8 207 74 7 207 74 7 207 74 7 207 74 7 207 74 7
208 73 7 207 72 6 207 72 6 206 70 7 206 69 13 205 68 14 205 68 14
203 66 13 205 66 11 205 66 11 205 66 11 205 66 11 206 67 12 206 67 12
206 68 10 206 68 10 206 68 10 206 68 10 206 68 10 206 68 10 206 68 10
206 68 10 206 68 10 206 68 10 206 68 10 206 68 10 206 67 12 206 67 12
205 68 12 206 67 12 208 67 10 208 67 10 213 75 15 210 77 13 220 90 22
220 92 23 218 93 21 218 93 21 220 92 21 220 92 21 220 93 19 220 93 19
220 93 17 213 96 17 233 138 49 225 142 49 225 142 47 225 142 47
225 143 45 225 143 45 225 143 45 226 142 45 226 142 45 226 139 43
224 134 39 224 132 40 230 132 44 232 133 46 234 132 46 231 133 46
224 137 46 223 138 46 226 136 44 229 134 46 213 112 28 216 111 28
219 110 26 221 109 26 222 108 24 222 109 22 221 109 24 221 109 26
220 105 28 223 103 30 208 80 12 209 76 9 207 77 11 207 77 11
207 77 11 207 77 11 207 77 11 207 77 11 207 77 11 207 77 11 202 63 7
202 63 7 202 63 7 202 63 7 202 63 7 202 63 7 202 63 7 203 62 7
204 60 4 200 62 2 227 98 32 222 102 28 219 102 25 219 102 23
221 101 23 222 100 25 220 102 28 219 103 30 220 104 34 220 103 36
220 103 36 220 104 34 221 105 35 223 104 33 223 104 33 223 104 33
219 106 31 219 106 31 226 108 34 233 108 39 212 77 11 218 78 14
212 77 11 210 77 11 210 77 11 210 77 13 210 77 13 210 77 13 210 77 11
210 77 11 213 83 15 213 83 15 213 83 13 213 83 13 211 84 13 211 84 13
211 84 13 210 83 12 210 83 12 213 85 14 216 89 18 217 90 19 216 91 19
216 91 19 216 91 19 216 91 19 213 90 18 213 90 18 216 91 19 216 91 19
217 90 19 217 90 19 217 90 19 217 90 19 217 90 21 219 89 21 219 89 21
219 89 21 217 86 19 213 83 15 207 77 9 204 74 6 207 74 7 207 74 7
207 74 7 207 74 7 208 73 7 208 73 7 208 73 7 208 73 9 201 65 8
201 64 10 201 64 10 201 64 10 203 64 8 203 64 8 203 64 8 203 64 8
203 64 8 203 64 8 203 64 6 203 64 6 203 64 6 203 64 6 203 64 6
203 64 6 204 65 7 204 65 7 204 65 7 204 65 7 204 65 7 204 65 7
204 65 9 204 65 9 202 66 9 204 65 9 205 64 7 205 64 7 202 63 3
198 65 1 208 78 11 208 80 12 206 81 10 206 81 10 208 81 10 208 81 10
208 81 8 208 81 8 208 81 8 203 84 6 221 119 33 216 121 33 216 122 31
216 122 31 216 122 31 216 122 31 216 122 31 215 121 30 214 118 25
212 116 23 210 111 19 211 107 19 208 101 17 210 100 17 211 99 17
210 100 17 205 103 17 203 104 17 205 103 17 205 103 17 216 111 28
216 111 28 216 111 26 217 110 26 222 108 24 222 109 22 221 109 24
221 109 26 221 106 29 223 103 30 208 80 12 209 76 9 207 77 11
207 77 11 207 77 11 207 77 11 207 77 11 207 77 11 207 77 11 207 77 11
202 63 7 202 63 7 202 63 7 202 63 7 202 63 7 202 63 7 202 63 7
202 63 7 200 64 5 192 61 0 219 99 30 205 92 17 213 103 24 213 103 22
215 103 22 216 102 22 214 104 25 213 105 27 214 105 30 215 107 32
216 108 33 217 109 34 219 110 35 220 110 33 220 110 33 220 110 31
217 112 31 217 112 29 213 103 24 230 112 36 204 78 4 218 86 17
208 75 8 208 75 8 208 75 8 208 75 8 208 75 10 208 75 10 208 75 8
208 75 8 214 84 16 214 84 16 214 84 14 214 84 14 213 85 14 213 85 14
213 85 14 211 84 13 211 84 13 214 86 16 217 90 19 218 91 20 216 91 19
216 91 19 216 91 19 216 91 19 213 90 18 213 90 18 216 91 19 216 91 19
216 89 18 216 89 18 216 89 18 216 89 18 216 88 20 216 88 20 216 88 20
216 88 20 222 92 25 217 86 19 207 77 9 203 72 5 207 74 7 207 74 7
207 74 7 207 74 7 208 73 7 208 73 7 208 73 7 208 73 9 199 62 6
199 62 8 199 62 8 199 62 8 200 61 6 200 61 6 200 61 6 200 61 6
202 63 7 202 63 7 202 63 5 202 63 5 202 63 5 202 63 5 202 63 5
202 63 5 202 63 5 202 63 5 202 63 5 202 63 5 203 64 6 203 64 6
203 64 8 203 64 8 201 65 8 203 64 8 204 63 6 204 63 6 203 65 4
202 67 3 211 81 13 209 81 13 209 81 13 209 81 13 209 81 13 211 81 11
211 81 11 211 81 9 211 81 9 206 84 9 223 116 34 220 118 32 220 118 32
220 118 30 220 118 30 220 118 30 220 118 30 219 117 28 217 113 23
213 110 19 212 105 16 214 102 17 215 101 19 218 101 20 219 101 20
219 101 20 216 102 20 215 103 20 213 104 20 213 104 20 216 109 27
215 110 27 213 111 25 215 110 25 221 109 24 222 108 24 221 109 26
221 108 28 221 106 29 223 103 30 207 79 11 209 76 9 206 76 10
206 76 10 206 76 10 206 76 10 206 76 10 206 76 10 206 76 10 206 76 10
202 63 7 202 63 7 202 63 7 202 63 7 202 63 7 202 63 7 202 63 7
200 63 7 196 62 3 192 63 0 218 99 30 214 104 27 211 106 25 211 106 23
214 105 21 214 105 23 213 105 23 211 106 25 212 107 26 213 108 30
215 109 31 216 110 32 217 112 31 217 112 31 219 111 29 217 112 29
215 113 27 215 113 27 218 114 28 222 110 27 206 83 4 208 79 5
209 76 9 209 76 11 209 76 11 209 76 11 209 76 11 209 76 11 209 76 9
209 76 9 213 83 15 213 83 15 214 84 14 214 84 14 213 85 14 213 85 14
213 85 14 211 84 13 210 85 13 212 87 16 216 91 17 217 92 18 217 92 18
214 92 17 214 92 17 214 92 17 214 92 17 214 92 17 216 91 17 216 91 17
218 93 19 218 93 19 218 93 19 218 93 21 218 93 23 218 93 23 217 92 22
218 91 22 218 91 22 218 91 22 203 76 7 204 74 6 205 75 7 205 75 7
205 75 7 207 74 7 208 73 7 208 73 7 208 73 7 208 73 9 200 63 7
200 63 9 200 63 9 199 62 8 200 61 6 200 61 6 200 61 6 200 61 6
203 64 8 203 64 8 203 64 6 203 64 6 203 64 6 203 64 6 203 64 6
203 64 6 202 63 5 202 63 5 202 63 5 202 63 5 203 64 6 203 64 6
203 64 6 203 64 6 203 64 6 203 64 6 204 63 6 204 63 6 203 65 4
202 67 3 212 79 15 211 80 15 211 80 15 211 80 15 211 80 15 212 80 13
212 80 13 212 80 11 212 80 11 208 83 9 225 113 32 220 115 32
220 116 30 220 116 30 220 116 28 220 116 28 220 116 28 222 115 28
222 115 28 225 116 30 211 100 14 214 100 16 217 98 18 219 97 18
220 97 18 220 97 18 219 97 18 217 98 18 216 99 18 212 101 18
218 108 27 215 110 27 213 111 25 215 110 25 219 108 23 221 107 23
219 108 25 219 107 27 222 107 30 223 103 30 207 79 11 204 72 5
206 76 10 206 76 10 204 76 10 204 76 10 206 76 10 206 76 10 206 76 10
206 76 10 202 63 7 202 63 7 202 63 7 202 63 7 202 63 7 202 63 7
202 63 7 202 63 7 196 60 2 194 65 2 218 99 30 214 104 27 211 106 25
211 106 23 214 105 21 214 105 21 213 106 21 211 106 23 212 107 24
213 109 26 215 110 27 216 111 28 217 112 29 217 112 27 219 112 27
217 113 25 215 114 25 215 114 25 218 114 26 222 110 25 206 83 2
208 80 3 209 77 7 209 76 11 209 76 11 209 76 11 209 76 11 209 76 11
209 76 9 209 76 9 212 82 14 212 82 14 213 83 13 213 83 13 211 84 13
211 84 13 213 85 14 211 84 13 210 85 13 212 87 16 216 91 17 217 92 18
215 93 18 214 92 17 214 92 17 214 92 17 214 92 17 214 92 17 216 91 17
216 91 17 218 93 19 218 93 19 218 93 19 218 93 21 218 93 23 218 93 23
217 92 22 217 92 22 217 92 22 217 92 22 201 75 6 202 74 6 205 75 7
205 75 7 205 75 7 207 74 7 208 73 7 208 73 7 208 73 7 208 73 9
200 63 7 200 63 9 200 63 9 200 63 9 202 63 7 202 63 7 202 63 7
202 63 7 203 64 8 203 64 8 203 64 6 203 64 6 203 64 6 203 64 6
203 64 6 203 64 6 203 64 6 203 64 6 203 64 6 203 64 6 203 64 6
203 64 6 203 64 6 203 64 6 203 64 6 203 64 6 204 63 6 204 63 6
203 65 4 202 67 3 212 79 15 211 80 15 211 80 15 211 80 15 212 79 15
212 79 15 212 80 13 212 80 13 212 80 11 208 83 11 225 113 32
220 115 32 220 116 30 220 116 30 220 116 28 220 116 28 220 116 28
220 116 28 222 115 28 225 116 30 211 100 14 214 100 16 216 99 18
219 97 18 220 97 18 220 97 18 219 97 18 219 97 18 216 99 18
214 100 18 218 106 26 215 108 26 213 109 23 215 108 23 219 108 23
221 107 23 219 108 25 219 107 27 222 107 30 223 103 30 206 78 9
203 72 5 205 74 9 205 74 9 203 75 9 203 75 9 205 74 9 205 74 9
205 74 9 205 74 9 202 63 7 202 63 7 202 63 7 202 63 7 202 63 7
202 63 7 202 63 7 202 63 7 198 59 2 197 64 2 219 99 30 216 103 27
214 104 25 214 105 23 217 103 21 217 104 19 216 105 19 214 105 21
215 106 22 215 106 22 219 110 26 219 110 26 220 111 25 220 111 25
222 110 25 220 112 23 219 112 23 219 112 23 221 113 24 225 109 23
210 82 0 212 79 1 209 77 7 209 76 11 209 76 11 209 76 11 209 76 11
209 76 11 209 76 9 209 76 9 212 82 14 212 82 14 213 83 13 213 83 13
211 84 13 211 84 13 213 85 14 211 84 13 210 85 13 212 87 16 216 91 17
217 92 18 215 93 18 215 93 18 215 93 18 215 93 18 214 92 17 214 92 17
217 92 18 217 92 18 218 93 19 218 93 19 216 94 19 216 94 21 216 93 23
216 93 23 215 92 22 215 92 22 215 92 22 215 92 22 199 76 8 201 75 8
205 74 9 207 74 9 207 74 9 207 74 9 208 73 9 208 73 9 208 73 9
208 72 11 201 65 8 201 64 10 200 63 9 200 63 9 202 63 7 202 63 7
202 63 7 202 63 7 203 64 8 203 64 8 203 64 6 203 64 6 203 64 6
203 64 6 203 64 6 203 64 6 203 64 6 203 64 6 203 64 6 203 64 6
203 64 6 203 64 6 203 64 6 203 64 6 203 64 6 203 64 6 204 63 6
204 63 6 203 65 4 202 67 3 212 79 15 211 80 15 211 80 15 211 80 15
212 79 15 212 79 15 212 80 13 212 80 13 212 80 13 208 83 11
222 115 32 217 118 30 217 118 30 217 118 28 217 118 28 217 118 26
217 118 26 217 118 26 219 117 28 222 117 30 208 101 14 211 102 16
212 101 18 216 99 18 217 98 18 217 98 18 217 98 18 216 99 18
216 99 18 214 100 18 220 105 26 218 106 26 217 107 23 217 107 23
221 107 23 221 107 23 219 108 25 219 107 27 223 108 31 221 104 30
204 79 9 201 73 5 203 75 9 203 75 9 203 75 9 203 75 9 205 74 9
205 74 9 205 74 9 205 74 9 202 63 7 202 63 7 202 63 7 202 63 7
202 63 7 202 63 7 202 63 7 202 63 7 200 59 2 199 63 2 221 98 30
217 102 27 216 103 25 216 104 23 219 103 21 219 103 19 217 104 19
217 104 19 217 106 20 217 106 20 221 109 24 221 109 24 220 112 23
222 111 23 222 111 23 222 111 23 219 112 23 219 112 23 223 112 24
226 108 25 210 81 2 212 78 3 209 77 7 209 76 11 209 76 11 209 76 11
209 76 11 209 76 11 209 76 9 209 76 9 212 82 14 212 82 14 213 83 13
211 84 13 211 84 13 211 84 13 213 85 14 210 85 13 210 85 13 212 87 16
216 91 17 217 92 18 215 93 18 215 93 18 215 93 18 215 93 18 214 92 17
214 92 17 215 93 18 217 92 18 218 93 19 218 93 19 216 94 19 216 94 21
216 94 21 215 94 23 214 93 22 214 93 22 214 93 22 214 93 22 199 76 8
202 74 8 205 74 9 207 74 9 207 74 9 207 74 9 208 73 9 208 72 11
208 72 11 208 72 11 201 65 8 201 64 10 200 63 9 200 63 7 202 63 7
202 63 7 202 63 7 202 63 7 203 64 8 203 64 8 203 64 6 203 64 6
203 64 6 203 64 6 203 64 6 203 64 6 203 64 6 203 64 6 203 64 6
203 64 6 203 64 6 203 64 6 203 64 6 203 64 6 203 64 6 203 64 6
204 63 6 204 64 4 203 65 4 202 67 3 212 79 15 211 80 15 211 80 15
211 80 15 212 79 15 212 79 15 212 80 13 212 80 13 212 80 13 208 83 11
222 115 32 216 119 28 216 119 28 217 118 28 217 118 26 217 118 26
217 118 26 217 118 26 217 118 28 220 118 30 206 102 14 209 103 16
211 101 18 212 101 18 214 100 18 214 100 18 214 100 18 214 100 18
214 100 18 214 100 18 220 105 26 220 105 26 218 106 23 218 106 23
221 107 25 221 107 25 219 107 27 219 107 27 223 108 31 221 104 30
202 80 9 201 73 5 203 75 9 203 75 9 203 75 9 203 75 9 205 74 9
205 74 9 205 74 9 205 74 9 202 63 7 202 63 7 202 63 7 202 63 7
202 63 7 202 63 7 202 63 7 202 63 7 200 59 2 199 63 2 221 98 30
217 102 27 216 103 25 216 104 23 219 103 21 221 102 19 219 103 19
219 103 19 217 104 19 217 106 20 221 109 24 220 111 25 219 112 23
219 112 23 220 112 23 220 112 23 217 113 25 217 113 25 221 112 30
225 108 31 208 81 10 210 78 9 210 77 11 210 77 11 210 77 11 210 77 11
210 77 11 210 77 11 208 78 11 208 78 11 213 83 15 213 83 15 211 84 13
210 85 13 210 85 13 210 85 13 210 85 11 209 84 10 209 84 10 211 86 12
213 91 16 215 93 18 215 93 18 215 93 18 214 94 16 214 94 16 214 94 16
214 94 16 214 94 18 215 93 18 216 94 19 216 94 19 218 93 21 216 94 21
215 95 21 212 96 21 210 97 23 210 97 23 212 96 23 215 94 23 205 74 9
207 74 9 207 73 11 205 74 11 205 74 11 207 73 11 207 73 11 205 72 12
204 70 11 203 69 10 202 66 7 201 65 8 201 65 8 200 63 7 202 63 7
202 63 7 202 63 5 202 63 5 203 64 6 203 64 6 203 64 6 203 64 6
203 64 6 203 64 6 203 64 6 203 64 6 203 64 6 203 64 6 203 64 6
203 64 6 203 64 6 203 64 6 203 64 6 203 64 6 201 65 6 203 64 6
203 65 4 203 65 4 203 65 4 202 66 5 212 79 15 212 79 15 212 79 15
212 79 15 212 79 15 212 79 15 212 79 15 212 79 15 212 80 13 208 83 11
222 115 30 217 118 26 217 118 26 219 117 26 219 117 26 219 117 26
219 117 26 219 117 26 219 117 28 222 117 30 206 102 14 209 103 16
209 103 16 211 102 16 211 102 16 212 101 16 212 101 16 212 101 16
212 101 18 212 101 18 218 106 23 218 106 23 218 106 26 218 106 26
221 106 27 221 106 27 219 107 27 219 107 27 223 108 31 221 104 30
202 80 9 199 74 5 201 75 6 201 75 6 202 74 6 202 74 6 203 76 7
203 76 7 203 76 7 203 76 7 202 63 7 202 63 7 202 63 7 202 63 7
202 63 7 202 63 7 202 63 7 202 63 7 200 59 2 199 63 2 221 98 30
217 102 27 216 103 25 216 104 23 219 103 21 221 102 19 221 102 19
221 102 19 219 103 19 219 105 20 221 109 24 220 111 25 219 112 23
219 112 23 220 112 23 219 112 23 217 113 25 217 112 27 220 112 32
223 108 35 208 80 14 210 77 13 210 77 11 210 77 11 210 77 11
210 77 11 210 77 11 210 77 11 208 78 11 208 78 11 213 83 15 213 83 15
211 84 13 210 85 13 210 85 13 210 85 13 208 86 11 207 85 10 209 84 10
211 86 12 213 91 16 215 93 18 215 93 18 215 93 18 214 94 16 214 94 16
214 94 16 214 94 16 214 94 18 214 94 18 215 95 19 215 95 19 215 95 21
215 95 21 213 96 21 212 96 21 208 98 21 208 98 23 212 96 23 216 93 23
207 74 9 210 72 9 207 74 9 207 73 11 207 73 11 207 73 11 207 73 11
207 71 12 206 70 11 205 68 10 202 66 7 201 65 6 201 65 6 200 64 5
202 63 7 202 63 7 202 63 5 202 63 5 203 64 6 203 64 6 203 64 6
203 64 6 203 64 6 203 64 6 203 64 6 203 64 6 203 64 6 203 64 6
203 64 6 203 64 6 203 64 6 203 64 6 203 64 6 203 64 6 201 65 6
201 65 6 203 65 4 203 65 4 201 65 4 202 66 5 212 79 15 212 79 15
212 79 15 212 79 15 212 79 15 212 79 15 212 79 15 212 79 15 212 80 13
208 83 11 222 115 30 217 118 26 217 118 26 219 117 26 219 117 26
219 117 28 219 117 28 220 116 28 222 115 28 223 117 30 210 101 14
211 102 16 211 102 16 211 101 18 211 101 18 212 101 18 212 101 18
212 101 18 212 101 18 212 101 18 218 106 23 220 105 26 220 105 26
220 105 26 221 106 27 221 106 27 221 106 27 221 106 29 225 107 33
223 103 30 202 80 9 198 75 5 201 75 6 201 75 6 202 74 6 202 74 6
203 76 7 203 76 7 203 76 7 203 76 7 203 64 8 203 64 8 203 64 8
203 64 8 203 64 8 203 64 8 203 64 8 203 64 8 200 59 2 200 64 3
221 98 30 217 102 27 216 103 25 216 104 23 219 103 21 221 102 19
221 102 19 221 102 19 219 103 19 217 104 19 222 110 25 220 111 25
219 112 23 219 112 23 220 112 23 219 112 23 217 113 25 217 112 29
220 112 32 223 108 35 208 80 14 210 77 13 210 77 11 210 77 11
210 77 11 210 77 11 210 77 11 210 77 11 210 79 12 210 79 12 213 83 15
213 83 15 211 84 13 210 85 13 210 85 13 210 85 13 208 86 11 207 85 10
209 84 10 210 85 11 215 93 18 216 94 19 216 94 19 216 94 19 215 95 17
215 95 17 215 95 17 215 95 17 213 96 17 213 96 17 212 97 19 212 97 19
212 97 19 212 97 19 215 95 19 213 96 19 210 98 19 210 97 21 213 95 23
218 93 23 208 73 7 211 71 7 210 72 7 208 73 9 208 73 9 208 73 9
208 72 11 209 70 10 207 69 9 206 68 8 205 67 6 204 66 5 203 65 4
202 63 5 202 63 7 202 63 7 202 63 5 202 63 5 203 64 6 203 64 6
203 64 6 203 64 6 203 64 6 203 64 6 203 64 6 203 64 6 203 64 6
203 64 6 203 64 6 203 64 6 203 64 6 203 64 6 203 64 6 203 64 6
201 65 6 201 65 6 203 65 4 203 65 4 201 65 4 202 66 5 212 79 15
212 79 15 212 79 15 212 79 15 212 79 15 212 79 15 212 79 15 212 79 15
212 79 15 208 83 11 222 115 30 216 119 28 216 119 28 217 118 28
217 118 28 217 118 30 217 118 30 219 117 30 224 114 30 226 115 32
211 99 17 212 101 18 212 101 18 212 100 20 212 100 20 214 99 20
214 99 20 214 99 20 214 99 20 214 99 20 220 105 26 221 104 28
221 104 28 221 104 28 223 105 29 223 105 29 223 105 29 224 104 29
228 106 33 225 102 32 204 79 9 201 75 6 201 75 6 201 75 6 202 74 6
202 74 6 203 76 7 203 76 7 203 76 7 203 76 7 203 64 8 203 64 8
203 64 8 203 64 8 203 64 8 203 64 8 203 64 8 203 64 8 200 59 2
200 64 3 221 98 30 216 101 26 215 102 24 215 103 22 218 101 20
219 101 18 219 101 18 219 101 18 218 102 18 216 103 18 222 110 25
220 111 25 219 112 23 219 112 23 220 112 23 219 112 25 217 112 27
217 112 29 220 112 32 223 108 35 208 80 14 210 77 13 210 77 11
210 77 11 210 77 11 210 77 11 210 77 11 210 77 11 210 79 12 210 79 12
212 82 14 212 82 14 211 84 13 210 85 13 210 85 13 210 85 13 208 86 11
207 85 10 208 83 9 209 84 10 216 94 19 218 95 21 218 95 21 218 95 21
216 97 19 216 97 19 216 97 19 216 97 19 214 97 19 213 98 19 208 99 17
207 99 19 205 100 19 207 100 17 210 98 17 210 98 17 207 100 17
205 100 19 208 98 21 213 96 21 203 76 5 207 74 5 205 75 5 205 75 5
205 75 5 205 75 7 205 74 9 204 73 8 203 72 7 201 70 8 203 68 6
204 66 5 203 65 4 202 63 3 202 63 5 202 63 5 202 63 5 202 63 5
203 64 6 203 64 6 203 64 6 203 64 6 203 64 6 203 64 6 203 64 6
203 64 6 203 64 6 203 64 6 203 64 6 203 64 6 203 64 6 203 64 6
203 64 6 203 64 6 201 65 6 201 65 6 203 65 4 203 65 4 201 65 4
202 66 5 212 79 15 212 79 15 212 79 15 212 79 15 212 79 15 212 79 15
212 79 15 212 79 15 212 79 15 209 81 13 225 113 32 222 115 30
222 115 30 222 115 30 222 115 32 222 115 32 222 115 32 224 114 32
227 112 32 231 112 34 216 97 19 217 98 20 217 97 22 217 97 22
217 97 22 217 97 22 217 97 22 217 97 22 217 97 22 217 97 22
223 103 30 223 103 30 223 103 30 225 102 30 226 103 31 226 103 31
226 103 31 227 102 31 230 104 35 228 100 32 206 78 9 202 74 6
202 74 6 202 74 6 202 74 6 202 74 6 203 76 7 203 76 7 203 76 7
203 76 7 204 65 9 204 65 9 204 65 9 204 65 9 204 65 9 204 65 9
204 65 9 204 65 9 204 63 6 200 64 3 220 97 29 215 100 25 214 101 23
214 101 21 217 100 19 218 99 19 218 100 17 218 100 17 217 101 17
215 101 17 221 109 24 220 111 25 219 112 23 219 112 23 220 112 23
219 112 25 217 112 27 217 112 29 220 112 32 223 108 35 208 80 14
210 77 13 211 79 12 211 79 12 211 79 12 211 79 12 211 79 12 211 79 12
210 79 12 210 79 12 212 82 14 212 82 14 210 83 12 209 84 12 209 84 12
209 84 12 207 85 10 207 85 10 206 84 9 206 84 9 220 98 23 217 97 22
217 97 22 217 97 22 217 98 20 217 98 20 217 98 18 216 99 18
214 100 18 211 101 18 237 132 47 233 133 49 230 135 49 230 135 47
230 135 47 230 135 47 227 137 47 226 138 47 231 138 51 232 132 48
219 109 28 219 104 24 221 108 30 221 108 30 221 108 30 221 108 32
221 108 32 221 107 34 221 107 34 224 105 36 208 78 13 213 75 13
213 75 15 213 75 15 213 75 15 213 75 17 213 75 17 213 75 17 212 73 15
212 73 15 212 73 15 212 73 15 212 73 15 212 73 15 212 73 15 212 73 15
210 75 13 210 75 13 210 75 13 210 75 13 206 70 9 206 70 9 206 70 9
206 70 9 206 70 9 206 70 9 206 70 9 206 70 9 207 71 10 207 71 10
206 70 9 206 70 9 205 69 8 205 69 8 203 68 6 203 68 6 203 68 6
203 68 4 205 69 6 204 72 5 202 75 4 202 77 5 203 78 4 203 78 4
203 78 6 203 78 6 203 78 6 203 78 6 204 77 6 203 76 5 200 72 2
199 71 0 200 72 4 201 73 5 201 73 5 201 73 5 201 73 5 201 73 5
202 74 6 202 74 6 203 76 7 203 76 7 204 77 8 204 77 8 206 76 8
206 76 8 206 76 6 206 76 6 206 76 8 206 76 8 206 76 8 205 75 7
205 75 7 203 76 7 203 76 7 203 76 7 203 76 7 203 76 7 203 76 7
203 76 7 204 65 9 204 65 9 204 65 9 204 65 9 204 65 9 204 65 9
204 65 9 204 65 9 204 63 6 200 64 3 220 97 29 214 99 24 212 100 22
212 100 20 216 99 18 217 98 18 217 99 16 217 99 16 216 99 16
214 100 16 221 109 24 220 111 25 219 112 23 219 112 23 220 112 23
219 112 25 217 112 27 217 112 29 220 112 32 223 108 35 208 80 14
210 77 13 211 79 12 211 79 12 211 79 12 211 79 12 211 79 12 211 79 12
210 79 12 210 79 12 211 81 13 211 81 13 210 83 12 209 84 12 209 84 12
209 84 12 207 85 10 207 85 10 205 83 8 205 83 8 219 100 24 218 99 23
218 99 23 218 99 23 218 99 21 218 99 21 220 99 19 218 99 19
215 101 19 210 103 19 232 135 47 229 136 47 226 138 47 224 139 47
226 138 45 226 138 45 222 140 45 222 140 45 228 141 47 229 134 46
216 111 26 214 107 22 216 111 26 216 111 28 216 111 28 216 110 30
216 110 30 216 110 32 216 110 34 221 107 34 208 78 13 213 75 13
213 75 15 213 75 15 213 75 15 213 75 15 213 75 17 213 75 17 212 73 15
212 73 15 212 73 15 212 73 15 212 73 15 212 73 15 212 73 15 212 73 15
210 75 13 210 75 13 210 75 13 210 75 13 206 70 9 206 70 9 206 70 9
206 70 9 206 70 9 206 70 9 206 70 9 206 70 9 207 71 10 207 71 10
206 70 9 206 70 9 205 69 8 205 69 8 203 68 6 203 68 6 203 68 6
203 68 6 205 69 6 206 71 5 207 72 6 208 73 7 209 74 8 209 74 8
208 75 8 208 75 10 208 75 10 208 75 10 208 75 10 207 74 9 203 70 6
202 69 4 201 71 6 203 72 9 203 72 9 203 72 9 203 72 9 203 72 9
204 73 10 204 73 8 205 74 9 207 74 9 208 75 10 208 75 10 208 75 10
209 74 8 209 74 8 209 74 8 209 74 8 208 75 8 208 75 8 205 75 7
205 75 7 205 75 7 205 75 7 203 76 7 203 76 7 203 75 9 203 75 9
203 75 9 205 66 11 205 66 11 205 66 11 205 66 11 205 66 11 205 66 11
205 66 11 205 66 11 204 63 6 201 65 4 222 96 29 216 98 24 212 100 22
212 100 20 216 99 18 217 98 18 217 99 16 217 99 16 216 99 16
214 100 16 221 109 24 220 111 25 219 112 23 219 112 23 220 112 23
219 112 25 217 112 27 217 112 29 220 112 32 223 108 35 208 80 14
210 77 13 210 79 12 210 79 12 210 79 12 210 79 12 210 79 12 210 79 12
211 81 13 211 81 13 211 81 13 211 81 13 210 83 12 209 84 12 209 84 12
209 84 12 207 85 10 207 85 10 205 83 8 204 81 7 222 102 26 219 100 24
219 100 24 219 100 24 218 101 22 219 100 22 223 99 20 221 100 20
215 103 20 208 106 20 229 137 45 224 139 45 221 141 45 221 141 45
226 138 45 227 138 43 224 139 43 224 139 43 229 140 45 231 134 44
217 111 24 215 106 20 217 111 24 217 110 26 217 110 26 217 110 28
217 110 30 217 109 32 217 109 32 222 106 34 208 78 11 213 75 13
213 75 13 213 75 13 213 75 15 213 75 15 213 75 17 213 75 17 212 73 15
212 73 15 212 73 15 212 73 15 212 73 15 212 73 15 212 73 15 212 73 15
210 75 13 210 75 11 210 75 11 210 75 11 207 71 10 207 71 10 207 71 10
207 71 10 204 71 9 204 71 9 206 70 9 206 70 9 207 71 10 207 71 10
206 70 9 206 70 9 205 69 8 205 69 8 205 69 8 205 69 8 203 68 6
203 68 6 205 69 8 206 70 7 205 72 8 207 74 9 208 75 10 208 75 10
208 75 10 208 74 12 208 74 12 208 74 12 208 74 12 207 73 11 203 70 8
202 68 6 203 70 8 204 70 11 204 70 11 204 70 11 204 70 11 204 70 11
205 72 12 205 72 10 207 73 11 208 72 11 209 73 12 209 73 12 209 74 10
211 73 10 211 73 10 211 73 8 211 73 8 209 74 8 209 74 10 208 75 10
207 74 9 207 74 9 205 74 9 205 74 9 203 75 9 203 75 11 203 75 11
203 75 11 205 66 11 205 66 11 205 66 11 205 66 11 205 66 11 205 66 11
205 66 11 205 66 9 203 64 6 201 65 4 222 96 27 216 98 24 212 100 22
212 100 20 216 99 20 217 98 18 217 98 18 217 99 16 216 99 16
214 100 16 221 109 24 220 111 25 219 112 25 219 112 25 220 111 25
220 111 25 217 112 27 217 112 29 221 111 32 225 107 33 208 80 12
210 77 11 210 79 12 210 79 12 210 79 12 210 79 12 210 79 12 210 79 12
211 81 13 211 81 13 211 81 13 209 81 13 209 84 12 209 84 12 209 84 12
209 84 12 207 85 12 207 85 10 205 83 8 204 81 7 222 102 26 219 100 24
219 100 24 219 100 24 218 101 22 218 101 22 219 101 20 218 101 20
213 104 20 208 106 20 227 137 45 222 140 45 219 142 45 221 141 45
224 139 43 226 139 43 224 139 43 224 139 43 229 140 45 231 134 42
216 112 22 215 107 18 217 111 24 217 111 24 219 110 26 219 110 26
219 109 28 219 109 30 219 109 30 224 106 30 207 79 9 210 78 9
210 77 11 212 77 11 212 76 13 212 76 13 212 76 15 212 76 15 210 75 13
212 74 13 212 74 13 212 73 15 212 73 15 211 72 14 211 72 14 209 73 12
210 75 11 210 75 11 210 75 11 210 75 11 207 71 10 207 71 10 207 71 10
207 71 10 204 71 9 204 71 9 206 70 9 206 70 9 207 71 10 207 71 10
206 70 9 206 70 9 205 69 8 205 69 8 205 69 8 205 69 8 203 68 6
203 68 6 205 69 8 206 70 9 205 72 8 207 74 9 208 75 10 208 75 10
208 74 12 208 74 12 208 74 12 208 74 12 208 74 12 207 73 11 203 70 8
202 68 6 203 69 10 204 70 11 204 70 11 204 70 11 204 70 11 204 70 11
205 72 12 207 71 12 208 72 11 208 72 11 209 73 12 209 73 12 211 73 10
211 73 10 211 73 10 211 73 10 211 73 8 211 73 8 209 74 10 209 74 10
207 74 9 207 74 9 205 74 9 205 74 11 203 75 11 203 75 11 203 75 11
203 75 11 203 67 9 203 67 9 203 67 9 203 67 9 203 67 9 203 67 9
203 67 9 203 68 6 201 65 4 200 67 2 222 96 27 217 97 24 214 99 22
214 99 22 214 99 20 216 99 20 219 97 18 219 97 18 217 98 18 216 99 18
221 109 26 220 111 27 219 112 27 219 112 27 220 111 27 220 111 27
219 111 29 219 111 29 221 111 32 225 108 31 210 80 10 210 78 9
210 80 10 210 80 10 210 80 10 210 80 10 210 79 12 210 79 12 209 81 13
209 81 13 209 81 13 209 81 13 209 83 14 209 83 14 209 83 14 209 83 14
207 84 14 207 85 12 205 82 10 204 81 9 222 102 26 219 100 24
219 100 24 219 100 24 218 101 22 216 102 22 212 104 22 210 105 22
212 105 20 207 107 20 226 138 45 221 141 45 222 140 45 222 140 45
222 140 45 222 140 45 224 139 45 226 138 45 231 139 45 231 134 42
214 113 22 212 109 18 216 110 21 218 109 23 219 108 23 219 108 23
222 108 26 222 108 26 224 107 28 225 106 28 204 82 5 205 81 5
205 81 7 207 80 7 207 80 7 207 79 9 208 78 11 208 78 11 210 77 13
212 76 13 212 76 13 210 75 13 209 73 12 209 73 12 209 73 12 208 75 10
208 75 10 208 75 10 208 75 10 208 75 10 205 72 8 205 72 8 205 72 8
205 72 8 205 72 8 205 72 8 205 72 8 205 72 8 207 71 10 207 71 10
207 71 10 207 71 10 206 70 9 206 70 9 205 69 8 205 69 8 205 69 8
205 69 8 206 70 9 207 71 10 208 72 11 209 73 12 210 75 13 210 75 13
210 75 13 210 75 13 210 75 13 210 75 13 210 75 13 209 73 12 206 70 9
203 68 6 203 68 6 205 69 8 205 69 8 205 69 8 206 70 9 206 70 9
207 71 10 207 71 10 209 70 10 209 71 8 210 72 9 210 72 9 211 73 10
211 73 10 211 73 10 211 73 10 212 72 10 211 73 10 209 74 10 209 74 10
208 74 12 208 74 12 206 75 12 206 75 14 206 75 14 206 75 14 206 75 14
206 75 14 205 66 11 205 66 11 205 66 11 205 66 11 205 66 11 205 66 11
205 66 9 203 68 6 201 66 2 198 68 0 222 97 25 217 97 24 216 98 22
214 99 22 214 99 20 214 100 18 217 98 18 219 98 16 217 99 16
216 99 16 221 109 24 220 111 25 219 112 25 219 112 27 220 111 27
220 111 27 217 112 27 217 112 27 221 112 30 225 108 29 208 81 6
210 78 7 210 80 10 210 80 10 210 80 10 210 80 10 210 79 12 210 79 12
209 81 13 209 81 13 209 81 13 209 81 13 209 83 14 209 83 14 209 83 14
209 83 14 207 84 14 207 84 14 205 82 10 204 81 9 222 102 26
219 100 24 219 100 24 219 100 24 218 101 22 215 103 22 210 105 22
208 106 22 212 105 20 208 106 20 226 138 45 221 141 45 224 139 45
224 139 45 222 140 45 222 140 45 224 139 45 226 138 45 231 139 45
231 134 42 213 114 22 212 109 18 216 110 21 218 109 21 219 108 23
219 108 23 222 108 24 222 108 24 224 108 24 224 107 26 204 82 5
204 81 7 205 81 7 205 81 7 207 80 7 207 79 9 207 79 11 208 78 11
208 78 13 210 77 13 210 77 13 209 75 13 208 74 12 207 73 11 207 73 11
207 74 9 208 75 10 208 75 10 208 75 10 209 74 10 207 72 8 207 72 8
207 72 8 207 72 8 207 72 8 205 72 8 205 72 8 205 72 8 207 71 10
207 71 10 207 71 10 207 71 10 206 70 9 206 70 9 205 69 8 205 69 8
205 69 8 205 69 8 206 70 9 207 71 10 208 72 11 209 73 12 210 75 13
210 75 13 210 75 13 210 75 13 210 75 13 210 75 13 210 75 13 209 73 12
206 70 9 203 68 6 203 68 6 205 69 8 205 69 8 205 69 8 206 70 9
206 70 9 207 71 10 207 71 10 209 71 8 209 71 8 210 72 9 210 72 9
211 73 10 211 73 10 211 73 10 211 73 10 211 73 10 211 73 10 209 74 10
209 74 10 209 73 12 208 74 12 208 74 12 208 74 14 208 74 14 208 74 14
208 74 14 208 74 14 207 65 13 207 65 13 207 65 13 207 65 13 207 65 13
207 65 13 207 65 13 205 66 11 200 67 2 198 68 0 222 97 25 217 97 24
216 98 22 216 98 22 216 99 20 216 99 18 216 99 16 216 100 14
214 101 14 212 101 14 219 110 22 217 113 23 215 114 23 215 114 23
217 113 25 217 113 25 215 114 25 215 114 25 218 114 26 222 110 25
206 83 2 208 80 3 208 81 10 208 80 12 208 80 12 208 80 12 208 80 12
208 80 12 209 81 13 209 81 13 210 83 14 210 83 14 209 83 14 209 83 14
209 83 14 209 83 14 207 84 14 207 84 14 206 83 11 205 82 10
222 102 26 219 100 24 219 100 24 219 100 24 219 100 22 216 102 22
212 104 22 210 105 22 213 104 20 210 105 20 227 137 45 222 140 45
226 138 45 226 138 45 224 139 45 222 140 45 224 139 45 227 137 45
231 139 45 231 134 42 213 114 22 212 109 18 216 110 21 216 110 21
218 109 21 218 109 21 219 110 22 219 110 22 219 110 22 222 108 26
205 80 9 208 78 13 208 78 13 208 78 13 208 78 13 208 77 15 208 77 15
208 77 15 208 77 17 208 77 17 208 77 17 207 76 15 206 75 14 205 74 13
205 74 13 205 74 11 208 74 12 208 74 12 209 74 10 211 73 10 210 72 9
210 72 9 210 72 9 210 72 9 209 71 8 207 72 8 207 71 10 207 71 10
207 71 10 208 72 11 207 71 10 207 71 10 206 70 9 206 70 9 206 70 9
206 70 9 205 69 8 205 69 8 206 70 9 207 71 10 208 72 11 209 73 12
210 75 13 210 75 13 210 75 13 210 75 13 210 75 13 210 75 13 210 75 13
209 73 12 206 70 9 203 68 6 203 68 6 205 69 8 205 69 8 205 69 8
206 70 9 206 70 9 207 71 10 207 71 10 207 72 8 207 72 8 208 73 9
208 73 9 209 74 10 209 74 10 209 74 10 209 74 10 209 74 10 209 74 10
209 74 10 209 74 10 209 74 10 211 73 10 211 73 10 211 73 12 212 72 12
212 72 12 212 72 12 212 72 12 207 65 13 207 65 13 207 65 13 207 65 13
207 65 13 207 65 13 207 65 13 205 66 11 200 67 2 196 69 0 220 97 25
217 97 24 217 97 22 217 98 20 217 98 20 217 98 18 217 99 16 216 99 16
214 101 14 212 101 14 217 111 22 217 113 23 215 114 23 215 114 23
217 113 23 217 113 25 215 114 25 215 114 25 218 114 26 222 110 25
206 83 2 210 81 4 209 82 9 209 81 13 209 81 13 209 81 13 209 81 13
209 81 13 209 81 13 209 81 13 210 83 14 210 83 14 209 83 14 209 83 14
209 83 14 209 83 14 207 84 14 207 84 14 206 83 11 205 82 10
222 100 25 221 101 25 219 100 24 219 100 24 219 100 24 218 101 22
213 103 22 213 103 22 216 102 20 213 104 20 229 137 45 226 138 45
229 137 45 229 137 45 224 139 45 224 139 45 226 138 45 227 137 45
233 139 45 231 134 42 213 114 22 211 109 18 215 111 21 216 110 21
216 110 21 216 110 21 217 111 22 217 111 22 217 111 22 221 109 26
207 79 9 210 77 13 210 77 13 210 77 13 210 77 15 210 77 15 210 77 15
210 76 17 210 76 17 210 76 17 208 77 17 207 76 15 206 75 14 205 74 13
207 73 13 207 73 11 206 75 12 206 75 12 208 75 10 209 74 10 209 71 8
210 70 8 210 70 8 210 70 8 207 70 7 207 70 7 206 70 9 207 71 10
207 71 10 208 72 11 207 71 10 206 70 9 206 70 9 206 70 9 206 70 9
206 70 9 205 69 8 205 69 8 206 70 9 207 71 10 209 73 12 210 75 13
212 76 15 212 76 15 212 76 15 212 76 15 212 76 15 212 76 15 212 76 15
210 75 13 207 71 10 205 69 8 203 68 6 205 69 8 205 69 8 205 69 8
206 70 9 206 70 9 207 71 10 207 71 10 207 72 8 207 72 8 208 73 9
207 74 9 208 75 10 206 76 10 206 76 10 206 76 10 208 75 10 208 75 10
208 75 10 208 75 10 209 74 10 211 73 8 211 73 8 211 73 8 212 72 10
212 72 10 212 72 10 212 72 10 206 67 12 206 67 12 206 67 12 206 67 12
206 67 12 206 67 12 206 68 10 205 69 8 197 69 3 195 73 2 217 97 24
218 98 25 214 94 18 215 94 16 215 94 16 215 94 16 215 94 14 214 95 14
212 96 14 210 96 14 222 110 25 221 112 26 220 113 26 220 113 26
221 112 26 221 112 28 218 114 28 218 114 28 221 112 28 227 111 29
211 85 9 213 82 8 211 81 9 211 81 11 211 81 11 211 81 11 211 81 11
211 81 11 209 81 13 209 81 13 210 83 14 210 83 14 210 85 15 210 85 15
210 85 15 210 85 15 210 85 15 210 85 15 209 84 12 208 83 11 219 96 24
222 100 27 221 99 26 220 97 25 218 99 23 217 99 23 215 101 21
215 101 21 218 99 19 215 101 19 237 140 49 233 141 49 237 140 49
235 140 49 230 143 49 229 144 49 230 143 49 233 141 49 230 136 43
233 137 44 208 109 17 209 108 17 215 111 21 215 111 21 215 110 23
213 109 21 213 109 21 212 108 20 212 108 20 217 105 22 206 79 5
210 76 5 210 76 7 210 76 7 210 76 7 210 75 9 210 75 9 210 75 11
210 75 13 216 80 19 202 66 5 208 72 11 211 73 12 211 73 12 211 73 12
209 74 10 203 75 9 202 76 9 203 75 9 205 72 8 207 72 6 209 69 5
211 68 7 211 68 7 206 68 6 205 69 6 205 69 6 203 68 4 213 77 16
208 72 11 207 71 10 206 70 9 206 70 9 206 70 9 206 70 9 206 70 9
206 70 9 206 70 9 207 71 10 208 72 11 209 73 12 210 75 13 212 76 15
212 76 15 212 76 15 212 76 15 212 76 15 212 76 15 212 76 15 209 73 12
207 71 10 206 70 9 205 69 8 205 69 8 205 69 8 205 69 8 206 70 9
206 70 9 207 71 10 207 71 10 207 74 9 207 74 9 208 75 8 206 76 8
207 77 9 206 78 9 206 78 9 206 78 9 204 77 8 204 77 8 203 76 7
202 74 6 203 72 5 204 72 3 206 71 3 206 71 3 206 71 3 206 71 3
206 71 3 206 71 3 204 73 8 204 73 8 204 73 8 204 73 8 204 73 8
204 73 8 204 73 8 202 74 8 195 72 4 199 78 7 211 93 21 216 98 24
218 95 21 219 95 21 219 95 21 221 94 21 221 94 21 219 95 21 218 95 21
216 96 21 226 109 32 226 111 33 224 112 33 224 112 33 226 111 33
226 111 33 224 112 33 224 112 33 226 111 33 226 104 29 217 83 14
214 77 10 211 79 10 210 80 10 210 80 10 210 80 10 210 80 10 210 80 10
208 80 12 208 80 12 210 83 14 210 83 14 210 85 15 210 85 15 210 85 15
210 85 15 210 85 15 211 86 16 210 85 13 209 84 12 213 90 18 219 96 24
220 97 25 218 95 23 216 96 21 216 96 21 214 97 19 216 97 19 218 96 17
214 98 17 239 137 48 235 139 48 239 137 48 235 139 48 229 142 48
227 143 48 229 142 48 232 140 48 234 140 46 231 132 40 213 112 21
206 105 14 216 115 24 216 115 24 216 115 24 215 114 25 215 114 25
214 112 24 214 112 24 216 112 24 199 85 3 202 83 3 202 83 3 202 83 5
204 82 5 204 82 5 204 82 5 205 81 7 208 81 10 212 82 12 196 65 0
199 69 1 207 77 7 207 77 7 207 77 7 206 78 9 198 80 8 197 81 8
200 79 8 203 78 8 205 75 7 208 73 7 211 71 9 211 71 9 209 71 8
207 72 8 207 72 8 207 72 8 213 77 16 208 72 11 207 71 10 205 69 8
205 69 8 206 70 9 206 70 9 206 70 9 206 70 9 206 70 9 207 71 10
207 71 10 208 72 11 209 73 12 210 75 13 210 75 13 210 75 13 210 75 13
210 75 13 210 75 13 208 72 11 207 71 10 205 69 8 205 69 8 205 69 8
205 69 8 205 69 8 205 69 8 206 70 9 206 70 9 207 71 10 207 71 10
205 72 8 204 73 8 205 75 7 203 76 7 204 77 8 203 78 8 203 78 8
203 78 8 202 76 7 201 78 8 204 81 9 204 81 9 201 76 4 198 74 0
198 74 0 200 73 0 200 73 0 200 73 0 200 73 0 200 73 0 218 95 21
218 95 21 218 95 21 218 95 21 218 95 21 218 95 21 218 95 23 216 96 23
216 98 24 211 93 21 195 80 7 192 75 0 198 75 3 199 74 3 203 73 3
204 72 3 206 71 5 206 71 5 204 71 7 203 72 7 194 66 0 194 68 1
192 69 1 192 69 1 194 68 1 194 68 1 190 69 1 190 69 1 196 70 3
201 68 3 216 74 13 216 74 13 210 75 9 207 77 9 207 77 9 207 77 9
207 77 9 207 77 9 206 78 9 206 78 9 211 84 15 211 84 15 210 85 15
210 85 15 210 85 15 210 85 15 210 85 15 211 86 16 212 87 16 211 86 14
208 86 13 215 93 20 216 94 21 214 92 19 214 92 17 214 92 17 212 93 15
214 92 15 216 92 13 212 94 13 217 111 24 214 112 24 216 112 24
213 113 24 206 116 24 203 118 24 205 117 24 208 116 24 213 117 24
215 116 24 228 127 36 229 128 37 226 124 33 224 125 33 224 125 33
223 124 32 223 124 32 222 123 31 222 123 31 220 124 31 232 141 46
232 141 46 232 141 46 232 141 46 232 141 46 232 141 44 232 141 44
235 139 46 244 138 49 247 136 51 226 115 30 225 114 28 223 111 28
223 111 28 223 111 28 221 112 30 217 112 31 217 111 33 220 110 33
223 108 35 204 81 11 208 78 11 212 76 13 213 75 13 210 75 11
210 75 11 210 75 11 212 76 13 212 76 15 209 73 12 207 71 10 205 69 8
205 69 8 205 69 8 205 69 8 205 69 8 205 69 8 205 69 8 205 69 8
206 70 9 206 70 9 206 70 9 206 70 9 206 70 9 206 70 9 206 70 9
206 70 9 206 70 9 205 69 8 205 69 8 203 68 6 203 68 6 205 69 8
205 69 8 205 69 8 205 69 8 205 69 8 205 69 8 205 69 8 203 70 8
220 90 24 218 90 24 218 91 22 218 91 22 218 93 23 216 93 23 216 93 23
215 92 22 215 93 20 217 97 24 222 107 32 227 112 35 229 114 37
229 115 35 229 115 35 229 115 33 229 115 33 229 115 33 229 115 33
229 115 33 216 99 18 216 99 18 216 99 18 216 99 18 216 99 18
216 99 20 216 99 20 214 99 22 214 99 24 216 98 24 194 73 2 195 73 2
203 76 7 205 75 7 207 74 7 208 73 9 210 72 9 210 72 9 208 72 11
208 72 11 198 65 3 198 67 4 198 67 6 198 67 6 198 67 6 198 67 6
196 67 6 196 67 6 200 69 6 199 63 2 219 74 16 214 69 11 208 73 9
205 74 9 205 74 9 205 74 9 205 74 9 205 75 7 203 76 7 203 76 7
211 84 15 211 84 15 211 84 15 210 85 15 210 85 15 210 85 15 210 85 15
211 86 16 212 87 16 212 87 16 208 86 13 212 89 17 212 89 17 211 88 16
211 88 14 211 88 14 212 90 13 213 89 13 213 90 11 210 91 11
218 109 23 215 110 23 216 110 23 215 110 23 210 113 23 208 114 23
208 114 23 210 113 23 218 119 28 213 112 21 232 130 39 226 124 33
229 130 38 229 130 38 227 131 36 226 130 35 226 130 35 223 130 34
223 130 34 222 130 34 228 146 47 227 147 47 227 148 45 225 149 45
225 149 45 225 149 45 225 149 45 228 147 45 238 147 48 240 142 46
218 117 23 216 112 20 220 117 24 220 117 26 220 117 26 219 117 26
214 117 29 214 116 33 218 115 33 222 112 35 203 83 12 208 80 12
211 78 14 213 77 14 212 76 13 212 76 13 212 76 13 213 77 14 213 77 16
209 73 12 207 71 10 205 69 8 205 69 8 205 69 8 205 69 8 205 69 8
205 69 8 205 69 8 205 69 8 205 69 8 205 69 8 203 68 6 203 68 6
203 68 6 203 68 6 203 68 6 203 68 6 203 68 6 203 68 6 203 68 6
203 68 6 203 68 6 205 69 8 205 69 8 205 69 8 205 69 8 205 69 8
205 69 8 205 69 8 203 70 8 217 89 23 217 90 21 217 90 21 216 90 21
215 92 22 215 92 22 215 92 22 215 93 20 210 90 17 216 98 22
222 112 33 229 122 39 223 116 34 223 116 34 222 117 32 222 117 32
222 117 30 222 117 30 222 117 30 222 117 30 215 101 21 215 101 21
215 101 21 215 101 21 215 101 21 215 101 21 215 101 21 215 100 23
217 102 27 221 101 27 202 75 4 207 72 6 206 69 4 206 68 6 206 70 7
206 70 7 206 70 9 206 70 9 207 71 10 207 71 10 201 65 6 201 65 6
201 65 6 201 65 6 201 65 6 201 65 6 201 65 6 201 65 6 202 66 5
205 67 6 211 71 11 212 72 12 208 72 11 207 73 11 207 73 11 207 73 11
205 74 9 205 74 9 205 75 7 205 75 7 213 83 15 213 83 15 211 84 13
211 84 13 211 84 13 211 84 13 210 85 13 210 85 13 211 86 14 211 86 14
211 86 14 211 86 14 212 87 16 212 87 16 211 88 14 211 88 14 213 89 13
213 89 13 213 90 11 210 91 11 218 109 23 216 110 23 216 110 23
216 110 23 217 108 21 217 108 21 217 108 21 215 108 21 217 113 23
216 115 24 225 123 32 224 125 33 227 128 36 225 128 36 225 129 34
223 130 34 222 128 33 223 132 35 224 133 36 225 136 38 223 139 38
223 142 40 225 143 41 225 147 43 227 148 45 227 148 45 225 149 45
227 147 47 233 149 50 236 144 48 218 117 23 217 112 20 223 112 22
223 112 22 220 114 22 216 116 22 215 116 26 215 115 28 215 115 30
220 112 32 205 82 10 210 79 12 210 79 14 211 78 16 212 76 15
212 76 15 212 76 15 213 77 16 212 76 15 209 73 12 207 71 10 205 69 8
205 66 9 206 68 10 206 68 10 206 68 10 206 68 10 206 68 10 206 68 10
205 66 9 205 66 9 205 66 9 205 66 9 205 66 9 205 66 9 205 66 9
205 66 9 205 66 9 205 66 9 205 66 9 205 66 9 205 66 9 205 66 9
205 66 9 205 66 9 203 67 9 205 68 10 203 69 10 205 69 8 203 70 6
216 88 20 215 90 18 215 90 18 215 90 18 212 92 19 212 92 19 214 92 19
214 92 19 211 92 16 208 94 14 224 117 35 222 120 34 220 118 32
220 118 32 220 118 32 220 118 30 220 118 30 220 118 30 220 118 30
220 118 30 214 101 21 214 101 21 214 101 21 214 101 21 214 101 23
214 101 23 214 101 21 214 101 23 217 102 27 221 101 27 205 73 4
210 70 6 209 67 6 209 67 6 207 70 7 206 70 7 206 70 9 206 70 9
207 71 10 207 71 10 203 64 6 203 64 6 203 64 6 203 64 6 203 64 6
203 64 6 203 64 6 203 64 6 204 66 5 205 67 6 210 72 11 211 73 12
209 73 12 208 74 12 208 74 12 208 74 12 206 76 10 206 76 10 206 76 8
206 76 8 213 83 15 213 83 15 211 84 13 211 84 13 211 84 13 211 84 13
210 85 13 210 85 13 211 86 14 211 86 14 211 86 14 211 86 14 212 87 16
212 87 16 211 88 14 211 88 14 213 89 13 213 89 13 212 90 11 209 92 11
219 108 23 216 110 23 216 110 23 218 109 23 220 106 21 221 105 21
220 106 21 218 107 21 219 112 23 218 114 24 225 123 32 224 125 33
225 128 36 225 128 36 223 130 34 223 130 34 221 129 33 223 132 35
222 134 36 225 136 38 224 138 40 225 141 40 225 143 41 227 146 43
227 148 45 227 148 45 225 148 47 227 147 47 232 150 50 234 145 48
218 117 23 219 111 20 224 112 20 224 112 20 220 114 20 218 115 22
216 115 24 215 116 26 213 116 28 220 112 32 205 80 9 210 77 13
208 77 15 210 77 15 212 76 15 212 76 15 212 76 15 213 77 16 212 76 15
209 73 12 207 71 10 205 69 8 205 66 9 206 68 10 206 68 10 206 68 10
206 68 10 206 68 10 206 68 10 205 66 9 205 66 9 205 66 9 205 66 9
205 66 9 205 66 9 205 66 9 205 66 9 205 66 9 205 66 9 205 66 9
205 66 9 205 66 9 205 66 9 205 66 9 205 66 9 205 66 9 205 68 10
203 69 10 205 69 8 203 70 6 215 89 20 213 90 18 215 90 18 213 90 18
212 92 19 212 92 19 214 92 19 216 91 19 211 92 16 207 94 14
223 118 33 221 121 34 218 119 32 218 119 32 218 119 30 218 119 30
218 119 30 218 119 30 218 119 30 218 119 30 214 101 21 214 101 21
214 101 21 214 101 21 214 101 23 214 101 23 214 101 23 214 101 23
217 102 27 221 101 27 205 73 4 210 70 6 209 67 6 209 67 6 207 70 7
206 70 7 206 70 9 206 70 9 207 71 10 207 71 10 203 64 6 203 64 6
203 64 6 203 64 6 203 64 6 203 64 6 203 64 6 203 64 6 204 66 5
205 67 6 210 72 11 211 73 12 209 73 12 208 74 12 208 74 12 208 74 12
206 76 10 206 76 10 206 76 8 206 76 8 213 83 15 213 83 15 211 84 13
211 84 13 211 84 13 211 84 13 210 85 13 210 85 13 211 86 14 211 86 14
211 86 14 211 86 14 212 87 16 212 87 16 212 88 14 212 88 14 213 89 13
212 90 13 210 91 11 209 92 11 219 108 23 218 109 23 218 109 23
218 109 23 220 106 21 220 106 21 220 106 21 218 107 21 219 112 23
218 114 24 225 123 32 224 125 33 225 128 36 225 128 36 223 129 36
223 129 36 221 129 35 223 131 37 222 133 38 225 136 40 224 138 40
225 141 42 225 143 43 227 145 45 227 147 47 227 147 47 225 148 47
227 147 47 232 150 50 234 145 48 218 117 23 219 111 20 224 111 22
224 111 22 220 114 22 218 115 22 216 116 22 215 116 24 213 116 28
220 112 30 205 80 9 210 77 13 208 77 15 210 77 15 212 76 15 212 76 15
212 76 15 213 77 16 212 76 15 209 73 12 207 71 10 205 69 8 205 66 9
205 66 9 205 66 9 205 66 9 205 66 9 205 66 9 205 66 9 205 66 9
205 66 9 205 66 9 205 66 9 205 66 9 205 66 9 205 66 9 205 66 9
205 66 9 205 66 9 205 66 9 205 66 9 205 66 9 205 66 9 205 66 9
205 66 9 205 66 9 203 67 9 202 68 9 203 68 6 202 69 4 215 89 20
213 90 18 215 90 18 213 90 18 212 92 19 212 92 19 216 91 19 216 91 19
213 91 16 208 94 14 221 119 33 219 122 34 218 119 32 218 119 32
218 119 30 218 119 30 218 119 30 218 119 30 218 119 30 218 119 30
214 101 21 214 101 21 214 101 21 214 101 21 214 101 23 214 101 23
214 101 23 214 101 23 217 102 27 221 101 27 205 73 4 210 70 6
209 67 6 209 67 6 207 70 7 206 70 7 206 70 9 206 70 9 207 71 10
207 71 10 203 64 6 203 64 6 203 64 6 203 64 6 203 64 6 203 64 6
203 64 6 203 64 6 204 66 5 205 67 6 210 72 11 211 73 12 209 73 12
208 74 12 208 74 12 208 74 12 208 75 10 206 76 10 206 76 8 206 76 8
213 83 15 213 83 15 211 84 13 211 84 13 211 84 13 211 84 13 211 84 13
211 84 13 213 85 14 213 85 14 213 85 14 213 85 14 214 86 16 212 87 16
212 87 16 212 88 14 213 89 15 212 90 13 210 91 11 207 93 11
219 108 23 218 109 23 218 109 23 219 108 23 220 106 21 220 106 21
220 106 21 218 107 21 219 112 23 218 114 24 225 123 32 224 125 33
225 128 36 225 128 36 223 129 36 223 129 36 221 129 35 223 131 37
222 133 38 225 136 40 224 138 40 225 141 42 225 143 43 227 145 45
227 147 47 227 147 47 225 148 47 227 147 47 232 150 50 234 145 48
218 117 23 219 111 20 224 111 22 224 111 22 220 114 22 218 115 22
216 116 22 215 116 24 213 116 26 220 112 30 205 80 9 210 77 11
208 78 13 210 77 15 212 76 15 212 76 15 212 76 15 213 77 16 212 76 15
209 73 12 207 71 10 205 69 8 205 66 9 205 66 9 205 66 9 205 66 9
205 66 9 205 66 9 205 66 9 205 66 9 205 66 9 205 66 9 205 66 9
205 66 9 205 66 9 205 66 9 205 66 9 205 66 9 205 66 9 205 66 9
205 66 9 205 66 9 205 66 9 205 66 9 205 66 9 205 66 9 203 67 9
203 67 9 203 68 6 202 69 4 215 89 20 213 90 18 215 90 18 213 90 18
212 92 19 212 92 19 216 91 19 216 91 17 213 91 14 208 94 14
221 119 33 219 122 34 218 119 32 218 119 32 218 119 30 218 119 30
218 119 30 218 119 30 218 119 30 218 119 30 214 101 21 214 101 21
214 101 21 214 101 21 214 101 23 214 101 23 214 101 23 214 101 23
217 102 27 221 101 27 205 73 4 210 70 6 209 67 6 209 67 6 206 68 6
205 69 6 206 70 9 206 70 9 206 70 9 206 70 9 203 64 6 203 64 6
203 64 6 203 64 6 203 64 6 203 64 6 203 64 6 203 64 6 204 66 5
205 67 6 210 72 11 211 73 12 209 73 12 209 73 12 209 73 12 209 73 12
208 75 10 208 75 10 206 76 8 206 76 8 213 83 15 213 83 15 213 83 15
213 83 15 213 83 15 213 83 15 213 83 15 213 83 15 214 84 16 214 84 16
214 84 16 214 84 16 215 85 18 214 86 18 212 87 16 212 87 16 215 88 15
213 89 13 210 91 11 207 93 11 219 108 23 218 109 23 218 109 23
219 108 23 220 106 21 220 106 21 220 106 21 218 107 21 219 112 23
218 114 24 225 123 34 224 125 35 225 128 38 225 128 38 223 129 38
223 129 38 221 129 35 223 131 37 222 133 38 225 136 40 224 137 42
225 141 44 225 143 45 227 145 47 227 147 47 227 147 47 225 148 47
227 147 47 232 150 50 234 145 48 218 117 23 219 111 20 223 110 21
223 110 21 219 113 21 217 114 21 216 116 22 215 116 24 213 116 26
220 112 30 205 81 7 210 77 11 210 77 13 210 77 15 212 76 15 212 76 15
212 76 15 213 77 16 212 76 15 209 73 12 207 71 10 205 69 8 205 66 9
205 66 9 205 66 9 205 66 9 205 66 9 205 66 9 205 66 9 205 66 9
205 66 9 205 66 9 205 66 9 205 66 9 205 66 9 205 66 9 205 66 9
205 66 9 205 66 9 205 66 9 205 66 9 205 66 9 205 66 9 205 66 9
205 66 9 205 66 9 203 67 9 203 67 9 205 67 6 202 69 4 215 89 20
213 90 20 215 90 18 213 90 18 212 93 17 214 92 17 216 91 17 216 91 17
213 91 14 208 94 14 221 119 33 219 122 34 217 119 32 217 119 32
217 120 30 217 120 30 217 120 30 217 120 30 217 120 30 217 120 30
214 101 21 214 101 21 214 101 21 214 101 21 214 101 23 214 101 23
214 101 23 214 101 23 217 102 27 221 101 27 205 73 4 210 71 4
209 67 4 209 67 6 206 68 6 205 69 6 206 70 9 206 70 9 206 70 9
206 70 9 203 64 6 203 64 6 203 64 6 203 64 6 203 64 6 203 64 6
203 64 6 203 64 6 204 66 5 205 67 6 210 72 11 211 73 12 209 73 12
209 73 12 209 73 12 209 73 12 208 75 10 208 75 10 206 76 8 206 76 8
213 83 15 213 83 15 213 83 15 213 83 15 213 83 15 213 83 15 213 83 15
213 83 15 214 84 16 214 84 16 214 84 16 214 84 16 215 85 18 215 85 18
214 86 16 214 86 16 215 88 15 213 89 15 210 91 13 207 93 11
219 108 23 218 109 23 218 109 23 219 108 23 220 106 21 220 106 21
220 106 21 218 107 21 219 112 23 218 114 24 225 123 34 224 125 35
225 128 38 225 128 38 223 129 38 223 129 38 221 128 37 223 131 37
222 133 38 223 136 40 223 138 42 225 141 44 225 143 45 227 145 47
227 147 47 227 147 47 225 148 47 227 147 47 232 150 50 234 145 48
218 117 23 219 111 20 223 110 21 223 110 21 219 113 21 217 114 21
216 116 22 215 116 24 213 116 26 218 113 30 204 81 7 210 77 11
210 77 13 210 77 15 212 76 15 212 76 15 212 76 15 213 77 16 212 76 15
209 73 12 207 71 10 205 69 8 205 66 9 205 66 9 205 66 9 205 66 9
205 66 9 205 66 9 205 66 9 205 66 9 205 66 9 205 66 9 205 66 9
205 66 9 205 66 9 205 66 9 205 66 9 205 66 9 205 66 9 205 66 9
205 66 9 205 66 9 205 66 9 205 66 9 205 66 9 205 66 9 203 67 9
203 67 9 205 67 6 202 68 6 215 89 22 213 90 20 215 90 18 215 90 18
214 92 17 214 92 17 216 91 17 216 91 17 213 91 14 208 94 14
221 119 33 218 123 34 217 119 32 217 120 30 217 120 30 217 120 30
217 120 30 217 120 30 217 120 30 217 120 30 214 102 19 214 102 19
214 102 19 214 101 21 214 101 21 214 101 21 214 101 21 214 101 23
217 103 25 221 101 25 205 73 4 210 71 4 209 67 4 209 67 4 206 68 6
205 69 6 206 70 7 206 70 7 206 70 9 206 70 9 203 65 4 203 65 4
203 64 6 203 64 6 203 64 6 203 64 6 203 64 6 203 64 6 204 66 5
205 67 6 210 72 11 211 73 12 209 74 10 209 74 10 209 74 10 209 74 10
208 75 10 208 75 10 206 76 8 206 76 8 213 83 15 213 83 15 213 83 15
213 83 15 213 83 15 213 83 15 213 83 15 213 83 15 214 84 16 213 83 15
214 84 16 214 84 16 215 85 18 215 85 18 215 86 16 215 86 16 217 87 17
215 88 15 210 91 13 207 93 11 219 108 23 218 109 23 218 109 23
219 108 23 220 106 21 220 106 21 220 106 21 218 107 21 219 112 23
218 114 24 225 123 34 224 124 37 225 128 40 225 128 40 223 128 40
223 128 40 221 128 37 223 131 39 222 133 40 223 136 42 225 141 44
226 144 46 227 145 45 227 147 47 228 148 48 228 149 46 226 150 46
228 149 46 233 151 51 235 146 49 218 117 23 219 111 20 223 110 21
223 110 21 219 113 21 217 114 21 216 116 22 213 117 24 212 117 26
216 114 30 205 83 8 211 79 12 211 78 14 211 78 16 211 78 14 211 78 14
211 78 14 212 79 15 212 76 15 210 75 13 207 71 10 206 70 9 205 69 8
205 69 8 205 69 8 205 69 8 206 68 10 206 68 10 206 68 10 205 66 9
205 66 9 205 66 9 205 66 9 205 66 9 205 66 9 205 66 9 205 66 9
205 66 9 205 66 9 205 66 9 205 66 9 205 66 9 205 66 9 205 66 9
205 66 9 205 66 9 203 67 9 203 67 9 205 67 6 202 68 6 215 89 22
213 90 20 215 90 18 215 90 18 213 91 16 213 91 16 215 90 16 215 90 16
213 91 14 207 92 13 220 120 33 218 123 32 215 121 30 215 121 28
215 121 28 215 121 28 215 121 28 215 121 28 215 121 28 215 121 28
210 103 19 210 103 19 210 103 19 210 103 19 210 103 21 210 103 21
210 103 21 210 103 21 214 104 25 217 103 25 202 75 2 207 72 4
206 69 2 206 69 4 203 70 4 201 71 4 204 72 5 204 71 7 204 71 7
204 71 7 201 66 2 201 66 2 201 65 4 201 65 4 201 65 4 201 65 4
201 65 4 201 65 4 202 66 5 203 68 6 208 72 11 209 74 10 209 74 10
209 74 10 209 74 10 209 74 10 208 75 10 208 75 10 206 76 8 206 76 8
213 83 15 213 83 15 213 83 15 213 83 15 213 83 15 213 83 15 213 83 15
213 83 15 212 82 14 212 82 14 214 84 16 214 84 16 215 85 18 215 85 18
215 85 18 215 86 16 217 87 17 215 88 17 213 89 15 212 90 15
224 105 27 223 106 27 223 106 27 223 105 29 223 103 28 225 103 26
225 103 26 223 104 26 223 109 27 223 111 28 228 121 36 227 123 37
228 126 40 228 126 40 227 127 40 227 127 40 225 126 39 226 129 39
227 130 40 226 134 42 226 142 45 227 145 47 227 147 47 228 148 48
229 150 47 229 150 47 227 151 47 227 151 47 231 152 51 234 147 49
213 119 23 214 113 20 219 113 21 217 114 21 214 115 21 212 116 21
213 117 22 212 118 24 210 118 26 216 114 30 205 83 8 211 79 12
211 78 14 211 78 16 211 78 14 211 78 14 211 78 14 212 79 15 210 77 15
212 76 15 206 70 9 206 70 9 205 69 8 205 69 8 205 69 8 205 69 8
206 68 10 206 68 10 206 68 10 205 66 9 205 66 9 205 66 9 205 66 9
205 66 9 205 66 9 205 66 9 205 66 9 205 66 9 205 66 9 205 66 9
205 66 9 205 66 9 205 66 9 205 66 9 205 66 9 205 66 9 203 67 9
203 67 9 205 67 6 202 68 6 215 89 22 213 90 20 215 90 18 215 90 18
213 88 17 213 89 15 213 89 15 213 89 15 211 89 12 206 92 10
220 120 31 216 124 32 214 122 28 215 121 28 215 121 28 215 121 28
215 121 28 215 121 28 215 121 28 215 121 28 225 126 37 225 126 37
225 126 37 225 126 39 225 126 39 225 126 39 225 126 39 225 125 41
224 124 39 227 122 39 212 95 16 217 92 18 217 90 17 217 90 19
214 92 19 214 92 19 215 90 18 216 88 20 216 88 20 216 88 20 216 88 20
216 88 20 216 88 20 216 88 20 216 88 20 216 88 20 216 88 20 216 88 20
215 85 18 217 86 21 207 74 9 208 75 10 207 74 9 207 74 9 207 74 9
207 74 9 207 74 9 207 74 9 207 74 9 207 74 9 210 77 13 210 77 13
208 78 11 208 78 11 208 78 11 208 78 11 208 78 11 210 79 12 211 81 13
210 79 12 204 74 6 201 71 4 202 69 4 203 70 6 203 70 4 202 69 2
202 69 2 201 68 3 201 68 3 201 68 3 201 67 5 201 67 5 201 67 5
201 67 7 200 66 6 201 65 4 203 65 4 203 65 2 201 68 1 193 65 0
210 93 14 204 92 12 207 94 14 207 94 14 207 94 14 207 94 14 205 94 11
204 94 11 204 95 9 199 97 9 230 143 47 229 150 49 229 150 49
230 151 50 230 153 49 230 153 49 230 153 49 230 153 49 232 154 50
230 149 47 229 145 45 228 141 43 228 139 42 228 141 43 228 141 43
228 141 43 227 140 42 227 140 44 228 139 46 235 135 50 204 85 9
211 81 13 212 79 15 212 79 15 211 80 15 211 80 15 211 81 13 212 81 16
210 79 14 212 79 15 203 70 6 205 72 8 203 70 8 203 70 8 203 70 8
205 69 8 205 68 10 205 68 10 205 68 10 205 68 10 205 68 10 203 67 9
203 67 9 203 67 9 205 66 9 205 66 9 205 66 9 205 66 9 205 66 9
205 66 9 205 66 9 205 66 9 205 66 9 205 66 9 205 66 9 205 66 9
203 67 9 203 67 9 203 68 6 202 68 6 214 84 18 213 85 16 213 85 16
213 85 16 214 86 16 212 87 16 212 88 14 212 88 14 209 88 10 205 91 8
231 134 44 226 137 42 225 134 39 225 134 37 225 134 37 225 134 37
225 134 37 225 134 37 225 134 37 225 134 37 222 128 37 222 128 37
222 128 37 222 128 37 222 127 39 222 127 39 222 127 39 222 127 39
221 126 39 224 124 39 209 97 16 214 94 16 214 92 17 214 92 17
211 94 17 211 94 17 213 90 18 215 90 18 215 90 18 215 90 18 215 90 18
215 90 18 213 90 18 213 90 18 213 90 18 213 90 18 213 90 18 215 90 18
214 86 18 217 86 19 207 74 7 208 75 8 207 74 9 207 74 9 207 74 9
207 74 9 207 74 9 207 74 9 207 74 9 207 74 9 210 77 13 210 77 13
208 78 11 208 78 11 208 78 11 208 78 11 208 78 11 210 79 12 210 79 12
208 78 11 204 74 6 201 71 4 202 69 4 203 70 6 203 70 4 202 69 4
202 69 4 202 66 5 204 65 7 204 65 7 205 64 9 205 64 9 205 64 11
205 64 11 203 63 10 204 63 10 208 61 8 208 62 6 207 64 5 198 63 0
213 91 16 207 90 14 210 92 16 210 92 16 210 92 16 210 93 14 209 92 11
209 92 11 209 92 9 202 96 9 233 144 49 230 151 50 230 151 50
231 152 51 231 154 50 231 154 50 231 154 50 231 154 50 232 154 50
229 150 47 225 146 45 223 144 43 222 143 42 223 144 43 223 144 43
223 144 43 223 142 42 225 141 44 227 139 46 235 135 50 204 85 9
211 81 13 212 79 15 212 79 15 212 81 16 212 81 16 212 82 14 212 82 14
210 79 14 212 81 16 200 70 4 204 73 8 203 70 8 203 70 8 203 70 8
203 70 8 205 68 10 205 68 10 205 68 10 205 68 10 205 68 10 203 67 9
203 67 9 203 67 9 205 66 9 205 66 9 205 66 9 205 66 9 205 66 9
205 66 9 205 66 9 205 66 9 205 66 9 205 66 9 205 66 9 205 66 9
203 67 9 203 67 9 203 68 6 203 68 6 216 83 18 214 84 16 213 85 16
213 85 16 213 85 14 213 85 14 211 86 12 211 86 12 208 87 9 202 91 5
229 135 42 224 137 42 224 135 37 225 134 37 225 134 37 225 134 37
225 134 37 225 134 37 225 134 37 225 134 37 222 128 35 222 128 35
222 128 35 222 128 37 222 128 37 222 128 37 222 128 37 222 127 39
221 126 37 224 124 37 209 97 14 214 94 16 214 92 17 214 92 17
211 94 17 211 94 17 213 91 16 215 90 16 215 90 16 215 90 16 215 90 16
215 90 16 213 90 18 213 90 18 213 90 18 213 90 18 213 90 18 215 90 18
214 86 18 217 86 19 207 74 7 208 75 8 207 74 7 207 74 7 207 74 7
207 74 7 207 74 9 207 74 9 207 74 9 207 74 9 210 77 13 210 77 13
208 78 11 208 78 11 208 78 11 208 78 11 208 78 11 210 79 12 210 79 12
207 77 9 204 74 6 201 71 4 202 69 4 203 70 6 205 69 6 203 68 4
203 68 6 202 66 5 204 65 7 204 65 7 205 64 9 205 64 9 205 64 11
205 64 11 203 63 10 204 63 10 206 62 8 208 62 6 207 64 5 198 63 0
213 90 18 207 90 16 210 92 18 210 92 18 210 92 18 210 92 16 209 92 13
209 92 11 209 92 9 202 96 9 234 147 51 231 154 54 231 154 52
231 154 52 232 155 52 232 156 50 232 156 50 232 156 50 234 155 52
230 151 48 225 146 45 223 144 43 222 143 42 223 144 43 223 144 43
223 144 43 223 142 42 225 141 44 227 139 46 233 135 50 206 86 10
212 82 14 213 81 16 213 81 16 213 83 15 211 84 15 211 84 15 211 84 15
210 79 12 213 83 15 200 70 4 205 74 9 203 72 7 203 72 7 203 72 9
204 71 9 206 70 9 206 70 9 206 70 11 205 68 10 205 68 10 203 67 9
203 67 9 203 67 9 205 66 9 205 66 9 205 66 9 205 66 9 205 66 9
205 66 9 205 66 9 205 66 9 205 66 9 205 66 9 205 66 9 205 66 9
203 67 9 203 67 9 203 68 6 203 68 6 216 83 18 214 84 16 214 84 16
214 84 16 213 83 13 211 84 13 210 85 11 208 86 11 208 87 9 201 89 4
229 135 42 224 138 40 224 135 37 224 135 35 224 135 37 224 135 37
224 135 37 224 135 37 224 135 37 224 135 37 222 128 35 222 128 35
222 128 35 222 128 37 222 128 37 222 128 37 222 128 37 222 128 37
221 126 37 226 124 37 209 97 14 214 94 16 216 91 17 214 92 17
211 94 17 211 94 17 213 91 16 215 90 16 215 90 16 215 90 16 215 90 16
215 90 16 213 90 18 213 90 18 213 90 18 213 90 18 213 90 18 215 90 18
214 86 18 217 86 19 207 74 7 208 75 8 207 74 7 207 74 7 207 74 7
207 74 7 207 74 9 207 74 9 207 74 9 207 74 9 210 77 13 210 77 13
208 78 11 208 78 11 208 78 11 208 78 11 208 78 11 210 79 12 210 79 12
209 76 11 205 72 8 203 70 6 202 69 4 205 69 8 205 69 8 203 68 6
203 68 6 202 66 5 204 65 7 204 65 7 205 64 9 204 63 8 204 63 10
204 63 10 203 63 10 204 63 10 206 62 8 208 62 6 207 64 5 198 62 0
213 90 20 207 90 16 210 92 18 210 92 18 210 92 18 210 92 18 209 92 13
209 92 11 209 92 11 202 96 9 234 147 51 231 154 54 231 154 52
231 154 52 232 155 52 232 156 50 232 156 50 232 156 50 234 155 52
230 151 48 225 146 45 223 144 43 222 143 42 223 144 43 223 144 43
223 144 43 223 142 42 225 141 44 227 139 46 233 135 50 206 86 10
212 82 12 213 81 14 213 81 16 213 83 15 211 84 15 211 84 15 211 84 15
210 79 12 213 83 15 200 70 4 205 74 9 203 72 7 203 72 7 203 72 9
204 71 9 206 70 9 206 70 9 206 70 11 205 68 10 205 68 10 203 67 9
203 67 9 205 66 9 205 66 9 205 66 9 205 66 9 205 66 9 205 66 9
205 66 9 205 66 9 205 66 9 205 66 9 205 66 9 205 66 9 205 66 9
203 67 9 203 67 9 203 68 6 203 68 6 216 83 18 214 84 16 214 84 16
214 84 16 213 83 15 211 84 13 210 85 13 208 86 11 208 87 9 201 89 4
229 135 42 223 139 40 222 136 37 224 135 35 224 135 37 224 135 37
224 135 37 224 135 37 224 135 37 224 135 37 222 128 37 222 128 37
222 128 37 222 128 37 222 127 39 222 127 39 222 127 39 222 127 39
223 125 37 226 124 37 210 96 14 215 94 16 216 91 17 216 91 17
212 93 17 212 93 17 213 90 18 215 90 18 215 90 16 215 90 16 215 90 16
215 90 16 213 90 18 213 90 18 213 90 18 213 90 18 213 90 18 215 90 18
217 90 21 218 88 20 205 73 6 204 72 5 207 74 7 207 74 7 207 74 7
207 74 7 207 74 7 207 74 7 207 74 7 207 74 7 210 77 13 210 77 13
210 77 13 210 77 13 210 77 13 210 77 13 210 77 13 210 77 13 210 77 13
210 75 13 207 71 10 205 69 8 205 69 8 206 68 10 206 68 10 206 68 10
205 66 9 205 66 9 205 66 9 204 65 7 204 63 8 204 63 8 204 63 8
204 63 8 204 65 9 205 64 9 207 63 9 209 63 7 207 64 5 199 63 0
214 91 21 207 89 18 210 92 20 210 92 20 210 92 20 210 92 18 210 92 16
210 93 14 210 93 12 203 97 10 235 148 52 232 155 56 232 155 54
232 155 54 232 155 52 232 156 50 232 156 50 232 156 50 234 155 52
230 151 48 225 146 45 223 144 43 222 143 42 223 144 43 223 144 43
223 144 43 223 142 42 225 141 44 227 139 46 233 135 50 206 86 10
212 82 12 213 81 14 213 81 14 213 83 15 211 84 15 213 83 15 213 83 15
210 79 12 213 83 15 200 70 4 205 74 9 203 72 7 203 72 7 203 72 9
204 71 9 206 70 9 206 70 9 206 70 11 205 68 10 206 68 10 205 66 9
205 66 9 205 66 9 207 66 9 207 66 9 207 66 9 207 66 9 205 66 9
205 66 9 205 66 9 205 66 9 205 66 9 205 66 9 205 66 9 205 66 9
205 66 9 205 66 9 203 68 6 203 68 6 216 83 18 216 83 18 214 84 18
214 84 18 216 83 18 214 84 16 211 86 16 209 87 14 211 87 10 203 90 5
229 137 43 224 139 43 223 137 38 223 137 38 223 137 38 223 137 38
223 137 38 223 137 38 223 137 38 223 137 38 222 128 37 222 128 37
222 128 37 222 128 37 222 127 39 222 127 39 222 127 39 222 127 39
223 125 37 226 124 37 210 96 14 215 94 16 216 91 17 216 91 17
212 93 17 212 93 17 213 90 18 215 90 18 215 90 16 215 90 16 215 90 16
215 90 16 213 90 18 213 90 18 213 90 18 213 90 18 213 90 18 215 90 18
217 90 21 218 88 20 205 73 6 204 72 5 207 74 7 207 74 7 207 74 7
207 74 7 207 74 7 207 74 7 207 74 7 207 74 7 210 77 13 210 77 13
210 77 13 210 77 13 210 77 13 210 77 13 210 77 13 210 77 13 212 76 15
210 75 13 207 71 10 205 69 8 206 68 10 206 68 10 206 68 10 206 68 10
205 66 9 205 66 9 205 66 9 204 65 7 204 63 8 203 62 7 204 63 8
204 63 8 203 64 8 204 63 8 207 63 9 207 63 9 205 64 7 199 63 2
214 91 23 207 89 18 210 92 20 210 92 20 210 92 20 210 92 18 210 92 16
210 93 14 210 93 12 203 96 12 235 148 54 232 155 56 232 155 56
232 155 54 232 155 52 232 156 50 232 156 50 232 156 50 234 155 52
230 151 48 225 146 45 223 144 43 222 143 42 223 144 43 223 144 43
223 144 43 223 142 42 225 141 44 227 139 46 233 135 50 206 86 10
212 82 12 213 81 14 213 81 14 213 83 15 211 84 15 213 83 15 213 83 15
210 79 12 213 83 15 201 71 6 205 74 9 203 72 7 203 72 7 203 72 9
204 71 9 206 70 9 206 70 9 206 70 11 205 68 10 206 68 10 205 66 9
205 66 9 205 66 9 207 66 9 207 66 9 207 66 9 207 66 9 205 66 9
205 66 9 205 66 9 205 66 9 205 66 9 205 66 9 205 66 9 205 66 9
205 66 9 205 66 9 203 68 6 203 68 6 216 83 18 216 83 18 214 84 18
214 84 18 216 83 18 214 84 18 211 86 16 209 87 14 211 87 10 203 89 7
229 137 45 224 139 43 223 137 38 223 137 38 223 137 38 223 137 38
223 137 38 223 137 38 223 137 38 223 137 38 222 128 37 222 128 37
222 128 37 222 128 37 222 127 39 222 127 39 222 127 39 222 127 39
223 125 37 226 124 37 210 96 14 215 94 16 215 90 16 215 90 16
211 92 16 211 92 16 213 90 18 215 90 18 216 89 16 216 89 16 215 90 14
215 90 16 213 91 16 213 91 16 213 90 18 213 90 18 213 90 18 215 90 18
217 90 21 218 88 20 205 73 6 204 72 5 207 74 7 207 74 7 207 74 7
207 74 7 207 74 7 207 74 7 207 74 7 207 74 7 210 77 13 210 77 13
210 77 13 210 77 13 210 77 13 210 77 13 210 77 13 210 77 13 212 76 15
210 75 13 207 71 10 205 69 8 206 68 10 206 68 10 206 68 10 206 68 10
205 66 9 205 66 9 205 66 9 204 65 7 204 63 8 203 62 7 204 63 8
204 63 8 203 64 8 204 63 8 207 63 9 207 63 9 205 64 7 199 63 2
214 91 23 207 89 20 210 91 22 210 91 22 210 91 22 210 92 20 210 92 16
210 93 14 210 93 12 203 96 12 235 148 54 232 154 58 232 155 56
232 155 54 232 155 52 232 156 50 232 156 50 232 156 50 234 155 52
230 151 48 225 146 45 223 144 43 222 143 42 223 144 43 223 144 43
223 144 43 223 141 44 225 141 44 227 139 46 233 135 50 206 86 10
212 82 12 212 82 14 212 82 14 211 84 15 211 84 15 213 83 15 213 83 15
211 81 13 212 82 14 201 71 6 205 74 9 203 72 7 203 72 7 203 72 9
204 71 9 206 70 9 206 70 9 206 70 11 205 68 10 206 68 10 205 66 9
205 66 9 205 66 9 207 66 9 207 66 9 207 66 9 207 66 9 205 66 9
205 66 9 205 66 9 205 66 9 205 66 9 205 66 9 205 66 9 205 66 9
205 66 9 205 66 9 203 68 6 203 68 6 216 83 18 216 83 18 216 83 18
216 83 18 214 84 18 214 84 18 211 86 16 211 86 14 211 87 10 203 89 7
229 137 45 224 139 43 223 137 38 223 137 38 223 136 40 223 136 40
223 136 40 223 136 40 223 136 40 223 136 40 221 128 37 221 128 37
221 128 37 221 128 37 221 128 39 221 128 39 221 128 39 222 127 39
223 125 37 227 123 37 210 96 14 215 94 16 216 90 14 215 90 16
211 92 16 211 92 16 213 90 18 215 90 18 218 88 16 218 88 16 215 90 14
215 90 14 215 90 14 215 90 16 213 91 16 211 91 18 211 91 18 211 91 18
214 91 21 216 88 20 205 73 6 206 71 5 207 74 7 207 74 7 207 74 7
207 74 7 207 74 7 207 74 7 207 74 7 207 74 7 210 77 13 211 78 14
211 78 14 211 78 14 211 78 14 211 78 14 211 78 14 213 77 16 212 76 15
210 75 13 207 71 10 205 69 8 206 68 10 206 68 10 206 68 10 206 68 10
205 66 9 205 66 9 205 66 9 204 65 7 204 63 8 203 62 7 204 63 8
204 63 8 203 64 8 204 63 8 207 63 9 207 64 7 204 64 4 200 64 3
217 89 23 211 87 20 211 90 22 210 91 22 210 91 22 210 92 20 210 92 18
210 92 16 210 93 14 203 96 12 233 148 56 230 155 58 230 155 58
230 156 56 230 156 52 232 155 52 232 155 52 232 155 52 232 155 52
230 151 50 225 146 45 223 144 43 222 143 42 223 144 43 223 144 43
223 143 45 222 142 44 223 141 46 225 140 48 233 135 50 202 87 10
209 84 12 210 83 14 212 82 14 213 83 15 213 83 15 213 83 15 213 83 15
211 81 13 212 82 14 203 72 7 205 74 9 203 72 7 203 72 7 203 72 9
204 71 9 204 71 9 206 70 9 206 70 11 205 68 10 206 68 10 205 66 9
205 66 9 205 66 9 207 66 9 207 66 9 207 66 9 207 66 9 205 66 9
205 66 9 205 66 9 205 66 9 205 66 9 205 66 9 205 66 9 205 66 9
205 66 9 205 66 9 203 68 6 203 68 6 217 82 20 216 83 18 216 83 18
216 83 18 214 84 18 213 84 18 213 85 16 211 86 14 211 87 10 203 89 7
232 135 45 226 139 43 223 137 38 225 136 38 225 136 40 225 136 40
225 136 40 225 136 40 225 136 40 225 136 40 218 128 37 218 128 37
218 128 37 218 128 37 218 128 37 218 128 37 218 128 37 219 127 37
227 130 44 227 122 39 205 88 9 206 82 6 216 90 14 216 89 16 213 91 16
211 91 18 213 90 18 215 90 18 218 88 18 217 87 15 212 90 13 211 89 12
215 87 10 215 87 10 211 89 12 207 90 14 204 91 16 204 91 16 214 99 24
215 93 20 210 78 9 210 73 5 208 76 6 206 76 6 206 76 6 206 76 6
206 76 8 206 76 8 206 76 8 207 77 9 210 77 11 211 79 12 213 77 14
213 77 14 213 77 16 213 77 16 213 77 16 213 77 16 212 76 15 209 73 12
207 69 11 205 66 9 205 66 9 205 66 9 205 66 9 205 66 9 207 65 11
207 65 11 205 66 9 204 65 7 204 65 7 203 64 6 203 64 8 203 64 8
204 65 9 205 64 9 207 64 7 207 64 7 204 64 4 204 66 5 220 84 21
220 90 24 213 90 22 210 91 22 210 92 20 210 92 20 210 92 20 210 92 18
210 92 18 202 96 16 233 150 57 230 157 61 230 157 59 230 158 57
230 158 55 232 157 55 232 157 55 232 157 55 232 157 55 230 153 51
225 148 49 221 144 45 222 142 44 222 142 44 222 142 44 220 143 46
218 142 45 219 142 45 222 139 47 229 136 49 198 90 10 204 86 12
209 83 14 213 83 15 213 83 15 213 83 15 213 83 17 212 81 16 212 79 15
212 79 15 204 71 7 205 72 8 201 67 5 201 67 5 201 67 5 201 67 5
201 67 7 201 67 7 201 67 7 202 66 7 205 66 9 207 66 9 207 66 9
207 66 9 207 65 11 207 65 11 207 65 11 207 65 11 205 66 9 205 66 9
205 66 9 205 66 9 205 66 9 205 66 9 205 66 9 205 66 9 205 66 9
205 66 9 205 66 9 205 66 9 217 82 20 217 82 20 216 82 20 214 83 20
213 84 18 213 84 18 213 85 16 213 85 14 211 86 12 206 90 8 239 135 47
234 140 46 228 136 42 228 136 42 228 136 42 228 136 42 228 136 42
228 136 42 228 136 42 228 136 42 222 127 39 222 127 39 222 127 39
222 127 39 222 127 39 222 127 39 222 127 39 222 127 39 227 130 44
230 125 42 212 95 16 216 92 15 216 90 14 216 89 16 213 90 18
211 91 18 213 90 18 215 90 18 218 88 18 215 88 15 207 92 13 204 92 10
209 90 8 209 90 8 203 93 10 199 95 12 195 97 14 195 97 14 200 97 16
212 99 24 205 80 9 214 85 12 206 79 5 206 79 5 206 79 5 206 79 5
206 78 7 207 77 9 207 77 9 207 77 9 206 76 8 209 76 9 209 76 11
210 75 11 210 75 13 210 75 13 212 73 15 212 73 15 210 75 13 208 72 11
206 68 10 204 65 7 204 65 7 204 65 7 204 65 7 204 65 7 205 64 9
205 64 9 204 65 7 204 65 7 203 64 6 203 64 6 203 64 8 203 64 8
204 65 9 204 65 9 205 64 7 205 64 7 203 65 4 204 66 5 218 80 17
216 83 18 215 89 22 213 90 22 213 90 22 213 90 20 213 90 20 213 90 20
213 90 20 207 94 18 238 143 57 236 150 58 236 150 58 236 151 56
237 150 54 237 150 54 236 151 54 236 151 54 237 150 54 234 147 51
229 142 46 227 140 44 228 139 44 229 140 47 229 140 47 228 141 47
223 141 46 223 141 48 228 138 50 233 135 50 198 90 10 204 86 12
210 83 14 215 82 15 215 82 15 215 82 15 212 81 16 212 81 16 212 79 15
212 79 15 205 72 8 205 72 8 203 70 8 203 70 8 203 70 8 203 70 8
203 69 10 203 69 10 203 69 10 205 68 10 205 66 9 207 66 9 207 66 9
207 66 9 207 65 11 207 65 11 207 65 11 207 65 11 205 66 9 205 66 9
205 66 9 205 66 9 205 66 9 205 66 9 205 66 9 205 66 9 205 66 9
205 66 9 205 66 9 205 66 9 219 83 22 219 83 22 217 84 22 217 84 22
214 86 20 214 86 20 215 85 18 215 86 16 215 88 15 208 89 8 239 130 44
233 131 40 232 133 42 231 134 42 231 134 42 231 134 42 231 134 42
231 134 42 231 134 42 231 134 42 209 102 18 209 102 18 209 102 18
209 102 18 209 102 18 209 102 18 209 102 18 208 103 18 208 106 22
211 106 23 198 81 2 205 81 5 215 88 13 215 88 15 212 89 17 212 89 17
215 90 18 216 89 18 216 89 18 211 92 16 244 144 59 238 148 57
239 148 53 239 148 53 236 149 55 233 150 57 230 152 57 230 151 59
233 150 59 240 147 62 203 98 17 210 98 17 219 100 22 223 99 22
223 99 22 223 98 24 223 98 26 224 97 28 224 97 28 224 97 28 200 72 4
203 72 5 204 71 7 204 71 7 206 70 9 206 70 9 207 69 11 207 69 11
208 72 11 206 70 9 204 65 7 202 63 5 202 63 5 202 63 5 202 63 5
202 63 5 203 62 7 203 62 7 202 63 5 202 63 5 203 64 6 203 64 6
203 64 8 203 64 8 204 65 9 204 65 9 205 64 7 205 64 7 204 66 5
203 65 4 212 74 13 209 73 12 203 70 8 201 70 8 201 71 6 201 71 6
201 71 6 201 71 6 201 71 4 198 73 2 211 92 16 213 96 17 213 96 17
213 97 15 212 97 15 212 98 13 210 99 13 210 99 13 208 100 13
205 96 10 200 91 5 199 90 4 201 93 6 204 94 11 202 95 11 201 96 11
196 97 10 196 96 12 199 95 12 203 91 10 207 87 11 210 83 12 215 82 15
216 81 15 216 81 15 215 82 15 212 82 14 211 81 13 212 79 15 211 78 14
205 72 8 205 72 8 207 73 11 207 73 11 207 73 11 207 73 11 207 73 13
207 73 13 207 73 13 208 72 13 205 66 9 207 66 9 207 66 9 207 66 9
207 65 11 207 65 11 207 65 11 207 65 11 205 66 9 205 66 9 205 66 9
205 66 9 205 66 9 205 66 9 205 66 9 205 66 9 205 66 9 205 66 9
205 66 9 205 66 9 203 68 6 203 68 6 203 68 6 202 68 6 200 70 4
200 70 4 202 69 2 203 69 0 203 73 1 192 71 0 219 108 23 212 105 16
212 105 16 213 105 16 213 104 18 213 104 18 213 104 18 213 104 18
213 104 18 213 104 18 215 101 19 215 101 19 215 101 19 215 101 19
215 101 19 215 101 19 215 101 19 214 102 19 210 105 22 216 109 27
205 88 9 215 90 14 215 88 13 215 88 15 212 89 17 212 89 17 215 88 17
215 88 17 215 88 17 207 92 15 239 148 60 229 154 56 229 154 54
229 155 52 231 154 54 229 154 56 226 156 56 226 155 58 222 147 51
240 155 63 199 102 14 217 110 28 219 104 24 222 102 24 222 102 24
222 102 24 223 101 28 223 101 28 223 100 30 225 100 30 196 71 1
199 71 4 200 70 4 202 68 6 203 68 6 203 68 6 205 66 9 205 66 9
209 70 12 206 68 10 203 64 6 202 61 4 202 61 4 200 62 4 200 62 4
200 62 4 202 61 6 202 61 6 202 63 5 202 63 5 202 63 5 202 63 5
203 64 8 203 64 8 203 64 8 203 64 8 205 64 7 205 64 7 204 66 5
202 63 3 209 70 10 205 67 6 206 68 8 205 69 8 205 69 6 205 69 6
205 69 6 203 70 6 203 70 6 203 70 4 218 86 17 222 89 20 222 90 18
220 91 18 220 91 16 218 92 16 217 93 14 215 94 14 215 94 14 210 91 11
206 87 6 206 87 6 209 90 12 211 94 15 211 94 15 209 95 15 207 94 14
207 94 14 209 92 13 211 88 14 211 84 13 213 81 12 215 80 14 217 79 14
215 80 14 215 80 14 212 80 13 208 78 11 210 77 13 211 78 14 207 74 9
205 72 8 208 74 12 208 74 12 208 74 12 208 74 12 208 74 14 208 74 14
208 74 14 209 73 14 204 65 7 205 64 7 205 64 7 205 64 7 205 64 9
205 64 9 205 64 9 205 64 9 205 66 9 205 66 9 205 66 9 205 66 9
205 66 9 205 66 9 205 66 9 205 66 9 205 66 9 205 66 9 205 66 9
205 66 9 203 68 6 203 68 6 203 68 6 203 68 6 202 68 6 202 69 4
205 67 4 205 68 2 207 73 2 194 67 0 216 103 18 208 96 11 214 100 16
216 99 16 216 99 16 216 99 16 216 99 16 216 99 16 216 99 16 216 99 16
218 99 21 218 99 21 218 99 21 218 99 21 218 99 21 218 99 21 218 99 21
216 102 22 212 104 22 210 103 21 212 93 15 213 89 13 215 88 13
215 88 15 212 87 16 212 87 16 217 86 19 217 86 19 212 87 16 203 93 14
234 151 60 224 156 56 223 158 52 226 157 50 232 153 52 234 152 52
231 154 54 231 154 54 235 153 58 240 150 58 206 104 16 211 101 18
215 103 20 216 102 20 216 102 20 216 102 22 218 101 22 219 100 24
219 99 26 221 98 28 195 69 0 197 69 3 197 69 5 199 68 5 201 67 7
202 66 7 202 66 7 204 65 7 209 68 11 208 66 12 204 63 8 205 61 7
205 61 7 203 62 7 203 62 7 203 62 7 203 62 7 203 62 7 202 63 5
202 63 5 203 64 8 203 64 8 203 64 8 203 64 8 203 64 6 203 64 6
204 63 6 204 63 6 205 64 7 204 63 6 205 65 5 205 65 5 207 66 6
205 67 6 205 67 4 205 67 4 205 67 6 203 68 6 203 68 4 202 69 4
217 84 18 219 89 21 219 89 21 217 90 19 217 90 19 216 91 19 214 92 17
211 92 16 211 92 16 209 91 15 209 91 15 209 91 15 210 92 16 210 92 16
210 92 16 210 92 16 211 92 16 213 91 16 215 90 16 214 87 14 213 81 12
214 79 11 214 79 11 214 79 11 214 79 13 213 78 12 212 80 13 210 77 11
210 77 13 211 78 14 208 75 10 205 72 8 207 73 11 207 73 11 207 73 11
207 73 11 207 73 13 207 73 13 207 73 13 208 72 13 205 64 7 207 64 7
207 64 7 207 64 7 205 64 9 205 64 9 205 64 9 205 64 9 205 64 7
205 64 7 205 64 7 205 64 7 205 66 9 205 66 9 205 66 9 205 66 9
205 66 9 205 66 9 205 66 9 205 66 9 205 66 9 205 66 9 203 67 9
203 67 9 203 67 9 205 67 6 208 66 4 208 66 2 208 68 2 203 72 0
215 96 15 213 97 15 216 97 17 216 97 14 216 97 14 216 97 14 217 99 16
217 99 16 217 99 16 217 99 16 218 99 21 218 99 21 218 99 21 218 99 21
218 99 21 218 99 21 218 99 21 216 102 22 212 104 22 212 102 21
212 93 15 213 89 13 215 88 13 215 88 15 212 87 16 212 87 16 215 85 18
215 85 18 211 86 14 201 91 12 234 151 58 224 156 56 223 158 52
226 157 50 234 153 50 236 152 50 232 154 50 232 153 52 237 153 54
242 150 56 208 104 14 212 101 16 215 103 18 215 103 18 215 103 20
215 103 20 216 102 22 218 101 22 219 100 24 219 99 26 196 71 1
199 71 4 199 70 6 200 69 6 203 67 9 203 67 9 203 67 9 205 66 9
209 68 13 209 66 12 206 62 8 205 61 7 205 61 9 205 61 9 203 62 7
203 62 7 203 62 7 203 62 7 202 63 5 202 63 5 203 64 8 203 64 8
203 64 8 203 64 8 202 63 5 202 63 5 204 63 6 204 63 6 204 63 6
204 63 6 205 65 5 205 65 5 207 66 6 205 67 6 205 67 6 205 67 6
205 67 6 203 68 6 203 68 6 202 69 4 215 85 20 219 88 23 217 90 21
217 90 21 216 90 21 216 90 21 214 91 21 211 91 20 211 91 20 210 90 19
210 90 19 210 90 17 211 91 18 211 91 18 211 91 18 213 90 18 215 90 18
215 90 16 216 89 16 215 86 14 211 81 11 211 79 10 211 79 10 211 79 10
211 79 12 211 79 12 211 79 12 211 79 12 211 78 14 211 78 14 208 75 10
205 72 8 207 73 11 207 73 11 207 73 11 207 73 11 207 73 13 207 73 13
207 73 13 208 72 13 204 63 6 206 63 6 206 63 6 206 63 6 204 63 8
204 63 8 204 63 8 204 63 8 205 64 7 205 64 7 205 64 7 205 64 7
205 66 9 205 66 9 205 66 9 205 66 9 205 66 9 205 66 9 205 66 9
205 66 9 205 66 9 205 66 9 203 67 9 203 67 9 205 66 9 207 66 9
210 64 6 211 64 2 209 68 2 205 70 0 218 94 17 213 97 15 216 97 17
216 97 17 216 97 17 216 97 17 217 98 18 217 98 18 217 98 18 217 98 18
215 101 19 215 101 19 215 101 19 215 101 19 215 101 19 215 101 19
215 101 19 215 103 20 212 104 22 212 102 21 212 93 15 213 89 13
215 88 13 215 88 15 212 87 16 212 87 16 214 86 16 214 86 16 213 85 14
205 90 10 239 149 56 231 154 54 231 154 50 232 154 48 236 152 48
234 153 48 231 155 48 231 154 50 235 154 52 240 151 54 206 105 12
211 102 14 215 104 16 215 103 18 215 103 18 215 103 20 216 102 20
218 101 22 218 101 24 219 99 26 196 71 1 200 70 4 200 69 6 202 68 6
203 67 9 205 66 9 205 66 9 205 66 9 209 68 13 208 66 12 204 63 8
203 62 7 203 61 9 203 61 9 203 62 7 203 62 7 203 62 7 203 62 7
202 63 5 202 63 5 203 64 8 203 64 8 203 64 8 203 64 8 202 63 5
202 63 5 203 64 6 203 64 6 203 64 6 203 64 6 204 65 7 204 65 7
205 66 9 203 67 9 203 67 9 203 67 9 203 67 9 202 68 9 202 68 9
200 69 6 215 85 20 217 89 23 217 89 23 216 90 23 216 90 23 216 90 23
216 90 23 215 89 22 215 89 22 213 88 21 213 88 21 215 87 19 216 88 20
216 88 20 216 88 20 216 88 20 215 90 18 215 90 18 213 88 17 211 86 14
210 85 13 208 83 11 208 81 10 207 79 9 210 79 12 210 79 12 210 79 12
210 79 12 210 79 14 210 79 14 206 76 10 204 73 8 207 74 9 207 74 9
207 74 9 207 73 11 207 73 13 207 73 13 207 73 13 208 72 13 204 63 6
206 63 6 206 63 6 206 63 6 204 63 8 204 63 8 204 63 8 204 63 8
205 64 7 205 64 7 205 64 7 205 64 7 205 66 9 205 66 9 205 66 9
205 66 9 205 66 9 205 66 9 203 67 9 203 67 9 203 67 9 203 67 9
203 67 9 203 67 9 205 66 9 208 65 9 211 64 6 213 64 2 211 67 2
206 70 0 218 94 17 213 96 17 213 98 19 213 98 19 213 98 19 213 98 19
214 99 20 214 99 20 214 99 20 214 99 20 214 102 19 214 102 19
214 102 19 214 102 19 214 102 19 214 102 19 214 102 19 215 103 20
213 103 22 214 101 21 212 93 15 212 90 13 213 89 13 213 89 13
211 88 14 211 88 16 212 87 16 214 86 16 213 86 12 205 90 10
240 148 56 232 153 52 232 154 50 232 154 48 234 153 46 234 153 46
231 155 48 231 155 48 234 155 52 238 152 52 206 105 12 211 103 12
215 104 16 216 103 16 216 103 18 216 103 18 216 102 20 218 101 20
218 101 22 221 99 26 197 70 1 202 69 4 202 68 6 203 68 6 205 66 9
205 66 9 205 66 9 205 66 9 209 68 13 208 66 12 204 63 8 203 62 7
203 61 9 203 61 9 203 62 7 203 62 7 203 62 7 203 62 7 202 63 5
202 63 5 203 64 8 203 64 8 203 64 8 203 64 8 202 63 5 202 63 5
203 64 6 203 64 6 203 64 6 203 64 6 204 65 7 204 65 7 203 67 9
203 67 9 202 68 9 202 68 9 202 68 9 202 68 6 200 69 6 200 69 6
214 86 20 217 89 23 216 90 23 216 90 23 216 90 23 216 90 23 216 90 23
215 89 22 216 88 22 215 87 21 215 87 21 217 86 21 218 88 20 218 88 20
218 88 20 216 88 20 215 90 18 215 90 18 212 89 17 209 87 14 208 86 13
206 83 11 205 82 10 205 80 9 207 79 11 208 80 12 210 79 12 210 79 12
210 79 14 210 79 14 206 76 10 204 73 8 207 74 9 207 74 9 207 74 9
207 74 9 207 73 11 207 73 11 207 73 11 208 72 13 204 63 6 206 63 6
206 63 6 206 63 6 204 63 8 204 63 8 204 63 8 204 63 8 205 64 7
205 64 7 205 64 7 205 64 7 205 66 9 205 66 9 205 66 9 205 66 9
205 66 9 205 66 9 203 67 9 203 67 9 203 67 9 203 67 9 203 67 9
205 66 9 207 66 9 208 65 6 210 64 6 211 64 4 209 67 4 205 70 2
218 93 19 213 96 17 213 98 19 211 99 19 211 99 19 211 99 19
212 100 20 212 100 20 212 100 20 212 100 20 214 102 19 214 102 19
214 102 19 214 102 19 214 102 19 214 102 19 215 101 19 216 102 20
215 103 20 215 101 19 212 94 13 212 90 11 212 90 13 212 90 13
212 90 15 212 90 15 212 87 16 214 86 16 214 87 14 206 92 10
238 151 56 230 156 54 229 157 52 230 157 50 234 155 47 235 155 47
235 154 50 235 154 50 233 157 51 238 154 53 207 107 11 215 102 13
216 103 16 218 102 16 218 102 18 218 102 18 218 102 18 219 101 20
219 100 22 221 99 26 199 69 1 203 68 4 203 68 6 203 67 9 205 66 9
205 66 9 205 66 9 205 66 9 206 68 10 206 68 10 204 65 7 202 63 7
203 62 7 203 62 7 202 63 7 202 63 7 202 63 7 202 63 7 202 63 7
202 63 7 203 64 8 203 64 8 203 64 8 203 64 8 203 64 6 203 64 6
203 64 6 203 64 6 204 65 7 204 65 7 202 66 7 202 66 7 203 67 9
203 67 9 202 68 6 202 68 6 200 69 6 200 70 4 200 70 4 200 70 4
214 86 20 217 89 23 217 90 21 217 90 21 216 90 21 216 90 21 216 90 21
216 90 21 215 89 20 215 89 20 215 89 22 216 88 22 216 88 20 216 88 20
216 88 20 215 89 20 215 90 18 215 90 18 213 88 17 211 86 14 210 85 13
206 83 11 204 81 9 205 80 9 206 81 12 208 80 12 208 80 12 208 80 12
210 79 14 210 79 14 206 76 10 204 73 8 205 74 9 205 74 9 205 74 9
205 74 9 207 74 9 207 74 9 207 74 9 208 72 11 204 63 6 206 62 8
206 62 8 206 62 8 204 63 8 204 63 8 204 63 8 204 63 8 205 64 7
205 64 7 205 64 7 205 64 7 205 66 9 205 66 9 203 67 9 203 67 9
203 67 9 203 67 9 203 67 9 203 67 9 203 67 9 203 67 9 205 66 9
205 66 9 207 66 6 207 66 6 207 66 6 205 67 4 205 70 4 201 72 2
216 94 21 213 96 19 213 98 21 213 98 21 213 98 21 213 98 21 214 99 22
214 99 22 214 99 22 214 99 22 215 101 21 215 101 21 215 101 21
215 101 21 215 101 21 215 101 21 215 101 21 218 101 20 218 101 20
217 100 19 212 94 13 212 90 11 212 90 13 212 90 13 210 90 15
212 90 15 212 87 16 214 87 14 214 87 12 204 92 10 237 152 56
229 157 52 227 158 50 227 158 50 230 157 47 234 155 47 237 153 50
235 154 50 232 158 51 236 155 53 207 107 11 215 102 13 216 103 14
218 102 16 218 102 18 218 102 18 218 102 18 219 101 20 219 100 22
221 99 26 201 68 1 205 67 6 205 66 9 205 66 9 205 66 9 205 66 9
205 66 9 205 66 9 206 68 10 206 68 10 204 65 7 202 63 5 203 62 7
203 62 7 202 63 7 202 63 7 202 63 7 202 63 7 202 63 7 202 63 7
203 64 8 203 64 8 203 64 8 203 64 8 203 64 6 203 64 6 203 64 6
203 64 6 204 65 7 204 65 7 202 66 7 202 66 7 203 67 9 203 67 9
202 68 6 202 68 6 200 70 4 200 70 4 200 70 2 200 70 2 214 86 20
217 89 23 217 90 21 217 90 21 216 91 19 216 91 19 216 91 19 216 91 19
215 89 20 215 89 20 215 89 22 215 89 22 215 89 20 215 89 20 215 89 20
215 89 20 215 90 18 215 90 18 213 88 17 211 86 14 210 85 13 208 83 11
204 81 9 205 82 10 206 81 12 206 81 12 208 80 12 208 80 12 210 79 14
210 79 14 206 76 10 204 73 8 205 74 9 205 74 9 205 74 9 205 74 9
207 74 7 207 74 7 207 74 7 208 73 9 204 63 6 206 62 8 206 62 8
206 62 8 204 63 8 204 63 8 204 63 8 204 63 8 205 64 7 205 64 7
205 64 7 205 64 7 205 66 9 205 66 9 203 67 9 203 67 9 203 67 9
203 67 9 203 67 9 203 67 9 203 67 9 203 67 9 205 66 9 205 66 9
207 66 6 205 67 6 203 68 6 202 68 6 201 71 6 198 73 4 216 93 23
215 95 21 214 97 23 214 97 21 214 97 21 214 97 21 216 98 22 216 98 22
216 98 22 216 98 22 217 99 23 217 99 23 217 99 23 217 99 23 217 99 23
217 99 23 217 99 23 219 100 22 219 100 22 218 99 21 214 94 16
211 92 14 211 92 14 211 92 14 210 90 15 212 90 15 215 88 15 215 88 15
215 88 13 205 94 9 239 155 56 231 159 54 229 161 52 229 161 50
233 159 50 234 159 50 236 157 52 234 158 54 231 161 55 235 159 55
208 109 15 214 106 15 219 106 16 219 105 18 219 105 18 219 105 18
219 105 18 220 104 20 220 103 24 223 101 26 201 68 1 207 66 6
207 66 9 205 66 9 205 66 9 205 66 9 205 66 9 205 66 9 206 68 10
206 68 10 204 65 7 202 63 5 202 63 7 202 63 7 202 63 7 202 63 7
202 63 7 202 63 7 203 64 8 203 64 8 203 64 8 203 64 8 204 65 9
204 65 9 203 64 6 203 64 6 203 64 6 203 64 6 204 65 7 204 65 7
202 66 7 202 66 7 203 67 9 205 68 10 202 68 6 202 68 6 200 70 4
200 70 4 200 70 2 200 70 2 213 85 16 216 88 20 216 88 20 216 89 18
215 90 18 215 90 16 215 90 16 215 90 18 213 88 17 213 88 19 213 88 19
213 88 19 213 88 19 213 88 17 213 88 17 213 88 17 215 90 18 215 90 18
213 88 17 212 87 16 210 85 13 206 81 10 205 80 9 208 83 11 208 82 13
208 82 13 208 82 13 209 81 13 209 81 15 209 81 15 206 78 11 203 75 9
205 75 7 205 75 7 205 75 7 205 75 7 207 74 7 207 74 7 207 74 7
208 73 9 203 65 4 204 63 6 204 63 6 204 63 6 204 63 6 204 63 6
204 63 6 204 63 6 204 65 7 204 65 7 204 65 7 204 65 7 205 66 9
206 68 10 203 67 9 203 67 9 203 67 9 203 67 9 202 68 9 202 68 9
202 68 9 203 67 9 203 67 9 205 66 9 205 67 6 205 67 6 203 68 6
202 68 6 201 71 6 199 74 7 216 93 23 215 94 23 216 96 23 216 96 23
216 96 23 216 96 23 217 97 24 217 97 24 217 97 24 217 97 24 220 97 25
220 97 25 220 97 25 220 97 25 220 97 25 220 97 25 220 97 25 221 99 24
221 99 24 220 98 23 214 94 18 211 92 14 212 93 15 212 93 15 211 92 16
213 91 16 216 89 16 218 88 16 216 90 14 207 95 10 240 156 57
232 161 55 231 162 53 231 162 51 232 161 51 234 160 53 235 159 55
234 160 55 230 163 56 233 162 56 206 112 16 214 108 16 217 108 17
218 107 19 218 107 19 218 107 19 218 107 19 218 107 21 218 106 26
223 103 28 201 68 1 207 66 6 207 66 9 207 66 9 205 66 9 205 66 9
205 66 9 205 66 9 206 68 10 206 68 10 204 65 7 202 63 5 202 63 7
202 63 7 202 63 7 202 63 7 202 63 7 202 63 7 203 64 8 203 64 8
203 64 8 203 64 8 204 65 9 204 65 9 203 64 6 203 64 6 203 64 6
203 64 6 204 65 7 204 65 7 202 66 7 202 66 7 203 67 9 205 68 10
202 68 6 202 68 6 200 70 4 200 70 4 200 70 2 200 70 2 211 84 15
214 86 18 214 86 16 215 88 17 213 89 15 213 89 15 213 89 15 213 89 15
212 87 16 212 87 16 212 87 18 212 87 18 212 87 16 212 87 16 213 88 17
213 88 17 212 87 16 212 87 16 212 87 16 211 86 14 210 85 13 208 83 11
208 83 11 209 84 12 209 83 14 209 83 14 209 83 14 209 83 14 210 82 16
210 82 16 207 79 13 204 76 10 205 75 7 205 75 7 205 75 7 205 75 7
207 74 7 207 74 7 207 74 7 208 73 9 203 65 4 204 63 6 204 63 6
204 63 6 204 63 6 204 63 6 204 63 6 203 64 6 204 65 7 204 65 7
204 65 7 204 65 7 205 66 9 206 68 10 203 67 9 203 67 9 203 67 9
203 67 9 202 68 9 202 68 9 202 68 9 202 68 9 203 67 9 203 67 9
205 67 6 205 67 6 203 68 6 202 68 6 201 71 6 201 73 7 216 93 25
215 94 23 216 95 25 218 95 23 218 95 23 218 95 23 219 96 24 219 96 24
219 96 24 219 96 24 201 73 7 201 73 7 201 73 7 201 73 7 201 73 5
201 73 5 199 74 5 199 74 3 199 74 3 197 74 2 215 95 21 212 93 17
212 95 16 212 95 16 215 95 17 216 95 17 218 91 18 220 91 18 218 92 16
209 97 14 244 159 63 236 164 59 234 165 56 233 166 56 233 166 56
234 165 56 236 164 59 234 165 59 231 169 60 235 166 60 206 117 20
214 113 20 219 112 23 220 112 23 220 111 25 220 111 25 220 111 25
220 111 27 220 110 29 225 107 33 202 69 4 207 66 6 207 66 9 207 65 11
207 65 11 207 65 11 207 65 11 207 65 11 206 68 10 206 68 10 204 65 7
203 64 6 203 64 8 203 64 8 203 64 8 203 64 8 203 64 8 203 64 8
203 64 8 203 64 8 204 65 9 204 65 9 204 65 9 204 65 9 204 65 9
204 65 9 204 65 9 203 64 8 201 65 6 203 67 9 207 71 12 208 72 13
208 72 13 206 70 11 207 73 11 207 73 11 205 74 9 206 76 10 207 77 9
208 78 11 210 83 14 213 85 16 213 85 14 213 85 14 211 86 12 211 86 12
211 86 12 211 86 12 210 85 13 210 85 13 210 85 15 210 85 15 211 84 13
211 84 13 210 83 12 210 83 12 210 85 13 210 85 13 211 86 14 211 86 14
210 85 13 210 85 13 212 87 16 211 86 14 211 86 16 211 86 16 211 86 16
211 86 16 213 84 18 213 84 18 209 81 15 207 79 13 208 78 11 208 78 11
208 78 11 208 78 11 210 77 11 210 77 11 210 77 11 210 77 11 208 73 9
210 72 11 210 72 11 210 72 11 210 72 11 210 72 11 210 72 11 210 72 11
211 73 12 211 73 12 211 73 12 210 72 11 208 72 11 206 70 9 208 72 11
207 73 11 207 73 11 207 73 11 208 74 12 208 74 12 203 70 8 203 70 8
203 70 8 205 69 8 205 69 8 205 69 8 205 69 8 203 70 8 201 70 8
201 72 9 205 79 13 207 84 16 208 85 15 210 85 15 210 85 13 209 84 12
209 84 12 208 83 11 208 83 11 208 83 11 204 70 11 204 70 11 204 70 11
204 71 9 204 71 9 203 72 7 203 72 7 201 73 5 199 74 5 198 73 2
216 94 21 214 94 20 213 96 19 213 96 17 215 95 17 216 95 17 221 94 21
222 93 21 220 93 17 210 98 15 245 160 64 237 165 62 235 166 60
234 167 58 232 168 58 232 168 58 234 167 60 232 168 60 230 170 61
233 169 61 204 120 21 212 116 21 216 115 24 218 114 24 218 114 26
218 114 26 218 114 26 218 114 28 218 113 30 224 109 34 202 69 4
207 66 9 207 65 11 207 65 11 207 65 11 207 65 11 207 65 11 207 65 11
206 68 10 206 68 10 204 65 7 203 64 6 203 64 8 203 64 8 203 64 8
203 64 8 203 64 8 203 64 8 203 64 8 203 64 8 204 65 9 204 65 9
204 65 9 204 65 9 204 65 9 204 65 9 204 65 9 203 64 8 201 65 6
203 67 9 207 71 12 208 72 13 208 72 13 206 70 11 207 73 11 207 73 11
205 74 9 206 76 10 207 77 9 208 78 11 209 81 13 210 83 14 210 83 12
211 84 13 210 85 11 210 85 11 210 85 11 210 85 11 209 84 12 209 84 12
209 83 14 209 83 14 210 83 12 210 83 12 210 83 12 210 83 12 208 83 11
208 83 11 210 85 13 210 85 13 210 85 13 211 86 14 213 88 17 212 87 16
212 87 18 212 87 18 212 87 18 212 87 18 214 86 20 214 86 20 210 82 16
208 80 14 208 78 11 208 78 11 208 78 11 208 78 11 210 77 11 210 77 11
210 77 11 210 77 11 208 73 9 208 73 9 208 73 9 208 73 9 208 72 11
208 72 11 208 72 11 208 72 11 211 73 12 211 73 12 211 73 12 210 72 11
208 72 11 206 70 9 207 73 11 207 73 11 207 73 11 207 73 11 208 74 12
208 74 12 203 70 8 203 70 8 203 70 8 203 70 8 205 69 8 205 69 8
205 69 8 205 69 8 203 70 8 201 72 9 206 81 14 209 83 16 210 85 15
211 84 15 211 84 13 212 82 12 212 82 12 211 81 11 211 81 11 211 81 11
206 69 13 206 69 13 206 69 13 206 69 13 206 70 11 204 71 9 204 71 9
203 72 7 201 73 5 198 73 4 218 95 23 215 95 21 214 97 21 214 97 19
214 97 19 216 97 19 221 94 21 222 93 21 221 94 19 211 99 17
247 163 66 239 167 64 238 168 62 234 170 60 233 171 60 231 172 60
233 171 62 233 171 62 229 174 63 234 172 63 205 123 23 213 119 23
217 118 26 219 117 26 219 117 28 219 117 28 219 117 28 219 117 30
219 116 32 225 112 37 200 70 4 207 66 9 207 65 11 207 65 11 207 65 11
207 65 11 207 65 11 207 65 11 206 68 10 206 68 10 204 65 7 203 64 6
203 64 8 203 64 8 203 64 8 203 64 8 203 64 8 203 64 8 204 65 9
204 65 9 204 65 9 204 65 9 205 66 11 205 66 11 204 65 9 204 65 9
204 65 9 203 64 8 201 65 6 203 67 9 207 71 12 208 72 13 208 72 13
207 71 12 207 73 11 207 73 11 205 74 9 206 76 10 207 77 9 207 77 9
209 81 13 210 83 14 210 83 12 210 83 12 209 84 10 209 84 10 209 84 10
209 84 10 209 84 12 209 84 12 208 82 13 206 81 12 209 82 11 209 82 11
209 82 11 209 82 11 208 83 11 208 83 11 208 83 11 209 84 12 212 87 16
213 88 17 213 88 17 213 88 17 213 88 19 213 88 19 213 88 19 213 88 19
215 87 21 216 88 22 211 83 17 208 80 14 208 78 11 208 78 11 208 78 11
208 78 11 210 77 11 210 77 11 210 77 11 210 77 11 207 74 7 207 74 7
207 74 7 207 74 9 208 73 9 208 73 9 208 73 9 208 73 9 209 73 12
209 73 12 209 73 12 208 72 11 208 72 11 207 71 10 207 73 11 207 73 11
207 73 11 207 73 11 208 74 12 208 74 12 203 70 8 203 70 8 203 70 8
203 70 8 205 69 8 205 69 8 205 69 8 205 69 8 204 71 9 203 72 9
208 80 14 209 81 15 211 84 15 213 83 15 215 82 13 213 81 12 213 81 12
212 80 11 212 80 11 212 80 11 206 69 15 206 69 15 206 69 15 206 69 13
206 69 13 206 70 11 204 70 11 203 72 9 201 73 7 198 73 4 218 95 23
215 95 21 214 97 21 213 98 19 213 98 19 216 96 21 221 94 21 222 93 21
221 94 19 211 99 17 247 163 66 238 168 64 236 169 62 234 170 60
231 172 60 231 172 60 231 172 62 230 172 64 229 174 65 234 172 65
205 123 23 213 119 25 217 118 26 219 117 28 219 117 28 219 117 28
219 117 28 219 117 30 219 116 32 224 113 37 200 70 4 207 66 9
207 65 11 207 65 11 207 65 11 207 65 11 207 65 11 207 65 11 206 68 10
206 68 10 204 65 7 203 64 6 203 64 8 203 64 8 203 64 8 203 64 8
203 64 8 203 64 8 204 65 9 204 65 9 204 65 9 204 65 9 205 66 11
205 66 11 204 65 9 204 65 9 204 65 9 203 64 8 201 65 6 203 67 9
207 71 12 208 72 13 208 72 13 207 71 12 207 73 11 207 73 11 205 74 9
206 76 10 207 77 9 207 77 9 209 81 13 210 83 14 210 83 12 210 83 12
209 84 12 209 84 10 209 84 10 209 84 12 209 84 12 209 84 12 208 82 13
206 81 12 209 82 11 209 82 11 209 82 11 209 82 11 208 83 11 208 83 11
208 83 11 209 84 12 212 87 16 213 88 17 213 88 17 213 88 17 213 88 19
213 88 19 213 88 19 213 88 19 215 87 21 216 88 22 211 83 17 208 80 14
208 78 11 208 78 11 208 78 11 208 78 11 210 77 11 210 77 11 210 77 11
210 77 11 207 74 7 207 74 7 207 74 7 207 74 7 208 73 9 208 73 9
208 73 9 208 73 9 209 73 12 209 73 12 209 73 12 208 72 11 208 72 11
207 71 10 207 73 11 207 73 11 207 73 11 207 73 11 208 74 12 208 74 12
203 70 8 203 70 8 203 70 8 203 70 8 205 69 8 205 69 8 205 69 8
203 70 8 203 72 9 203 72 9 209 81 15 211 80 15 213 83 15 215 82 15
216 82 13 215 80 12 215 80 12 214 79 11 214 79 11 214 79 11 204 70 13
204 70 13 204 70 13 204 70 13 204 70 13 204 70 13 204 70 11 203 72 9
201 72 9 198 73 6 218 95 25 215 95 21 214 97 21 213 98 21 213 98 21
214 97 21 221 93 23 222 93 21 219 95 19 210 100 17 247 163 66
238 168 64 236 169 62 234 170 60 233 171 60 231 172 62 230 172 64
228 173 66 231 173 67 237 170 67 205 123 25 211 119 27 217 118 28
220 116 28 220 116 30 220 116 30 220 116 30 220 116 30 220 115 32
225 112 37 200 69 6 207 66 9 207 65 11 207 65 11 207 65 11 207 65 11
207 65 11 207 65 11 206 68 10 206 68 10 204 65 7 203 64 6 203 64 6
203 64 6 203 64 6 203 64 6 203 64 6 203 64 6 203 64 6 203 64 6
202 66 7 202 66 7 202 66 7 202 66 7 202 66 7 202 66 7 202 66 7
202 66 7 202 66 7 203 67 9 205 72 10 207 73 11 207 73 11 207 73 11
207 73 11 207 74 9 206 76 10 206 76 8 206 76 8 207 77 9 210 83 14
210 83 14 210 83 14 211 84 15 211 84 13 211 84 13 211 84 13 211 84 13
211 84 15 210 83 14 208 80 12 208 80 12 208 80 12 208 80 12 208 80 12
208 80 12 208 80 12 208 80 12 209 81 13 209 81 13 215 87 19 215 87 19
216 88 20 216 88 20 216 88 20 216 88 20 216 88 20 216 88 20 216 88 20
217 90 21 206 78 9 208 80 12 208 78 11 208 78 11 208 78 11 208 78 11
210 77 11 210 77 11 210 77 11 209 76 9 208 75 8 207 74 7 207 74 7
207 74 7 207 74 7 207 74 7 207 74 7 207 74 9 208 75 10 208 75 10
208 75 10 208 75 10 207 73 11 207 73 11 207 73 11 207 73 11 208 74 12
208 74 12 206 75 12 206 75 12 201 70 8 201 70 8 203 70 8 203 70 8
205 69 6 205 69 6 203 70 6 203 70 6 203 72 7 203 72 7 211 80 15
211 81 13 213 81 14 213 81 14 215 80 12 215 80 12 215 80 12 215 80 12
215 80 12 215 80 12 204 70 11 204 70 11 204 70 11 204 70 11 204 70 13
204 70 13 204 70 11 204 70 11 203 72 9 200 72 6 219 94 25 216 94 21
214 97 21 213 98 21 213 98 21 214 97 21 218 95 23 219 94 23 216 96 21
206 102 17 244 164 66 236 169 64 234 170 62 234 170 60 234 170 60
233 171 62 230 172 64 230 172 66 234 171 67 240 168 67 206 122 27
211 119 27 217 118 28 219 117 28 219 117 30 219 117 30 219 117 30
219 116 32 219 116 35 225 112 37 200 69 6 207 66 9 207 65 11
207 65 11 207 65 11 207 65 11 207 65 11 207 65 11 206 68 10 206 68 10
204 65 7 203 64 6 203 64 6 203 64 6 203 64 6 203 64 6 203 64 6
203 64 6 203 64 6 203 64 6 202 66 7 202 66 7 202 66 7 202 66 7
202 66 7 202 66 7 202 66 7 202 66 7 202 66 7 203 67 9 205 72 10
207 73 11 207 73 11 207 73 11 207 74 9 207 74 9 206 76 8 206 76 8
206 76 8 207 77 9 210 83 14 210 83 14 210 83 14 211 84 15 211 84 13
211 84 13 211 84 13 211 84 13 211 84 15 210 83 14 208 80 12 208 80 12
208 80 12 208 80 12 208 80 12 208 80 12 208 80 12 208 80 12 209 81 13
209 81 13 215 87 19 215 87 19 216 88 20 216 88 20 216 88 20 216 88 20
216 88 20 216 88 20 216 88 20 217 90 21 206 78 9 208 80 12 208 78 11
208 78 11 208 78 11 208 78 11 210 77 11 210 77 11 210 77 11 209 76 9
208 75 8 207 74 7 207 74 7 207 74 7 207 74 7 207 74 7 207 74 7
207 74 7 208 75 10 208 75 10 208 75 10 208 75 10 207 73 11 207 73 11
207 73 11 207 73 11 208 74 12 208 74 12 206 75 12 206 75 12 201 70 8
201 70 8 203 70 8 203 70 8 205 69 6 205 69 6 203 70 6 203 70 6
203 72 7 203 72 7 212 82 14 211 81 13 213 81 14 213 81 14 213 81 12
215 80 12 215 80 12 215 80 12 215 80 12 215 80 12 204 70 11 204 70 11
204 70 11 204 70 11 204 70 11 204 70 11 204 70 11 204 70 11 204 71 9
201 71 6 221 93 25 218 93 21 216 96 21 214 97 21 213 98 21 213 98 21
213 97 23 213 97 23 211 99 21 203 104 17 241 166 66 233 170 64
233 171 62 234 170 60 238 169 60 238 168 62 233 170 64 233 170 66
237 170 67 244 166 67 210 120 27 213 118 27 216 119 28 216 119 28
216 118 30 216 118 30 216 118 30 216 118 32 216 118 35 222 114 37
200 69 6 207 66 9 207 65 11 207 65 11 207 65 11 207 65 11 207 65 11
207 65 11 206 68 10 206 68 10 204 65 7 203 64 6 203 64 6 203 64 6
203 64 6 203 64 6 203 64 6 203 64 6 203 64 6 203 64 6 202 66 7
202 66 7 202 66 7 202 66 7 202 66 7 202 66 7 202 66 7 202 66 7
202 66 7 203 67 9 205 72 10 207 73 11 207 73 11 207 73 11 207 74 9
207 74 9 206 76 8 206 76 8 206 76 8 206 76 8 211 84 15 211 84 15
211 84 15 211 84 15 211 84 13 211 84 13 211 84 13 211 84 13 213 85 16
211 84 15 208 80 12 207 79 11 208 80 12 208 80 12 208 80 12 208 80 12
208 80 12 208 80 12 208 80 12 208 80 12 216 88 20 216 88 20 216 88 20
216 88 20 216 88 20 216 88 20 216 88 20 216 88 20 216 88 20 218 91 22
206 78 9 207 79 11 208 78 11 208 78 11 208 78 11 208 78 11 208 78 11
208 78 11 208 78 11 207 77 9 208 75 8 207 74 7 207 74 7 207 74 7
207 74 7 207 74 7 207 74 7 207 74 7 206 76 10 206 76 10 206 76 10
206 76 10 207 73 11 207 73 11 207 73 11 207 73 11 208 74 12 208 74 12
206 75 12 206 75 12 201 70 8 201 70 8 203 70 8 203 70 8 205 69 6
205 69 6 203 70 6 203 70 6 204 73 8 201 71 6 213 81 14 211 79 12
212 82 14 212 82 14 212 82 12 213 81 12 213 81 12 213 81 12 213 81 12
213 81 12 204 70 11 204 70 11 204 70 11 204 70 11 204 70 11 204 70 11
204 70 11 204 70 11 204 71 9 203 70 6 222 92 25 220 92 21 219 94 23
216 96 21 214 97 21 213 98 21 210 99 23 208 100 23 208 100 21
202 104 17 241 166 66 233 170 64 234 170 62 236 169 62 238 168 62
238 168 62 234 169 66 234 169 66 239 169 67 244 166 69 210 120 27
214 118 27 216 119 28 216 118 30 216 118 30 216 118 30 216 118 30
216 118 32 216 118 35 222 114 37 200 69 6 207 66 9 207 65 11
207 65 11 207 65 11 207 65 11 207 65 11 207 65 11 206 68 10 206 68 10
204 65 7 203 64 6 203 64 6 203 64 6 203 64 6 203 64 6 203 64 6
203 64 6 203 64 6 203 64 6 202 66 7 202 66 7 202 66 7 202 66 7
202 66 7 202 66 7 202 66 7 202 66 7 202 66 7 203 67 9 205 72 10
207 73 11 207 73 11 207 73 11 207 74 9 207 74 9 206 76 8 206 76 8
206 76 8 206 76 8 211 84 15 211 84 15 211 84 15 211 84 15 211 84 13
211 84 13 211 84 13 211 84 13 213 85 16 211 84 15 208 80 12 207 79 11
208 80 12 208 80 12 208 80 12 208 80 12 208 80 12 208 80 12 208 80 12
208 80 12 216 88 20 216 88 20 216 88 20 216 88 20 216 88 20 216 88 20
216 88 20 216 88 20 216 88 20 218 91 22 206 78 9 207 79 11 208 78 11
208 78 11 208 78 11 208 78 11 208 78 11 208 78 11 208 78 11 207 77 9
206 76 8 207 74 7 207 74 7 207 74 7 207 74 7 207 74 7 207 74 7
205 75 7 206 76 10 206 76 10 206 76 10 206 76 10 207 73 11 207 73 11
207 73 11 207 73 11 208 74 12 208 74 12 206 75 12 206 75 12 200 69 6
200 69 6 202 68 6 202 68 6 205 69 6 205 69 6 203 70 6 203 70 6
205 72 8 201 71 6 215 82 15 211 79 12 212 82 14 212 82 14 212 82 12
212 82 12 212 82 12 212 82 12 212 82 12 212 82 12 206 70 11 206 70 11
206 70 11 206 70 11 206 70 11 206 70 11 206 70 11 206 70 11 206 70 9
206 70 7 228 93 27 225 93 26 222 95 24 220 95 24 219 97 22 216 98 22
211 100 24 209 101 24 209 101 22 204 104 20 242 162 66 235 165 64
237 165 62 237 165 62 235 166 62 234 167 62 231 168 64 231 167 66
241 173 73 236 161 63 213 125 34 208 113 25 220 120 33 220 120 33
220 119 35 220 119 35 220 119 35 220 119 35 220 119 37 226 115 41
200 69 6 207 66 9 207 65 11 207 65 11 207 65 11 207 65 11 207 65 11
207 65 11 206 68 10 205 66 9 205 66 9 204 65 7 205 66 9 205 66 9
205 66 9 205 66 9 205 66 9 205 66 9 205 66 9 205 66 9 205 68 10
205 68 10 203 67 9 203 67 9 203 67 9 203 67 9 202 66 7 202 66 7
202 68 9 204 70 11 205 72 10 208 74 12 208 74 12 207 73 11 207 74 9
207 74 9 205 75 7 205 75 7 205 75 7 205 75 7 211 84 15 211 84 15
211 84 15 211 84 15 211 84 13 211 84 13 211 84 13 213 85 14 213 85 16
211 84 15 209 81 13 208 80 12 210 79 12 211 81 13 211 81 13 211 81 13
209 81 13 209 81 13 209 81 13 209 81 13 217 90 21 217 90 21 217 90 21
217 90 21 217 90 21 217 90 21 217 90 21 217 90 21 219 89 21 214 84 16
208 78 11 208 78 11 208 78 11 208 78 11 208 78 11 208 78 11 208 78 11
208 78 11 208 78 11 207 77 9 207 77 9 206 76 8 206 76 8 206 76 8
206 76 8 206 76 8 206 76 8 205 75 7 203 72 7 203 72 7 204 73 8
204 73 8 204 73 8 204 73 8 204 73 8 204 73 8 205 74 9 205 74 9
205 74 9 205 74 9 200 70 4 200 70 4 201 71 6 203 70 6 203 70 6
203 70 6 206 70 7 206 70 7 207 74 9 203 70 6 213 83 15 208 78 11
212 82 14 210 83 14 210 83 12 210 83 12 210 83 12 210 83 12 210 83 12
210 83 12 206 70 11 206 70 11 206 70 11 206 70 11 206 70 11 206 70 11
206 70 11 206 70 11 209 70 10 206 68 8 225 87 24 221 86 20 224 94 24
222 95 24 220 96 22 217 97 22 212 99 24 211 100 24 212 100 22
208 103 20 245 158 67 242 160 65 244 159 63 244 160 61 242 160 61
239 162 63 236 163 65 236 163 65 245 167 70 243 158 63 223 125 37
222 117 32 221 114 29 221 114 31 221 113 33 221 113 33 221 114 31
222 112 33 222 112 35 227 109 37 202 68 6 207 66 9 207 65 11
207 65 11 207 65 11 207 65 11 207 65 11 205 64 9 204 65 7 204 65 7
206 68 10 207 69 11 207 69 11 207 69 11 207 69 11 207 69 11 207 69 11
207 69 11 207 69 11 207 69 11 207 71 12 207 71 12 206 70 11 206 70 11
206 70 11 206 70 11 205 68 10 205 68 10 205 72 12 208 74 14 209 75 13
210 77 15 209 75 13 208 74 12 208 75 10 207 74 9 205 75 7 205 75 7
205 75 7 205 75 7 211 84 15 211 84 15 211 84 15 211 84 15 211 84 13
211 84 13 211 84 13 213 85 14 213 85 16 211 84 15 209 81 13 208 80 12
210 79 12 211 81 13 211 81 13 211 81 13 209 81 13 209 81 13 209 81 13
209 81 13 218 91 22 218 91 22 218 91 22 218 91 22 218 91 22 218 91 22
218 91 22 218 91 22 217 86 19 211 81 13 208 78 11 208 78 11 208 78 11
208 78 11 208 78 11 208 78 11 208 78 11 208 78 11 208 78 11 207 77 9
206 78 9 204 77 8 204 77 8 204 77 8 204 77 8 204 77 8 204 77 8
204 77 8 204 73 8 203 72 7 203 72 7 201 71 6 205 74 9 205 74 9
205 74 9 205 74 9 206 76 10 206 76 10 206 76 10 206 76 10 201 71 6
201 71 6 201 71 6 201 71 6 204 71 7 204 71 7 206 70 7 206 70 7
205 72 8 204 71 7 217 86 19 214 84 16 209 81 13 208 82 13 208 83 11
208 83 11 208 83 11 208 83 11 208 83 11 208 83 11 206 70 11 206 70 11
206 70 11 206 70 11 206 70 11 206 70 11 206 70 11 207 69 11 211 71 11
205 65 5 220 82 20 214 79 13 209 77 7 207 77 7 206 79 5 202 80 5
199 82 7 199 82 7 201 81 5 198 83 3 210 111 23 207 113 21 212 110 19
213 110 19 212 110 19 210 111 19 207 113 21 207 113 21 215 115 28
216 109 25 202 83 3 202 78 0 203 84 6 203 84 6 203 83 8 203 83 8
203 83 8 205 83 8 205 82 10 208 80 12 202 68 6 205 66 9 205 66 9
205 66 9 207 65 11 207 65 11 207 65 11 207 65 11 199 61 3 203 64 6
207 69 11 212 73 15 212 74 13 212 74 13 212 74 13 212 74 13 212 74 13
212 74 13 210 75 13 210 75 13 212 76 15 212 76 15 210 75 13 210 75 13
209 75 13 209 75 13 208 74 12 208 74 12 209 75 13 210 77 15 210 77 15
210 77 15 210 77 15 210 77 15 209 76 11 208 75 10 206 76 8 206 76 8
206 76 8 206 76 8 213 85 16 213 85 16 213 85 16 213 85 16 213 85 14
213 85 14 213 85 14 214 86 16 214 86 18 213 85 16 210 83 14 209 81 13
209 81 13 210 83 14 210 83 14 210 83 14 209 81 13 209 81 13 209 81 13
208 80 12 208 80 12 207 79 11 207 79 11 207 79 11 207 79 11 207 79 11
207 79 11 207 79 11 214 84 16 208 78 11 208 78 11 208 78 11 208 78 11
208 78 11 208 78 11 208 78 11 208 78 11 208 78 11 207 79 11 207 79 11
220 92 23 218 93 23 218 93 21 218 93 21 218 93 23 218 93 23 218 93 23
220 92 23 221 93 25 218 91 22 214 86 18 211 84 15 210 79 14 210 79 14
210 79 14 210 79 14 211 80 15 211 80 15 211 80 15 211 80 15 204 73 8
204 73 8 204 73 8 204 73 8 204 71 7 204 71 7 207 72 8 207 72 8
205 72 8 207 74 9 223 90 23 222 92 25 223 98 26 221 99 26 221 99 26
221 99 24 221 99 24 221 99 24 221 99 24 221 99 24 205 68 10 205 68 10
205 68 10 205 68 10 205 68 10 205 68 10 205 68 10 206 68 10 211 71 11
205 65 5 217 79 16 208 73 7 210 77 11 210 78 9 208 79 9 207 79 9
205 80 9 204 81 9 207 80 7 204 82 5 215 106 22 214 107 20 215 106 20
217 106 20 217 106 20 217 106 20 214 107 20 214 107 22 221 109 26
225 106 26 212 83 6 213 82 8 204 78 2 203 79 2 203 78 4 204 78 4
204 78 4 206 76 6 205 75 7 205 72 8 203 68 6 203 68 6 204 65 7
204 65 7 204 63 8 204 63 8 204 63 8 204 63 8 196 57 0 202 63 5
210 71 13 214 76 18 214 76 16 214 76 16 214 76 16 214 76 16 214 76 16
214 76 16 213 77 16 213 77 16 214 78 17 214 78 17 213 77 16 213 77 16
211 78 16 211 78 16 210 77 15 210 77 15 210 77 15 210 77 15 210 77 15
210 77 15 210 77 15 210 77 15 210 77 13 210 77 13 208 78 11 208 78 11
208 78 11 208 78 11 214 86 18 214 86 18 214 86 18 214 86 18 214 86 16
214 86 16 214 86 16 215 88 17 215 87 19 214 86 18 211 84 15 210 83 14
210 83 14 211 84 15 210 83 14 210 83 14 210 83 14 210 83 14 209 81 13
209 81 13 208 80 12 208 80 12 208 80 12 208 80 12 208 80 12 208 80 12
208 80 12 208 80 12 210 79 12 208 78 11 208 78 11 208 78 11 208 78 11
208 78 11 208 78 11 208 78 11 208 78 11 208 78 11 207 79 11 207 79 11
217 92 22 215 92 22 215 93 20 215 93 20 217 92 22 217 92 22 217 92 22
217 92 22 222 96 27 218 91 22 211 84 15 208 80 12 209 81 15 211 80 15
211 80 15 211 80 15 212 81 16 212 81 16 212 81 16 212 81 16 206 76 10
206 76 10 205 74 9 205 74 9 205 72 8 205 72 8 207 72 8 207 72 8
204 71 7 206 76 10 224 97 28 224 99 29 218 98 25 218 98 25 218 99 23
218 99 23 218 99 23 218 99 23 218 99 23 218 99 23 206 68 10 206 68 10
206 68 10 206 68 10 206 68 10 206 68 10 205 69 8 205 69 8 205 67 6
205 67 6 211 73 10 209 74 10 208 75 8 208 75 8 209 76 9 209 77 7
209 77 7 207 77 7 207 78 5 206 79 3 221 102 21 217 103 21 216 104 21
216 104 21 216 104 21 214 105 21 214 105 21 216 104 23 219 102 23
222 100 23 206 79 3 207 78 5 211 81 9 209 82 9 209 82 9 208 81 8
210 80 10 208 79 9 210 77 11 210 77 13 201 65 4 201 65 4 203 64 6
203 64 6 203 62 5 203 62 5 203 62 5 203 62 5 200 62 4 199 61 1
212 74 13 212 74 13 213 75 15 213 75 15 212 76 15 212 76 15 212 76 15
212 76 15 212 76 15 212 76 15 213 77 16 213 77 16 212 76 15 212 76 15
210 77 15 210 77 15 209 75 13 209 75 13 210 77 15 210 77 15 210 77 13
210 77 13 210 77 13 210 77 13 210 77 13 210 77 13 208 78 11 208 78 11
208 78 11 208 78 11 214 86 18 214 86 18 214 86 18 214 86 18 212 87 16
212 87 16 212 87 16 213 88 17 213 88 19 212 87 18 210 85 15 209 83 14
210 83 14 211 84 15 211 84 15 211 84 15 210 83 14 210 83 14 210 83 14
210 83 14 211 81 13 211 81 13 211 81 13 211 81 13 211 81 13 211 81 13
211 81 13 211 81 13 210 79 12 210 79 12 210 79 12 210 79 12 210 79 12
210 79 12 210 79 12 210 79 12 210 79 12 210 79 12 210 80 10 208 81 10
216 94 21 215 95 21 215 95 21 216 94 21 216 94 21 216 94 21 216 94 21
216 94 21 216 94 21 219 94 23 208 83 11 209 83 14 210 83 14 210 83 14
210 83 14 210 83 14 210 83 14 210 83 14 210 83 14 210 83 14 206 76 10
206 76 10 206 76 10 206 76 10 205 74 9 207 74 9 207 72 8 207 72 8
204 71 7 204 76 10 219 99 30 219 101 29 218 100 26 218 101 24
218 101 24 218 101 24 218 101 24 218 101 24 218 101 24 218 101 24
205 66 9 205 66 9 205 66 9 205 66 9 205 66 9 205 66 9 203 68 6
203 68 6 205 67 6 206 68 8 209 74 10 209 74 10 208 75 8 208 75 8
210 75 9 210 75 9 210 76 7 210 76 7 209 77 5 207 78 5 222 100 23
219 103 21 217 103 21 216 104 21 214 105 21 214 105 21 216 104 23
217 103 23 221 101 23 224 100 23 206 79 5 206 79 5 211 81 9 211 81 9
209 82 9 208 81 8 210 80 10 208 78 11 210 77 13 210 77 13 200 64 3
200 64 3 202 63 5 202 63 5 202 61 4 202 61 4 202 61 4 202 61 4
200 62 2 199 61 1 213 75 15 212 74 13 213 75 15 213 75 15 212 76 15
212 76 15 212 76 15 212 76 15 212 76 15 212 76 15 213 77 16 213 77 16
212 76 15 212 76 15 210 77 15 210 77 15 209 75 13 209 75 13 210 77 15
210 77 15 210 77 13 210 77 13 210 77 13 210 77 13 210 77 13 210 77 13
208 78 11 208 78 11 208 78 11 208 78 11 214 86 18 214 86 18 214 86 18
214 86 18 212 87 16 212 87 16 212 87 16 212 87 16 213 88 19 212 87 18
209 83 14 208 82 13 210 83 14 210 83 14 210 83 14 210 83 14 210 83 14
210 83 14 210 83 14 210 83 14 211 81 13 211 81 13 211 81 13 211 81 13
211 81 13 211 81 13 211 81 13 211 81 13 210 79 12 210 79 12 210 79 12
210 79 12 210 79 12 210 79 12 210 79 12 210 79 12 210 79 12 210 79 12
210 80 10 208 81 10 216 94 21 215 95 21 215 95 21 215 95 21 216 94 21
216 94 21 216 94 21 216 94 21 216 94 21 218 95 23 206 83 11 209 84 12
210 83 14 210 83 14 210 83 14 210 83 14 210 83 14 210 83 14 210 83 14
210 83 14 206 76 10 206 76 10 206 76 10 206 76 10 205 74 9 207 74 9
207 72 8 207 72 8 204 71 7 203 77 10 218 99 30 216 103 29 216 101 26
216 101 24 216 101 24 216 101 24 216 101 24 216 101 24 216 101 24
216 101 24 205 66 9 205 66 9 205 66 9 205 66 9 205 66 9 205 66 9
205 67 6 205 67 6 203 68 6 205 69 8 209 74 10 208 75 10 208 75 8
208 75 8 210 75 9 210 75 9 210 76 7 210 76 7 209 77 5 206 79 5
222 100 23 219 102 23 217 103 23 216 104 23 214 105 23 214 105 23
216 104 23 217 103 23 221 101 25 224 99 25 206 79 5 206 79 5
211 81 11 211 81 11 209 82 9 208 81 10 210 79 12 208 78 13 210 77 13
210 77 13 200 64 3 200 64 3 202 63 5 202 63 5 202 61 4 202 61 4
202 61 4 202 61 4 200 62 2 199 61 1 213 75 15 212 74 13 213 75 13
213 75 13 212 76 13 212 76 13 212 76 13 212 76 13 210 77 13 210 77 13
211 78 14 211 78 14 210 77 13 210 77 13 210 77 13 210 77 13 209 76 11
209 76 11 210 77 13 210 77 13 210 77 13 210 77 13 210 77 13 210 77 13
210 77 13 210 77 13 208 78 11 208 78 11 208 78 11 208 78 11 214 86 18
214 86 18 214 86 18 214 86 18 212 87 16 212 87 16 212 87 16 212 87 16
213 88 19 212 87 18 209 83 14 208 82 13 209 83 14 209 83 14 209 83 14
209 83 14 210 83 14 210 83 14 210 83 14 210 83 14 211 81 13 211 81 13
211 81 13 211 81 13 211 81 13 211 81 13 211 81 13 211 81 13 210 79 12
210 79 12 210 79 12 210 79 12 210 79 12 210 79 12 210 79 12 210 79 12
210 79 12 210 79 12 210 80 10 208 81 10 216 94 21 215 95 21 215 95 19
215 95 19 216 94 19 216 94 19 216 94 19 216 94 19 216 94 21 218 95 23
206 83 11 209 84 12 210 83 14 210 83 14 210 83 14 210 83 14 210 83 14
210 83 14 210 83 14 210 83 14 206 76 10 206 76 10 206 76 10 206 76 10
205 74 9 207 74 9 208 73 9 208 73 9 204 71 7 203 77 10 218 99 30
216 103 29 216 101 24 216 102 22 216 102 22 216 102 22 216 102 22
216 102 22 216 102 22 216 102 22 205 66 9 205 66 9 205 66 9 205 66 9
205 66 9 205 66 9 205 67 6 205 67 6 203 68 6 205 69 8 208 75 10
208 75 10 208 75 8 208 75 8 210 75 9 210 75 9 210 76 7 210 76 7
209 77 5 206 79 5 222 100 25 219 102 23 217 103 23 216 104 23
214 105 23 214 105 23 216 104 23 217 103 25 221 101 25 224 99 25
206 79 5 206 79 5 211 81 11 211 81 11 209 82 9 208 81 10 210 79 12
208 78 13 210 77 13 210 77 13 200 64 3 200 64 3 202 63 5 202 63 5
202 61 4 202 61 4 202 61 4 202 61 4 200 62 2 199 61 1 213 75 15
212 74 13 213 75 13 213 75 13 212 76 13 212 76 13 212 76 13 212 76 13
210 77 13 210 77 13 211 78 14 211 78 14 210 77 13 210 77 13 210 77 13
210 77 13 209 76 11 209 76 11 210 77 13 210 77 13 210 77 13 210 77 13
210 77 13 210 77 13 210 77 13 210 77 13 208 78 11 208 78 11 208 78 11
208 78 11 214 86 18 214 86 18 214 86 18 214 86 18 212 87 16 212 87 16
212 87 16 212 87 16 213 88 19 212 87 18 209 83 14 208 82 13 209 83 14
209 83 14 209 83 14 209 83 14 210 83 14 210 83 14 210 83 14 210 83 14
211 81 13 211 81 13 211 81 13 211 81 13 211 81 13 211 81 13 211 81 13
211 81 13 210 79 12 210 79 12 210 79 12 210 79 12 210 79 12 210 79 12
210 79 12 210 79 12 210 79 12 210 79 12 210 80 10 208 81 10 216 94 21
215 95 21 215 95 19 215 95 19 216 94 19 216 94 19 216 94 19 216 94 19
216 94 21 218 95 23 206 83 11 209 84 12 210 83 14 210 83 14 210 83 14
210 83 14 210 83 14 210 83 14 210 83 14 210 83 14 206 76 10 206 76 10
206 76 10 206 76 10 205 74 9 207 74 9 208 73 9 208 73 9 204 71 7
203 77 10 218 99 30 216 103 29 216 101 24 216 102 22 216 102 22
216 102 22 216 102 22 216 102 22 216 102 22 216 102 22 207 66 9
207 66 9 207 66 9 207 66 9 207 66 9 207 66 9 205 67 6 205 67 6
203 68 6 205 69 8 207 74 9 207 74 9 208 75 8 208 75 8 209 74 8
209 74 8 210 76 7 210 76 7 209 77 7 206 78 7 222 100 25 219 102 25
217 103 25 216 103 25 214 104 25 214 104 25 216 103 25 217 103 25
221 101 27 224 99 27 206 78 7 206 78 7 210 80 10 210 80 10 208 81 10
208 81 10 210 79 12 210 79 14 211 78 14 211 78 14 200 64 3 200 64 3
202 63 5 202 63 5 202 61 4 202 61 4 202 61 4 202 61 4 200 62 2
199 61 1 213 75 15 212 74 13 213 75 13 213 75 13 212 76 13 212 76 13
212 76 13 212 76 13 210 77 13 210 77 13 211 78 14 211 78 14 211 78 14
211 78 14 210 77 13 210 77 13 210 77 13 210 77 13 210 77 13 210 77 13
210 77 13 210 77 13 210 77 13 210 77 13 210 77 13 210 77 13 208 78 11
208 78 11 208 78 11 208 78 11 214 86 18 214 86 18 214 86 18 214 86 18
212 87 16 212 87 16 212 87 16 212 87 16 213 88 19 212 87 18 209 83 14
208 82 13 209 83 14 209 83 14 209 83 14 209 83 14 210 83 14 210 83 14
210 83 14 209 81 13 211 81 13 210 79 12 210 79 12 210 79 12 211 81 13
211 81 13 211 81 13 211 81 13 212 80 13 212 80 13 212 80 13 212 80 13
211 81 13 211 81 13 211 81 13 211 81 13 211 81 13 211 81 13 211 81 11
209 82 11 218 95 23 216 96 23 216 96 21 216 96 21 218 95 21 218 95 21
218 95 21 218 95 21 218 95 23 219 96 24 207 85 12 210 85 13 211 84 15
211 84 15 211 84 15 211 84 15 211 84 15 211 84 15 211 84 15 211 84 15
205 74 9 205 74 9 205 74 9 205 74 9 205 74 9 207 74 9 208 73 9
208 73 9 204 71 7 203 77 10 218 99 30 216 103 29 216 101 24
216 102 22 216 102 22 216 102 22 216 102 22 216 102 22 216 102 22
216 102 22 207 66 9 207 66 9 207 66 9 207 66 9 207 66 9 207 66 9
205 67 6 205 67 6 203 68 6 205 69 8 207 74 9 207 74 9 208 75 8
208 75 8 209 74 8 209 74 8 210 76 7 210 76 7 209 77 7 206 78 7
222 100 25 219 102 25 217 103 25 216 103 25 214 104 25 214 104 25
216 103 25 217 103 25 221 101 27 224 99 27 206 78 7 206 78 7
210 80 10 210 80 10 208 81 10 208 80 12 210 79 14 210 79 14 211 78 14
211 78 14 200 64 3 200 64 3 202 63 5 200 62 4 202 61 4 202 61 4
202 61 4 202 61 4 200 62 2 199 61 1 213 75 15 212 74 13 213 75 13
213 75 13 212 76 13 212 76 13 212 76 13 212 76 13 210 77 13 210 77 13
211 78 14 211 78 14 211 78 14 211 78 14 210 77 13 210 77 13 210 77 13
210 77 13 210 77 13 210 77 13 210 77 13 210 77 13 210 77 13 210 77 13
210 77 13 210 77 13 208 78 11 208 78 11 208 78 11 208 78 11 214 86 18
214 86 18 214 86 18 214 86 18 212 87 16 212 87 16 212 87 16 212 87 16
213 88 19 212 87 18 209 83 14 208 82 13 209 83 14 209 83 14 209 83 14
209 83 14 210 83 14 210 83 14 210 83 14 209 81 13 211 81 13 210 79 12
210 79 12 210 79 12 211 81 13 211 81 13 211 81 13 211 81 13 212 80 13
212 80 13 212 80 13 212 80 13 211 81 13 211 81 13 211 81 13 211 81 13
211 81 13 211 81 13 211 81 11 209 82 11 218 95 23 216 96 23 216 96 21
216 96 21 218 95 21 218 95 21 218 95 21 218 95 21 218 95 23 219 96 24
207 85 12 210 85 13 211 84 15 211 84 15 211 84 15 211 84 15 211 84 15
211 84 15 211 84 15 211 84 15 205 74 9 205 74 9 205 74 9 205 74 9
205 74 9 207 74 9 208 73 9 208 73 9 204 71 7 203 77 10 218 99 30
216 103 29 216 101 24 216 102 22 216 102 22 216 102 22 216 102 22
216 102 22 216 102 22 216 102 22 207 66 9 207 66 9 207 66 9 207 66 9
207 66 9 207 66 9 205 67 6 205 67 6 203 68 6 205 69 8 207 74 9
207 74 9 208 75 8 208 75 8 209 74 8 209 74 8 210 76 7 210 76 7
209 77 7 206 78 7 222 100 25 219 102 25 217 103 25 216 103 25
214 104 25 214 104 25 216 103 25 217 103 25 221 101 27 224 99 27
206 78 7 206 78 7 210 80 10 210 80 10 208 81 10 208 80 12 210 79 14
210 79 14 211 78 14 211 78 14 200 64 3 200 64 3 202 63 5 200 62 4
202 61 4 202 61 4 202 61 4 202 61 4 200 62 2 199 61 1 213 75 15
212 74 13 213 75 13 213 75 13 212 76 13 212 76 13 212 76 13 212 76 13
210 77 13 210 77 13 211 78 14 211 78 14 211 78 14 211 78 14 210 77 13
210 77 13 210 77 13 210 77 13 210 77 13 210 77 13 210 77 13 210 77 13
210 77 13 210 77 13 210 77 13 210 77 13 208 78 11 208 78 11 208 78 11
208 78 11 214 86 18 214 86 18 214 86 18 214 86 18 212 87 16 212 87 16
212 87 16 212 87 16 213 88 19 212 87 18 209 83 14 208 82 13 209 83 14
209 83 14 209 83 14 209 83 14 210 83 14 210 83 14 210 83 14 209 81 13
211 81 13 210 79 12 210 79 12 210 79 12 211 81 13 211 81 13 211 81 13
211 81 13 212 80 13 212 80 13 212 80 13 212 80 13 211 81 13 211 81 13
211 81 13 211 81 13 211 81 13 211 81 13 211 81 11 209 82 11 218 95 23
216 96 23 216 96 21 216 96 21 218 95 21 218 95 21 218 95 21 218 95 21
218 95 23 219 96 24 207 85 12 210 85 13 211 84 15 211 84 15 211 84 15
211 84 15 211 84 15 211 84 15 211 84 15 211 84 15 205 74 9 205 74 9
205 74 9 205 74 9 205 74 9 207 74 9 208 73 9 208 73 9 204 71 7
203 77 10 218 99 30 216 103 29 216 101 24 216 102 22 216 102 22
216 102 22 216 102 22 216 102 22 216 102 22 216 102 22 207 66 9
207 66 9 207 66 9 207 66 9 207 66 9 207 66 9 205 67 6 205 67 6
203 68 6 205 69 8 207 74 9 207 74 9 208 75 8 208 75 8 209 74 8
209 74 8 210 76 7 210 76 7 209 77 7 206 78 7 222 100 25 219 102 25
217 103 25 216 103 25 214 104 25 214 104 25 216 103 25 217 103 25
221 101 27 224 99 27 206 78 7 206 78 7 210 80 10 210 80 10 208 81 10
208 80 12 210 79 14 210 79 14 211 78 14 211 78 14 200 64 3 200 64 3
200 62 4 200 62 4 202 61 4 202 61 4 202 61 4 202 61 4 200 62 2
199 61 1 213 75 15 212 74 13 213 75 13 213 75 13 212 76 13 212 76 13
212 76 13 212 76 13 210 77 13 210 77 13 211 78 14 211 78 14 211 78 14
211 78 14 210 77 13 210 77 13 210 77 13 210 77 13 210 77 13 210 77 13
210 77 13 210 77 13 210 77 13 210 77 13 210 77 13 210 77 13 208 78 11
208 78 11 208 78 11 208 78 11 214 86 18 214 86 18 214 86 18 214 86 18
212 87 16 212 87 16 212 87 16 212 87 16 213 88 19 212 87 18 209 83 14
208 82 13 209 83 14 209 83 14 209 83 14 209 83 14 210 83 14 210 83 14
210 83 14 209 81 13 211 81 13 210 79 12 210 79 12 210 79 12 211 81 13
211 81 13 211 81 13 211 81 13 212 80 13 212 80 13 212 80 13 212 80 13
211 81 13 211 81 13 211 81 13 211 81 13 211 81 13 211 81 13 211 81 11
209 82 11 218 95 23 216 96 23 216 96 21 216 96 21 218 95 21 218 95 21
218 95 21 218 95 21 218 95 23 219 96 24 207 85 12 210 85 13 211 84 15
211 84 15 211 84 15 211 84 15 211 84 15 211 84 15 211 84 15 211 84 15
205 74 9 205 74 9 205 74 9 205 74 9 205 74 9 207 74 9 208 73 9
208 73 9 204 71 7 203 77 10 218 99 30 216 103 29 216 101 24
216 102 22 216 102 22 216 102 22 216 102 22 216 102 22 216 102 22
216 102 22
