P3
160 160
255
205 72 12 205 72 12 205 72 12 205 72 12 207 71 12 207 71 12 207 71 12
208 72 13 210 71 13 207 69 11 203 64 6 200 62 4 203 62 5 204 63 6
204 63 6 204 63 6 204 63 6 204 63 6 205 64 7 205 64 7 207 66 9
207 66 9 206 68 10 206 68 10 206 68 10 206 68 10 205 68 10 203 67 9
202 68 6 204 71 9 208 74 12 210 77 15 210 79 14 210 79 14 210 79 14
210 79 14 210 79 12 210 79 12 210 79 12 208 78 11 208 78 11 207 77 9
207 77 9 207 77 9 209 76 9 209 76 9 209 76 11 209 76 11 209 74 8
208 78 11 227 109 35 222 115 32 219 117 28 219 117 26 222 116 24
222 116 26 219 117 28 217 118 28 218 119 32 218 119 32 220 120 33
220 120 33 221 121 34 221 121 34 222 120 34 221 121 34 219 122 34
219 122 34 218 119 32 224 117 33 214 100 18 218 99 19 217 100 19
217 100 19 217 100 19 217 100 19 218 99 21 217 98 20 216 97 19
215 95 17 215 95 19 214 94 18 212 93 17 211 92 16 213 90 18 213 90 18
213 90 18 213 90 18 212 89 17 212 89 17 212 89 17 212 89 17 212 89 17
212 89 17 212 89 17 212 89 17 212 89 17 212 89 17 213 90 18 213 90 18
213 90 18 213 90 18 214 92 19 214 92 19 217 92 20 215 93 20 212 95 18
212 95 16 216 97 17 211 102 14 238 152 54 230 156 52 229 157 52
227 158 52 227 158 52 227 158 52 229 157 52 229 157 52 228 156 50
226 155 49 227 153 48 226 152 47 225 150 46 225 150 46 226 150 46
226 150 46 226 150 46 226 150 44 230 152 44 237 146 47 205 88 9
213 83 15 211 83 19 211 83 19 216 82 13 218 81 13 216 80 19 215 81 21
213 80 20 212 79 19 210 77 15 209 75 13 207 73 11 207 73 11 207 73 11
207 73 11 205 72 10 205 72 10 207 71 10 207 71 10 207 71 10 206 70 9
206 70 9 205 69 8 205 69 8 205 69 8 206 68 10 206 68 10 206 68 10
206 68 10 205 72 12 205 72 12 205 72 12 205 72 12 207 71 12 207 71 12
207 71 12 208 72 13 210 71 13 207 69 11 203 64 6 200 62 4 203 62 5
204 63 6 204 63 6 204 63 6 204 63 6 204 63 6 205 64 7 205 64 7
207 66 9 207 66 9 206 68 10 206 68 10 206 68 10 206 68 10 205 68 10
203 67 9 202 68 6 204 71 9 208 74 12 210 77 15 210 79 14 210 79 14
210 79 14 210 79 14 210 79 12 210 79 12 210 79 12 208 78 11 208 78 11
207 77 9 207 77 9 207 77 9 209 76 9 209 76 9 209 76 11 209 76 11
209 74 8 208 78 11 227 109 35 222 115 32 219 117 28 219 117 26
222 116 24 222 116 26 219 117 28 217 118 28 218 119 32 218 119 32
220 120 33 220 120 33 221 121 34 221 121 34 222 120 34 221 121 34
219 122 34 219 122 34 218 119 32 224 117 33 214 100 18 218 99 19
217 100 19 217 100 19 217 100 19 217 100 19 218 99 21 217 98 20
216 97 19 215 95 17 215 95 19 214 94 18 212 93 17 211 92 16 213 90 18
213 90 18 213 90 18 213 90 18 212 89 17 212 89 17 212 89 17 212 89 17
212 89 17 212 89 17 212 89 17 212 89 17 212 89 17 212 89 17 213 90 18
213 90 18 213 90 18 213 90 18 214 92 19 214 92 19 217 92 20 215 93 20
212 95 18 212 95 16 216 97 17 211 102 14 238 152 54 230 156 52
229 157 52 227 158 52 227 158 52 227 158 52 229 157 52 229 157 52
228 156 50 226 155 49 227 153 48 226 152 47 225 150 46 225 150 46
226 150 46 226 150 46 226 150 46 226 150 44 230 152 44 237 146 47
205 88 9 213 83 15 211 83 19 211 83 19 216 82 13 218 81 13 216 80 19
215 81 21 213 80 20 212 79 19 210 77 15 209 75 13 207 73 11 207 73 11
207 73 11 207 73 11 205 72 10 205 72 10 207 71 10 207 71 10 207 71 10
206 70 9 206 70 9 205 69 8 205 69 8 205 69 8 206 68 10 206 68 10
206 68 10 206 68 10 205 72 12 205 72 12 205 72 12 205 72 12 207 71 12
207 71 12 207 71 12 208 72 13 210 71 13 207 69 11 203 64 6 200 62 4
203 62 5 204 63 6 204 63 6 204 63 6 204 63 6 204 63 6 205 64 7
205 64 7 207 66 9 207 66 9 206 68 10 206 68 10 206 68 10 206 68 10
205 68 10 203 67 9 202 68 6 204 71 9 208 74 12 210 77 15 210 79 14
210 79 14 210 79 14 210 79 14 210 79 12 210 79 12 210 79 12 208 78 11
208 78 11 207 77 9 207 77 9 207 77 9 209 76 9 209 76 9 209 76 11
209 76 11 209 74 8 208 78 11 227 109 35 222 115 32 219 117 28
219 117 26 222 116 24 222 116 26 219 117 28 217 118 28 218 119 32
218 119 32 220 120 33 220 120 33 221 121 34 221 121 34 222 120 34
221 121 34 219 122 34 219 122 34 218 119 32 224 117 33 214 100 18
218 99 19 217 100 19 217 100 19 217 100 19 217 100 19 218 99 21
217 98 20 216 97 19 215 95 17 215 95 19 214 94 18 212 93 17 211 92 16
213 90 18 213 90 18 213 90 18 213 90 18 212 89 17 212 89 17 212 89 17
212 89 17 212 89 17 212 89 17 212 89 17 212 89 17 212 89 17 212 89 17
213 90 18 213 90 18 213 90 18 214 92 19 215 93 20 215 93 20 217 92 20
215 93 20 212 95 18 212 95 16 216 97 17 211 102 14 238 152 54
230 156 52 229 157 52 227 158 52 227 158 52 227 158 52 229 157 52
229 157 52 229 157 52 228 156 50 227 153 48 226 152 47 225 150 46
225 150 46 226 150 46 226 150 46 226 150 46 226 150 44 230 152 44
237 146 47 205 88 9 213 83 15 211 83 19 211 83 19 216 82 13 218 81 13
216 80 19 215 81 21 213 80 20 212 79 19 210 77 15 209 75 13 207 73 11
207 73 11 207 73 11 207 73 11 205 72 10 205 72 10 207 71 10 207 71 10
207 71 10 206 70 9 206 70 9 205 69 8 205 69 8 205 69 8 206 68 10
206 68 10 206 68 10 206 68 10 205 72 12 205 72 12 205 72 12 207 71 12
207 71 12 207 71 12 207 71 12 208 72 13 210 71 13 207 69 11 203 64 6
200 62 4 203 62 5 204 63 6 204 63 6 204 63 6 204 63 6 204 63 6
205 64 7 205 64 7 207 66 9 207 66 9 206 68 10 206 68 10 206 68 10
206 68 10 205 68 10 203 67 9 202 68 6 204 71 9 208 74 12 210 77 15
210 79 14 210 79 14 210 79 14 210 79 14 210 79 12 210 79 12 210 79 12
208 78 11 207 77 9 207 77 9 207 77 9 207 77 9 209 76 9 209 76 9
209 76 11 210 75 11 209 74 8 208 78 11 227 109 35 222 115 32
219 117 28 219 117 26 222 116 26 222 116 26 219 117 28 217 118 28
218 119 32 218 119 32 220 120 33 220 120 33 221 121 34 221 121 34
222 120 34 221 121 34 219 122 34 219 122 34 218 119 32 224 117 33
214 100 18 218 99 19 217 100 19 217 100 19 217 100 19 217 100 19
218 99 21 217 98 20 216 97 19 215 95 17 215 95 19 214 94 18 212 93 17
211 92 16 213 90 18 213 90 18 213 90 18 213 90 18 212 89 17 212 89 17
212 89 17 212 89 17 212 89 17 212 89 17 212 89 17 212 89 17 212 89 17
212 89 17 213 90 18 213 90 18 213 90 18 214 92 19 215 93 20 215 93 20
217 92 20 215 93 20 212 95 18 212 95 16 215 96 15 210 101 12
237 151 52 229 155 50 229 157 52 227 158 52 227 158 52 229 157 52
229 157 52 229 157 52 229 157 52 228 156 50 225 150 46 225 150 46
223 149 45 223 149 45 226 150 46 226 150 46 226 150 46 226 150 46
230 152 44 237 146 47 205 88 9 213 83 15 211 83 19 211 83 19
216 81 15 218 81 13 216 80 19 215 81 21 213 80 20 212 79 19 210 77 15
209 75 13 207 73 11 207 73 11 207 73 11 207 73 11 205 72 10 207 71 10
207 71 10 207 71 10 207 71 10 206 70 9 206 70 9 205 69 8 205 69 8
205 69 8 206 68 10 206 68 10 206 68 10 206 68 10 207 71 12 207 71 12
207 71 12 207 71 12 209 70 12 209 70 12 209 70 12 210 71 13 210 71 13
207 69 11 203 64 6 200 62 4 203 62 5 204 63 6 204 63 6 204 63 6
204 63 8 204 63 8 205 64 7 205 64 7 205 64 7 205 64 7 205 66 9
205 66 9 205 66 9 205 66 9 203 67 9 202 66 7 201 67 5 203 70 8
207 73 11 209 75 13 211 78 14 211 78 14 211 78 14 211 78 14 210 79 12
210 79 12 210 79 12 210 79 12 207 77 9 206 76 8 206 76 8 206 76 8
208 75 8 209 74 8 209 74 10 209 74 10 210 72 9 207 77 9 226 108 34
222 112 33 220 116 30 220 116 28 224 115 26 224 115 26 220 116 28
219 117 28 220 118 32 220 118 32 218 119 32 218 119 32 220 120 33
220 120 33 222 120 34 221 121 34 219 122 34 219 122 34 218 119 32
224 117 33 214 100 18 218 99 19 217 100 19 217 100 19 217 100 19
217 100 19 218 99 21 217 98 20 216 97 19 215 95 17 215 95 19
214 94 18 212 93 17 211 92 16 213 90 18 213 90 18 213 90 18 213 90 18
212 89 17 212 89 17 212 89 17 212 89 17 212 89 17 212 89 17 212 89 17
212 89 17 212 89 17 212 89 17 213 90 18 213 90 18 214 92 19 214 92 19
215 93 20 215 93 20 218 93 21 216 94 21 213 96 19 213 96 17 215 96 15
210 101 12 237 151 52 229 155 50 230 158 53 230 158 53 230 158 53
230 158 53 232 157 53 232 157 53 230 156 52 230 156 52 223 149 47
223 149 47 223 149 47 223 149 47 225 148 47 225 148 47 225 148 47
225 149 45 229 150 45 236 145 46 204 87 8 212 81 16 210 81 20
210 81 20 215 80 14 217 79 14 215 79 18 213 80 20 212 79 19 211 77 18
209 75 13 208 74 12 205 72 10 205 72 10 207 71 10 207 71 10 206 70 9
206 70 9 207 69 9 207 69 9 207 69 9 207 69 9 205 69 8 205 69 8
205 69 8 205 69 8 206 68 10 206 68 10 206 68 10 206 68 10 207 71 12
207 71 12 207 71 12 207 71 12 209 70 12 209 70 12 209 70 12 210 71 13
210 71 13 207 69 11 203 64 6 200 62 4 203 62 5 204 63 6 204 63 6
204 63 6 204 63 8 204 63 8 205 64 7 205 64 7 205 64 7 205 64 7
205 66 9 205 66 9 205 66 9 205 66 9 203 67 9 202 66 7 201 67 5
203 70 8 207 73 11 209 75 13 211 78 14 211 78 14 211 78 14 211 78 14
210 79 12 210 79 12 210 79 12 210 79 12 206 76 8 206 76 8 206 76 8
208 75 8 209 74 8 209 74 8 209 74 10 209 74 10 210 72 9 209 76 11
228 107 36 222 112 33 220 116 30 220 116 28 224 115 26 224 115 26
222 115 28 220 116 28 220 118 32 220 118 32 218 119 32 218 119 32
220 120 33 220 120 33 222 120 34 221 121 34 219 122 34 221 121 34
220 118 32 224 117 33 214 100 18 218 99 19 217 100 19 217 100 19
217 100 19 217 100 19 218 99 21 217 98 20 216 97 19 215 95 17
215 95 19 214 94 18 212 93 17 211 92 16 213 90 18 213 90 18 213 90 18
213 90 18 212 89 17 212 89 17 212 89 17 212 89 17 212 89 17 212 89 17
212 89 17 212 89 17 212 89 17 212 89 17 213 90 18 213 90 18 214 92 19
214 92 19 215 93 20 215 93 20 218 93 21 216 94 21 213 96 19 213 96 17
214 95 14 208 100 11 236 150 51 230 153 49 232 157 53 230 158 53
230 158 53 232 157 53 232 157 53 232 157 53 230 156 52 230 156 52
222 148 45 222 148 45 222 148 45 222 148 45 225 148 47 225 148 47
225 148 47 225 149 45 229 150 45 236 144 48 204 87 10 210 82 16
209 82 20 210 81 20 213 81 16 215 80 14 213 80 18 213 80 20 212 79 19
211 77 18 209 75 13 208 74 12 205 72 10 205 72 10 207 71 10 207 71 10
206 70 9 206 70 9 207 69 9 207 69 9 207 69 9 207 69 9 205 69 8
205 69 8 205 69 8 205 69 8 206 68 10 206 68 10 206 68 10 206 68 10
207 71 12 207 71 12 207 71 12 207 71 12 209 70 12 209 70 12 209 70 12
210 71 13 210 71 13 207 69 11 204 65 7 202 63 5 204 63 6 204 63 6
204 63 6 204 63 6 204 63 8 204 63 8 205 64 7 205 64 7 204 65 7
204 65 7 205 67 6 205 67 6 205 67 6 205 67 6 203 68 6 201 67 5
201 67 5 201 71 6 205 74 9 207 77 11 211 78 14 211 78 14 211 78 14
211 78 14 210 79 12 210 79 12 210 79 12 210 79 12 206 76 8 206 76 8
206 76 8 208 75 8 209 74 8 209 74 8 209 74 10 209 74 10 210 72 9
209 76 11 228 107 36 222 112 33 220 116 30 220 116 28 224 115 26
224 115 26 222 115 28 220 116 28 220 118 32 220 118 32 218 119 32
218 119 32 219 122 34 221 121 34 221 121 34 221 121 34 219 122 34
221 121 34 220 118 32 224 117 33 214 100 18 218 99 19 217 100 19
217 100 19 217 100 19 217 100 19 218 99 21 217 98 20 216 97 19
215 95 17 215 95 19 214 94 18 212 93 17 211 92 16 213 90 18 213 90 18
213 90 18 213 90 18 212 89 17 212 89 17 212 89 17 212 89 17 212 89 17
212 89 17 212 89 17 212 89 17 212 89 17 212 89 17 213 90 18 213 90 18
214 92 19 215 93 20 216 94 21 216 94 21 218 93 21 216 94 21 213 96 19
213 96 17 214 95 14 208 100 11 236 150 51 230 153 49 232 157 53
232 157 53 232 157 53 232 157 53 233 157 53 233 157 53 233 157 53
233 157 53 222 148 45 222 148 45 222 148 45 222 148 45 225 148 47
225 148 47 225 148 47 225 149 45 229 150 45 236 144 48 202 87 10
209 83 18 209 82 22 210 81 22 213 81 16 213 81 16 213 80 18 213 80 20
212 79 19 211 77 18 209 75 13 208 74 12 205 72 10 205 72 10 207 71 10
207 71 10 206 70 9 206 70 9 207 69 9 207 69 9 207 69 9 207 69 9
205 69 8 205 69 8 205 69 8 205 69 8 206 68 10 206 68 10 206 68 10
206 68 10 208 72 13 208 72 13 208 72 13 208 72 13 210 71 13 210 71 13
209 70 12 210 71 13 210 71 13 207 69 11 204 65 7 202 63 5 204 63 6
204 63 6 204 63 6 204 63 6 204 63 8 204 63 8 205 64 7 205 64 7
204 65 7 204 65 7 203 68 6 203 68 6 203 68 6 203 68 6 202 68 6
201 67 5 201 68 3 203 70 6 207 74 9 209 76 11 211 78 14 211 78 14
211 78 14 211 78 14 211 78 14 211 78 14 211 78 14 211 78 14 208 75 10
208 75 10 208 75 10 208 75 10 209 74 10 209 74 10 209 73 12 209 73 12
210 72 9 209 76 11 228 107 36 222 112 33 220 116 30 220 116 28
224 115 26 225 114 26 224 115 28 222 115 28 222 117 32 220 118 32
221 119 33 220 120 33 219 122 34 219 122 34 221 121 34 221 121 34
219 122 34 219 122 34 218 119 32 223 118 33 212 101 18 215 101 19
217 100 19 217 100 19 217 100 19 217 100 19 218 99 21 217 98 20
216 97 19 215 95 17 214 94 18 212 93 17 211 92 16 211 92 16 213 90 18
213 90 18 213 90 18 212 89 17 212 89 17 211 88 16 211 88 16 211 88 16
211 88 16 211 88 16 211 88 16 211 88 16 212 89 17 212 89 17 213 90 18
213 90 18 214 92 19 214 92 19 215 93 20 215 93 20 218 93 21 216 94 21
213 96 19 213 96 17 212 94 13 208 100 11 236 150 51 230 153 49
233 157 53 233 157 53 233 157 53 233 157 53 233 157 53 233 157 53
233 157 53 234 158 54 224 147 45 224 147 45 224 147 45 224 147 45
227 147 47 227 147 47 227 147 47 227 147 47 230 149 47 237 143 50
202 87 12 209 83 18 209 82 22 210 81 22 212 81 18 212 81 16 213 80 18
213 80 20 213 80 20 212 79 19 209 75 13 208 74 12 205 72 10 205 72 10
207 71 10 207 71 10 206 70 9 206 70 9 207 69 9 207 69 9 207 69 9
207 69 9 205 69 8 205 69 8 205 69 8 205 69 8 206 68 10 206 68 10
206 68 10 206 68 10 210 71 13 210 71 13 210 71 13 210 71 13 210 71 13
210 71 13 209 70 12 209 70 12 209 68 11 208 67 10 205 64 7 204 63 6
204 63 6 205 64 7 205 64 9 205 64 9 205 64 9 205 64 9 205 66 11
205 66 9 206 68 10 205 69 8 204 71 9 203 72 7 203 72 7 203 72 7
204 71 9 204 71 9 205 72 10 202 66 5 216 80 19 210 77 15 211 78 16
211 78 16 211 78 16 211 78 16 213 77 16 213 77 16 213 77 16 212 76 15
212 76 15 210 75 13 210 75 13 210 75 13 210 74 15 210 74 15 210 74 15
210 74 15 211 73 12 210 77 13 229 108 37 225 112 37 225 118 36
225 119 32 229 118 30 229 118 30 227 118 32 225 119 32 224 119 34
224 119 34 222 121 32 221 121 32 219 122 32 219 122 32 222 123 33
222 123 33 220 123 33 220 123 33 224 125 35 220 118 30 213 109 21
210 104 17 209 98 12 210 97 12 210 97 12 212 96 14 212 95 16
212 95 16 211 94 15 211 94 15 212 93 17 212 93 17 211 92 16 210 90 15
212 89 17 212 89 17 212 89 17 212 89 17 211 88 16 211 88 16 211 88 16
211 88 16 211 88 16 211 88 16 211 88 16 211 88 16 211 88 16 211 88 16
212 89 17 212 89 17 213 90 18 214 92 19 215 93 20 215 93 20 217 92 20
215 93 20 212 95 18 212 95 16 211 92 12 210 101 12 243 157 58
240 164 60 235 159 55 237 158 55 237 158 55 237 158 55 237 158 57
237 158 57 237 158 57 236 157 56 230 149 49 230 149 49 230 149 49
229 148 48 229 147 50 228 146 49 228 146 49 230 146 47 233 146 46
238 141 49 200 85 10 205 79 17 211 84 27 213 83 27 211 85 22
213 84 20 214 83 22 216 82 22 213 80 20 211 77 18 210 74 15 209 73 14
208 72 13 208 72 13 208 72 13 208 72 13 208 72 13 208 72 13 210 71 13
210 71 13 210 71 13 210 71 13 206 68 10 206 68 10 206 68 10 206 68 10
206 68 10 206 68 10 206 68 10 206 68 10 207 69 11 207 69 11 207 69 11
207 69 11 207 69 11 207 69 11 207 69 11 206 68 10 208 67 10 207 66 9
205 64 7 205 64 7 204 63 6 205 64 7 205 64 9 205 64 9 205 64 9
205 64 9 205 66 11 205 66 11 203 67 9 202 68 6 201 71 6 200 72 6
200 72 6 200 72 6 201 70 8 203 70 8 205 69 8 205 69 8 214 78 17
214 78 17 211 78 16 211 78 16 211 78 16 213 77 16 214 76 18 214 76 18
214 76 18 213 75 17 213 75 17 212 73 15 212 73 15 212 73 15 210 74 18
210 74 18 210 74 18 212 73 18 212 71 14 212 76 15 230 107 39
225 112 37 222 115 32 222 115 30 225 114 28 227 113 28 225 114 28
224 114 30 223 116 32 222 117 32 221 119 31 222 121 32 221 121 32
219 122 32 222 123 33 222 123 33 220 123 33 220 123 33 217 118 28
214 114 25 209 110 20 207 105 17 209 103 16 211 102 16 211 102 16
211 101 18 212 100 20 211 99 19 210 98 17 210 96 16 212 95 18
212 93 17 211 92 16 210 90 15 212 89 17 212 89 17 212 89 17 211 88 16
211 88 16 209 87 14 209 87 14 209 87 14 209 87 14 209 87 14 209 87 14
209 87 14 211 88 16 211 88 16 212 89 17 212 89 17 213 90 18 213 90 18
214 92 19 214 92 19 217 92 20 215 93 20 212 95 18 212 95 16 211 92 12
208 100 13 238 152 54 233 157 53 235 156 53 235 156 53 235 156 53
235 156 53 235 155 55 235 155 55 234 154 54 234 152 52 236 150 51
236 148 50 235 146 49 234 145 48 234 145 50 233 144 49 233 144 49
233 144 49 236 144 48 240 141 52 205 89 16 213 87 25 208 78 22
208 78 22 206 80 18 206 80 16 210 78 18 211 77 18 210 76 17 209 75 15
209 73 14 208 72 13 207 71 12 207 71 12 207 71 12 207 71 12 207 71 12
207 71 12 209 70 12 209 70 12 209 70 12 209 70 12 207 69 11 207 69 11
207 69 11 207 69 11 207 69 11 207 69 11 207 69 11 207 69 11 203 64 6
203 64 6 203 64 6 203 64 6 203 64 6 203 64 6 204 65 7 204 65 7
205 64 7 205 64 7 207 66 9 207 66 9 205 64 7 205 64 7 205 64 9
205 64 9 205 64 9 205 64 9 204 65 9 204 65 9 220 84 25 218 85 23
217 86 21 215 87 19 215 87 19 215 87 21 217 86 21 218 85 21 220 88 23
216 83 18 200 67 2 195 62 0 202 68 6 202 68 6 202 68 6 203 68 6
205 66 9 205 66 9 205 66 9 204 65 7 204 65 7 203 64 6 203 64 6
203 64 6 201 65 8 201 65 8 201 65 8 203 64 8 203 62 5 202 66 5
220 97 29 215 102 26 208 100 21 208 101 17 211 100 14 213 99 14
211 99 17 210 100 17 208 101 19 206 102 17 223 122 33 223 122 33
222 123 33 220 123 33 220 123 33 220 123 33 220 123 33 221 125 34
224 125 35 224 125 35 222 123 33 222 123 33 223 122 33 225 123 34
225 123 34 225 123 36 225 122 38 225 122 38 225 122 38 228 121 38
209 91 15 212 90 15 212 90 15 212 90 15 212 89 17 212 89 17 212 89 17
211 88 16 211 88 16 209 87 14 209 87 14 209 87 14 209 87 14 209 87 14
209 87 14 209 87 14 211 88 16 211 88 16 212 89 17 212 89 17 213 90 18
213 90 18 214 92 19 214 92 19 217 92 20 215 93 20 212 95 18 212 95 16
214 95 14 206 97 11 231 144 49 224 147 45 227 148 45 228 147 45
228 147 45 228 147 45 228 146 47 228 146 47 228 146 47 231 145 47
212 116 21 215 114 21 215 114 21 214 113 20 214 113 22 213 112 21
213 112 21 211 112 21 210 114 19 218 114 26 186 68 0 197 68 9
199 67 11 199 67 11 197 68 9 197 69 7 201 67 7 202 66 7 201 67 7
201 67 7 201 65 6 201 65 6 201 65 6 201 65 6 201 65 6 201 65 6
201 65 6 201 65 6 203 64 6 203 64 6 203 64 6 203 64 6 204 65 7
204 65 7 204 65 7 204 65 7 204 65 7 204 65 7 204 65 7 204 65 7
200 62 4 200 62 4 200 62 4 200 62 4 200 62 4 200 62 4 202 63 5
202 63 5 204 63 6 205 64 7 207 66 9 207 66 9 205 64 7 205 64 7
205 64 9 205 64 9 205 64 9 205 64 9 204 65 9 202 66 9 217 83 24
215 84 22 214 86 20 214 86 18 214 86 18 214 86 18 215 85 20 215 85 20
218 85 21 218 85 21 197 64 0 197 64 0 202 68 6 202 68 6 202 68 6
203 68 6 205 66 9 205 66 9 205 66 9 204 65 7 204 65 7 203 64 6
203 64 6 203 64 6 201 65 8 201 65 8 201 65 8 203 64 8 203 62 5
201 65 4 219 95 28 212 99 26 205 97 17 205 97 15 208 96 13 209 95 13
209 95 13 208 96 13 206 96 15 205 97 15 225 121 35 223 122 33
222 123 33 220 123 33 220 123 33 220 123 33 220 123 33 220 123 33
220 120 31 220 120 31 221 121 32 221 121 32 224 127 37 224 127 37
224 127 37 224 126 39 224 126 41 224 126 41 224 126 41 227 124 41
207 92 15 212 90 15 212 90 15 212 90 15 212 89 17 212 89 17 212 89 17
211 88 16 211 88 16 209 87 14 209 87 14 209 87 14 209 87 14 209 87 14
209 87 14 209 87 14 211 88 16 211 88 16 212 89 17 212 89 17 213 90 18
213 90 18 214 92 19 214 92 19 217 92 20 215 93 20 212 95 18 212 95 18
215 95 17 205 96 10 227 140 44 218 139 38 222 141 39 222 141 39
222 141 39 222 141 39 222 141 41 222 141 41 222 141 41 228 139 42
212 111 17 217 108 17 217 108 17 215 107 18 215 107 18 214 106 17
214 106 17 213 107 17 210 106 16 219 110 26 191 67 0 204 72 14
196 60 6 196 60 6 193 62 4 193 62 2 195 61 2 196 60 2 197 63 4
197 63 4 199 63 4 199 63 4 199 63 4 199 63 4 199 63 4 199 63 4
199 63 4 200 62 4 200 62 4 200 62 4 202 63 5 202 63 5 202 63 5
202 63 5 203 64 6 203 64 6 203 64 6 203 64 6 203 64 6 203 64 6
203 62 5 203 62 5 203 62 5 203 62 5 203 62 5 203 62 5 203 62 5
203 62 5 205 64 7 205 64 7 205 64 7 205 64 7 205 64 7 205 64 7
205 64 9 205 64 9 205 64 11 205 64 11 204 65 9 202 66 9 220 87 27
219 88 25 217 89 23 217 90 21 216 88 20 216 88 20 218 87 22 218 87 22
220 88 23 220 88 23 200 67 2 200 67 2 203 68 6 203 68 6 203 68 6
203 68 6 205 66 9 205 66 9 205 66 9 205 66 9 202 63 5 202 63 5
202 63 5 202 63 5 202 63 7 202 63 7 202 63 7 202 63 7 204 63 6
201 65 4 216 93 25 210 95 22 205 94 18 205 95 14 208 94 14 210 93 14
211 94 15 209 95 15 206 96 15 205 97 15 225 121 35 223 121 35
222 123 33 220 123 33 220 123 33 220 123 33 223 124 34 222 123 33
223 124 34 223 124 34 223 126 35 223 126 35 224 127 37 222 128 37
222 128 37 222 127 39 222 127 41 222 127 41 222 127 41 225 125 41
207 92 15 212 90 15 212 90 15 212 90 15 212 89 17 212 89 17 212 89 17
211 88 16 211 88 16 209 87 14 209 87 14 209 87 14 209 87 14 209 87 14
209 87 14 209 87 14 211 88 16 211 88 16 212 89 17 212 89 17 212 89 17
212 89 17 213 90 18 213 90 18 216 91 19 214 92 19 211 94 17 211 94 17
214 94 16 204 95 9 226 139 43 217 138 37 222 141 39 224 140 39
224 140 39 224 140 39 224 140 41 224 140 41 224 140 41 228 136 40
213 110 19 218 107 19 218 107 19 218 107 19 219 108 23 219 108 23
219 108 23 219 108 23 219 110 22 220 106 23 197 69 3 199 62 6
204 63 10 204 63 10 201 65 8 200 65 8 201 65 6 201 65 6 200 63 7
200 63 7 199 62 6 199 62 6 200 63 7 200 63 7 202 63 5 202 63 5
203 64 6 203 64 6 204 63 6 204 63 6 204 63 6 204 63 6 203 64 6
203 64 6 203 64 6 203 64 6 203 64 6 203 64 6 203 64 6 203 64 6
204 63 6 204 63 6 204 63 6 204 63 6 204 63 6 204 63 6 204 63 6
204 63 6 205 64 7 205 64 7 205 64 7 205 64 7 205 64 7 205 64 7
205 64 9 205 64 9 205 64 11 205 64 11 204 65 9 202 66 9 220 87 27
219 88 25 217 89 23 217 90 21 216 88 20 216 88 20 218 87 22 218 87 22
220 88 23 220 88 23 200 67 2 200 67 2 203 68 6 203 68 6 203 68 6
203 68 6 205 66 9 205 66 9 205 66 9 205 66 9 202 63 5 202 63 5
202 63 5 202 63 5 202 63 7 202 63 7 202 63 7 202 63 7 204 63 6
200 64 5 215 92 26 208 92 20 205 94 18 205 95 16 208 93 16 210 93 14
211 94 15 209 95 15 208 96 15 205 97 15 225 121 35 223 121 35
222 123 33 220 123 33 220 123 33 220 123 33 223 124 34 223 124 34
223 124 34 223 124 34 223 126 35 223 126 35 224 127 37 222 128 37
222 128 37 222 128 37 222 127 39 222 127 41 222 127 41 227 124 41
207 92 13 212 90 15 212 90 15 212 90 15 212 89 17 212 89 17 212 89 17
211 88 16 211 88 16 209 87 14 209 87 14 209 87 14 209 87 14 209 87 14
209 87 14 209 87 14 211 88 16 211 88 16 212 89 17 212 89 17 212 89 17
212 89 17 213 90 18 213 90 18 216 91 19 214 92 19 211 94 17 211 94 17
212 95 16 202 95 11 226 138 45 217 138 39 222 141 41 224 140 39
224 140 39 224 140 39 224 140 41 224 140 41 224 140 41 229 137 41
213 110 19 218 107 19 218 107 19 218 107 19 219 108 23 219 108 23
219 108 23 219 108 23 221 110 22 221 104 26 199 69 3 202 61 6
208 61 10 208 61 10 204 63 8 201 65 8 201 65 6 201 65 6 201 65 8
201 65 8 200 63 7 200 63 7 200 63 7 200 63 7 203 64 6 203 64 6
203 64 6 203 64 6 204 63 6 204 63 6 204 63 6 204 63 6 203 64 6
203 64 6 203 64 6 203 64 6 203 64 6 203 64 6 203 64 6 203 64 6
204 63 6 204 63 6 204 63 6 204 63 6 204 63 6 204 63 6 204 63 6
204 63 6 205 64 7 205 64 7 205 64 7 205 64 7 205 64 7 205 64 7
205 64 9 205 64 9 205 64 11 205 64 11 204 65 9 202 66 9 220 87 27
219 88 25 217 89 23 216 90 21 216 88 20 216 88 20 218 87 22 218 87 22
219 88 23 219 88 23 200 67 2 200 67 2 203 68 6 203 68 6 203 68 6
203 68 6 205 66 9 205 66 9 205 66 9 205 66 9 203 64 6 203 64 6
203 64 6 203 64 6 202 63 7 202 63 7 202 63 7 202 63 7 203 64 6
198 65 5 214 90 25 207 91 19 207 94 18 205 94 18 208 93 16 208 93 16
209 94 17 209 94 17 208 95 17 205 97 15 225 121 35 223 121 35
222 123 33 220 123 33 220 123 33 220 123 33 223 124 34 223 124 34
223 124 34 223 124 34 224 125 35 224 125 35 225 126 35 224 127 35
224 127 35 224 127 37 224 127 37 224 126 39 224 126 39 229 124 39
207 90 12 211 89 12 211 88 14 211 88 14 211 88 16 211 88 16 211 88 16
211 88 16 211 88 16 209 87 14 209 87 14 209 87 14 209 87 14 209 87 14
209 87 14 209 87 14 211 88 16 211 88 16 212 89 17 212 89 17 212 89 17
213 90 18 214 92 19 214 92 19 216 91 19 214 92 19 212 93 17 211 94 17
212 95 16 202 95 11 226 138 45 217 138 39 222 141 41 224 140 39
224 140 39 224 140 39 224 140 41 224 140 41 224 140 41 227 138 41
212 110 19 217 108 19 217 108 19 217 108 19 218 109 23 218 109 23
218 109 23 218 109 23 222 108 24 225 103 26 201 68 3 204 60 6
209 60 10 209 60 10 206 62 8 203 64 8 203 64 6 203 64 6 201 65 8
201 65 8 200 63 7 200 63 7 200 63 7 200 63 7 203 64 6 203 64 6
203 64 6 203 64 6 204 63 6 204 63 6 204 63 6 204 63 6 204 63 6
204 63 6 204 63 6 204 63 6 204 63 6 204 63 6 204 63 6 204 63 6
204 63 6 204 63 6 204 63 6 204 63 6 204 63 6 204 63 6 204 63 6
204 63 6 205 64 7 205 64 7 205 64 7 205 64 7 205 64 7 205 64 7
205 64 9 205 64 9 205 64 11 204 65 11 202 66 9 202 66 9 220 87 27
219 88 25 217 89 23 216 90 21 216 88 20 216 88 20 216 88 22 216 88 22
219 88 23 220 88 23 201 66 2 203 65 2 203 68 6 203 68 6 203 68 6
203 68 6 205 66 9 205 66 9 205 66 9 205 66 9 203 64 6 203 64 6
203 64 6 203 64 6 202 63 7 202 63 7 202 63 7 202 63 7 203 64 6
198 65 5 214 90 25 209 90 21 207 93 20 207 94 18 208 93 16 208 93 16
209 94 17 209 94 17 208 95 17 205 97 17 225 120 37 223 121 35
222 123 33 220 123 33 220 123 33 220 123 33 223 124 34 223 124 34
223 124 34 223 124 34 224 125 35 224 125 35 225 126 35 225 126 35
225 126 35 225 126 35 225 126 37 225 126 37 225 126 37 229 124 39
207 90 12 211 89 12 211 88 14 211 88 14 211 88 16 211 88 16 211 88 16
211 88 16 211 88 16 209 87 14 209 87 14 209 87 14 209 87 14 209 87 14
209 87 14 209 87 14 211 88 16 211 88 16 212 89 17 212 89 17 212 89 17
213 90 18 214 92 19 214 92 19 216 91 19 216 91 19 214 92 17 211 94 17
210 96 16 201 96 13 226 138 47 217 138 39 224 140 41 224 140 39
224 140 39 224 140 39 224 140 41 224 140 41 224 140 41 227 138 41
212 110 19 215 109 19 215 109 19 215 108 21 216 110 23 216 109 25
216 109 25 218 108 25 222 108 26 225 103 26 201 68 3 204 60 4
209 60 8 209 60 10 206 62 8 204 63 8 203 64 6 203 64 6 201 65 8
201 65 8 200 63 7 200 63 7 200 63 7 202 63 7 203 64 6 203 64 6
203 64 6 203 64 6 204 63 6 204 63 6 204 63 6 204 63 6 204 63 6
204 63 6 204 63 6 204 63 6 204 63 6 204 63 6 204 63 6 204 63 6
204 63 6 204 63 6 204 63 6 204 63 6 204 63 6 204 63 6 204 63 6
204 63 6 205 64 7 205 64 7 205 64 7 205 64 7 205 64 7 205 64 7
205 64 9 205 64 9 204 65 11 204 65 11 202 66 9 202 66 9 220 87 27
219 88 25 217 89 23 216 90 21 217 90 21 216 90 21 214 91 23 214 91 23
218 90 26 223 87 26 207 64 5 207 64 5 205 67 6 203 68 6 203 68 6
203 68 6 203 67 9 203 67 9 203 67 9 203 67 9 203 64 8 203 64 8
203 64 8 203 64 8 203 64 6 203 64 6 201 65 6 201 65 6 202 66 7
200 66 6 217 91 26 211 90 22 208 92 20 208 93 18 208 93 18 208 93 18
209 94 19 209 94 19 208 95 17 206 96 17 225 120 37 223 121 35
222 123 33 220 123 33 223 124 34 223 124 34 223 124 34 223 124 34
223 124 34 223 124 34 223 124 32 223 124 32 224 125 33 224 125 33
224 125 33 224 125 33 224 125 35 224 125 35 224 124 37 227 123 37
207 90 12 211 89 12 211 89 12 211 88 14 211 88 14 211 88 14 211 88 16
209 87 14 209 87 14 209 87 14 209 87 14 209 87 14 209 87 14 209 87 14
209 87 14 209 87 14 211 88 16 211 88 16 212 89 17 212 89 17 213 90 18
213 90 18 214 92 19 214 92 19 217 92 20 218 91 20 217 92 20 215 93 18
212 97 17 202 97 14 228 138 48 220 138 40 225 141 42 227 140 42
227 141 40 227 141 40 227 140 42 227 140 42 227 140 42 230 139 42
211 112 21 215 111 21 215 110 23 215 110 23 215 110 25 216 109 27
216 109 27 219 107 27 224 107 28 225 102 28 201 68 1 202 61 2
206 60 7 206 60 7 206 60 7 205 61 5 204 63 8 203 64 8 201 65 8
201 65 8 203 64 8 203 64 8 203 64 8 203 64 8 204 63 6 204 63 6
204 63 6 204 63 6 204 63 6 204 63 6 204 63 6 204 63 6 204 63 6
204 63 6 204 63 6 204 63 6 204 63 6 204 63 6 204 63 6 204 63 6
204 63 6 204 63 6 204 63 6 204 63 6 204 63 6 204 63 6 204 63 6
204 63 6 205 64 7 205 64 7 205 64 7 205 64 7 205 64 7 205 64 7
205 64 9 205 64 9 204 65 11 204 65 11 202 66 9 202 66 9 220 87 27
219 88 25 217 89 23 216 90 21 217 90 21 216 90 21 214 91 23 214 91 23
218 90 26 223 87 26 207 64 5 207 64 5 205 67 6 203 68 6 203 68 6
203 68 6 203 67 9 203 67 9 203 67 9 203 67 9 203 64 8 203 64 8
203 64 8 203 64 8 203 64 6 203 64 6 201 65 6 201 65 6 202 66 7
200 66 6 218 90 26 213 90 22 211 91 20 210 92 18 210 92 18 210 92 18
211 93 19 209 94 19 209 94 19 208 95 17 227 119 37 223 121 35
222 123 33 222 123 33 223 124 34 223 124 34 223 124 34 223 124 34
223 124 34 223 124 34 223 124 32 223 124 32 224 125 33 224 125 33
224 125 33 224 125 33 224 125 35 224 125 35 224 124 37 227 123 37
207 90 12 211 89 12 211 89 12 211 89 12 211 88 14 211 88 14 211 88 16
209 87 14 209 87 14 209 87 14 209 87 14 209 87 14 209 87 14 209 87 14
209 87 14 209 87 14 211 88 16 211 88 16 212 89 17 212 89 17 213 90 18
213 90 18 214 92 19 214 92 19 217 92 20 218 91 20 218 91 20 217 92 20
213 96 19 203 96 14 230 137 48 222 137 42 227 140 44 227 140 42
227 140 42 227 140 42 227 140 44 227 140 44 227 140 44 230 138 44
213 112 21 216 110 23 216 110 23 216 109 25 216 109 27 216 108 29
218 108 29 219 107 29 224 106 30 226 101 30 199 69 1 200 62 2
205 61 5 206 60 7 206 61 5 205 61 5 204 63 8 203 64 8 201 65 8
201 65 8 203 64 8 203 64 8 203 64 8 203 64 8 204 63 6 204 63 6
204 63 6 204 63 6 204 63 6 204 63 6 204 63 6 204 63 6 204 63 6
204 63 6 204 63 6 204 63 6 204 63 6 204 63 6 204 63 6 204 63 6
204 63 6 204 63 6 204 63 6 204 63 6 204 63 6 204 63 6 204 63 6
204 63 6 207 66 9 207 66 9 207 66 9 207 66 9 205 64 7 205 64 7
205 64 9 205 64 9 204 65 11 204 65 11 203 67 11 203 67 11 220 87 27
219 88 25 217 89 23 216 90 21 216 90 21 216 90 21 216 90 23 216 90 23
218 90 24 222 89 24 204 66 3 204 66 3 203 68 4 202 69 4 202 69 4
202 68 6 202 68 6 202 68 6 202 68 6 203 67 9 202 66 7 202 66 7
202 66 7 202 66 7 203 64 6 203 64 6 203 64 6 203 64 6 204 65 7
201 65 6 220 89 26 216 88 22 213 90 20 211 91 20 211 91 20 211 91 20
212 92 21 211 93 21 211 93 19 209 94 17 228 119 37 227 120 35
223 122 33 222 123 33 221 125 34 221 125 34 221 125 34 221 125 34
221 125 34 221 125 34 221 125 34 221 125 34 223 126 33 223 126 33
223 126 35 223 126 35 223 126 35 223 126 35 223 125 37 226 124 37
206 91 12 211 89 12 209 87 12 209 87 12 209 87 12 209 87 12 209 87 14
209 87 14 211 88 16 211 88 16 211 88 16 211 88 16 211 88 16 211 88 16
211 88 16 211 88 16 212 89 17 212 89 17 213 90 18 212 89 17 213 90 18
214 92 19 214 92 19 214 92 19 216 91 19 218 91 20 220 90 20 218 91 20
216 94 19 207 94 14 233 135 50 225 135 44 227 139 46 225 141 44
225 141 44 225 140 46 225 140 46 225 140 46 225 140 46 230 138 46
215 110 23 218 108 25 218 108 25 218 108 27 218 108 27 219 107 29
219 106 31 221 106 31 225 105 32 226 101 32 199 69 3 199 63 2
203 62 5 205 61 5 206 61 5 205 61 5 204 63 8 203 64 8 201 65 8
201 65 8 203 64 8 203 64 8 203 64 8 203 64 8 204 63 6 204 63 6
204 63 6 204 63 6 204 63 6 204 63 6 204 63 6 205 64 7 205 64 7
205 64 7 205 64 7 205 64 7 204 63 6 204 63 6 204 63 6 204 63 6
204 63 6 204 63 6 204 63 6 204 63 6 204 63 6 204 63 6 204 63 6
204 63 6 207 66 9 207 66 9 207 66 9 207 66 9 205 64 7 205 64 7
205 64 9 205 64 9 204 65 11 204 65 11 203 67 11 202 68 11 219 88 27
217 89 25 216 90 23 216 90 21 217 90 21 217 90 21 217 89 23 217 89 23
220 90 24 220 90 24 201 68 3 201 68 3 200 70 4 200 70 4 199 71 4
199 71 4 200 70 4 200 70 4 200 70 4 202 68 6 201 65 6 201 65 6
201 65 6 201 65 6 203 64 6 203 64 6 203 64 6 203 64 6 203 64 6
203 64 6 223 87 26 218 87 24 216 88 22 215 89 20 213 90 20 213 90 20
214 91 21 214 91 21 212 92 19 211 94 17 231 117 37 228 119 35
227 120 35 225 121 33 225 123 34 225 123 34 225 123 34 225 123 34
225 123 34 225 123 34 225 123 34 225 123 34 226 124 35 226 124 35
226 124 35 226 124 35 226 124 35 226 124 37 226 124 37 229 122 39
207 90 12 211 89 12 209 87 12 209 87 12 209 87 12 209 87 12 209 87 14
209 87 14 211 88 16 211 88 16 211 88 16 211 88 16 211 88 16 211 88 16
211 88 16 211 88 16 212 89 17 212 89 17 213 90 18 212 89 17 212 89 17
212 89 17 213 90 18 213 90 18 215 90 18 218 91 20 220 88 19 219 89 19
218 93 19 209 91 15 238 133 50 231 131 46 233 136 48 231 137 48
231 137 48 231 137 48 231 136 50 231 136 50 231 136 50 235 135 50
218 108 27 221 106 27 221 106 29 221 106 29 221 106 31 221 106 31
223 105 31 224 104 33 227 104 34 226 100 34 199 69 3 199 63 2
203 62 5 205 61 5 206 61 5 206 61 5 205 61 7 203 62 7 202 63 7
200 63 7 202 63 7 202 63 7 203 64 8 203 64 8 204 63 6 204 63 6
204 63 6 204 63 6 203 62 5 204 63 6 204 63 6 205 64 7 205 64 7
205 64 7 205 64 7 205 64 7 204 63 6 204 63 6 204 63 6 204 63 6
210 69 12 210 69 12 210 69 12 210 69 12 210 69 12 210 69 12 210 69 12
209 68 11 208 67 10 207 66 9 207 66 9 207 66 9 207 66 9 207 66 9
207 65 11 207 65 11 205 66 13 205 66 13 203 67 11 202 68 11 203 71 11
201 72 9 201 75 8 201 75 6 204 74 6 204 74 6 205 72 8 205 72 8
205 73 6 203 72 5 216 88 20 213 88 19 215 89 20 215 89 20 215 89 20
215 89 20 215 89 20 215 89 20 215 89 20 216 88 22 201 65 6 203 64 8
203 64 8 203 64 8 203 64 6 203 64 6 204 63 6 203 62 5 204 64 4
204 64 4 207 69 9 208 72 11 205 72 8 203 72 5 201 73 7 199 74 7
202 74 8 202 74 6 201 76 4 199 76 4 211 94 17 209 95 15 208 96 13
206 97 13 209 98 12 210 97 12 210 97 12 210 97 12 210 97 12 210 97 12
210 97 12 210 97 12 212 98 13 212 97 15 212 97 15 212 97 15 212 97 15
210 96 16 209 95 15 208 94 14 210 90 15 211 88 14 211 88 14 209 87 12
209 87 14 209 87 14 212 87 16 212 87 16 211 88 16 211 88 16 212 89 17
212 89 17 212 89 17 212 89 17 213 90 18 213 90 18 213 88 17 213 88 17
215 90 18 213 88 17 213 88 17 212 87 16 213 88 17 212 87 16 212 87 16
210 83 12 216 84 14 217 83 14 213 84 11 211 86 12 205 90 12 203 91 12
203 89 9 203 89 9 202 88 8 202 87 10 202 87 10 202 87 10 201 86 9
202 84 8 202 82 9 202 80 7 201 79 6 201 78 8 201 78 8 201 78 8
201 78 8 202 79 11 204 78 11 203 75 11 200 69 6 200 64 3 203 62 5
205 61 7 206 61 5 205 59 4 205 61 7 202 61 6 202 63 7 202 63 7
202 63 7 202 63 7 202 63 7 202 63 7 204 63 8 204 63 8 204 63 8
203 62 7 203 62 5 203 62 5 204 65 7 204 65 7 204 65 7 204 65 7
204 65 7 204 65 7 206 68 10 206 68 10 206 68 10 206 68 10 210 69 12
210 69 12 210 69 12 210 69 12 210 69 12 210 69 12 210 69 12 209 68 11
208 67 10 207 66 9 207 66 9 207 66 9 207 66 9 207 66 9 207 65 11
207 65 11 205 66 13 205 66 13 203 67 11 202 68 9 203 72 9 201 72 9
201 75 8 201 75 6 204 74 6 205 73 6 207 72 8 207 72 8 205 73 6
203 72 5 213 90 20 210 90 19 211 91 20 213 90 20 213 90 20 213 90 18
213 90 18 213 90 18 213 90 18 215 89 20 198 65 5 202 63 7 202 63 7
202 63 7 203 64 6 203 64 6 204 63 6 205 61 5 205 62 3 206 63 4
211 68 9 211 71 11 207 72 8 204 71 7 203 72 7 203 72 7 204 73 8
204 73 8 204 74 6 202 75 4 214 92 17 211 94 17 209 95 15 209 95 13
212 96 12 214 95 12 214 95 12 214 95 12 214 95 12 214 95 12 214 95 12
214 95 14 215 96 15 215 96 15 215 96 15 215 95 17 215 95 17 214 94 16
212 93 15 211 92 16 212 90 15 211 88 14 211 88 14 209 87 12 209 87 14
209 87 14 212 87 16 212 87 16 211 88 16 211 88 16 212 89 17 212 89 17
212 89 17 212 89 17 213 90 18 213 90 18 213 88 17 213 88 17 215 90 18
213 88 17 212 87 16 211 86 14 212 87 16 211 86 14 211 86 14 210 83 12
215 80 12 217 80 12 215 80 12 212 82 12 207 85 12 206 85 12 207 85 12
209 84 12 209 84 12 209 84 12 209 84 12 209 83 14 208 82 13 206 81 12
205 80 11 204 78 11 203 77 10 203 77 10 203 77 10 203 77 10 203 77 10
204 78 11 204 78 13 203 75 11 200 69 6 200 64 3 203 62 5 205 61 7
206 61 5 204 60 4 202 61 6 201 59 5 200 61 6 200 61 6 200 61 6
200 61 6 202 63 7 202 63 7 204 63 8 204 63 8 204 63 8 203 62 7
202 61 4 203 62 5 204 65 7 204 65 7 204 65 7 202 66 7 202 66 7
202 66 7 205 68 10 205 68 10 205 68 10 205 68 10 210 69 12 210 69 12
210 69 12 210 69 12 210 69 12 210 69 12 210 69 12 209 68 11 209 68 11
208 67 10 208 67 10 208 67 10 205 66 9 205 66 9 205 66 11 205 66 11
205 66 13 205 66 13 205 68 12 203 69 10 203 72 9 201 72 9 201 75 8
201 75 6 204 74 6 207 72 6 209 71 6 209 71 6 207 72 6 201 73 5
210 92 18 207 92 17 210 92 18 211 91 18 211 91 18 211 92 16 211 92 16
211 92 16 211 92 16 213 90 18 198 65 3 202 63 7 202 63 7 202 63 7
203 64 6 203 64 6 204 63 6 205 61 5 206 61 3 208 62 4 211 68 9
211 71 11 209 71 8 206 70 7 206 70 9 204 71 9 205 72 10 205 72 8
205 72 8 204 74 6 216 91 19 214 92 17 211 94 15 211 94 13 212 96 12
212 96 12 212 96 12 212 96 12 212 96 14 212 96 14 212 96 14 212 96 14
213 96 17 213 96 17 213 96 17 213 96 17 213 96 19 212 95 18 211 94 17
211 92 16 211 91 18 210 90 17 211 88 16 209 87 14 209 87 14 209 87 14
212 87 16 212 87 16 212 89 17 212 89 17 213 90 18 213 90 18 213 90 18
213 90 18 213 90 18 213 90 18 216 91 19 216 91 19 216 91 19 213 88 17
212 87 16 211 86 14 211 86 14 210 85 13 210 85 13 210 83 12 215 80 12
217 80 12 217 80 12 213 81 14 210 83 14 209 83 14 207 84 14 207 84 14
207 84 14 207 84 14 209 83 16 209 83 16 208 82 15 206 81 14 207 79 13
206 77 13 204 76 12 204 76 12 204 76 12 204 76 12 204 76 12 206 77 13
206 77 13 205 74 11 202 68 6 200 64 3 202 63 5 205 61 5 205 61 5
204 60 4 202 61 6 201 59 5 200 61 6 200 61 6 200 61 6 200 61 6
202 63 7 202 63 7 204 63 8 204 63 8 204 63 8 203 62 7 202 61 4
203 62 5 205 64 7 205 66 9 203 67 9 202 68 9 202 68 9 202 68 9
203 69 10 203 69 10 203 69 10 203 69 10 210 69 12 210 69 12 210 69 12
210 69 12 210 69 12 210 69 12 210 69 12 209 68 11 209 68 11 208 67 10
208 67 10 206 68 10 205 66 9 205 66 9 205 66 9 205 66 11 205 66 11
203 67 11 205 68 10 203 69 10 204 71 9 203 72 7 202 74 8 202 74 6
205 73 6 207 72 6 209 71 6 209 71 6 207 72 6 201 73 5 210 92 18
207 92 17 210 92 18 211 91 18 211 92 16 211 92 16 211 92 16 211 92 16
211 92 14 215 90 18 198 65 3 202 63 7 202 63 7 202 63 7 203 64 6
203 64 6 204 63 6 205 61 5 205 62 3 206 63 4 211 68 9 211 71 11
209 71 8 207 70 7 206 70 9 206 70 9 207 71 10 207 71 10 207 71 10
205 72 8 217 90 19 216 91 17 212 93 15 211 94 13 212 96 14 210 96 14
210 96 14 210 96 14 210 96 16 210 96 16 210 96 16 210 96 16 212 97 17
212 97 19 212 97 19 213 96 19 213 96 19 212 95 18 211 94 17 211 92 16
211 91 18 212 89 17 211 88 16 209 87 14 209 87 14 211 86 14 212 87 16
212 87 16 212 89 17 212 89 17 213 90 18 213 90 18 213 90 18 213 90 18
213 90 18 213 90 18 216 91 19 216 91 19 216 91 19 213 88 17 212 87 16
211 86 14 211 86 14 210 85 13 210 85 13 210 83 12 213 81 12 217 80 12
217 79 14 215 80 14 212 82 14 210 83 14 209 83 14 209 83 14 209 83 14
209 83 16 209 83 18 210 82 18 209 81 17 208 79 16 207 78 15 206 77 13
204 76 12 206 75 12 206 75 12 206 75 12 206 75 12 207 76 13 206 75 12
205 72 10 201 67 5 199 63 2 200 62 4 203 62 5 205 61 5 204 60 4
202 61 6 201 59 5 200 61 6 200 61 6 200 61 6 200 61 6 202 63 7
202 63 7 204 63 8 204 63 8 204 63 8 203 62 7 202 61 4 203 62 5
205 64 7 205 66 9 203 67 9 202 68 9 202 68 9 202 68 9 203 69 10
203 69 10 203 69 10 203 69 10 209 70 10 209 70 10 209 70 10 209 70 10
209 70 10 209 70 10 209 70 10 209 70 10 207 69 11 207 69 11 207 69 11
207 69 11 206 68 8 206 68 8 206 68 8 206 68 8 205 69 8 205 69 8
205 69 8 205 69 8 204 71 9 204 71 7 204 71 7 204 71 7 207 72 8
207 72 8 207 72 6 207 72 6 205 73 6 201 73 5 213 90 18 212 89 17
213 91 16 213 91 16 213 91 16 213 91 14 213 91 14 213 91 14 213 91 14
216 89 16 200 64 3 202 63 7 202 63 7 202 63 7 203 64 6 203 64 6
203 64 6 203 62 5 203 63 3 204 64 4 209 68 9 211 71 11 209 71 8
207 70 7 207 69 9 207 69 9 209 70 12 209 70 12 207 71 10 205 72 8
219 89 21 216 91 17 214 92 15 212 93 15 212 95 18 212 95 18 212 94 20
212 94 20 212 94 20 212 94 20 212 94 20 212 94 20 213 96 21 213 96 21
213 96 21 215 95 21 215 95 21 214 94 20 212 92 19 213 90 18 213 90 18
212 89 17 212 87 16 211 86 14 211 86 14 211 86 14 212 87 16 212 87 16
213 88 17 213 88 17 213 90 18 213 90 18 215 90 18 215 90 18 215 90 18
215 90 18 216 91 19 216 91 19 215 90 18 213 88 17 214 86 16 213 85 14
211 84 13 211 84 13 211 84 13 211 84 13 215 82 13 216 82 13 216 81 15
216 81 15 213 83 15 213 83 15 211 83 17 211 83 17 211 83 17 211 83 17
211 83 19 213 82 19 212 81 18 211 80 17 208 77 15 207 76 13 206 75 12
206 75 12 208 74 12 208 74 12 208 74 12 208 74 12 208 74 12 204 71 9
201 65 4 199 63 2 200 62 4 202 61 4 202 61 4 202 61 4 202 61 6
202 61 6 200 61 6 200 61 6 202 62 9 202 62 9 202 62 9 202 62 9
203 64 8 203 64 8 203 64 8 202 63 7 200 61 6 202 63 7 204 65 7
206 68 10 205 68 10 205 68 10 205 69 8 205 69 8 205 69 8 205 69 8
205 69 8 205 69 8 207 71 12 207 71 12 207 71 12 207 71 12 207 71 12
207 71 12 207 71 12 207 71 12 206 70 11 206 70 11 206 70 11 206 70 11
206 68 8 206 68 8 206 68 8 206 68 8 205 69 6 205 69 6 205 69 8
205 69 8 204 71 7 204 71 7 206 70 7 206 70 7 207 72 8 207 72 8
205 73 6 205 73 6 204 74 6 201 73 5 215 90 18 212 89 17 213 90 18
213 91 16 213 91 16 213 91 14 213 91 14 213 91 14 213 91 14 216 89 16
200 64 3 202 63 7 202 63 7 202 63 7 203 64 6 203 64 6 203 64 6
202 63 5 203 63 3 204 64 4 209 68 9 211 71 11 209 71 8 207 70 7
207 69 9 207 69 11 209 70 14 209 70 14 207 71 12 205 72 8 219 89 21
217 90 17 214 92 15 212 93 15 214 94 20 212 94 20 212 94 22 214 93 22
214 93 22 214 93 22 214 93 22 214 93 22 215 95 21 215 95 21 215 95 21
215 95 21 215 95 21 215 93 20 214 92 19 213 90 18 213 90 18 213 88 17
212 87 16 213 85 14 213 85 14 213 85 14 212 87 16 212 87 16 213 88 17
213 88 17 213 90 18 213 90 18 215 90 18 215 90 18 215 90 18 215 90 18
216 91 19 216 91 19 215 90 18 213 88 17 214 86 16 213 85 14 211 84 13
211 84 13 211 84 13 213 83 13 213 83 13 215 82 13 215 82 15 215 82 15
213 83 15 213 83 15 213 83 17 213 83 17 213 83 17 213 83 17 213 82 19
213 82 19 212 81 18 211 80 17 208 77 15 207 76 13 206 75 12 206 75 12
208 74 12 208 74 12 208 74 12 208 74 12 207 73 11 203 70 8 200 64 3
198 62 1 199 61 3 202 61 4 202 61 4 202 61 4 202 61 6 202 61 6
200 61 6 200 61 6 202 62 9 202 62 9 202 62 9 202 62 9 203 63 10
203 63 10 203 63 10 202 62 9 200 61 8 203 62 7 205 64 9 206 67 12
206 67 12 206 68 10 206 68 10 206 68 10 206 68 10 206 68 10 206 68 10
206 68 10 205 71 14 205 71 14 205 71 14 205 71 14 205 71 14 205 71 14
205 71 14 205 71 14 204 70 13 204 70 13 204 70 11 206 70 11 205 69 8
205 69 8 205 69 8 205 69 8 205 69 6 205 69 6 205 69 6 205 69 6
204 71 7 204 71 7 206 70 7 206 70 7 207 72 8 207 72 8 205 72 8
205 72 8 204 74 6 201 73 5 215 89 20 212 89 19 211 91 18 211 91 18
211 91 18 211 92 16 211 92 16 211 92 16 211 92 16 215 90 18 198 65 3
202 63 7 202 63 7 202 63 7 203 64 6 203 64 6 203 64 6 202 63 5
203 65 4 203 65 4 207 69 9 210 72 11 209 70 10 207 69 9 207 69 9
207 69 11 209 70 14 209 70 14 207 71 12 205 72 10 219 89 21 217 90 17
216 92 15 214 92 15 214 94 20 214 93 22 214 93 22 215 92 22 215 92 22
215 92 22 215 92 22 215 92 22 216 94 21 216 94 21 216 94 21 216 94 21
216 94 21 217 92 20 216 91 19 215 90 18 215 90 18 215 88 17 214 86 16
213 85 14 214 84 14 213 85 14 212 87 16 212 87 16 213 88 17 213 88 17
215 90 18 215 90 18 215 90 18 215 90 18 215 90 18 215 90 18 216 91 19
216 91 19 215 90 18 213 88 17 214 86 16 213 85 14 211 84 13 211 84 13
213 83 13 213 83 13 213 83 13 213 83 13 213 83 15 213 83 15 213 83 15
213 83 15 213 83 17 213 83 17 213 83 17 213 83 17 213 82 19 213 82 19
212 81 18 211 80 17 208 77 15 207 76 13 206 75 12 206 75 12 208 74 12
208 74 12 208 74 12 208 74 12 208 72 11 205 69 8 200 64 3 199 63 2
199 61 3 200 62 4 200 62 4 200 62 4 200 61 6 200 61 6 200 61 6
200 61 6 203 61 9 203 61 9 203 61 9 203 61 9 204 63 10 204 62 12
204 62 12 203 61 11 202 60 10 205 61 9 207 63 11 208 66 14 208 66 14
208 66 12 208 66 12 208 66 12 208 66 12 208 66 12 208 66 12 208 66 12
205 71 14 205 71 14 205 71 14 205 71 14 207 70 14 207 70 14 207 70 14
207 70 14 206 69 13 206 69 13 207 71 12 206 70 11 205 69 8 205 69 8
205 69 8 205 69 8 205 69 6 205 69 6 205 69 6 205 69 6 204 71 7
204 71 7 206 70 7 206 70 7 207 72 8 207 72 8 205 72 8 205 72 8
203 72 5 202 74 6 215 89 20 212 89 19 211 91 20 211 91 20 211 91 20
211 91 18 211 91 18 211 91 18 211 91 18 213 90 20 198 65 5 202 63 7
202 63 7 202 63 7 203 64 6 203 64 6 203 64 6 202 63 5 203 65 4
203 65 4 206 68 8 207 69 9 209 70 10 207 69 9 207 69 9 207 69 11
209 70 14 209 70 14 209 70 14 207 71 10 220 88 21 217 90 19 216 92 15
214 92 17 215 93 20 215 92 22 215 92 22 217 92 22 217 92 22 217 92 22
217 92 22 217 92 22 218 93 23 218 93 21 218 93 21 218 93 21 218 93 21
217 92 20 216 91 19 216 89 18 216 89 18 216 89 18 215 88 17 214 86 16
215 86 16 215 86 16 215 88 17 213 88 17 213 88 17 213 88 17 215 90 18
215 90 18 215 90 18 215 90 18 215 90 18 215 90 18 216 91 19 217 90 19
216 89 18 215 88 17 215 88 17 214 86 16 211 84 13 211 84 13 213 83 13
213 83 13 213 83 13 213 83 15 213 83 15 213 83 15 213 83 15 213 83 15
213 83 17 213 83 17 213 83 17 213 83 17 213 82 19 213 82 19 212 81 18
211 80 17 208 77 15 207 76 13 206 75 12 208 74 12 208 74 12 208 74 12
208 74 12 208 74 12 208 72 11 205 69 8 201 65 4 200 64 3 199 61 3
200 62 4 200 62 4 200 62 4 200 61 6 200 61 6 200 61 6 200 61 6
202 62 9 203 61 9 203 61 9 203 61 9 204 63 10 204 62 12 204 62 12
203 61 11 202 60 10 205 61 9 207 63 11 208 66 14 208 66 14 208 66 12
208 66 12 208 66 12 208 66 12 208 66 12 208 66 12 208 66 12 210 71 13
210 71 13 210 71 13 210 71 13 210 71 13 210 71 13 210 71 13 210 71 13
209 70 12 207 69 11 209 70 12 207 71 12 206 70 11 204 70 11 206 70 9
206 70 9 206 70 7 206 70 7 206 70 7 206 70 7 206 70 7 206 70 7
206 70 7 206 70 7 207 72 8 207 72 8 205 72 8 205 72 8 203 72 7
204 76 10 212 86 20 216 93 25 213 90 22 213 90 22 213 90 22 213 90 22
213 90 22 213 90 22 213 90 22 215 88 24 198 65 5 202 63 5 202 63 5
203 64 6 203 64 6 203 64 6 203 64 6 203 64 6 203 64 6 204 65 7
206 68 10 206 68 10 206 68 8 207 69 9 209 68 11 209 68 11 210 69 14
210 68 16 209 70 14 207 71 12 222 89 24 218 91 22 217 92 20 215 93 20
214 91 21 216 90 21 216 90 23 217 89 23 217 89 23 217 89 23 217 89 23
217 89 23 218 91 22 218 91 22 218 91 22 218 91 22 218 91 22 218 91 22
217 90 21 217 90 21 218 88 20 217 86 19 215 85 18 215 85 18 215 85 18
215 85 18 215 85 18 214 86 18 215 87 19 215 87 19 213 88 19 213 88 19
215 87 19 215 87 19 216 88 20 216 88 20 217 90 21 219 89 21 218 88 20
218 88 20 215 85 18 214 84 16 213 83 15 213 83 15 213 83 15 213 83 15
213 83 15 213 83 15 212 81 16 211 80 15 211 80 15 211 80 15 211 80 15
211 80 15 211 80 15 211 80 15 212 79 17 212 79 17 212 79 17 211 78 16
210 77 15 209 75 13 208 74 12 208 74 12 209 73 12 208 72 11 208 72 11
207 71 10 207 71 10 206 70 9 205 69 8 202 66 5 203 64 6 200 62 4
200 62 4 200 62 4 199 63 4 199 63 4 199 63 4 199 62 6 200 63 7
202 63 7 202 63 7 202 63 7 202 63 7 202 62 9 202 62 9 202 62 9
202 62 9 201 59 5 209 68 13 206 67 12 206 67 12 206 68 10 206 68 10
206 68 10 206 68 10 206 68 10 206 68 10 206 68 10 204 72 5 204 72 5
204 72 5 204 72 5 204 72 5 204 72 5 204 72 5 204 71 7 203 68 6
210 71 13 206 68 10 211 72 14 206 70 11 204 70 11 206 70 9 206 70 9
206 70 7 206 70 7 206 70 7 206 70 7 206 70 7 206 70 7 206 70 7
206 70 7 207 72 8 207 72 8 205 72 8 205 72 8 203 72 7 204 76 10
209 83 16 211 87 20 215 89 22 216 88 22 216 88 22 216 88 24 216 88 24
216 88 24 216 88 24 218 86 26 200 64 5 202 63 5 202 63 5 203 64 6
203 64 6 203 64 6 203 64 6 203 64 6 203 64 6 204 65 7 205 66 9
205 66 9 205 67 6 205 67 6 208 67 10 208 66 12 209 67 15 209 67 15
207 68 13 206 70 11 224 91 29 222 92 27 219 94 25 219 94 23 218 93 23
220 92 23 220 91 25 221 91 25 221 91 25 221 91 25 221 91 25 221 91 25
222 92 25 222 92 25 222 92 25 222 92 25 222 92 25 222 92 25 222 92 25
222 92 25 213 83 15 213 83 15 213 83 15 213 83 15 213 83 15 213 83 15
213 83 15 213 83 15 211 84 15 211 84 15 210 85 15 210 85 15 211 84 15
213 85 16 213 85 16 214 86 18 215 85 18 217 86 19 217 86 19 217 86 19
213 83 15 212 82 14 212 82 14 212 82 14 212 82 14 212 82 14 212 82 14
211 81 13 210 79 14 208 78 13 208 78 13 208 78 13 208 78 13 208 78 13
208 78 13 208 78 13 210 77 15 210 77 15 210 77 15 209 75 13 208 74 12
207 73 11 207 73 11 207 73 11 208 72 11 208 72 11 207 71 10 207 71 10
206 70 9 206 70 9 205 69 8 203 68 6 206 68 10 204 65 7 203 64 6
200 62 4 199 63 4 200 64 5 200 64 5 199 63 4 198 61 5 198 61 5
198 61 5 199 62 6 199 63 4 200 64 5 200 64 5 201 65 6 201 65 6
199 63 4 207 71 10 206 70 9 202 68 6 202 68 6 202 69 4 202 69 4
202 69 4 202 69 4 202 69 4 202 69 4 226 107 29 226 107 29 226 107 29
226 107 29 226 107 29 226 107 29 226 107 29 228 106 31 236 103 38
235 99 40 210 71 13 207 69 11 206 70 11 204 70 11 206 70 9 206 70 9
206 70 7 206 70 7 206 70 7 206 70 7 206 70 7 206 70 7 206 70 7
206 70 7 207 72 8 207 72 8 205 72 8 205 72 8 204 73 10 203 75 11
203 77 12 203 77 12 204 71 9 205 69 8 205 69 8 205 69 8 205 68 10
205 68 10 205 68 10 205 68 10 202 63 7 202 63 7 203 64 8 203 64 8
203 64 6 203 64 6 203 64 6 203 64 6 203 64 6 203 64 6 204 65 7
203 64 6 203 64 6 202 63 5 203 62 5 203 62 7 204 63 10 204 63 10
204 65 9 202 66 7 202 68 6 201 71 6 201 73 5 201 74 3 200 72 4
200 72 4 201 71 6 203 70 6 203 70 6 203 70 6 203 70 6 203 70 6
204 72 5 204 72 5 204 72 5 204 72 5 204 72 5 205 73 6 207 74 7
206 76 8 206 76 8 207 77 9 208 78 11 210 79 12 210 79 12 210 79 12
210 79 12 210 79 12 208 80 12 208 80 12 208 80 12 208 80 12 208 80 12
208 80 12 209 81 13 209 81 13 212 82 14 212 82 14 212 82 14 211 81 13
210 79 12 208 78 11 207 77 9 207 77 9 207 77 9 207 77 9 207 77 9
206 76 8 205 74 9 204 73 8 204 73 8 204 73 8 204 73 8 204 73 8
204 73 8 204 73 8 205 72 10 205 72 10 205 72 10 204 71 9 203 70 8
202 68 6 202 68 6 202 68 6 203 68 6 203 68 6 203 68 6 203 68 6
205 69 8 205 69 8 205 69 8 205 69 8 206 68 10 206 68 10 206 68 10
204 65 7 202 66 7 202 66 7 202 66 7 202 66 7 215 79 22 215 79 22
214 77 21 214 78 19 212 79 17 211 80 15 210 79 14 210 79 14 210 79 14
207 77 11 215 85 18 214 84 16 220 92 23 220 92 23 220 92 21 220 92 21
220 92 21 220 92 21 220 92 21 220 92 21 221 109 24 221 109 24
221 109 24 221 109 24 221 109 24 221 109 24 221 109 24 222 108 28
227 102 33 236 103 38 206 70 9 210 71 13 206 70 11 204 70 11 206 70 9
206 70 9 206 70 7 206 70 7 206 70 7 206 70 7 206 70 7 206 70 7
206 70 7 206 70 7 207 72 8 207 72 8 205 72 8 205 72 8 207 73 11
204 73 10 201 72 9 201 70 8 205 69 8 208 67 8 208 67 8 208 67 8
208 67 10 208 67 10 208 67 10 206 68 10 202 63 7 202 63 7 203 64 8
203 64 8 203 64 6 203 64 6 203 64 6 203 64 6 203 64 6 203 64 6
203 64 6 202 63 5 200 62 4 199 61 3 200 59 2 200 58 4 201 59 7
201 59 7 199 60 5 199 61 3 207 71 10 205 72 8 204 74 6 202 74 6
201 73 5 203 72 7 204 71 7 204 71 7 204 71 7 204 71 7 204 71 7
204 71 7 205 73 6 205 73 6 205 73 6 205 73 6 205 73 6 205 73 6
207 74 7 207 74 7 205 75 7 205 75 7 206 76 8 206 76 8 206 76 8
206 76 8 206 76 8 206 76 8 204 77 8 204 77 8 204 77 8 204 77 8
204 77 8 206 78 9 206 78 9 207 79 11 208 78 11 210 79 12 210 79 12
210 79 12 206 76 8 205 75 7 205 75 7 205 75 7 205 75 7 205 75 7
205 75 7 204 73 8 203 72 7 201 71 6 201 71 6 201 71 6 201 71 6
201 71 6 201 71 6 201 70 8 203 70 8 203 70 8 203 70 8 202 68 6
201 67 5 200 66 4 200 66 4 200 66 4 201 65 4 201 65 4 202 66 5
202 66 5 203 68 6 203 68 6 205 69 8 205 69 8 206 68 10 206 68 10
206 68 10 206 68 10 205 68 10 205 68 10 206 70 11 207 71 12 209 73 14
210 74 15 214 78 19 212 79 17 211 80 15 209 81 13 210 83 14 210 83 14
210 83 14 208 80 12 216 89 18 215 88 17 218 93 21 218 93 21 218 93 19
218 93 19 218 93 19 218 93 19 218 93 19 218 93 19 220 111 25
220 111 25 220 111 25 220 111 25 220 111 25 220 111 25 220 111 25
220 111 27 222 108 28 230 108 33 203 70 6 211 72 14 207 71 12
205 72 12 207 71 10 207 71 10 207 71 10 207 71 10 207 71 10 207 71 10
207 71 10 207 71 10 207 71 10 207 71 10 207 71 10 207 71 10 207 71 10
207 71 10 205 72 10 205 72 10 204 71 9 204 71 9 206 70 11 207 69 11
206 68 10 206 68 10 206 68 10 206 68 10 206 68 10 206 68 10 202 63 7
202 63 7 203 64 8 203 64 8 203 64 8 203 64 8 203 64 8 203 64 8
204 63 8 204 63 8 203 62 7 203 62 7 202 61 4 202 61 4 202 61 6
202 61 6 202 60 8 202 60 8 202 61 6 200 62 4 205 69 8 203 70 6
201 71 6 201 71 6 201 71 6 203 70 6 203 70 8 203 70 8 202 68 6
203 70 8 207 74 9 208 75 10 208 75 10 208 75 10 208 75 8 208 75 8
208 75 8 208 75 8 209 76 9 209 76 9 209 76 9 209 76 9 210 77 11
210 77 11 210 77 11 210 77 11 208 78 11 208 78 11 208 78 11 208 78 11
207 79 11 207 79 11 208 78 13 208 78 13 208 78 13 208 78 13 208 78 11
208 78 11 208 78 11 208 78 11 205 72 8 205 72 8 205 72 8 205 72 8
205 72 8 205 72 8 205 72 8 205 72 8 204 71 9 204 71 9 204 71 9
204 71 9 203 70 8 203 70 8 203 70 8 203 70 8 203 69 10 203 69 10
203 69 10 203 69 10 202 68 9 202 68 9 202 68 9 202 68 9 203 67 9
203 67 9 203 67 9 203 67 9 206 68 8 206 68 8 206 68 8 206 68 8
206 68 8 206 68 8 205 69 8 205 69 8 205 68 10 205 68 10 204 71 9
204 71 9 211 78 16 211 78 16 211 78 16 211 78 14 208 78 11 207 79 11
207 79 9 208 81 10 209 82 11 208 81 10 215 90 18 215 90 16 216 91 17
215 93 18 215 93 18 215 93 18 215 93 18 215 93 18 215 93 18 215 93 18
219 112 25 219 112 25 219 112 25 219 112 25 219 112 25 219 112 25
219 112 25 220 111 25 221 109 24 229 109 31 204 72 5 211 72 14
207 70 14 205 71 14 207 71 12 207 71 10 207 71 10 207 71 10 207 71 10
207 71 10 207 71 10 207 71 10 207 71 10 207 71 10 207 71 10 207 71 10
207 71 10 207 71 10 205 72 10 205 72 10 206 70 9 206 70 9 206 70 11
206 70 11 205 68 10 205 68 10 205 68 10 205 68 10 205 68 10 205 68 10
202 63 7 202 63 7 203 64 8 203 64 8 203 64 8 203 64 8 203 64 8
203 64 8 204 63 8 204 63 8 203 62 7 203 62 7 202 61 4 202 61 4
202 61 6 202 61 6 202 60 8 202 60 8 202 61 6 200 61 6 205 68 10
203 70 8 203 70 6 201 71 6 203 70 6 203 70 6 203 70 8 203 70 8
202 68 6 203 70 8 207 74 9 208 75 10 208 75 10 208 75 10 208 75 8
208 75 8 208 75 8 208 75 8 209 76 9 209 76 9 209 76 9 209 76 9
210 77 11 210 77 11 210 77 11 210 77 11 208 78 11 208 78 11 208 78 11
208 78 11 207 79 11 207 79 11 208 78 13 208 78 13 208 78 13 208 78 13
208 78 11 208 78 11 208 78 11 208 78 11 205 72 8 205 72 8 205 72 8
205 72 8 205 72 8 205 72 8 205 72 8 205 72 8 204 71 9 204 71 9
204 71 9 204 71 9 203 70 8 203 70 8 203 70 8 203 70 8 203 69 10
203 69 10 203 69 10 203 69 10 202 68 9 202 68 9 202 68 9 202 68 9
203 67 9 203 67 9 203 67 9 203 67 9 206 68 8 206 68 8 206 68 8
206 68 8 206 68 8 206 68 8 205 69 8 205 69 8 205 68 10 205 68 10
203 70 8 203 70 8 211 78 16 211 78 16 211 78 14 211 78 14 208 78 11
207 79 11 207 79 11 208 81 10 209 82 11 208 81 10 216 89 18 215 90 16
216 91 17 215 93 18 215 93 18 214 94 18 214 94 18 214 94 18 214 94 18
214 94 18 219 112 25 219 112 25 219 112 25 219 112 25 219 112 25
219 112 25 219 112 25 220 111 25 221 109 24 229 109 31 204 72 5
211 72 14 207 70 14 205 71 14 207 71 12 207 71 10 207 71 10 207 71 10
207 71 10 207 71 10 207 71 10 207 71 10 207 71 10 207 71 10 207 71 10
207 71 10 207 71 10 207 71 10 205 72 10 205 72 10 206 70 9 206 70 9
206 70 11 206 70 11 205 68 10 205 68 10 205 68 10 205 68 10 205 68 10
205 68 10 202 63 7 202 63 7 203 64 8 203 64 8 203 64 8 203 64 8
203 64 8 203 64 8 203 62 7 203 62 7 203 62 7 203 62 7 202 61 6
202 61 6 202 61 6 202 61 6 202 60 8 202 60 8 202 61 6 200 61 6
205 68 10 205 69 8 203 70 6 203 70 6 203 70 6 203 70 6 203 70 8
203 70 8 202 68 6 203 70 8 207 74 9 208 75 10 208 75 10 208 75 10
208 75 8 208 75 8 208 75 8 208 75 8 209 76 9 209 76 9 209 76 9
209 76 9 210 77 11 210 77 11 210 77 11 210 77 11 208 78 11 208 78 11
208 78 11 208 78 11 208 78 11 208 78 11 208 78 13 208 78 13 208 78 13
208 78 13 208 78 11 208 78 11 208 78 11 208 78 11 205 72 8 205 72 8
205 72 8 205 72 8 205 72 8 205 72 8 205 72 8 205 72 8 204 71 9
204 71 9 204 71 9 204 71 9 203 70 8 203 70 8 203 70 8 203 70 8
203 69 10 203 69 10 203 69 10 203 69 10 202 68 9 202 68 9 202 68 9
202 68 9 203 67 9 203 67 9 203 67 9 203 67 9 206 68 8 206 68 8
206 68 8 206 68 8 206 68 8 206 68 8 205 69 8 205 69 8 205 68 10
205 68 10 203 70 8 203 70 8 211 78 16 211 78 16 211 78 14 211 78 14
208 78 13 208 78 13 208 78 11 210 79 12 211 81 13 210 79 12 216 89 18
216 89 18 216 91 19 217 92 20 215 93 20 215 93 20 215 93 20 215 93 20
215 93 20 215 93 20 219 112 25 219 112 25 219 112 25 219 112 25
219 112 25 219 112 25 219 112 25 220 111 25 221 109 24 229 109 31
204 72 5 211 72 14 205 71 14 205 71 14 207 71 12 207 71 10 207 71 10
207 71 10 207 71 10 207 71 10 207 71 10 207 71 10 207 71 10 207 71 10
207 71 10 207 71 10 207 71 10 207 71 10 205 72 10 205 72 10 206 70 9
206 70 9 206 70 11 206 70 11 205 68 10 205 68 10 205 68 10 205 68 10
205 68 10 205 68 10 202 63 7 202 63 7 203 64 8 203 64 8 203 64 8
203 64 8 203 64 8 203 64 8 203 62 7 203 62 7 203 62 7 203 62 7
202 61 6 202 61 6 202 61 6 202 60 8 202 60 8 202 60 8 202 60 8
202 61 6 206 68 10 205 69 8 203 70 8 203 70 6 203 70 6 203 70 8
203 70 8 203 70 8 202 68 6 203 70 8 207 73 11 208 75 10 208 75 10
208 75 10 208 75 10 208 75 8 208 75 8 208 75 8 209 76 9 209 76 9
209 76 9 209 76 9 210 77 11 210 77 11 210 77 11 210 77 11 208 78 11
208 78 11 208 78 11 208 78 11 208 78 11 208 78 11 208 78 13 208 78 13
208 78 13 208 78 13 208 78 13 210 77 13 210 77 13 210 77 13 205 72 8
205 72 10 205 72 10 205 72 10 205 72 10 205 72 10 205 72 10 205 72 10
204 71 9 204 71 9 204 71 9 204 71 9 203 70 8 203 70 8 203 70 8
203 70 8 203 69 10 205 68 10 205 68 10 203 69 10 202 68 9 202 68 9
202 68 9 203 67 9 203 67 9 203 67 9 203 67 9 203 67 9 206 68 8
206 68 8 206 68 8 206 68 8 206 68 8 206 68 8 205 69 8 205 69 8
205 68 10 205 68 10 203 70 8 203 70 8 211 78 16 211 78 16 211 78 14
211 78 14 208 78 13 208 78 11 208 78 11 210 79 12 211 81 13 210 80 10
216 89 18 216 89 18 216 91 19 217 92 20 215 93 20 215 93 20 215 93 20
215 93 20 215 93 20 215 93 20 219 112 25 219 112 25 219 112 25
219 112 25 219 112 25 219 112 25 219 112 25 220 111 25 221 109 24
229 109 31 204 72 5 211 72 14 205 71 14 205 71 14 207 71 12 207 71 10
207 71 10 207 71 10 207 71 10 207 71 10 207 71 10 207 71 10 207 71 10
207 71 10 207 71 10 207 71 10 207 71 10 207 71 10 207 71 10 207 71 10
206 70 9 206 70 9 206 70 11 206 70 11 205 68 10 205 68 10 205 68 10
205 68 10 205 68 10 205 68 10 202 63 7 202 63 7 203 64 8 203 64 8
203 64 8 203 64 8 203 64 8 203 64 8 203 61 9 203 61 9 203 61 9
203 61 9 202 61 6 202 61 6 204 59 8 204 59 8 204 59 10 204 59 10
204 59 8 202 61 6 206 68 10 205 68 10 203 70 8 203 70 8 205 69 8
205 69 8 205 68 10 205 68 10 203 67 9 205 68 10 207 73 11 208 74 12
208 74 12 208 74 12 208 75 10 208 75 10 208 75 10 208 75 10 209 76 11
209 76 11 209 76 11 209 76 11 210 77 13 210 77 13 210 77 13 210 77 13
210 77 13 210 77 13 210 77 13 210 77 13 208 78 13 208 78 13 210 77 13
210 77 13 210 77 13 210 77 13 210 77 13 212 76 15 212 76 15 212 76 15
207 71 10 207 71 12 207 71 12 207 71 12 205 72 12 205 72 12 205 72 12
205 72 10 204 71 9 204 71 9 204 71 9 204 71 9 203 69 10 203 69 10
203 69 10 203 69 10 205 68 10 206 68 10 206 68 10 205 68 10 203 67 9
203 67 9 203 67 9 203 67 9 205 66 9 205 66 9 205 66 9 205 66 9
206 68 8 206 68 8 206 68 8 206 68 8 206 68 8 206 68 8 205 69 8
205 69 8 203 70 8 203 70 8 203 70 8 201 70 8 210 79 14 210 79 14
210 79 14 210 79 14 208 78 11 207 79 9 208 79 9 210 80 10 211 81 11
210 80 8 216 89 16 216 89 16 216 91 17 217 92 18 215 93 18 215 93 18
215 93 18 215 93 18 215 93 18 215 93 18 219 112 25 219 112 25
219 112 25 219 112 25 219 112 25 219 112 25 219 112 25 219 112 25
219 110 24 229 109 31 204 72 5 211 72 14 205 71 14 204 72 14
205 72 12 207 71 10 207 71 10 207 71 10 207 71 10 207 71 10 207 71 10
207 71 10 207 71 10 207 71 10 207 71 10 207 71 10 207 71 10 207 71 10
207 71 10 207 71 10 206 70 9 206 70 9 206 70 11 206 70 11 205 68 10
205 68 10 205 68 10 205 68 10 205 68 10 205 68 10 202 63 7 202 63 7
203 64 8 203 64 8 203 64 8 203 64 8 203 64 8 203 64 8 203 61 9
203 61 9 203 61 9 203 61 9 202 61 6 202 61 6 204 59 8 204 59 8
204 59 10 204 59 10 204 59 8 202 60 8 206 67 12 205 68 10 203 70 8
203 70 8 205 69 8 205 69 8 205 68 10 205 68 10 203 67 9 205 68 10
207 73 11 208 74 12 208 74 12 208 74 12 208 75 10 208 75 10 208 75 10
208 75 10 209 76 11 209 76 11 209 76 11 209 76 11 210 77 13 210 77 13
210 77 13 210 77 13 210 77 13 210 77 13 210 77 13 210 77 13 208 78 13
208 78 13 210 77 13 210 77 13 210 77 13 210 77 13 212 76 15 212 76 15
212 76 15 212 76 15 207 71 12 207 71 12 207 71 12 207 71 12 205 72 12
205 72 12 205 72 12 205 72 12 204 71 9 204 71 9 204 71 9 204 71 9
203 69 10 203 69 10 203 69 10 205 68 10 206 68 10 206 68 10 206 68 10
206 68 10 203 67 9 203 67 9 203 67 9 203 67 9 205 66 9 205 66 9
205 66 9 205 66 9 206 68 8 206 68 8 206 68 8 206 68 8 206 68 8
206 68 8 205 69 8 205 69 8 203 70 8 203 70 8 201 70 8 201 70 8
210 79 14 210 79 14 210 79 14 210 79 12 207 79 9 207 80 7 208 79 7
210 80 8 211 81 9 210 80 8 216 89 16 216 89 16 216 91 17 217 92 18
215 93 18 215 93 18 215 93 18 215 93 18 215 93 18 215 93 18
217 113 25 217 113 25 217 113 25 217 113 25 217 113 25 217 113 25
217 113 25 219 112 25 219 110 24 227 110 31 204 72 5 210 74 15
204 72 14 204 72 14 205 72 12 205 72 10 205 72 8 205 72 8 205 72 8
205 72 8 205 72 8 205 72 8 205 72 8 205 72 8 205 72 8 205 72 8
205 72 8 205 72 8 205 72 10 205 72 10 204 71 9 204 71 9 206 70 9
206 70 9 205 69 8 205 69 8 205 69 8 205 69 8 205 69 8 205 68 10
203 64 6 203 64 6 204 65 7 204 65 7 204 65 9 204 65 9 203 64 8
203 64 8 203 64 8 203 64 8 202 63 7 202 63 7 200 61 8 202 60 8
204 59 8 204 59 8 204 59 10 204 59 10 204 59 8 202 60 8 206 67 12
205 68 10 203 70 8 203 70 8 205 69 8 205 69 8 205 68 10 205 68 10
203 67 9 205 68 10 207 73 11 208 74 12 208 74 12 208 74 12 208 75 10
208 75 10 208 75 10 208 75 10 209 76 11 209 76 11 209 76 11 209 76 11
210 77 13 210 77 13 210 77 11 210 77 11 210 77 11 210 77 11 210 77 13
210 77 13 210 77 13 210 77 13 210 77 13 210 77 13 210 77 13 210 77 13
212 76 15 212 76 15 212 76 15 212 76 15 207 71 12 207 71 12 207 71 12
207 71 12 205 72 12 205 72 12 205 72 12 205 72 12 204 71 9 204 71 9
204 71 9 204 71 9 203 69 10 203 69 10 203 69 10 205 68 10 206 68 10
206 68 10 206 68 10 206 68 10 203 67 9 203 67 9 203 67 9 203 67 9
205 66 9 205 66 9 205 66 9 205 66 9 205 69 8 206 70 9 205 69 8
205 69 8 205 69 8 205 69 8 205 69 8 203 70 8 203 70 8 201 70 8
201 71 6 201 71 6 210 79 14 210 79 12 210 79 14 208 80 12 205 81 7
205 81 5 207 80 5 210 81 6 211 82 7 210 81 6 216 90 14 216 90 14
216 92 15 217 93 16 215 94 16 215 94 16 215 94 16 215 94 16 215 94 16
215 94 16 217 113 25 217 113 25 217 113 25 217 113 25 217 113 25
217 113 25 217 113 25 217 113 25 217 111 24 227 111 29 203 73 3
210 75 13 204 72 12 204 72 12 205 72 10 205 72 10 205 72 8 205 72 8
205 72 8 205 72 8 205 72 8 205 72 8 205 72 8 205 72 8 205 72 8
205 72 8 205 72 8 205 72 8 205 72 10 205 72 10 204 71 9 204 71 9
206 70 9 206 70 9 205 69 8 205 69 8 205 69 8 205 69 8 205 69 8
205 69 8 203 64 6 203 64 6 204 65 7 204 65 7 204 65 9 204 65 9
203 64 8 203 64 8 203 64 8 203 64 8 202 63 7 202 63 7 200 61 6
200 61 6 202 61 6 202 61 6 202 60 8 202 60 8 202 61 6 202 61 6
206 68 10 205 68 10 205 69 8 203 70 8 205 69 8 205 69 8 205 68 10
203 67 9 203 67 9 205 68 10 207 73 11 208 74 12 208 74 12 208 74 12
208 75 10 208 75 10 208 75 10 208 75 10 209 76 11 209 76 11 207 77 11
207 77 11 208 78 13 208 78 13 208 78 11 208 78 11 208 78 11 208 78 11
208 78 11 208 78 11 210 77 13 210 77 13 212 76 15 212 76 15 210 77 13
210 77 15 212 76 15 212 76 15 212 76 15 212 76 15 207 71 12 207 71 12
207 71 12 207 71 12 207 71 12 207 71 12 207 71 12 207 71 12 206 70 11
206 70 11 206 70 11 206 70 11 205 68 10 205 68 10 205 68 10 205 68 10
206 68 10 206 68 10 206 68 10 206 68 10 203 67 9 203 67 9 203 67 9
203 67 9 205 66 9 205 66 9 205 66 9 205 66 9 205 69 8 206 70 9
205 69 8 205 69 8 205 69 8 205 69 8 203 70 8 203 70 8 201 70 8
201 70 8 201 71 6 200 72 4 205 82 12 203 83 10 203 83 10 203 83 10
202 83 5 202 83 5 204 82 5 205 83 6 204 85 7 203 84 6 210 93 14
208 94 14 209 95 15 209 97 16 209 97 16 209 97 16 209 97 16 209 97 16
209 97 16 209 97 16 222 117 30 222 117 30 222 117 30 222 117 30
222 117 30 222 117 30 222 117 30 222 117 30 224 118 31 227 113 30
212 83 8 212 77 9 208 78 13 208 78 13 210 77 15 210 77 15 211 78 14
211 78 14 211 78 14 211 78 14 211 78 14 211 78 14 211 78 14 211 78 14
211 78 14 211 78 14 211 78 14 211 78 14 211 78 14 211 78 14 211 78 14
211 78 14 210 77 13 210 77 13 210 77 13 210 77 13 212 76 15 212 76 15
212 76 15 212 76 15 201 65 6 201 65 6 202 66 7 202 66 7 204 65 7
204 65 7 204 65 7 204 65 7 204 65 7 206 68 10 209 70 12 210 71 13
210 71 13 210 71 13 210 71 13 210 71 13 210 71 13 210 71 13 210 71 13
210 71 13 203 68 6 203 68 6 203 68 6 203 68 6 203 67 9 203 67 9
203 67 9 203 67 9 202 66 7 205 68 10 207 71 10 208 72 11 208 72 11
208 72 11 207 74 9 207 74 9 207 74 7 207 74 7 207 74 7 205 75 7
215 89 20 213 90 20 213 90 20 213 90 20 213 90 20 213 90 20 213 90 20
213 90 20 213 88 17 214 86 16 204 71 7 205 69 8 207 69 11 207 69 11
206 70 9 206 70 9 206 70 11 206 70 11 206 70 11 206 70 11 200 64 5
200 64 5 200 64 5 200 64 5 202 63 5 202 63 5 202 63 5 202 63 5
202 63 5 202 63 7 202 63 7 202 63 7 203 64 8 203 64 8 203 64 8
203 64 8 203 64 6 203 64 6 203 64 6 203 64 6 206 68 10 206 68 10
206 68 10 206 68 10 205 68 10 205 68 10 205 68 10 205 68 10 206 70 9
207 71 10 213 77 16 215 79 18 213 80 18 212 79 17 212 79 17 212 79 17
211 80 15 211 80 15 211 80 15 206 83 13 226 115 39 221 118 37
222 120 34 225 119 34 229 117 34 230 116 34 228 119 35 225 121 35
221 119 33 219 122 34 230 135 47 231 139 49 232 140 50 231 141 50
231 141 50 231 141 50 231 141 50 231 141 50 231 141 50 231 141 50
222 117 30 222 117 30 222 117 30 222 117 30 222 117 30 222 117 30
222 117 30 222 117 30 224 118 31 227 113 30 212 83 8 212 77 7
208 79 9 208 78 13 210 77 15 210 77 15 211 78 14 211 78 14 211 78 14
211 78 14 211 78 14 211 78 14 211 78 14 211 78 14 211 78 14 211 78 14
211 78 14 211 78 14 211 78 14 211 78 14 211 78 14 211 78 14 210 77 13
210 77 13 210 77 13 210 77 13 212 76 15 212 76 15 212 76 15 212 76 15
201 65 6 201 65 6 202 66 7 202 66 7 204 65 7 204 65 7 204 65 7
204 65 7 204 66 5 206 68 8 209 70 10 210 72 11 210 72 11 210 72 11
208 72 11 208 72 11 208 72 11 208 72 11 208 72 11 208 72 11 203 68 6
203 68 6 203 68 6 203 68 6 203 67 9 203 67 9 203 67 9 202 66 7
202 66 7 205 68 10 207 71 10 208 72 11 208 72 11 208 72 11 207 74 9
207 74 9 207 74 7 207 74 7 207 74 7 205 75 7 213 90 20 211 91 20
211 91 20 211 91 20 211 91 20 211 91 20 211 91 20 211 91 18 212 90 15
212 88 14 204 71 7 206 68 10 209 68 13 209 68 13 207 69 11 206 70 9
206 70 11 206 70 11 206 70 11 206 70 11 200 64 5 200 64 5 200 64 5
202 63 5 203 62 5 203 62 5 203 62 5 203 62 5 203 62 7 203 62 7
203 62 7 203 62 7 204 63 8 204 63 8 204 63 8 204 63 8 203 64 6
203 64 6 203 64 6 203 64 6 206 68 10 206 68 10 206 68 10 206 68 10
205 68 10 205 68 10 205 68 10 205 68 10 206 70 9 208 72 11 213 77 16
215 79 18 213 80 18 212 79 17 212 79 17 212 79 17 211 80 15 211 80 15
211 81 13 204 84 11 221 118 37 215 122 35 218 123 32 221 122 30
227 119 30 227 118 32 223 122 33 220 123 33 215 123 31 213 125 32
224 139 45 225 142 47 224 144 48 224 144 48 224 144 48 224 144 48
224 144 48 224 144 48 224 144 48 224 144 48 220 118 30 220 118 30
220 118 30 220 118 30 220 118 30 220 118 30 220 118 30 222 117 30
223 118 33 225 113 30 210 84 8 211 79 8 208 79 9 208 78 13 210 77 15
210 77 15 210 79 14 210 79 12 210 79 12 210 79 12 210 79 12 210 79 12
210 79 12 210 79 12 210 79 12 210 79 12 210 79 12 210 79 12 210 79 12
210 79 12 210 79 12 210 79 12 210 77 13 210 77 13 210 77 13 210 77 13
212 76 13 212 76 13 212 76 13 212 76 15 202 66 5 202 66 5 203 68 6
203 68 6 205 67 6 205 67 6 205 67 6 204 66 5 202 66 5 205 69 8
207 71 10 208 72 11 208 72 11 208 72 11 208 72 11 208 72 11 208 72 11
208 72 11 208 72 11 208 72 11 203 68 6 203 68 6 203 68 6 203 68 6
203 67 9 203 67 9 203 67 9 202 66 7 201 67 7 203 69 10 207 71 10
208 72 11 208 72 11 208 72 11 207 74 9 207 74 9 207 74 7 207 74 7
207 74 7 205 75 7 213 90 20 211 91 20 211 91 20 211 91 20 211 91 18
211 91 18 211 91 18 211 91 18 212 90 15 212 88 14 204 71 7 206 68 10
209 68 13 209 68 13 207 69 11 206 70 9 206 70 11 206 70 11 206 70 11
206 70 11 200 64 5 200 64 5 200 64 5 202 63 5 203 62 5 203 62 5
203 62 5 203 62 5 203 62 7 203 62 7 203 62 7 203 62 7 204 63 8
204 63 8 204 63 8 204 63 8 203 64 6 203 64 6 203 64 6 203 64 6
206 68 10 206 68 10 206 68 10 206 68 10 205 68 10 205 68 10 205 68 10
205 68 10 204 71 9 208 74 12 211 78 16 213 80 18 213 80 18 211 80 17
211 80 17 211 80 17 211 80 15 209 81 15 211 81 13 204 84 11
221 118 37 215 122 33 218 123 30 221 122 28 225 120 28 225 119 30
223 122 31 220 124 31 215 123 29 213 126 30 224 139 43 225 143 45
224 145 46 224 145 46 224 145 46 224 145 46 224 145 46 224 145 46
224 145 46 224 145 46 220 118 30 220 118 30 220 118 30 220 118 30
220 118 30 220 118 30 220 118 30 220 118 30 223 118 33 225 113 30
210 84 8 211 79 8 208 79 9 208 78 11 210 77 13 210 77 13 210 79 12
210 79 12 210 79 12 210 79 12 210 79 12 210 79 12 210 79 12 210 79 12
210 79 12 210 79 12 210 79 12 210 79 12 210 79 12 210 79 12 210 79 12
210 79 12 210 77 13 210 77 13 210 77 13 210 77 13 212 76 13 212 76 13
212 76 13 212 76 13 202 66 5 202 66 5 203 68 6 203 68 6 205 67 6
205 67 6 205 67 6 204 66 5 202 66 5 205 69 8 207 71 10 208 72 11
208 72 11 208 72 11 208 72 11 208 72 11 208 72 11 208 72 11 208 72 11
208 72 11 203 68 6 203 68 6 203 68 6 203 68 6 203 67 9 203 67 9
203 67 9 202 66 7 202 66 7 203 69 10 207 71 10 208 72 11 208 72 11
208 72 11 207 74 9 207 74 9 207 74 7 207 74 7 207 74 7 205 75 7
213 90 20 211 91 20 211 91 20 211 91 20 211 91 18 211 91 18 211 91 18
211 91 18 212 90 15 212 87 16 204 71 7 206 68 10 209 68 13 209 68 13
207 69 11 206 70 9 206 70 11 206 70 11 206 70 11 206 70 11 200 64 5
200 64 5 200 64 5 202 63 5 203 62 5 203 62 5 203 62 5 203 62 5
203 62 7 203 62 7 203 62 7 203 62 7 204 63 8 204 63 8 204 63 8
204 63 8 203 64 6 203 64 6 203 64 6 203 64 6 206 68 10 206 68 10
206 68 10 206 68 10 205 68 10 205 68 10 205 68 10 205 68 10 203 70 8
207 73 11 210 77 15 213 80 18 212 81 18 211 80 17 211 80 17 211 80 17
209 81 15 209 81 15 211 81 13 204 84 11 221 118 37 215 122 33
218 123 30 219 123 28 224 121 28 225 120 28 223 122 31 220 124 31
215 123 29 213 126 30 224 139 43 225 143 45 224 145 46 224 145 46
224 145 46 224 145 46 224 145 46 224 145 46 224 145 46 224 145 46
220 118 32 220 118 32 220 118 32 220 118 32 220 118 32 220 118 32
220 118 32 220 118 32 223 118 33 225 113 30 209 85 8 211 79 8
208 79 9 208 78 11 210 77 13 210 77 13 210 79 12 210 79 12 210 79 12
210 79 12 210 79 12 210 79 12 210 79 12 210 79 12 210 79 12 210 79 12
210 80 10 210 80 10 210 80 10 210 80 10 210 80 10 210 79 12 210 77 13
210 77 13 210 77 13 210 77 13 212 76 13 212 76 13 212 76 13 212 76 13
202 66 5 202 66 5 203 68 6 203 68 6 205 67 6 205 67 6 205 67 6
204 66 5 202 66 5 205 69 8 207 71 10 208 72 11 208 72 11 208 72 11
208 72 11 208 72 11 208 72 11 208 72 11 208 72 11 208 72 11 203 68 6
203 68 6 203 68 6 203 68 6 205 67 6 205 67 6 205 67 6 204 66 5
202 66 5 205 69 8 207 71 10 208 73 9 208 73 9 208 73 9 207 74 9
207 74 7 207 74 7 207 74 5 207 74 5 205 75 5 213 90 20 211 91 20
211 91 20 211 91 20 211 91 18 211 91 18 213 90 18 213 90 18 212 90 15
212 87 16 204 71 9 206 68 10 209 68 13 209 68 13 207 69 11 206 70 11
207 69 11 207 69 11 207 69 11 207 69 11 202 63 7 202 63 7 202 63 7
202 63 7 203 62 7 203 62 7 203 62 7 203 62 7 203 62 7 203 62 7
203 62 7 203 62 7 204 63 8 204 63 8 204 63 8 204 63 8 204 63 6
204 63 6 204 63 6 204 63 6 206 68 10 206 68 10 206 68 10 206 68 10
205 68 10 205 68 10 205 68 10 203 67 9 203 70 8 205 72 10 210 77 15
212 79 17 212 79 17 212 79 17 212 79 17 211 80 17 209 81 15 209 81 15
211 81 13 204 84 11 221 118 37 215 122 33 218 123 32 219 123 30
224 121 28 224 121 28 223 123 29 220 124 29 215 123 29 213 126 30
224 140 41 225 143 43 226 144 44 226 144 44 226 144 44 226 144 44
226 144 44 226 144 44 226 144 44 226 144 44 220 118 32 220 118 32
220 118 32 220 118 32 220 118 32 220 118 32 220 118 32 220 118 32
223 118 33 225 113 32 209 84 10 211 79 10 208 78 11 208 78 11
210 77 13 210 77 13 210 79 12 210 79 12 210 79 12 210 79 12 210 79 12
210 79 12 210 79 12 210 79 12 210 79 12 210 79 12 210 80 10 210 80 10
210 80 10 210 80 10 210 80 10 210 79 12 210 77 13 210 77 13 210 77 13
210 77 13 212 76 13 212 76 13 212 76 13 212 76 13 202 66 5 202 66 5
203 68 6 203 68 6 205 67 6 205 67 6 205 67 6 204 66 5 202 66 5
205 69 8 207 71 10 208 72 11 208 72 11 208 72 11 208 72 11 208 72 11
208 72 11 208 72 11 208 72 11 208 72 11 203 68 6 203 68 6 203 68 6
203 68 6 205 67 6 205 67 6 205 67 6 204 66 5 202 66 5 205 69 8
207 72 8 208 73 9 208 73 9 208 73 9 207 74 7 207 74 7 207 74 5
207 74 5 207 74 5 205 75 5 215 89 20 211 91 20 211 91 20 211 91 20
211 91 18 211 91 18 213 90 18 213 90 18 212 90 15 212 87 16 204 71 9
206 67 12 209 67 15 209 67 15 207 68 13 206 70 11 207 69 11 207 69 11
207 69 11 207 69 11 202 63 7 202 63 7 202 63 7 202 63 7 203 62 7
203 62 7 203 62 7 203 62 7 203 62 7 203 62 7 203 62 7 203 62 7
204 63 8 204 63 8 204 63 8 204 63 8 204 63 6 204 63 6 204 63 6
204 63 6 206 68 10 206 68 10 206 68 10 206 68 10 205 68 10 205 68 10
205 68 10 203 67 9 202 68 6 204 71 9 209 75 13 212 79 17 212 79 17
212 79 17 212 79 17 212 79 17 211 80 15 209 81 15 211 81 13 204 84 11
221 118 37 215 122 33 218 123 32 219 123 30 224 121 28 224 121 28
223 123 29 220 124 29 215 123 29 213 126 30 224 140 41 225 143 43
226 144 44 226 144 44 226 144 44 226 144 44 226 144 44 226 144 44
226 144 44 226 144 44 220 118 32 220 118 32 220 118 32 220 118 32
220 118 32 220 118 32 220 118 32 222 117 32 224 117 35 227 112 32
210 83 10 211 79 10 208 78 11 208 78 11 210 77 13 210 77 13 210 79 12
210 79 12 210 79 12 210 79 12 210 79 12 210 79 12 210 79 12 210 79 12
211 79 12 211 79 12 211 79 10 211 79 10 211 79 10 210 80 10 210 80 10
210 79 12 210 77 13 210 77 15 210 77 13 210 77 13 212 76 13 212 76 13
212 76 13 212 76 13 202 66 5 202 66 5 203 68 6 203 68 6 205 67 6
207 66 6 207 66 6 204 66 5 202 66 5 205 69 8 207 71 10 208 72 11
207 71 10 207 71 10 207 71 10 207 71 10 207 71 10 207 71 10 207 71 10
208 72 11 203 68 6 203 68 6 203 68 6 203 68 6 205 67 6 205 67 6
205 67 6 204 66 5 202 66 5 203 70 8 205 72 8 208 73 9 208 73 9
208 73 9 207 74 7 207 74 7 207 74 5 207 74 5 207 74 5 205 75 5
215 89 20 213 90 20 213 90 20 213 90 20 213 90 18 213 90 18 213 90 18
213 90 18 212 90 15 212 87 16 204 71 9 206 67 12 208 66 14 208 66 14
206 67 12 205 68 10 206 68 10 206 68 10 206 68 10 206 68 10 202 63 7
202 63 7 202 63 7 202 63 7 203 62 7 203 62 7 203 62 7 203 62 7
203 62 7 203 62 7 203 62 7 203 62 7 204 63 8 204 63 8 204 63 8
204 63 8 204 63 6 204 63 6 204 63 6 204 63 6 206 68 10 206 68 10
206 68 10 206 68 10 205 68 10 205 68 10 205 68 10 203 67 9 202 68 6
204 71 9 209 75 13 212 79 17 212 79 17 212 79 17 212 79 17 212 79 17
211 80 15 209 81 15 211 81 13 204 84 11 221 118 37 215 122 33
218 123 32 219 123 30 224 121 28 224 121 28 223 123 29 220 124 29
215 123 29 213 126 30 224 140 41 225 143 43 226 144 44 226 144 44
226 144 44 226 144 44 226 144 44 226 144 44 226 144 44 226 144 44
218 119 32 218 119 32 218 119 32 218 119 32 218 119 32 218 119 32
218 119 32 220 118 32 226 116 35 228 111 32 209 82 9 210 78 9
208 78 11 210 77 11 212 76 13 212 76 13 211 79 12 210 79 12 210 79 12
208 78 11 208 78 11 208 78 11 208 78 11 208 78 11 210 77 11 210 77 11
213 78 10 212 77 9 210 78 9 210 80 10 208 81 10 208 80 12 208 78 13
210 77 13 210 77 13 212 76 13 212 76 13 212 76 13 212 76 13 212 76 13
202 66 5 202 66 5 203 68 6 203 68 6 205 67 6 207 66 6 207 66 6
204 66 5 202 66 5 205 69 8 206 70 9 208 72 11 207 71 10 207 71 10
207 71 10 207 71 10 207 71 10 207 71 10 207 71 10 207 71 10 203 68 6
203 68 6 203 68 6 203 68 6 205 67 6 205 67 6 205 67 6 202 66 5
201 67 5 203 70 8 205 72 8 207 74 9 208 73 9 208 73 9 208 73 7
208 73 7 208 74 5 207 74 5 207 74 5 207 74 5 215 87 19 215 89 20
215 89 20 216 90 21 216 91 19 214 92 19 214 92 19 214 92 19 213 91 16
213 88 19 205 72 10 207 68 13 208 66 14 208 66 14 206 67 12 205 68 10
206 68 10 206 68 10 206 68 10 206 68 10 202 63 7 202 63 7 202 63 7
202 63 7 203 62 7 203 62 7 203 62 7 203 62 7 203 62 7 203 62 7
203 62 7 203 62 7 204 63 8 204 63 8 204 63 8 204 63 8 204 63 6
204 63 6 204 63 6 204 63 6 206 68 10 206 68 10 206 68 10 206 68 10
205 68 10 205 68 10 205 68 10 203 67 9 201 67 5 204 71 9 209 75 13
212 79 17 212 79 17 212 79 17 212 79 17 211 80 17 209 81 15 209 81 15
209 81 13 204 84 11 223 117 37 218 121 33 219 122 32 221 122 30
222 121 32 224 120 32 222 123 33 220 124 31 216 122 29 214 125 30
222 140 43 223 144 43 226 144 44 226 144 44 226 144 44 226 144 44
226 144 44 226 144 44 226 144 44 226 144 44 214 117 29 214 117 29
214 117 29 214 117 29 214 117 31 214 117 31 214 117 31 218 115 31
228 119 37 231 112 34 208 81 8 205 75 5 210 77 11 210 77 11 212 76 13
212 76 13 210 77 13 208 78 13 207 79 13 207 79 13 207 79 13 206 78 11
207 79 11 208 78 11 210 78 9 212 77 9 213 76 11 213 76 11 212 77 11
210 79 12 201 78 8 202 79 11 207 77 11 210 75 11 210 75 11 210 75 13
212 74 13 212 74 13 212 74 13 212 74 13 201 65 4 201 65 4 201 66 2
201 66 2 201 66 2 203 65 2 203 65 2 201 66 2 202 67 3 203 68 4
206 70 7 206 70 7 205 72 8 205 72 8 205 72 8 205 72 8 205 72 8
205 72 8 205 72 8 204 71 7 203 70 6 202 69 4 203 68 4 203 68 4
205 67 4 205 67 4 205 67 4 203 68 4 202 69 4 203 72 7 205 74 9
205 75 7 207 74 7 208 73 7 209 74 8 211 74 6 211 74 6 212 77 9
213 78 10 213 81 12 214 84 14 214 86 16 215 88 17 216 89 18 216 89 18
215 90 18 213 90 18 213 90 18 213 88 17 214 86 18 204 70 11 206 67 12
208 66 14 208 66 14 206 67 12 205 68 12 206 67 12 208 66 12 208 66 12
208 66 12 204 63 8 203 62 7 203 62 7 203 62 7 203 62 7 203 62 7
203 62 7 203 62 7 203 62 7 203 62 7 203 62 7 203 62 7 203 62 7
203 62 7 203 62 7 203 62 7 203 62 7 203 62 7 202 63 5 202 63 5
206 68 10 206 68 10 205 69 8 205 69 8 205 69 8 205 69 8 205 69 8
205 69 8 201 65 4 206 70 9 214 78 17 220 84 23 213 80 18 213 80 18
213 80 18 212 81 18 210 82 18 209 83 16 207 84 14 204 86 12
227 119 39 223 121 35 223 122 33 222 123 33 223 121 39 222 121 41
220 122 39 220 123 37 223 126 35 214 122 30 227 147 49 219 144 44
223 144 43 225 143 43 225 143 43 225 143 43 225 143 43 225 143 43
225 143 43 225 143 43 218 119 32 218 119 32 218 119 32 218 119 32
218 118 34 218 118 34 218 118 34 222 117 34 223 111 30 226 107 29
206 79 5 205 75 5 210 77 11 210 77 11 212 76 13 212 76 13 210 77 13
208 78 13 207 79 13 207 79 13 208 80 14 208 80 14 208 80 12 208 80 12
210 80 10 211 79 10 214 77 10 216 78 13 213 78 12 204 77 8 203 83 12
197 79 7 199 76 4 201 76 4 201 75 6 201 75 6 201 75 6 202 74 6
201 73 5 200 72 4 201 68 3 201 65 4 200 65 1 200 65 1 200 65 1
200 65 1 200 65 1 200 65 1 208 73 9 207 72 8 206 70 7 205 69 6
205 72 8 205 72 8 205 72 8 205 72 8 205 72 8 205 72 8 205 72 8
204 71 7 205 72 8 205 72 8 207 72 8 209 71 8 210 70 8 210 70 8
209 71 8 203 70 6 198 67 2 197 69 3 202 74 6 204 77 8 206 78 9
206 76 8 208 76 6 208 76 6 208 76 6 209 77 7 210 78 9 210 80 10
210 83 12 211 84 13 213 85 14 214 86 16 214 86 16 212 87 16 211 88 16
211 88 16 211 86 14 211 84 15 202 68 9 204 65 11 208 66 16 208 66 16
206 67 14 206 67 12 208 66 12 208 66 12 208 66 12 208 66 12 204 63 8
203 62 7 203 62 7 203 62 7 203 62 7 203 62 7 203 62 7 203 62 7
203 62 7 203 62 7 203 62 7 203 62 7 203 62 7 203 62 7 203 62 7
203 62 7 203 62 7 203 62 7 202 63 5 202 63 5 206 68 10 206 68 10
205 69 8 205 69 8 205 69 8 205 69 8 205 69 8 205 69 8 201 65 4
205 69 8 210 75 13 214 78 17 215 81 19 215 81 19 215 81 19 215 81 19
213 82 19 211 83 19 210 84 17 208 86 13 230 115 38 227 118 34
225 119 32 225 119 34 224 118 40 222 118 44 221 119 42 221 120 38
223 121 35 217 120 30 230 148 51 225 148 49 223 144 43 225 143 43
225 143 43 225 143 43 225 143 43 225 143 43 225 143 43 225 143 43
205 96 12 205 96 12 205 96 12 205 96 12 205 95 14 205 95 14 205 95 14
207 94 14 217 99 23 221 99 24 203 76 3 206 76 6 210 77 11 212 77 11
212 76 13 212 76 13 210 77 13 208 78 13 208 80 14 209 81 15 210 82 16
211 83 17 213 85 16 213 85 16 213 85 14 214 84 14 217 83 14 219 82 14
212 80 11 210 85 11 238 123 46 235 127 47 232 127 44 230 128 44
230 128 44 230 128 44 230 128 44 232 127 44 232 128 42 235 126 44
213 88 19 218 85 21 218 85 21 218 85 21 218 85 21 218 85 21 218 85 21
218 85 21 215 82 17 211 78 14 205 72 8 202 69 4 204 71 7 204 71 7
204 71 7 204 71 7 204 71 7 204 71 7 204 71 7 204 71 7 209 76 11
209 76 11 210 75 11 212 74 11 214 73 11 214 73 11 212 74 11 209 76 11
210 79 14 215 87 21 222 99 29 228 105 35 221 100 29 221 100 29
222 100 27 222 100 27 222 100 27 222 100 27 222 100 27 224 99 27
208 83 11 208 83 11 208 83 11 208 83 11 208 83 11 208 83 11 206 83 11
206 83 11 206 81 10 207 79 11 197 63 4 199 60 7 207 64 15 207 64 15
205 66 13 205 66 11 207 65 11 207 65 11 207 65 11 207 65 11 204 63 8
203 62 7 203 62 7 203 62 7 203 62 7 203 62 7 203 62 7 203 62 7
203 62 7 203 62 7 203 62 7 203 62 7 203 62 7 203 62 7 203 62 7
203 62 7 203 62 7 203 62 7 203 64 6 203 64 6 206 68 10 206 68 10
205 69 8 205 69 8 205 69 8 205 69 8 205 69 8 203 68 6 203 68 6
203 68 6 205 69 8 205 69 8 201 67 5 200 66 4 200 66 4 201 65 4
203 65 4 203 65 4 201 66 2 198 68 0 218 93 19 215 96 15 213 97 13
212 97 15 212 96 21 210 96 25 208 98 23 208 98 19 210 98 15
205 101 13 221 132 37 218 136 38 221 140 40 221 140 40 221 140 40
221 140 40 221 140 40 221 140 40 221 140 40 221 140 40 212 95 16
212 95 16 212 95 16 212 95 16 212 95 16 212 95 18 212 95 18 212 95 18
211 92 16 216 94 19 202 75 2 207 77 7 209 76 9 210 75 9 210 75 11
210 75 11 209 76 11 207 77 11 206 78 11 206 78 11 214 86 20 215 87 21
215 87 19 215 87 19 213 88 17 215 88 17 218 86 15 220 86 15 214 85 12
206 84 7 240 128 48 229 127 41 225 128 40 223 129 38 223 129 38
223 129 36 223 129 36 223 129 36 223 129 36 228 126 38 211 88 16
215 85 20 215 85 20 215 85 20 215 85 20 217 84 20 217 84 20 217 84 20
220 88 23 215 82 17 205 72 8 202 69 4 204 71 7 204 71 7 204 71 7
204 71 7 204 71 7 204 71 7 204 71 7 204 71 7 210 77 13 210 77 13
212 76 13 212 76 13 214 77 14 214 77 14 213 77 14 211 78 14 203 72 7
209 83 16 221 98 28 227 109 37 216 101 28 215 101 28 216 101 26
216 101 26 216 101 26 218 100 26 218 100 26 219 99 26 202 82 9
204 81 9 204 81 9 205 80 9 205 80 9 205 80 9 204 81 9 204 81 9
204 79 7 204 76 10 195 61 2 197 58 4 205 63 13 205 63 13 204 65 11
204 65 9 205 64 9 205 64 9 205 64 9 205 64 9 204 63 8 203 62 7
203 62 7 203 62 7 203 62 7 203 62 7 203 62 7 203 62 7 203 62 7
203 62 7 203 62 7 203 62 7 203 62 7 203 62 7 203 62 7 203 62 7
203 62 7 203 62 7 203 64 6 203 64 6 205 66 9 205 66 9 205 69 8
205 69 8 205 69 8 205 69 8 205 69 8 205 69 8 203 68 6 202 66 5
201 65 4 201 65 4 200 66 4 201 67 5 201 67 5 202 66 5 207 64 5
207 64 5 205 65 3 202 67 1 220 91 18 217 93 16 215 94 12 215 94 14
214 94 20 212 94 22 210 95 20 210 96 18 212 96 14 210 99 13
230 133 40 226 139 43 223 139 40 223 139 40 223 139 40 223 139 40
223 139 40 223 139 40 223 139 40 223 139 40 215 93 18 215 93 18
215 93 18 215 93 18 215 93 18 215 93 20 214 94 20 214 94 18 213 91 16
216 94 19 202 75 4 207 77 9 208 75 8 209 74 10 209 74 10 209 74 10
208 75 10 206 76 10 204 76 10 203 75 9 215 87 21 215 87 21 215 87 19
213 88 19 212 89 17 213 88 17 217 87 15 217 88 13 213 86 10 210 91 11
232 126 41 230 131 41 227 130 40 227 131 38 227 131 38 227 131 36
226 130 35 226 130 35 226 130 33 231 127 37 210 90 17 215 87 21
215 87 21 215 87 21 215 87 21 217 86 21 217 86 21 217 86 21 215 85 20
217 86 21 203 72 7 201 71 6 203 70 6 203 70 6 203 70 8 203 70 8
203 70 8 203 70 8 203 70 6 203 70 6 210 77 13 210 77 13 212 76 13
212 76 13 214 77 12 214 77 12 213 78 12 211 79 12 211 81 13 205 80 11
223 102 32 217 102 27 216 103 27 214 104 27 214 104 27 214 104 25
216 103 25 217 103 25 217 103 25 219 102 25 199 82 7 201 81 7
201 81 7 202 80 7 204 79 7 204 79 7 204 79 7 204 79 7 206 81 12
207 79 13 197 63 6 199 60 7 205 63 13 205 63 13 204 65 11 204 65 11
205 64 9 205 64 9 205 64 9 205 64 9 204 63 8 203 62 7 203 62 7
203 62 7 203 62 7 203 62 7 203 62 7 203 62 7 203 62 7 203 62 7
203 62 7 203 62 7 204 63 8 204 63 8 204 63 8 204 63 8 204 63 8
204 63 8 203 64 6 203 64 6 205 66 9 205 66 9 203 68 6 203 68 6
203 68 6 203 68 6 203 68 6 203 68 6 203 68 6 202 66 5 201 65 4
201 65 4 202 66 7 202 66 7 202 66 7 204 65 7 209 63 5 210 62 5
209 64 3 205 66 1 222 89 20 218 92 16 218 92 16 217 93 16 217 92 20
215 93 20 214 94 20 214 94 18 215 94 16 212 98 13 231 132 40
229 137 43 224 138 40 224 138 40 224 138 40 224 138 40 224 138 40
224 138 40 224 138 40 224 138 40 215 93 18 215 93 18 215 93 18
215 93 18 215 93 20 215 93 20 214 94 20 215 93 20 213 91 16 218 93 21
202 74 6 207 77 9 207 74 9 208 73 9 208 73 9 208 73 9 207 74 9
205 74 9 203 75 9 203 75 9 215 87 21 215 87 21 215 87 19 213 88 19
210 90 17 212 90 15 215 88 13 215 88 13 208 87 7 207 93 11 231 127 39
228 132 41 226 131 40 226 132 38 226 132 38 226 132 38 224 131 35
224 131 35 224 131 35 229 128 37 209 91 15 213 88 19 213 88 21
213 88 21 215 87 21 215 87 21 215 87 21 215 87 21 215 85 20 217 86 21
201 71 6 203 72 7 203 70 6 203 70 6 203 70 8 203 70 8 203 70 8
203 70 8 203 70 6 203 70 6 210 77 13 210 77 13 212 76 13 212 76 13
214 77 12 214 77 12 213 78 12 211 79 12 211 81 13 205 80 11
223 103 30 217 102 27 216 103 27 214 104 27 214 104 25 214 104 25
216 103 25 217 103 25 217 103 25 219 102 25 200 83 9 202 82 9
202 82 9 204 81 9 205 80 9 205 80 9 205 80 9 205 80 11 208 82 13
208 79 16 198 64 7 200 61 10 204 62 14 204 62 14 203 63 12 203 63 10
204 63 8 204 63 8 204 63 8 204 63 8 204 63 8 203 62 7 203 62 7
203 62 7 203 62 7 203 62 7 203 62 7 203 62 7 203 62 7 203 62 7
203 62 7 203 62 7 204 63 8 204 63 8 204 63 8 204 63 8 204 63 8
204 63 8 203 64 6 203 64 6 204 65 7 204 65 7 203 68 6 203 68 6
203 68 6 203 68 6 203 68 6 203 68 6 203 68 6 202 66 5 201 65 4
201 65 4 202 66 7 202 66 7 202 66 7 204 65 7 209 63 5 210 62 5
209 64 3 205 66 1 222 89 20 218 91 18 218 92 16 217 93 16 217 92 18
215 93 20 214 94 20 214 94 18 215 94 16 212 97 15 231 132 42
229 137 43 226 137 40 224 138 40 224 138 40 224 138 40 224 138 40
224 138 40 224 138 40 224 138 40 212 95 18 212 95 18 212 95 18
212 95 18 212 94 20 212 94 20 212 94 20 214 94 20 213 90 18 218 93 21
202 74 6 207 77 9 207 74 9 208 73 9 208 73 9 208 73 9 207 74 7
205 75 7 203 76 7 203 76 7 215 87 19 215 87 19 213 88 19 212 89 17
209 91 17 210 90 15 213 89 13 213 89 13 207 88 7 205 94 11 229 127 41
227 132 43 224 132 40 222 133 40 222 133 40 222 133 40 221 132 39
221 132 39 221 132 39 226 129 41 207 92 15 212 89 17 213 88 19
213 88 19 213 88 19 213 88 19 215 87 19 215 87 19 214 86 20 215 87 21
201 71 6 203 72 7 201 71 6 201 71 6 203 70 8 203 70 8 203 70 8
203 70 8 203 70 6 203 70 6 210 77 13 210 77 13 212 77 11 212 77 11
213 78 12 213 78 12 213 78 12 211 79 12 209 81 13 205 80 11
223 103 30 219 101 27 217 102 27 216 103 27 217 102 27 217 102 27
217 102 27 219 101 27 219 101 27 221 101 27 202 82 9 204 81 9
204 81 9 205 80 9 205 80 11 205 80 11 205 80 11 205 80 11 208 82 15
208 79 16 198 64 9 200 61 10 204 62 14 204 62 14 203 63 12 203 63 10
204 63 8 204 63 8 204 63 8 204 63 8 204 63 8 203 62 7 203 62 7
203 62 7 203 62 7 203 62 7 203 62 7 203 62 7 203 62 7 203 62 7
203 62 7 203 62 7 204 63 8 204 63 8 204 63 8 204 63 8 204 63 8
204 63 8 204 65 7 204 65 7 204 65 7 204 65 7 203 68 6 203 68 6
203 68 6 203 68 6 203 68 6 203 68 6 203 68 6 202 66 5 201 65 4
201 65 4 202 66 7 202 66 7 202 66 7 204 65 7 207 64 5 207 64 5
205 65 3 202 67 1 218 91 20 217 92 18 215 94 16 215 94 16 214 94 18
212 95 18 210 96 18 210 96 18 212 95 16 210 98 15 230 133 42
227 138 43 224 138 40 224 138 38 224 138 38 224 138 38 224 138 38
224 138 38 224 138 38 224 138 38 210 96 18 210 96 18 210 96 18
210 95 20 210 95 20 210 95 20 210 95 20 212 94 20 213 90 18 220 92 23
202 74 6 207 77 9 207 74 9 208 73 9 208 73 9 207 74 7 205 75 7
205 75 7 203 76 7 203 76 7 215 87 19 215 87 19 213 88 17 212 89 17
209 91 15 209 91 15 212 90 13 213 89 13 207 88 7 205 94 11 229 127 41
227 132 43 222 133 40 222 133 40 222 133 40 222 133 40 221 132 39
221 131 41 221 131 41 226 128 43 206 91 12 212 88 14 212 87 16
212 87 18 213 88 19 215 87 19 215 87 19 215 87 19 214 86 20 215 87 21
201 71 6 203 72 7 201 71 6 201 71 6 203 70 8 203 70 8 203 70 8
203 70 8 203 70 8 203 70 6 210 77 13 210 77 13 212 77 11 212 77 11
213 78 12 213 78 12 213 78 12 211 79 12 212 80 13 208 78 11
226 101 30 221 101 27 217 102 27 217 102 27 217 102 27 217 102 27
219 101 27 219 101 27 221 101 27 221 101 27 204 81 9 204 81 9
205 80 9 205 80 9 205 80 11 205 80 11 205 80 11 205 80 11 209 81 15
210 79 16 200 63 9 202 59 12 206 61 16 206 61 16 204 62 14 203 63 12
204 63 10 206 62 8 206 62 8 204 63 8 204 63 8 203 62 7 203 62 7
203 62 7 203 62 7 203 62 7 203 62 7 203 62 7 203 62 7 203 62 7
203 62 7 203 62 7 204 63 8 204 63 8 204 63 8 204 63 8 204 63 8
204 63 8 204 65 7 204 65 7 204 65 7 204 65 7 203 68 6 203 68 6
203 68 6 203 68 6 203 68 6 203 68 6 203 68 6 202 66 5 201 65 4
201 65 4 202 66 7 202 66 7 202 66 7 204 65 7 205 65 5 205 65 5
204 66 3 201 68 1 217 92 20 215 93 18 214 94 16 214 94 16 212 95 18
212 95 18 212 95 18 210 96 18 210 96 16 208 99 15 228 133 44
226 138 45 224 138 40 224 138 38 224 138 38 224 138 38 224 138 38
224 138 38 224 138 38 224 138 38 210 95 20 210 95 20 210 95 20
210 95 20 210 95 22 210 95 22 210 95 22 212 94 22 215 89 20 220 92 23
202 74 6 207 77 9 207 74 7 207 74 7 207 74 7 205 75 7 205 75 7
205 75 7 203 76 5 203 76 5 215 88 17 215 88 17 213 88 17 212 90 15
210 90 15 210 90 15 213 89 13 213 90 11 208 87 7 207 93 11 231 127 39
228 132 41 224 132 40 224 132 40 224 132 38 224 132 38 224 132 38
224 132 38 224 132 40 229 130 40 207 90 12 214 87 14 214 86 16
214 86 16 214 86 18 215 85 18 215 85 20 215 85 20 215 85 20 217 86 21
201 70 8 203 72 9 203 70 8 203 70 8 203 70 8 203 70 8 203 69 10
203 69 10 203 70 8 203 70 6 210 77 13 210 77 11 210 77 11 210 78 9
211 79 12 211 79 12 211 79 12 213 78 12 220 76 13 216 74 11 229 99 32
221 100 29 216 103 27 214 104 27 216 103 27 216 103 27 217 102 29
219 101 29 219 101 29 221 100 29 202 82 9 204 81 9 204 81 9 205 80 9
205 80 11 207 79 11 207 79 11 207 79 11 211 80 15 211 78 16 203 61 9
205 58 12 208 58 15 208 58 15 206 59 13 205 60 11 206 61 12 208 61 10
208 61 10 206 62 10 206 62 10 205 61 9 203 62 7 203 62 7 203 62 7
203 62 7 203 62 7 203 62 7 203 62 7 203 62 7 203 62 7 203 62 7
204 63 8 204 63 8 204 63 8 204 63 8 204 63 8 204 63 8 204 65 7
204 65 7 204 65 7 204 65 7 203 68 6 203 68 6 203 67 9 203 67 9
203 67 9 203 67 9 203 67 9 202 66 7 201 65 6 201 65 6 202 66 7
202 66 7 202 66 7 204 65 7 205 64 7 205 65 5 204 66 3 201 68 1
217 92 20 214 94 18 214 94 16 212 95 16 214 94 16 214 94 16 215 93 18
214 94 18 210 96 16 207 100 17 228 133 44 227 137 45 226 137 42
226 137 40 226 137 38 226 137 38 226 137 38 226 137 38 226 137 38
226 137 38 212 94 20 212 94 20 212 94 20 212 94 20 212 94 22
212 94 22 212 94 22 214 93 22 215 89 22 220 91 25 202 74 6 207 77 7
207 74 7 207 74 7 205 75 5 205 75 5 205 75 7 205 75 7 203 76 5
203 76 5 215 88 17 215 88 17 215 88 15 213 89 15 212 90 15 213 89 15
215 88 13 215 88 13 210 86 9 209 92 11 232 126 41 230 131 41
226 131 40 224 132 40 224 132 38 224 132 38 224 132 38 224 132 38
224 132 38 229 130 40 208 89 8 213 86 12 213 85 14 213 85 14
215 85 18 215 85 18 215 85 20 215 85 20 215 85 20 217 86 21 201 70 8
203 72 9 203 70 8 203 70 8 203 70 8 203 70 8 203 69 10 203 69 10
203 70 8 203 70 8 210 77 13 210 77 11 210 78 9 210 78 9 211 79 12
211 79 12 210 79 12 213 78 12 222 75 13 220 73 11 229 99 32
219 101 27 216 103 27 214 104 27 214 104 27 216 103 27 217 102 27
219 101 27 219 101 27 221 101 27 202 82 9 204 81 9 204 81 9 205 80 9
207 79 9 207 79 11 207 79 11 208 78 11 212 80 13 214 76 16 205 61 7
207 57 10 210 57 13 210 57 13 208 59 11 206 60 9 206 62 10 206 62 10
206 62 8 206 62 8 206 62 10 205 61 9 203 62 7 203 62 7 203 62 7
203 62 7 203 62 7 203 62 7 203 62 7 203 62 7 203 62 7 203 62 7
204 63 8 204 63 8 204 63 8 204 63 8 204 63 8 204 63 8 204 65 7
204 65 7 204 65 7 204 65 7 203 68 6 203 68 6 203 67 9 203 67 9
203 67 9 203 67 9 203 67 9 202 66 7 201 65 6 201 65 6 202 66 7
202 66 7 202 66 7 204 65 7 205 64 7 205 64 7 204 66 5 201 68 1
217 92 20 214 94 18 212 95 16 212 96 14 212 95 16 214 94 16 215 93 18
215 93 18 210 96 16 207 100 17 230 132 44 229 137 45 226 137 42
226 137 40 226 137 40 226 137 40 226 137 40 226 137 40 226 137 40
226 137 40 214 94 20 214 94 20 214 94 20 214 94 20 215 92 22
215 92 22 215 92 22 217 92 22 216 88 22 220 91 25 204 74 6 207 77 9
207 74 7 207 74 7 207 74 7 207 74 7 205 75 7 205 75 7 205 75 7
205 75 7 217 87 17 217 87 17 217 87 17 215 88 17 215 88 17 215 88 15
218 86 15 218 86 15 211 85 11 210 91 13 234 124 43 232 130 43
226 131 42 222 133 40 222 133 40 222 133 40 222 133 40 222 133 40
222 133 40 229 130 40 208 89 8 214 85 12 214 84 14 214 84 14
215 86 16 215 85 18 215 85 18 215 85 18 217 84 20 218 85 21 203 70 8
204 71 9 203 70 8 203 70 8 203 70 8 203 70 8 203 69 10 203 69 10
203 70 8 203 70 8 211 78 14 211 79 12 211 79 10 211 79 10 211 81 11
211 81 11 211 81 13 212 80 13 220 76 11 216 77 10 225 102 30
216 103 25 214 104 25 214 104 25 216 103 25 216 103 25 217 103 25
219 102 25 221 101 25 221 101 25 204 81 7 204 81 7 205 81 7 205 81 7
207 80 7 208 79 9 208 79 9 208 79 9 212 80 11 214 77 14 206 61 5
207 58 8 210 58 11 210 58 11 208 59 9 206 60 7 204 63 6 203 65 4
204 63 6 204 63 6 204 63 8 203 62 7 205 61 9 205 61 9 203 62 7
203 62 7 203 62 7 203 62 7 203 62 7 203 62 7 203 62 7 203 62 7
204 63 8 204 63 8 204 63 8 204 63 8 204 63 8 204 63 8 204 65 7
204 65 7 205 66 9 205 66 9 203 68 6 203 68 6 203 67 9 203 67 9
203 67 9 203 67 9 205 68 10 203 67 9 201 65 6 201 65 6 202 66 7
202 66 7 202 66 7 204 65 7 205 64 7 207 66 9 205 67 6 202 69 2
217 92 20 214 94 18 212 95 16 212 96 14 212 96 14 212 95 16 215 94 16
214 94 16 212 95 16 208 99 17 231 131 44 230 135 47 226 136 44
224 137 42 224 137 42 224 137 42 224 137 42 224 137 42 224 137 42
224 137 42 217 92 20 217 92 20 217 92 20 217 92 22 217 92 22
218 91 22 218 91 22 218 91 22 216 88 22 221 91 25 204 73 8 209 76 11
207 74 9 207 74 9 207 74 9 207 74 9 207 74 9 207 74 9 207 74 9
207 74 9 218 86 19 218 86 19 218 86 19 218 86 19 217 86 19 218 86 19
220 85 17 220 85 17 215 82 13 213 88 17 237 122 45 235 127 47
230 128 44 229 129 44 229 129 42 229 129 42 229 129 42 229 129 42
229 129 42 234 127 42 209 88 10 214 85 12 214 84 14 214 84 14
215 86 16 215 86 16 215 85 18 215 85 18 217 84 20 218 85 21 203 70 8
203 70 8 202 68 6 203 70 8 203 70 8 203 69 10 203 69 10 203 69 10
203 70 8 203 70 8 211 78 14 211 79 12 211 79 10 211 79 10 211 81 11
211 81 11 209 81 13 211 81 13 216 77 10 213 79 8 220 105 28
209 107 25 208 107 25 208 108 23 209 107 23 209 107 21 211 107 21
213 106 21 214 105 21 214 105 21 197 85 5 197 85 5 199 84 5 199 84 5
200 83 5 202 83 5 202 83 5 202 83 5 206 84 9 208 81 10 200 64 3
200 61 6 203 61 9 203 61 9 202 63 7 200 64 3 200 67 2 200 67 0
201 66 2 201 65 4 203 64 6 203 62 7 205 61 9 205 61 9 203 62 7
203 62 7 203 62 7 203 62 7 203 62 7 203 62 7 203 62 7 203 62 7
204 63 8 204 63 8 204 63 8 204 63 8 204 63 8 204 63 8 203 64 6
203 64 6 205 66 9 205 66 9 203 68 6 203 68 6 203 67 9 203 67 9
203 67 9 203 67 9 205 68 10 203 67 9 201 65 6 201 65 6 202 66 7
202 66 7 202 66 7 202 66 7 204 65 7 205 66 9 203 68 6 200 70 2
217 92 20 214 94 18 212 95 16 212 96 14 210 96 14 210 96 14 214 94 16
214 94 16 212 95 16 210 98 17 233 131 44 232 135 47 229 134 46
229 135 44 229 135 44 229 135 44 229 135 44 229 135 44 229 135 44
229 135 44 209 81 13 209 81 13 209 81 13 209 81 13 209 81 15
211 80 15 211 80 15 211 80 15 208 78 11 213 81 16 196 63 0 200 66 4
199 63 2 199 63 2 199 63 2 199 63 2 199 63 2 199 63 2 200 64 3
200 64 3 202 63 3 202 63 3 203 65 4 203 65 4 201 65 4 201 65 4
204 64 2 204 64 2 206 68 6 203 72 7 203 85 13 201 85 13 202 84 10
202 84 10 202 84 8 202 84 8 202 84 8 202 84 8 202 85 6 201 82 3
204 78 4 205 76 3 205 75 5 205 75 5 206 76 6 206 76 6 206 76 8
206 76 8 208 75 10 205 72 8 203 70 8 202 68 6 203 68 6 203 68 6
203 67 9 203 67 9 203 67 11 203 67 9 202 68 6 202 68 6 212 79 15
212 80 13 212 82 12 212 82 12 213 81 12 212 82 12 209 83 14 210 83 14
211 79 10 208 83 9 248 143 60 242 152 64 237 154 64 236 155 62
236 156 60 237 155 60 239 155 58 241 154 58 241 154 58 242 153 58
220 130 38 222 130 38 222 130 38 223 129 38 225 128 38 225 128 38
225 128 38 227 127 38 233 131 44 231 124 42 217 104 30 216 97 30
218 97 33 218 97 33 217 98 31 217 99 27 221 99 24 223 98 24 224 97 26
227 95 28 201 65 4 203 62 7 205 61 9 205 61 9 203 62 7 203 62 7
203 62 7 203 62 7 203 62 7 203 62 7 203 62 7 203 62 7 203 62 7
203 62 7 203 62 7 203 62 7 203 62 7 203 62 7 203 64 6 203 64 6
205 66 9 205 66 9 205 69 8 205 69 8 205 68 10 205 68 10 206 70 11
206 70 11 205 68 10 205 68 10 207 71 12 207 71 12 208 72 13 208 72 13
208 72 13 207 71 12 209 70 12 206 68 10 205 69 8 201 71 4 224 99 27
221 101 25 219 102 23 217 103 21 214 105 21 214 105 21 219 104 24
220 103 24 220 103 24 217 105 24 215 108 26 213 109 26 214 107 22
215 106 22 215 106 22 215 106 22 215 106 22 215 106 22 215 106 22
215 106 22 212 80 13 212 80 13 212 80 13 212 80 13 212 79 15
212 79 15 212 79 15 212 79 15 210 77 11 213 81 16 196 63 1 201 65 4
200 62 2 200 62 2 200 62 2 200 62 4 200 62 4 200 62 4 200 62 4
202 61 4 202 61 4 202 61 6 202 61 6 202 61 6 200 61 6 202 61 4
205 59 4 205 59 4 205 64 7 202 68 6 204 80 15 202 81 13 204 78 11
206 78 9 206 78 9 206 78 9 206 78 9 206 78 7 206 78 7 204 78 4
206 77 4 205 76 3 205 75 5 205 75 5 206 76 6 206 76 6 206 76 8
206 76 8 208 75 10 205 72 8 203 70 8 201 67 5 202 66 5 203 68 6
203 67 9 203 67 9 203 67 11 203 67 11 202 68 9 202 68 6 212 79 15
212 80 13 212 82 12 212 82 12 213 81 12 212 82 12 210 85 15 210 85 13
207 80 7 203 86 7 242 147 58 236 155 62 231 158 60 229 159 60
229 159 58 231 159 56 233 158 56 234 157 56 234 157 56 236 157 56
214 134 34 215 133 36 215 133 36 217 132 36 219 132 36 219 132 36
219 132 36 220 131 36 226 135 40 225 128 40 211 108 26 209 101 26
212 101 29 212 101 29 210 102 27 210 103 23 216 102 20 219 101 20
221 99 22 226 96 26 201 66 2 203 62 5 205 61 7 206 60 9 205 61 7
203 62 7 203 62 7 203 62 7 203 62 7 203 62 7 203 62 7 203 62 7
203 62 7 203 62 7 203 62 7 203 62 7 203 62 7 203 62 7 202 63 5
202 63 5 205 66 9 205 66 9 205 69 8 205 69 8 205 68 10 205 68 10
206 70 11 206 70 11 205 68 10 205 68 10 207 71 12 207 71 12 208 72 13
208 72 13 208 72 13 207 71 12 209 70 12 206 68 10 205 69 8 201 71 4
224 99 27 222 100 25 221 101 23 217 103 21 213 106 21 213 106 21
217 105 24 220 103 24 220 103 24 219 104 24 217 107 26 217 107 26
219 104 24 220 103 24 220 103 24 220 103 24 220 103 24 220 103 24
220 103 24 220 103 24 214 79 13 214 79 13 214 79 13 214 79 13
214 79 15 214 79 15 214 79 15 212 79 15 210 77 11 212 79 15 199 63 2
201 65 4 200 62 4 200 62 4 200 62 4 202 61 4 202 61 6 202 61 6
202 61 6 204 60 6 204 60 6 204 59 8 205 61 9 205 61 9 203 61 9
205 61 7 208 59 7 208 59 7 207 63 9 203 67 9 205 79 17 202 81 15
205 79 15 205 79 13 205 79 13 205 79 13 207 79 13 207 79 11 207 79 11
206 78 7 206 77 4 205 76 3 205 75 5 205 75 5 206 76 6 206 76 6
206 76 8 206 76 8 208 75 10 205 72 8 203 70 8 201 67 5 202 66 5
203 68 6 203 67 9 203 67 9 203 67 11 203 67 11 202 68 9 202 68 6
213 81 16 213 81 14 213 83 13 213 83 13 215 82 13 213 83 13 211 86 16
209 87 14 206 82 8 202 90 9 238 151 60 232 159 61 229 159 58
229 160 56 231 159 56 231 159 54 233 159 54 234 158 54 236 157 54
236 157 54 215 134 32 215 134 34 217 133 34 217 133 34 219 132 34
220 131 34 220 131 34 220 131 34 226 135 38 225 128 38 212 107 24
209 101 22 212 101 25 212 101 25 210 103 23 210 103 21 213 104 18
215 104 16 219 101 20 224 97 24 201 66 2 203 62 5 205 61 7 206 60 9
205 61 7 203 62 7 203 62 7 203 62 7 203 62 7 203 62 7 203 62 7
203 62 7 203 62 7 203 62 7 203 62 7 203 62 7 203 62 7 203 62 7
202 63 5 202 63 5 206 68 10 206 68 10 205 69 8 205 69 8 205 68 10
205 68 10 206 70 11 206 70 11 206 70 11 206 70 11 207 71 12 207 71 12
208 72 13 208 72 13 208 72 13 207 71 12 209 70 12 207 69 11 206 70 9
203 72 5 224 99 27 222 100 25 221 101 23 216 104 21 211 107 21
211 107 21 217 105 24 220 103 24 220 103 24 220 103 24 218 106 26
218 106 26 219 104 24 219 104 26 219 104 26 219 104 26 219 104 26
219 104 26 219 104 26 219 104 26 214 79 13 214 79 13 214 79 13
214 79 13 214 79 15 214 79 15 214 79 15 212 79 15 210 77 11 212 79 15
199 63 2 203 65 4 200 62 4 200 62 4 202 61 4 202 61 4 202 61 6
202 61 6 202 61 6 204 60 6 204 59 8 204 59 8 205 61 9 205 61 9
205 61 9 205 61 9 206 60 7 206 60 7 207 63 9 205 66 11 207 78 17
205 79 15 205 79 15 207 79 13 207 79 13 207 79 13 207 79 13 207 79 13
207 79 11 206 78 9 206 76 6 205 75 5 205 75 5 205 75 7 206 76 8
208 75 8 208 75 8 208 75 10 208 75 10 205 72 8 203 70 8 201 67 5
202 66 5 203 68 6 203 67 9 203 67 9 203 67 11 203 67 9 202 68 6
202 68 6 213 81 16 213 81 14 213 83 13 215 82 13 216 82 13 215 82 13
211 86 16 208 88 14 205 83 8 200 91 9 235 152 60 231 161 59
231 159 56 231 159 54 233 159 54 233 159 54 234 158 52 236 157 52
236 157 52 237 156 54 215 134 32 217 133 32 217 133 34 219 132 34
220 131 34 220 131 34 220 132 32 222 131 32 228 134 38 227 128 36
212 108 22 211 101 20 214 101 23 214 101 23 212 102 21 210 103 19
213 105 16 215 104 16 216 102 20 223 98 24 201 66 2 205 61 5 206 60 7
206 60 9 205 61 7 203 62 7 203 62 7 203 62 7 203 62 7 203 62 7
203 62 7 203 62 7 203 62 7 203 62 7 203 62 7 203 62 7 203 62 7
203 62 7 202 63 5 202 63 5 206 68 10 206 68 10 205 69 8 205 69 8
205 68 10 205 68 10 206 70 11 206 70 11 206 70 11 206 70 11 207 71 12
207 71 12 208 72 13 208 72 13 208 72 13 207 71 12 209 70 12 207 69 9
206 70 7 203 72 5 224 99 27 222 100 25 221 101 23 217 103 21
213 106 21 211 107 21 217 105 24 219 104 24 220 103 24 220 103 24
220 105 26 218 106 26 219 104 26 219 104 26 219 104 26 219 104 26
219 104 26 219 104 26 219 104 26 219 104 26 212 79 15 212 79 15
212 79 15 212 79 15 212 79 15 212 79 15 212 79 15 212 79 15 211 79 12
212 79 15 200 64 3 202 63 5 201 59 5 201 59 5 201 60 3 201 60 3
202 61 6 202 61 6 203 62 7 203 62 7 203 62 7 203 62 7 203 61 9
205 61 9 205 61 9 205 61 9 205 61 9 205 61 7 205 64 9 205 66 9
210 76 17 208 77 15 208 78 13 208 78 11 208 78 11 208 78 11 208 78 11
208 78 11 208 78 11 208 78 11 205 75 7 205 75 7 205 75 7 205 74 9
207 74 9 208 73 9 208 73 9 208 72 11 208 72 11 207 71 10 205 69 8
202 66 5 202 66 7 203 67 9 203 67 9 203 67 9 203 67 9 203 67 9
203 68 6 202 68 6 213 81 16 212 82 14 212 82 14 213 81 14 216 81 15
215 82 15 210 85 13 208 86 13 203 83 8 199 91 9 237 151 60 232 160 59
232 157 53 233 157 53 233 157 53 235 156 53 235 156 53 236 155 53
236 155 53 238 154 53 216 132 31 217 131 31 217 131 33 219 130 33
219 130 33 221 129 33 221 130 31 221 130 31 227 134 35 225 127 33
213 106 19 210 100 17 212 100 20 212 100 20 211 101 20 211 101 18
214 102 17 214 102 17 215 101 21 220 97 25 201 66 2 205 61 5 206 60 7
206 60 9 205 61 7 203 62 7 203 62 7 203 62 7 203 62 7 203 62 7
203 62 7 203 62 7 202 63 5 202 63 5 202 63 5 202 63 5 202 63 5
202 63 5 202 63 5 200 64 5 205 68 10 205 68 10 205 68 10 203 69 10
205 68 10 205 68 10 205 68 10 205 68 10 206 70 9 206 70 9 206 70 9
206 70 9 209 70 12 209 70 12 209 70 12 209 70 12 209 70 10 209 70 10
207 72 8 204 74 6 225 100 28 223 101 26 221 101 23 219 102 23
216 104 23 214 105 23 216 104 23 217 103 23 217 103 25 217 103 25
219 104 26 219 104 26 220 105 28 220 105 28 220 105 28 220 105 28
221 104 30 221 104 30 221 104 30 221 104 30 211 80 15 211 80 15
211 80 15 211 80 15 211 80 15 211 80 15 211 80 15 211 80 15 211 79 12
214 79 15 202 63 3 202 63 5 201 59 5 201 59 7 201 59 5 201 60 3
202 61 6 202 61 6 202 63 7 202 63 7 202 63 7 202 63 7 203 61 9
203 61 9 205 61 9 205 61 9 203 61 9 203 61 9 204 65 9 203 67 9
210 77 15 208 78 13 208 78 11 208 78 11 208 78 11 208 78 11 208 78 11
208 78 11 208 78 11 208 78 11 205 75 7 205 74 9 205 74 9 207 74 9
208 73 9 208 72 11 208 72 11 208 72 11 208 72 11 207 71 10 205 69 8
202 66 5 202 66 7 203 67 9 203 67 9 203 67 9 203 67 9 203 67 9
203 68 6 203 68 6 213 81 16 212 82 14 212 82 14 213 81 14 216 81 15
216 81 15 211 84 13 208 86 11 203 84 6 199 92 7 237 152 58 232 160 59
232 157 53 232 158 51 232 157 53 233 157 53 233 157 53 233 157 53
235 155 55 236 155 55 219 130 31 221 129 33 222 128 33 222 128 33
222 128 33 224 128 33 224 128 33 224 128 31 230 132 35 229 125 33
214 106 17 213 99 17 216 99 20 216 99 20 214 100 18 212 101 18
214 102 19 214 102 19 214 101 23 218 98 25 200 64 3 205 61 7 205 61 9
205 61 9 203 62 7 203 62 7 203 62 7 203 62 7 203 62 7 203 62 7
203 62 7 203 62 7 202 63 5 202 63 5 202 63 5 202 63 5 202 63 5
202 63 5 200 64 5 200 64 5 205 68 10 205 68 10 203 69 10 203 69 10
205 68 10 205 68 10 205 68 10 205 68 10 206 70 9 206 70 9 206 70 9
206 70 9 209 70 12 209 70 12 209 70 12 209 70 12 209 70 10 209 70 10
207 72 8 204 73 8 225 100 30 223 101 28 221 101 25 219 102 23
216 104 23 214 105 23 214 105 23 216 104 23 216 103 25 216 103 25
217 105 26 217 105 26 218 106 28 218 106 28 218 106 28 220 105 28
220 104 30 220 104 30 220 104 30 220 104 30 211 80 15 211 80 15
211 80 15 211 80 15 211 80 15 211 80 15 211 80 15 211 80 15 211 79 12
213 77 14 203 65 4 202 63 5 202 61 6 202 60 8 204 60 6 204 60 4
202 61 6 202 61 6 202 63 7 202 63 7 202 63 7 202 63 7 204 63 10
204 63 10 206 62 10 206 62 10 204 63 10 204 63 10 204 65 9 203 67 9
210 77 15 208 78 13 208 80 12 208 81 10 208 81 10 208 81 10 208 81 10
208 81 10 208 81 10 208 81 10 205 75 5 207 74 7 207 74 7 207 74 7
208 73 7 208 73 9 208 73 9 208 73 9 208 73 9 207 72 8 205 69 8
202 66 5 202 66 5 203 68 6 203 67 9 203 67 9 203 67 11 203 67 9
203 68 6 203 68 6 213 81 16 212 82 14 212 82 14 213 81 14 216 81 15
216 81 15 211 84 13 208 86 11 206 84 7 201 92 8 238 153 59 233 161 58
228 159 53 227 160 51 227 160 53 228 159 53 228 159 53 228 159 53
228 159 55 233 156 55 222 128 33 227 126 33 227 126 35 227 126 35
227 126 35 229 125 35 229 125 33 229 125 33 233 130 35 232 124 33
219 103 17 216 97 17 219 97 20 219 97 20 217 98 18 216 99 18
214 102 19 212 102 21 212 102 23 217 99 27 200 64 3 205 61 7 203 61 9
203 61 9 203 62 7 203 62 7 203 62 7 203 62 7 203 62 7 203 62 7
203 62 7 203 62 7 202 63 5 202 63 5 202 63 5 202 63 5 202 63 5
202 63 5 200 64 5 200 64 5 205 68 10 205 68 10 203 69 10 203 69 10
205 68 10 205 68 10 205 68 10 205 68 10 206 70 9 206 70 9 206 70 9
206 70 9 209 70 12 209 70 12 209 70 12 209 70 12 209 70 10 209 70 10
207 72 8 204 73 8 225 100 30 223 101 28 221 101 25 219 102 23
214 105 23 213 105 23 213 105 23 213 105 23 214 104 25 214 104 25
215 105 26 215 105 26 217 106 28 217 106 28 217 106 28 217 106 28
218 105 30 218 105 30 218 105 30 218 105 30 211 80 15 211 80 15
211 80 15 211 80 15 211 80 15 211 80 15 211 80 15 211 80 15 211 79 12
213 78 12 203 65 4 202 63 5 202 61 6 202 60 8 204 60 6 204 60 4
202 61 6 202 61 6 202 63 7 202 63 7 202 63 7 202 63 7 204 63 10
204 63 10 206 62 10 206 62 10 204 63 10 204 63 10 203 64 8 203 67 9
210 77 15 208 78 13 208 80 12 208 81 10 208 81 10 208 81 10 208 81 10
208 81 10 208 81 10 208 81 10 205 75 5 207 74 7 207 74 7 207 74 7
208 73 7 208 73 9 208 73 9 208 73 9 208 73 9 207 72 8 205 69 8
202 66 5 202 66 5 203 68 6 203 67 9 203 67 9 203 67 11 203 67 11
203 67 9 203 68 6 213 81 16 212 82 14 212 82 14 213 81 14 217 82 16
217 82 16 213 85 16 209 87 12 207 85 8 201 92 8 237 152 58 232 160 57
228 159 53 227 160 51 227 160 53 227 160 53 228 159 53 228 159 53
228 159 55 233 156 55 222 128 33 227 126 33 227 126 35 227 126 35
229 125 35 229 125 35 229 125 33 229 125 33 235 129 35 232 124 33
219 103 17 218 96 17 220 96 20 220 96 20 219 97 18 216 99 18
212 102 21 210 103 21 209 103 23 215 99 27 197 64 2 202 61 4 200 61 6
200 61 6 202 61 6 202 61 6 202 61 6 202 61 6 202 61 6 202 61 6
202 61 6 202 61 6 202 63 5 202 63 5 202 63 5 202 63 5 202 63 5
202 63 5 200 64 5 200 64 5 205 68 10 205 68 10 203 69 10 203 69 10
205 68 10 205 68 10 205 68 10 205 68 10 206 70 9 206 70 9 206 70 9
206 70 9 209 70 12 209 70 12 209 70 12 209 70 12 209 70 10 207 71 10
205 72 8 204 73 8 225 100 30 223 101 28 221 101 25 219 102 23
214 105 23 213 105 23 213 105 23 213 105 23 214 104 25 214 104 25
215 105 26 215 105 26 217 106 28 217 106 28 217 106 28 217 106 28
218 105 30 218 105 30 218 105 30 218 105 30 208 77 15 208 77 15
208 77 15 208 77 15 208 77 15 208 77 15 208 77 15 208 78 13 216 83 16
213 78 12 204 66 5 198 59 2 202 61 6 204 59 8 204 60 6 204 60 4
203 62 7 203 62 7 202 63 7 202 63 7 203 64 8 203 64 8 204 63 10
204 63 10 206 62 10 206 62 10 204 63 10 204 63 10 203 64 8 206 68 10
210 75 13 213 81 16 210 79 12 210 79 12 210 79 12 210 79 12 210 79 12
210 79 12 210 79 12 210 79 12 208 75 8 208 75 10 208 75 10 208 75 10
208 73 9 208 72 11 208 72 11 208 72 11 210 72 11 210 72 11 210 72 11
209 70 10 209 70 12 207 69 11 207 69 11 207 69 11 206 67 12 206 67 12
206 68 10 205 69 8 216 83 18 214 84 18 214 84 16 214 84 16 217 82 18
217 82 18 213 85 16 211 86 14 211 87 10 203 91 8 236 149 55
229 155 52 230 158 53 230 158 53 232 157 53 232 157 53 233 156 55
233 156 55 235 155 55 236 155 55 220 131 36 222 130 36 223 129 36
223 129 36 225 128 38 225 128 36 225 129 34 227 128 34 233 132 36
230 126 34 217 106 18 216 99 18 218 99 21 218 99 21 217 100 19
214 102 19 210 105 22 208 106 22 208 105 24 213 103 26 194 66 0
199 63 4 197 63 4 199 62 6 200 61 6 202 61 6 202 61 6 202 61 6
202 61 6 202 61 6 203 62 7 203 62 7 202 63 5 202 63 5 203 64 6
203 64 6 203 64 6 203 64 6 201 65 6 201 65 6 205 68 10 205 68 10
203 69 10 203 69 10 205 68 10 205 68 10 205 68 10 205 68 10 207 69 9
207 69 9 207 69 9 207 69 9 209 70 10 209 70 10 209 70 10 209 70 10
207 71 10 207 71 10 205 72 8 204 73 8 225 98 29 224 99 27 222 100 25
219 102 23 215 103 22 213 103 22 214 105 23 216 104 23 216 103 25
216 103 25 217 104 28 217 104 28 218 105 30 218 105 30 218 105 30
220 104 30 220 104 30 220 104 30 220 104 30 220 104 30 210 79 16
210 79 16 210 79 16 210 79 16 210 79 16 210 79 16 210 79 16 210 79 14
211 79 12 210 75 9 204 66 5 199 60 5 202 60 8 204 59 8 204 60 6
204 60 4 203 62 7 203 62 7 202 63 7 202 63 7 203 64 8 203 64 8
204 63 10 204 63 10 206 62 10 206 62 10 204 63 10 204 63 10 203 64 8
205 66 9 208 72 11 210 75 13 211 78 14 211 78 14 211 78 14 211 78 14
211 78 14 211 78 14 211 78 14 211 78 16 208 74 12 208 74 12 208 74 12
208 74 12 208 72 13 208 72 13 207 71 12 207 71 12 209 70 12 209 70 12
207 69 11 207 69 11 206 68 10 206 68 10 206 68 10 206 68 10 208 66 12
208 66 12 206 68 10 206 68 10 215 79 18 213 81 16 212 82 14 212 82 14
216 81 17 216 81 17 211 84 15 210 85 13 210 86 9 203 89 7 235 146 53
229 149 51 237 158 57 239 157 55 239 157 55 239 157 55 240 156 57
240 156 57 240 156 57 240 156 57 217 131 35 217 131 35 217 131 35
217 131 35 219 129 37 219 130 35 219 130 33 219 130 33 225 134 35
224 128 33 209 108 17 208 101 17 211 101 20 211 101 20 209 102 18
208 103 18 206 106 19 206 105 21 206 105 21 210 102 25 195 69 2
200 66 4 198 67 6 200 66 6 203 64 8 204 63 8 204 63 8 204 63 8
204 63 8 204 63 8 204 63 8 204 63 8 204 65 7 204 65 7 204 65 7
204 65 7 204 65 7 204 65 7 203 67 9 203 67 9 203 67 9 203 67 9
203 69 10 203 69 10 205 68 10 205 68 10 205 68 10 205 68 10 207 69 9
207 69 9 207 69 9 207 69 9 209 70 10 209 70 10 209 70 10 209 70 10
207 71 10 207 71 10 205 72 8 204 73 8 224 97 28 223 98 26 221 99 24
219 100 22 217 100 21 217 100 21 218 101 22 218 101 22 219 100 24
219 100 24 221 101 27 221 101 27 222 102 28 222 102 28 222 102 28
222 102 28 223 101 28 223 101 28 223 101 28 223 101 28 199 68 5
199 68 5 199 68 5 199 68 5 199 68 5 199 68 5 199 68 5 199 69 3
207 74 7 207 72 6 203 65 4 200 61 6 203 61 9 203 61 9 203 62 7
203 62 5 203 62 7 203 62 7 203 62 7 203 62 7 204 65 9 204 65 9
205 64 9 205 64 9 204 63 8 204 63 8 204 63 10 204 63 10 204 65 9
205 66 9 205 66 9 205 66 9 204 65 7 204 65 7 204 63 8 204 63 8
204 63 8 204 63 8 204 63 8 203 64 8 196 60 6 195 60 6 195 60 6
195 60 6 196 60 4 196 60 4 198 61 5 198 61 5 200 61 6 200 61 6
202 63 7 202 63 5 203 64 6 203 64 6 203 64 6 203 64 6 204 63 8
204 63 8 203 64 6 203 64 6 209 73 12 208 75 10 206 76 8 206 76 8
210 75 11 210 75 11 206 78 9 204 79 7 206 79 3 198 84 1 231 139 47
225 143 45 221 132 35 223 132 33 223 132 33 221 133 33 221 132 35
221 132 35 220 133 35 220 133 35 237 153 54 237 153 54 235 153 54
235 153 56 235 153 56 235 153 56 234 154 54 234 155 52 238 159 56
237 153 54 222 133 38 221 126 37 224 126 41 224 126 41 222 127 39
222 127 39 223 128 40 225 128 40 225 127 42 230 124 44 198 75 5
203 72 9 201 72 9 203 71 11 206 70 11 207 69 11 207 69 11 207 69 11
207 69 11 207 69 11 207 69 11 207 69 11 206 68 10 205 69 8 205 69 8
205 69 8 206 68 10 206 68 10 205 68 10 205 68 10 205 68 10 205 68 10
203 69 10 203 69 10 205 68 10 205 68 10 205 68 10 205 68 10 206 70 9
206 70 9 206 70 9 206 70 9 207 71 10 207 71 10 207 71 10 207 71 10
207 71 10 207 71 10 207 74 9 205 74 9 204 77 8 203 78 6 202 80 5
202 81 3 201 80 2 203 79 2 204 80 3 206 79 3 206 79 5 206 79 5
207 79 9 207 79 9 208 81 10 208 81 10 208 81 10 210 80 10 210 80 10
210 80 10 210 80 10 210 80 10 201 67 5 201 67 5 201 67 5 201 67 5
201 67 5 201 67 5 201 67 5 201 67 5 203 68 4 203 68 4 202 63 5
200 61 6 203 62 7 203 62 7 203 62 7 203 62 5 203 62 7 203 62 7
203 62 7 203 62 7 204 65 9 204 65 9 205 64 9 205 64 9 204 63 8
204 63 8 204 63 8 204 63 8 204 65 7 204 65 7 203 64 6 203 64 6
205 64 9 205 64 9 205 64 9 207 63 11 207 63 11 207 63 11 207 63 11
205 64 11 199 59 9 198 60 9 198 60 9 198 60 9 199 60 7 199 60 7
199 60 7 199 60 7 199 60 5 199 60 5 199 60 5 199 60 5 200 62 4
200 62 4 200 62 4 200 62 4 203 62 7 203 62 7 202 63 5 202 63 5
207 71 10 205 72 8 204 74 6 204 73 8 208 73 9 208 73 9 203 76 7
202 77 5 204 78 2 197 80 0 228 135 44 222 137 40 225 134 37
228 133 35 227 134 35 225 134 35 225 134 37 224 135 37 222 136 37
222 136 37 236 152 52 234 152 52 232 153 52 232 153 52 232 153 54
231 154 52 229 155 50 229 155 50 234 160 55 232 153 52 218 134 37
217 127 36 219 127 39 219 127 39 218 128 37 218 128 35 221 128 37
222 128 37 222 127 39 229 123 43 200 77 7 205 74 9 203 75 11
203 75 11 208 72 13 210 71 13 210 71 13 210 71 13 210 71 13 210 71 13
210 71 13 210 71 13 207 71 10 207 71 10 207 71 10 207 71 10 209 70 12
209 70 12 207 71 12 206 70 11 206 70 11 205 68 10 203 69 10 203 69 10
205 68 10 205 68 10 205 68 10 205 68 10 206 70 9 206 70 9 206 70 9
206 70 9 206 70 9 206 70 9 206 70 9 206 70 9 207 71 10 205 72 10
207 74 9 205 74 9 205 74 9 203 76 7 203 78 6 203 78 4 203 76 3
205 76 3 206 77 4 206 77 4 208 76 6 208 76 6 209 77 7 209 77 7
210 78 9 210 78 9 210 78 9 210 78 9 212 77 9 212 77 9 212 77 9
212 77 9 204 66 5 204 66 5 204 66 5 204 66 5 204 66 5 204 66 5
204 66 5 204 66 5 205 66 9 205 66 9 203 62 7 202 61 6 203 62 7
203 62 7 203 62 7 203 62 7 203 62 7 203 62 7 202 63 7 202 63 7
204 65 9 204 65 9 204 65 9 204 65 9 205 64 9 205 64 9 204 65 7
204 65 7 204 65 7 204 65 7 202 66 7 204 65 7 203 64 6 203 64 6
203 64 6 204 63 8 204 63 8 204 63 8 204 63 8 203 61 9 203 61 9
200 61 8 200 61 8 202 60 8 202 60 8 202 61 6 202 61 6 202 61 6
200 61 6 200 61 6 200 61 6 200 61 6 203 62 5 203 62 5 203 62 7
203 62 7 203 62 7 203 62 7 202 63 5 202 63 5 207 71 10 205 72 8
204 73 8 204 73 8 208 72 11 207 74 9 203 76 7 203 76 5 206 77 2
197 78 0 227 130 40 219 132 36 221 132 35 223 132 33 221 133 33
221 133 33 222 134 34 221 135 34 221 135 34 219 136 34 234 150 51
233 151 51 231 152 51 230 153 51 231 154 52 231 154 52 231 154 50
231 154 50 235 159 53 234 153 50 220 133 37 218 126 36 221 126 39
221 126 37 219 127 35 219 128 33 222 128 35 222 128 37 222 127 39
229 124 41 200 78 5 205 74 9 203 75 9 203 75 11 207 73 11 208 72 11
208 72 11 208 72 11 208 72 11 208 72 11 208 72 11 208 72 11 207 71 10
207 71 10 207 71 10 207 71 10 207 71 10 207 71 10 207 71 10 206 70 9
206 70 9 205 69 8 205 69 8 205 69 8 205 68 10 205 68 10 205 68 10
205 68 10 206 70 9 206 70 9 206 70 9 206 70 9 206 70 9 206 70 9
206 70 9 206 70 9 204 71 9 204 71 9 205 72 10 205 72 10 204 73 8
204 73 8 205 74 9 205 74 9 205 74 9 207 74 9 208 75 10 208 75 10
208 75 10 208 75 10 209 76 9 209 76 9 210 77 11 210 77 11 210 78 9
210 78 9 210 77 11 210 77 11 210 77 11 210 77 11 205 65 5 205 65 5
205 65 5 205 65 5 205 65 5 205 65 5 205 65 5 205 64 7 207 65 11
207 65 11 203 62 7 202 61 6 203 62 7 203 62 7 203 62 7 203 62 7
203 62 7 203 62 7 202 63 7 202 63 7 204 65 9 204 65 9 204 65 9
204 65 9 204 65 9 204 65 7 204 66 5 204 66 5 204 65 7 204 65 7
202 66 7 202 66 7 203 64 6 203 64 6 203 64 6 203 64 6 204 63 8
204 63 8 204 63 8 203 62 7 203 61 9 202 60 8 202 60 8 202 60 8
204 60 6 204 60 6 204 60 6 202 61 6 200 61 6 200 61 6 200 61 6
200 61 6 203 62 5 203 62 5 203 62 7 203 62 7 203 62 7 203 62 7
202 63 5 202 63 5 207 71 10 205 72 8 204 73 8 205 72 8 208 72 11
207 73 11 203 75 9 203 76 5 209 77 3 199 78 0 228 128 39 216 129 33
221 132 35 221 133 33 220 134 33 220 134 33 221 135 34 221 135 34
219 136 34 219 136 34 233 151 51 233 151 51 231 152 51 230 153 51
231 154 52 231 154 52 231 154 50 231 154 50 237 159 53 234 153 50
221 132 37 220 125 36 223 125 39 223 125 37 221 127 35 219 128 33
222 128 35 224 127 37 224 126 39 229 124 41 200 78 5 205 75 7
203 75 9 203 75 9 207 73 11 208 72 11 208 72 11 208 72 11 208 72 11
208 72 11 208 72 11 208 72 11 207 71 10 207 71 10 207 71 10 207 71 10
207 71 10 207 71 10 207 71 10 206 70 9 206 70 9 205 69 8 205 69 8
205 69 8 205 68 10 205 68 10 205 68 10 205 68 10 206 70 9 206 70 9
206 70 9 206 70 9 205 69 8 205 69 8 205 69 8 205 69 8 204 71 9
204 71 9 205 72 10 205 72 10 204 73 8 204 73 8 207 73 11 207 73 11
207 73 11 207 73 11 208 74 12 208 74 12 208 74 12 208 74 12 209 76 11
209 76 9 210 77 11 210 77 11 210 78 9 210 77 11 210 77 11 210 77 11
210 77 11 210 77 11 205 65 5 205 65 5 205 65 5 205 65 5 205 65 5
205 65 5 205 65 5 205 64 7 207 65 11 207 65 11 203 62 7 202 61 6
203 62 7 203 62 7 203 62 7 203 62 7 202 63 7 202 63 7 202 63 7
202 63 7 205 66 9 205 66 9 203 67 9 203 67 9 202 66 7 202 66 5
202 66 5 202 66 5 202 66 7 202 66 7 202 66 7 202 66 7 203 64 6
203 64 6 203 64 6 203 64 6 204 63 8 204 63 8 204 63 8 203 62 7
203 62 7 202 61 6 202 61 6 202 61 6 202 61 6 202 61 6 202 61 6
202 61 6 200 61 6 200 61 6 200 61 6 200 61 6 203 62 5 203 62 5
203 62 7 203 62 7 203 62 7 203 62 7 202 63 5 202 63 5 207 71 10
205 72 8 205 72 8 205 72 8 208 72 11 207 73 11 205 74 9 205 75 5
209 77 5 199 77 0 228 128 41 218 128 35 221 132 35 221 132 35
220 133 35 220 133 35 221 134 36 221 134 36 219 135 36 219 135 36
233 152 49 233 152 49 231 152 49 231 152 49 232 154 50 232 154 50
231 154 50 231 155 48 237 159 53 234 153 50 221 132 37 220 125 36
223 125 39 223 125 37 221 127 35 221 127 35 224 127 35 225 126 37
225 126 39 230 123 41 200 78 3 205 75 7 203 76 7 203 75 9 207 74 9
207 74 9 207 74 9 207 74 9 207 74 9 207 74 9 207 74 9 207 74 9
205 72 8 205 72 8 205 72 8 205 72 8 207 71 10 207 71 10 207 71 10
206 70 9 206 70 9 205 69 8 205 69 8 205 69 8 205 68 10 205 68 10
205 68 10 205 68 10 204 71 9 204 71 9 204 71 9 204 71 9 203 70 8
203 70 8 203 70 8 203 70 8 204 71 9 204 71 9 205 72 10 205 72 10
204 73 8 204 73 8 207 73 11 207 73 11 207 73 11 207 73 11 208 74 12
208 74 12 208 74 12 208 74 12 209 76 11 209 76 9 210 77 11 210 77 11
210 77 11 210 77 11 210 77 13 210 77 13 210 77 13 210 77 13 205 65 5
205 65 5 205 65 5 205 65 5 205 65 5 205 65 5 205 65 5 205 64 7
207 66 9 207 65 11 203 62 7 202 61 6 203 62 7 203 62 7 203 62 7
203 62 7 202 63 7 202 63 7 202 63 7 202 63 7 204 65 7 204 65 7
203 68 6 203 68 6 202 66 5 202 66 5 202 66 5 202 66 5 202 66 7
202 66 7 201 67 7 202 66 7 201 65 6 203 64 6 203 64 6 203 64 6
204 63 8 204 63 8 204 63 8 203 62 7 203 62 7 202 61 6 202 61 6
202 61 6 202 61 6 202 61 6 202 61 6 202 61 6 200 61 6 200 61 6
200 61 6 200 61 6 203 62 5 203 62 5 203 62 7 203 62 7 203 62 7
203 62 7 202 63 7 202 63 5 207 71 10 205 72 10 205 72 10 205 72 10
208 72 11 207 73 11 205 74 9 205 75 7 210 76 7 201 76 2 229 127 43
218 128 37 221 132 37 221 132 37 220 133 37 220 133 37 221 134 38
221 134 38 219 135 38 219 135 36 233 152 49 233 152 49 231 152 49
231 152 49 232 154 50 232 154 50 231 155 48 231 155 48 237 159 53
234 153 50 221 132 37 220 125 36 223 125 39 223 125 39 221 126 37
221 127 35 224 127 35 225 126 35 225 126 37 232 122 41 202 77 3
207 74 5 205 75 7 205 75 7 207 74 9 207 74 9 207 74 9 207 74 9
207 74 9 207 74 9 207 74 9 207 74 9 205 72 8 205 72 8 205 72 8
205 72 8 207 71 10 207 71 10 207 71 10 206 70 9 206 70 9 205 69 8
205 69 8 205 69 8 205 68 10 205 68 10 205 68 10 205 68 10 204 71 9
204 71 9 204 71 9 204 71 9 203 70 8 203 70 8 203 70 8 203 70 8
204 71 9 204 71 9 205 72 10 205 72 10 204 73 8 204 73 8 207 73 11
207 73 11 207 73 11 207 73 11 208 74 12 208 74 12 208 74 12 208 74 12
209 76 11 209 76 11 210 77 13 210 77 11 210 77 11 210 77 11 210 77 13
210 77 13 210 77 13 210 77 13 204 65 7 204 65 7 204 65 7 204 65 7
204 65 7 204 65 7 204 65 7 204 65 7 205 66 9 205 66 9 202 63 5
200 62 4 202 63 5 202 63 5 202 63 5 202 63 5 202 63 7 202 63 7
203 64 6 203 64 6 202 66 7 202 66 7 202 66 5 202 66 5 202 66 5
202 66 5 202 67 3 202 66 5 202 66 5 202 66 5 202 66 5 202 66 5
201 65 4 201 65 4 201 65 4 203 64 6 203 64 6 203 64 6 203 64 6
202 63 5 202 63 7 200 61 6 200 61 6 200 61 6 202 61 4 202 61 4
202 61 4 202 61 4 202 61 4 202 61 4 202 61 4 202 61 4 202 63 5
202 63 5 202 63 7 202 63 7 203 61 9 203 61 9 203 62 7 202 63 5
209 70 12 207 71 12 205 72 12 205 72 10 208 72 11 207 73 11 205 74 11
207 74 9 210 76 7 201 76 2 231 126 43 219 127 37 220 130 40
220 130 38 219 131 38 219 131 38 220 132 39 220 132 39 218 133 39
218 134 37 233 151 51 233 152 49 231 152 49 232 154 50 232 154 50
232 154 50 231 155 48 231 155 48 237 159 53 234 153 50 221 132 39
220 125 36 223 125 39 223 125 39 221 126 37 221 127 35 225 126 35
227 126 35 227 125 37 232 122 39 202 77 3 207 74 5 205 75 5 205 75 7
207 74 9 207 74 9 207 74 9 207 74 9 207 74 9 207 74 9 207 74 9
207 74 9 205 72 8 205 72 8 205 72 8 205 72 8 207 71 10 207 71 10
207 71 10 206 70 9 206 70 9 205 69 8 205 69 8 205 69 8 205 69 8
205 69 8 205 69 8 205 69 8 206 70 9 206 70 9 206 70 9 206 70 9
204 71 9 204 71 9 204 71 9 204 71 9 204 71 9 204 71 9 204 71 9
204 71 9 205 72 10 205 72 10 205 72 10 205 72 10 208 72 11 208 72 11
209 73 12 209 73 12 209 73 12 209 73 12 210 75 13 210 75 13 212 76 15
212 76 13 212 76 13 212 76 13 212 76 13 212 76 13 212 76 13 212 76 13
204 65 7 204 65 7 204 65 7 204 65 7 204 65 7 204 65 7 204 65 7
204 65 7 205 66 9 205 66 9 202 63 5 200 62 4 202 63 5 202 63 5
202 63 5 202 63 5 202 63 7 202 63 7 203 64 6 203 64 6 201 65 6
201 65 6 202 66 5 202 66 5 202 66 5 202 66 5 202 67 3 202 67 3
202 66 5 202 66 5 202 66 5 202 66 5 201 65 4 201 65 4 201 65 4
201 65 4 203 64 6 203 64 6 203 64 6 202 63 5 202 63 7 200 61 6
200 61 6 200 61 6 202 61 4 202 61 4 202 61 4 202 61 4 203 62 5
203 62 5 203 62 5 203 62 5 203 64 6 202 63 5 203 64 8 203 64 8
204 63 10 204 63 10 204 63 8 203 62 7 207 69 11 207 69 11 206 70 11
204 70 11 208 72 11 207 71 10 207 73 11 205 72 8 208 73 7 201 74 3
231 126 45 221 126 39 222 129 42 220 130 40 219 131 40 219 131 40
220 132 41 220 132 41 218 133 41 218 133 39 233 151 51 233 152 49
232 154 50 232 154 50 232 154 50 232 154 50 231 155 48 231 155 48
237 159 53 234 153 50 221 132 39 220 125 36 223 125 39 223 125 39
221 126 37 221 127 35 225 126 37 229 124 37 229 124 37 233 122 39
202 77 3 207 74 5 205 75 5 205 75 7 207 74 9 207 74 9 207 74 9
207 74 9 207 74 9 207 74 9 207 74 9 207 74 9 205 72 8 205 72 8
205 72 8 205 72 8 207 71 10 207 71 10 207 71 10 206 70 9 206 70 9
206 70 9 206 70 9 206 70 9 206 70 9 206 70 9 206 70 9 206 70 9
206 70 9 206 70 9 206 70 9 206 70 9 204 71 9 204 71 9 204 71 9
204 71 9 204 71 9 204 71 9 204 71 9 204 71 9 205 72 10 205 72 10
205 72 10 205 72 10 208 72 11 208 72 11 208 72 11 208 72 11 208 72 11
208 72 11 209 73 12 209 73 12 212 76 15 212 76 15 212 76 13 212 76 13
212 76 13 212 76 13 212 76 13 212 76 13 204 65 7 204 65 7 204 65 7
204 65 7 204 65 7 204 65 7 204 65 7 204 65 7 205 66 9 205 66 9
202 63 5 200 62 4 202 63 5 202 63 5 202 63 5 202 63 5 202 63 7
202 63 7 203 64 6 203 64 6 201 65 4 201 65 4 201 67 5 201 68 3
201 68 3 201 68 3 201 68 3 201 68 3 201 67 5 201 67 5 201 67 5
201 67 5 201 65 4 201 65 4 201 65 4 201 65 4 203 64 6 203 64 6
203 64 6 202 63 5 202 63 5 200 62 4 200 62 4 200 62 4 200 62 4
200 62 4 200 62 4 200 62 4 204 63 6 204 63 6 204 63 6 203 62 5
203 64 6 203 64 6 203 64 8 203 64 8 204 63 10 204 63 10 204 63 8
204 63 8 207 69 11 207 69 11 206 70 11 206 70 11 208 72 11 206 70 9
207 73 11 203 70 6 207 72 6 200 72 2 231 126 45 221 125 41 222 129 42
220 130 42 219 130 42 219 130 42 220 132 43 220 132 43 218 132 43
218 133 41 233 151 51 234 153 50 232 154 50 232 154 50 232 154 50
232 154 50 231 155 48 231 155 48 237 159 53 234 153 50 221 132 39
220 125 36 223 125 39 223 125 39 221 126 37 221 126 37 227 125 37
229 124 37 230 123 39 233 121 41 202 77 3 207 74 5 205 75 5 205 75 7
207 74 9 207 74 9 207 74 9 207 74 9 207 74 9 207 74 9 207 74 9
207 74 9 207 74 9 207 74 9 207 74 9 207 74 9 208 72 11 208 72 11
208 72 11 207 71 10 207 71 10 206 70 9 206 70 9 206 70 9 206 70 9
206 70 9 206 70 9 206 70 9 207 71 10 207 71 10 207 71 10 207 71 10
204 71 9 204 71 9 204 71 9 204 71 9 204 71 9 204 71 9 204 71 9
204 71 9 204 71 9 204 71 9 204 71 9 204 71 9 207 71 10 207 71 10
208 72 11 208 72 11 208 72 11 208 72 11 208 72 11 208 72 11 212 76 15
212 76 15 212 76 15 212 76 15 212 76 15 212 76 15 212 76 15 212 76 15
204 65 7 204 65 7 204 65 7 204 65 7 204 65 7 204 65 7 204 65 7
204 65 7 205 66 9 205 66 9 202 63 5 200 62 4 202 63 5 202 63 5
202 63 5 202 63 5 202 63 7 202 63 7 203 64 6 203 64 6 201 65 4
201 65 4 201 68 3 201 68 3 201 68 3 201 68 3 201 68 3 201 68 3
201 67 5 201 67 5 201 67 5 201 67 5 201 65 4 201 65 4 201 65 4
201 65 4 203 64 6 203 64 6 203 64 6 202 63 5 202 63 5 200 62 4
200 62 4 200 62 4 200 62 4 200 62 4 200 62 4 200 62 4 204 65 7
205 64 7 205 64 7 203 64 6 204 65 7 203 64 6 204 65 9 204 65 9
205 64 11 205 64 11 205 64 9 204 63 8 206 68 10 206 68 10 205 68 10
205 68 10 207 71 12 205 69 8 204 71 9 203 68 6 206 68 6 200 70 2
236 123 47 227 122 41 228 125 44 228 125 44 227 126 44 227 126 44
228 127 45 228 127 45 226 128 45 226 128 43 242 147 56 242 148 54
240 149 54 240 149 54 240 149 54 240 149 54 239 149 54 239 150 52
245 154 57 242 148 54 228 128 39 225 122 38 226 123 39 226 123 39
224 124 39 224 124 37 227 125 39 229 124 39 230 123 39 235 120 41
202 77 3 207 74 5 205 75 5 207 74 7 207 74 9 207 74 9 207 74 9
207 74 9 207 74 9 207 74 9 207 74 9 207 74 9 207 74 9 207 74 9
207 74 9 207 74 9 208 72 11 208 72 11 208 72 11 207 71 10 207 71 10
207 71 10 207 71 10 207 71 10 207 71 10 207 71 10 207 71 10 207 71 10
207 71 10 207 71 10 207 71 10 207 71 10 204 71 9 204 71 9 204 71 9
204 71 9 204 71 9 204 71 9 204 71 9 204 71 9 204 71 9 204 71 9
204 71 9 204 71 9 207 71 10 207 71 10 207 71 10 207 71 10 207 71 10
207 71 10 207 71 10 207 71 10 212 76 15 212 76 15 212 76 15 212 76 15
212 76 15 212 76 15 212 76 15 212 76 15 205 66 9 205 66 9 205 66 9
205 66 9 205 66 9 205 66 9 205 66 9 205 66 9 204 65 7 205 66 9
209 70 12 210 71 13 209 70 12 209 70 12 209 70 12 209 70 12 209 70 12
209 70 12 207 71 12 207 71 10 215 79 18 213 80 18 213 81 16 213 81 16
213 81 16 213 81 16 213 81 16 213 81 16 212 79 15 211 78 14 209 76 11
207 74 9 208 73 9 208 73 9 208 73 9 208 72 11 208 72 11 208 72 11
208 72 11 207 71 10 207 71 12 206 70 11 206 70 11 206 70 11 206 70 11
206 70 11 206 70 11 206 70 11 202 66 7 204 65 7 204 65 7 204 65 7
204 65 7 204 65 7 204 65 7 204 65 9 205 64 9 205 64 9 205 66 11
204 65 9 206 67 12 204 65 9 202 66 9 201 65 8 204 65 7 203 67 9
201 67 5 202 66 5 205 67 4 203 68 2 201 71 4 202 75 4 202 77 5
201 76 4 201 76 4 201 76 4 199 76 4 199 76 4 200 78 5 200 78 5
200 80 4 200 80 4 201 81 5 201 81 5 199 82 7 199 82 7 199 82 5
199 82 5 197 80 1 196 79 0 216 99 20 214 97 19 210 96 18 209 96 18
207 98 16 206 98 16 205 101 15 205 101 15 207 100 17 212 97 17
202 77 3 205 75 5 207 74 7 207 74 7 208 73 9 208 73 9 207 74 9
207 74 9 207 73 11 207 73 11 207 73 11 207 73 11 207 74 9 207 74 9
207 74 9 207 74 9 207 74 9 207 74 9 207 74 9 207 74 9 207 74 9
205 72 8 205 72 8 205 72 8 205 72 10 205 72 10 205 72 10 205 72 10
205 72 8 205 72 8 205 72 8 205 72 8 205 72 8 205 72 8 205 72 8
205 72 8 205 72 8 205 72 8 205 72 8 204 71 7 206 70 7 205 69 6
205 69 6 205 69 6 206 70 9 206 70 9 207 71 10 207 71 10 207 69 11
207 69 11 209 70 10 207 69 9 204 65 7 203 64 6 203 65 4 203 65 4
203 64 6 203 64 6 203 64 6 203 64 6 205 66 9 205 66 9 205 66 9
205 66 9 205 66 9 205 66 9 205 66 9 205 66 9 204 65 7 205 66 9
209 70 12 210 71 13 209 70 12 209 70 12 209 70 12 209 70 12 209 70 12
209 70 12 207 71 10 207 71 10 213 80 18 213 80 18 213 81 16 213 81 16
213 81 16 213 81 16 213 81 16 213 81 16 212 79 15 211 78 14 209 76 11
207 74 9 208 73 9 208 73 9 208 73 9 208 73 9 208 72 11 208 72 11
208 72 11 207 71 10 207 71 12 206 70 11 206 70 11 206 70 11 206 70 11
206 70 11 206 70 11 206 70 11 203 67 9 203 67 9 203 67 9 203 67 9
205 66 9 204 65 7 205 66 9 205 66 9 207 65 11 207 65 11 206 67 12
204 65 9 205 66 11 204 65 9 201 65 8 201 65 8 202 63 5 204 65 7
199 63 2 201 65 4 203 65 2 204 66 1 206 69 4 209 71 6 210 72 7
209 72 4 209 72 4 209 72 4 207 72 6 207 72 6 208 73 7 208 73 7
208 75 8 208 75 8 209 76 9 209 76 9 207 77 11 207 77 11 207 77 9
207 77 9 205 75 5 204 74 4 222 95 22 219 95 19 215 93 18 212 95 18
210 96 16 207 98 16 207 100 17 207 100 17 208 99 17 212 97 19
202 77 5 205 75 5 207 74 7 207 74 7 208 73 9 208 73 9 207 74 9
207 74 9 207 73 11 207 73 11 207 73 11 207 73 11 207 74 9 207 74 9
207 74 9 207 74 9 207 74 9 207 74 9 207 74 9 207 74 9 207 74 9
207 74 9 207 74 9 207 74 9 207 73 11 207 73 11 207 73 11 207 73 11
205 72 8 205 72 8 205 72 8 205 72 8 205 72 8 205 72 8 205 72 8
205 72 8 205 72 8 205 72 8 205 72 8 204 71 7 206 70 7 205 69 6
205 69 6 205 69 6 206 70 9 206 70 9 206 70 9 206 70 9 206 68 10
206 68 10 207 69 9 206 68 8 204 65 7 203 64 6 203 65 4 203 64 6
203 64 6 203 64 6 203 64 6 203 64 6 205 66 9 205 66 9 205 66 9
205 66 9 205 66 9 205 66 9 205 66 9 205 66 9 204 65 7 205 66 9
209 70 12 210 71 13 209 70 12 209 70 12 209 70 12 209 70 12 209 70 12
209 70 12 207 71 10 207 71 10 213 81 16 213 81 16 212 81 16 212 82 14
212 82 14 212 82 14 212 81 16 212 81 16 211 80 15 210 79 14 207 77 11
207 74 9 208 73 9 208 73 9 208 73 9 208 73 9 208 72 11 208 72 11
208 72 11 207 71 10 207 71 10 206 70 9 206 70 9 206 70 9 206 70 11
206 70 11 206 70 11 206 70 11 203 69 10 203 69 10 203 69 10 203 67 9
205 66 9 206 68 10 205 66 9 205 66 9 207 65 11 207 65 11 206 67 12
205 66 11 205 66 11 204 65 9 203 64 8 203 64 8 202 63 5 203 64 6
199 63 2 199 63 2 202 64 1 203 65 2 206 68 6 209 71 8 210 72 7
209 71 6 209 71 6 209 71 6 207 72 6 207 72 6 208 73 7 208 73 7
208 75 10 208 75 10 209 76 11 209 76 11 207 77 11 207 77 11 207 77 9
207 77 9 205 75 5 204 74 4 222 95 22 219 95 19 215 93 18 212 95 18
210 96 18 207 97 18 207 100 17 207 100 17 208 98 19 213 96 19
202 77 5 205 75 5 207 74 7 207 74 7 208 73 9 208 73 9 207 74 9
207 74 9 207 73 11 207 73 11 207 73 11 207 73 11 208 75 10 208 75 10
208 75 10 208 75 10 208 75 10 208 75 10 208 75 10 208 75 10 208 75 10
207 74 9 207 74 9 207 74 9 207 73 11 207 73 11 207 73 11 207 73 11
207 74 9 207 74 9 207 74 9 207 74 9 205 72 8 205 72 8 205 72 8
205 72 8 205 72 8 205 72 8 205 72 8 204 71 7 205 69 6 203 68 4
203 68 4 203 68 4 205 69 8 205 69 8 206 70 9 206 70 9 206 68 10
206 68 10 206 68 8 205 67 6 204 65 7 203 64 6 203 64 6 203 64 6
203 64 8 203 64 8 203 64 8 203 64 8 205 66 9 205 66 9 205 66 9
205 66 9 205 66 9 205 66 9 205 66 9 205 66 9 204 65 7 205 66 9
209 70 12 210 71 13 209 70 12 209 70 12 209 70 12 209 70 12 209 70 12
209 70 12 207 71 10 207 71 10 213 81 16 213 81 16 212 82 14 212 82 14
212 82 14 212 82 14 212 81 16 212 81 16 211 80 15 210 79 14 207 77 11
205 74 9 207 74 9 208 73 9 208 73 9 208 73 9 208 72 11 208 72 11
208 72 11 207 71 10 207 71 10 206 70 9 206 70 9 206 70 9 206 70 11
206 70 11 206 70 11 206 70 11 204 70 11 204 70 11 204 70 11 203 69 10
205 68 10 206 68 10 206 68 10 206 68 10 208 66 12 208 66 12 207 68 13
205 66 11 204 65 9 203 64 8 202 63 7 202 63 7 202 63 5 202 63 5
199 63 4 198 62 1 199 61 1 202 64 1 206 68 6 209 71 8 210 72 9
209 71 8 209 71 8 209 71 8 207 72 8 207 72 8 208 73 9 208 73 9
208 75 10 208 75 10 209 76 11 209 76 11 209 76 11 207 77 11 207 77 9
207 77 9 205 75 5 204 74 4 222 95 22 219 95 21 215 93 18 212 95 18
210 96 18 209 96 18 208 99 17 208 99 17 210 98 19 213 96 19 202 77 5
205 75 5 207 74 7 207 74 7 208 73 9 208 73 9 207 74 9 207 74 9
207 73 11 207 73 11 207 73 11 207 73 11 208 75 10 208 75 10 208 75 10
208 75 10 208 75 10 208 75 10 208 75 10 208 75 10 208 75 10 208 75 10
208 75 10 208 75 10 208 74 12 208 74 12 208 74 12 208 74 12 207 74 9
207 74 9 207 74 9 207 74 9 205 72 8 205 72 8 205 72 8 205 72 8
205 72 8 205 72 8 205 72 8 204 71 7 205 69 6 203 68 4 203 68 4
203 68 4 205 69 8 205 69 8 205 69 8 206 68 8 205 66 9 205 66 9
205 67 6 204 65 7 204 65 7 203 64 6 203 64 6 203 64 6 203 64 8
203 64 8 203 64 8 203 64 8 205 66 9 205 66 9 205 66 9 205 66 9
205 66 9 205 66 9 203 67 9 203 67 9 202 66 7 203 67 9 207 71 12
208 72 13 207 71 12 207 71 12 207 71 12 207 71 12 209 70 12 209 70 12
207 71 10 207 72 8 213 81 16 212 81 16 212 82 14 212 82 14 212 82 14
212 82 14 212 82 14 212 82 14 211 81 13 210 79 12 207 77 9 205 75 7
207 74 7 207 74 7 207 74 7 207 74 9 207 74 9 207 74 9 207 74 9
207 74 9 205 72 10 205 72 10 205 72 10 205 72 10 207 71 10 207 71 10
207 71 10 207 71 10 205 72 10 205 72 10 205 72 10 205 72 10 206 70 11
205 68 10 206 70 11 207 69 11 207 68 13 207 68 13 206 67 12 205 66 11
205 64 9 204 63 8 202 63 7 202 63 7 200 61 6 200 61 6 199 62 6
198 61 3 199 61 1 202 63 3 206 68 8 210 72 11 210 72 11 210 72 11
210 72 11 210 72 11 208 72 11 208 72 11 208 72 11 208 73 9 209 74 10
209 74 10 209 74 10 209 74 10 209 76 11 209 76 11 209 76 9 209 76 9
205 75 7 204 74 4 222 95 24 219 94 23 215 93 20 212 94 20 210 96 18
209 96 18 208 99 17 208 99 17 212 97 19 215 95 19 203 76 5 205 75 7
207 74 7 208 73 7 208 73 9 208 73 9 207 74 9 207 74 9 207 73 11
207 73 11 207 73 11 207 73 11 208 75 10 208 75 10 208 75 10 208 75 10
208 75 10 208 75 10 208 75 10 208 75 10 208 75 10 208 75 10 208 75 10
208 75 10 208 75 10 208 75 10 208 75 10 208 75 10 208 75 10 208 75 10
208 75 10 208 75 10 207 74 9 207 74 9 207 74 9 207 74 9 207 74 9
207 74 9 205 72 8 204 71 7 205 69 6 203 68 4 202 67 3 202 67 3
205 67 6 205 67 6 205 67 6 205 67 6 207 66 9 207 66 9 207 66 9
207 66 9 205 64 9 205 64 9 205 64 7 205 64 7 205 64 9 205 64 9
205 64 9 205 64 9 205 66 9 205 66 9 205 66 9 205 66 9 205 66 9
205 66 9 203 67 9 203 67 9 202 66 7 203 67 9 207 71 12 208 72 13
207 71 12 207 71 12 207 71 12 207 71 12 209 70 12 209 70 12 207 71 10
205 72 8 212 81 16 212 81 16 212 82 14 212 82 14 212 82 14 212 82 14
212 82 14 212 82 14 211 81 13 210 79 12 207 77 9 205 75 7 207 74 7
207 74 7 207 74 7 207 74 7 207 74 9 207 74 9 207 74 9 207 74 9
205 72 10 205 72 10 205 72 10 205 72 10 207 71 10 207 71 10 207 71 10
207 71 10 205 72 10 205 72 10 205 72 10 205 72 10 206 70 11 205 68 10
206 70 11 206 70 11 207 68 13 207 68 13 206 67 12 205 66 11 205 64 9
204 63 8 202 63 7 202 63 7 200 61 6 200 61 6 199 62 6 198 61 3
199 61 3 202 63 3 206 68 8 210 72 11 210 72 11 210 72 11 210 72 11
210 72 11 208 72 11 208 72 11 208 72 11 208 72 11 209 74 10 209 74 10
209 74 10 209 74 10 209 76 11 209 76 11 209 76 9 209 76 9 205 75 7
204 74 6 222 95 24 219 94 23 215 93 20 212 94 20 210 96 18 209 96 18
210 98 19 210 98 19 213 96 19 215 95 21 203 76 7 205 75 7 207 74 7
208 73 7 208 73 9 207 74 9 207 74 9 207 74 9 207 73 11 207 73 11
207 73 11 207 73 11 208 75 10 208 75 10 208 75 10 208 75 10 208 75 10
208 75 10 208 75 10 208 75 10 208 75 10 208 75 10 208 75 10 208 75 10
208 75 10 208 75 10 208 75 10 208 75 10 208 75 10 208 75 10 208 75 10
208 75 10 207 74 9 207 74 9 207 74 9 207 74 9 207 74 9 207 74 9
205 72 8 204 71 7 205 69 6 203 68 4 202 67 3 202 67 3 205 67 6
205 67 6 205 67 6 205 67 6 207 66 9 207 66 9 207 66 9 207 66 9
205 64 9 205 64 9 205 64 7 205 64 7 205 64 9 205 64 9 205 64 9
205 64 9 205 66 9 205 66 9 205 66 9 205 66 9 205 66 9 205 66 9
203 67 9 203 67 9 202 66 7 203 67 9 207 71 12 208 72 13 207 71 12
207 71 12 207 71 12 207 71 12 209 70 12 209 70 12 207 71 10 205 72 8
212 82 14 212 82 14 210 83 14 210 83 12 210 83 12 210 83 12 210 83 14
210 83 14 211 81 13 210 79 12 207 77 9 205 75 7 205 75 7 205 75 7
205 75 7 205 75 7 205 75 7 205 75 7 207 74 7 207 74 9 205 72 8
205 72 8 205 72 8 205 72 8 205 72 8 205 72 8 205 72 8 205 72 8
205 72 10 205 72 10 205 72 10 205 72 10 206 70 11 206 70 11 206 70 11
206 70 11 207 69 11 207 69 11 206 68 10 205 66 11 205 64 9 204 63 10
203 61 9 203 61 9 200 61 6 200 61 6 200 62 4 199 61 3 199 61 3
202 63 5 206 68 10 210 71 13 210 71 13 210 71 13 210 71 13 210 71 13
208 72 11 208 72 11 208 72 11 208 72 11 209 73 12 209 73 12 209 73 12
209 73 12 209 76 11 209 76 11 209 76 9 209 76 9 205 75 7 204 74 6
222 95 24 219 94 23 215 93 20 212 94 20 210 95 20 209 96 20 210 97 21
212 96 21 213 96 21 216 94 21 202 76 7 205 75 7 205 75 7 207 74 7
207 74 7 205 75 7 205 75 7 205 74 9 205 74 9 205 74 9 206 76 10
206 76 10 208 75 10 208 75 10 208 75 10 208 75 10 208 75 10 208 75 10
208 75 10 208 75 10 208 75 10 208 75 10 208 75 10 208 75 10 208 75 10
208 75 10 208 75 10 208 75 10 209 74 8 209 74 8 209 74 8 209 74 8
207 74 7 207 74 7 207 74 7 207 74 7 207 74 9 207 74 9 205 72 8
204 71 7 205 69 6 203 68 4 202 67 3 202 67 3 205 67 6 205 67 6
205 67 6 205 67 6 207 66 9 207 65 11 207 65 11 207 65 11 205 64 9
205 64 9 205 64 9 205 64 9 205 64 9 205 64 9 205 64 9 205 64 9
205 66 9 205 66 9 205 66 9 205 66 9 205 66 9 205 66 9 203 67 9
203 67 9 202 66 7 203 67 9 207 71 12 208 72 13 206 70 11 206 70 11
206 70 11 206 70 11 209 70 12 207 71 12 205 72 10 205 72 8 212 82 14
212 82 14 210 83 12 210 83 12 210 83 12 210 83 12 210 83 14 210 83 14
211 81 13 210 79 12 207 77 9 205 75 7 205 75 7 205 75 7 205 75 7
205 75 7 205 75 7 205 75 7 205 75 7 207 74 7 205 73 6 207 72 8
207 72 8 207 72 8 207 72 8 207 72 8 207 72 8 207 72 8 207 71 10
207 71 10 207 71 10 207 71 10 206 70 11 206 70 11 206 70 11 206 70 11
206 70 11 206 70 11 205 68 10 205 66 9 203 62 7 203 61 9 202 60 8
202 60 8 200 61 6 200 61 6 200 62 4 199 61 3 198 59 2 200 62 4
206 68 10 210 71 13 210 71 13 209 70 12 209 70 12 209 70 12 207 71 10
207 71 10 208 72 11 208 72 11 208 72 11 208 72 11 209 73 12 209 73 12
208 75 10 208 75 10 209 76 9 209 76 9 207 74 7 204 74 6 222 95 24
219 94 23 215 93 20 212 94 20 210 95 20 210 95 20 212 96 21 213 96 21
215 95 21 216 94 21 201 75 6 202 74 6 204 74 6 204 74 6 204 74 6
204 74 6 205 75 7 205 75 7 205 74 9 205 74 9 206 76 10 206 76 10
208 75 10 208 75 10 208 75 10 208 75 10 208 75 10 208 75 10 208 75 10
208 75 10 208 75 10 208 75 10 208 75 10 208 75 10 208 75 10 208 75 10
208 75 10 209 74 10 209 74 8 209 74 8 209 74 8 209 74 8 207 74 7
207 74 7 207 74 7 207 74 7 207 74 9 207 74 9 205 72 8 206 70 7
205 69 6 203 68 4 202 67 3 202 67 3 205 67 4 205 67 6 203 68 6
203 67 9 205 66 11 207 65 11 208 64 11 207 63 9 204 63 8 205 64 9
205 64 9 205 64 9 205 64 9 205 64 9 205 64 9 205 64 9 205 66 9
205 66 9 205 66 9 205 66 9 205 66 9 205 66 9 205 66 9 206 68 10
204 65 7 206 68 10 207 71 12 208 72 13 206 70 11 206 70 11 206 70 11
206 70 11 206 70 11 206 70 11 204 71 9 204 71 7 213 83 15 211 84 15
211 84 13 210 85 13 210 85 13 210 85 13 211 84 13 211 84 13 210 83 12
209 82 11 208 81 10 206 78 7 204 77 6 204 77 6 204 77 6 204 77 6
206 76 8 206 76 8 206 76 8 206 76 8 208 73 7 210 72 7 210 72 7
210 72 7 210 72 9 210 72 9 210 72 9 211 73 10 210 72 11 207 69 9
202 63 3 198 60 0 209 70 12 209 70 12 207 71 10 207 71 10 205 72 10
205 72 10 205 72 10 207 71 10 202 61 6 204 59 8 204 59 8 204 59 8
203 62 7 202 63 7 202 63 5 200 62 4 199 61 3 200 62 4 207 69 11
210 71 13 209 70 12 207 69 11 207 69 11 207 69 11 207 69 9 207 69 9
207 69 9 207 69 9 207 71 10 207 71 10 208 72 11 208 72 11 209 74 10
209 74 10 209 74 10 209 74 10 205 73 6 203 72 5 221 93 25 218 93 23
216 93 23 215 94 23 213 95 23 213 95 23 213 96 21 213 96 21 216 94 21
218 93 21 203 76 5 203 76 5 203 76 5 203 76 5 203 76 7 203 76 7
203 76 7 203 76 7 206 76 8 206 76 8 206 76 8 206 76 8 206 76 10
206 76 10 206 76 10 206 76 10 208 75 10 208 75 10 208 75 10 208 75 10
209 76 11 209 76 11 209 76 11 209 76 11 209 76 9 209 76 9 210 75 9
210 75 9 213 76 11 213 76 11 212 75 9 209 74 8 207 74 7 207 74 7
205 75 7 205 75 7 207 74 7 207 74 7 208 73 9 207 70 7 206 68 6
205 67 4 206 69 4 206 69 4 206 71 5 206 70 7 204 73 10 205 74 13
209 73 16 208 66 12 210 61 11 208 59 9 206 62 10 207 65 11 207 65 11
207 66 9 207 65 11 207 65 11 207 65 11 207 65 11 204 65 7 204 65 7
204 65 7 204 65 7 204 65 7 204 65 7 204 65 7 203 64 6 203 64 6
205 66 9 206 70 11 207 71 12 206 70 11 205 68 10 205 68 10 205 68 10
206 70 11 206 70 11 204 71 9 203 72 9 211 83 17 211 84 15 210 85 13
210 85 13 210 85 13 210 85 13 211 84 13 211 84 13 211 84 13 210 83 12
209 82 11 208 81 10 207 79 9 207 79 9 207 79 9 207 79 9 207 79 11
207 79 11 207 79 11 206 78 9 208 76 6 207 74 5 207 74 5 207 74 5
207 74 7 207 74 9 207 74 9 207 74 9 207 74 9 205 72 10 203 70 8
203 70 8 203 70 8 204 71 9 204 71 9 203 72 7 201 73 7 201 73 5
201 73 5 200 70 4 202 66 7 204 63 8 205 64 11 205 64 11 204 65 9
204 65 9 205 66 9 204 65 7 202 63 5 203 64 6 206 68 10 207 69 11
206 68 10 206 68 10 206 68 10 206 68 10 206 68 8 206 68 8 207 69 9
207 69 9 206 70 9 206 70 9 208 72 11 208 72 11 208 73 9 208 73 9
209 74 10 209 74 10 205 73 6 204 72 5 222 92 25 218 93 23 216 93 23
215 94 23 213 95 23 213 95 23 213 96 21 215 95 21 216 94 21 218 93 21
206 78 7 206 78 7 206 78 7 206 78 7 206 78 9 206 78 9 206 78 9
206 78 9 207 77 9 207 77 9 206 76 8 206 76 8 206 76 10 206 76 10
206 76 10 206 76 10 208 75 10 208 75 10 208 75 10 208 75 10 209 76 11
209 76 11 209 76 11 209 76 11 209 76 9 209 76 9 210 75 9 208 73 7
207 70 5 207 70 5 210 72 7 209 74 8 207 74 7 205 75 7 203 76 7
203 76 7 203 76 7 205 75 7 205 75 7 207 74 9 205 72 8 205 72 8
204 72 5 204 72 5 201 71 4 200 72 4 195 72 4 194 71 5 197 69 7
205 68 12 206 60 9 210 61 11 208 64 13 207 65 11 207 66 9 207 66 9
207 65 11 207 65 11 207 65 11 207 65 11 202 63 5 202 63 5 202 63 5
202 63 5 202 63 5 202 63 5 202 63 5 200 62 4 200 62 4 203 64 6
203 67 9 205 68 10 205 68 10 205 68 10 205 68 10 205 68 10 206 70 11
206 70 11 204 71 9 203 72 9 211 83 17 211 84 15 210 85 13 210 85 13
210 85 13 210 85 13 211 84 13 211 84 13 211 84 13 211 84 13 209 84 12
208 83 11 209 84 12 209 84 12 209 84 12 209 84 12 209 84 12 209 84 12
209 84 12 209 84 12 217 92 20 217 92 20 217 92 20 217 92 20 217 92 22
217 92 22 217 92 22 217 92 22 217 92 22 218 92 25 220 95 28 223 97 30
224 98 31 225 99 32 223 100 32 222 101 30 220 102 28 220 102 28
222 102 28 223 100 30 200 71 8 201 70 10 204 70 13 206 69 13
206 69 13 206 69 13 209 70 12 209 70 12 206 68 10 204 65 7 202 63 5
202 63 5 204 65 7 205 66 9 205 66 9 205 66 9 205 67 6 205 67 6
206 68 8 206 68 8 206 70 9 206 70 9 208 72 11 208 72 11 208 73 9
208 73 9 209 74 10 209 74 10 205 73 6 204 72 5 222 92 25 218 93 23
216 93 23 215 94 23 213 95 23 213 95 23 215 94 23 215 94 23 215 93 20
215 90 18 212 87 16 210 85 13 209 84 12 209 84 12 209 84 12 209 84 12
209 84 12 208 81 10 207 79 11 206 78 9 206 78 9 206 78 9 206 76 8
206 76 8 206 76 8 206 76 8 208 75 10 208 75 10 208 75 10 208 75 10
209 76 11 209 76 11 209 76 11 209 76 11 209 76 9 209 76 9 210 75 9
210 75 9 214 77 10 219 82 14 224 90 21 227 95 26 225 95 25 222 97 25
220 97 25 220 97 25 218 98 25 218 98 25 219 99 26 219 99 28 219 99 28
221 100 29 222 101 30 223 103 30 224 104 31 222 107 32 219 108 32
220 109 37 224 108 40 229 105 44 205 68 12 208 66 12 207 65 11
207 65 11 207 66 9 207 66 9 207 66 9 207 66 9 207 66 9 207 66 9
200 62 4 200 62 4 200 62 4 200 62 4 200 62 4 200 62 4 200 62 4
200 62 4 199 61 3 200 62 4 202 66 7 203 67 9 205 68 10 205 68 10
205 68 10 205 68 10 206 70 11 206 70 11 204 71 9 203 72 9 211 83 17
211 84 15 210 85 13 210 85 13 210 85 13 211 84 13 211 84 13 211 84 13
211 84 13 211 84 13 210 85 13 210 85 13 210 85 13 211 86 14 211 86 14
211 86 14 211 86 14 211 86 14 211 86 14 211 86 14 214 92 19 212 92 19
211 93 19 211 93 19 211 93 19 211 93 21 211 93 21 210 92 20 211 93 21
213 95 23 219 101 29 223 104 33 223 104 33 223 104 33 223 105 31
221 106 31 219 107 29 219 107 27 219 107 29 221 106 31 199 78 9
202 76 11 204 76 14 206 74 16 208 74 16 209 73 16 211 72 14 212 73 15
211 72 14 206 68 10 202 63 5 199 61 3 202 63 5 204 65 7 204 65 7
204 65 7 204 66 5 205 67 6 205 67 6 206 68 8 205 69 8 206 70 9
206 70 9 207 71 10 209 74 10 209 74 10 209 74 10 209 74 10 205 73 6
204 72 5 222 92 25 218 93 23 216 93 23 215 94 23 213 95 23 213 95 23
215 94 23 216 93 23 217 92 20 216 91 19 215 90 18 213 88 17 212 87 16
212 87 16 212 87 16 212 87 16 211 86 14 209 84 12 209 81 13 207 79 11
206 78 9 203 76 7 205 75 7 206 76 8 206 76 8 206 76 8 208 75 10
208 75 10 208 75 10 208 75 10 209 76 11 209 76 11 209 76 11 209 76 11
209 76 9 209 76 9 210 75 9 210 75 9 205 70 4 212 77 9 220 89 17
226 96 24 222 97 25 220 97 25 218 98 25 217 99 25 215 100 25
214 101 25 215 102 26 216 103 27 217 104 28 218 105 30 219 106 31
219 107 29 218 106 28 215 107 28 212 109 28 212 109 30 212 103 30
226 109 43 197 69 7 210 74 18 205 66 11 207 65 11 207 66 9 207 66 9
207 66 9 207 66 9 207 66 9 207 66 9 203 62 5 203 62 5 203 62 5
203 62 5 203 62 5 203 62 5 202 63 5 202 63 5 200 61 6 200 61 6
203 67 11 205 68 12 203 67 11 203 67 11 203 67 11 203 67 11 205 68 10
205 68 10 203 70 8 201 70 8 210 82 16 210 83 14 209 84 12 209 84 12
211 84 13 211 84 13 213 83 13 213 83 13 211 84 13 211 84 13 210 85 13
210 85 13 211 86 14 211 86 14 211 86 14 211 86 14 211 86 14 211 86 14
213 85 14 211 86 14 211 93 19 209 94 19 209 94 19 209 94 19 209 94 19
209 94 19 209 94 19 208 93 18 209 94 19 212 96 21 217 102 27
221 106 29 221 106 29 221 106 29 219 107 27 218 108 27 216 109 25
216 110 23 218 108 25 219 107 29 197 79 5 199 78 7 202 76 11
203 74 13 208 74 14 209 73 14 212 73 15 212 73 15 212 73 15 209 70 12
204 65 7 200 62 4 202 63 5 203 64 6 203 64 6 203 64 6 203 65 4
204 66 5 204 66 5 205 67 6 206 68 8 207 69 9 207 69 9 209 70 10
210 72 9 210 72 9 210 72 9 208 73 9 204 71 7 203 70 6 221 91 25
217 91 24 216 93 23 215 94 23 213 95 23 213 95 23 215 94 23 216 93 23
217 92 22 216 90 21 215 90 18 213 88 17 212 87 16 212 87 16 212 87 16
212 87 16 212 87 16 211 86 14 211 84 15 209 81 13 204 77 8 202 74 6
206 76 8 206 76 8 206 76 8 206 76 8 208 75 10 208 75 10 208 75 10
208 75 10 209 76 11 209 76 11 209 76 11 209 76 11 209 76 11 209 76 11
209 76 11 209 76 11 210 77 11 209 77 7 227 98 25 223 98 24 221 99 24
218 101 24 216 101 24 215 102 24 213 103 24 213 103 24 214 104 25
215 105 26 217 106 28 218 108 29 219 109 28 219 109 28 216 109 25
215 110 25 211 111 27 211 111 29 215 109 33 219 106 35 194 71 5
198 67 6 204 65 7 205 64 7 205 64 7 205 64 7 207 66 9 207 66 9
207 66 9 207 66 9 203 62 5 203 62 5 203 62 5 203 62 5 203 62 5
203 62 5 202 63 5 202 63 5 200 61 6 202 63 7 203 67 11 205 68 12
203 67 11 203 67 11 203 67 11 203 67 11 205 68 10 205 68 10 203 70 8
201 70 8 210 82 16 210 83 14 209 84 12 209 84 12 211 84 13 211 84 13
213 83 13 213 83 13 211 84 13 211 84 13 210 85 13 210 85 13 211 86 14
211 86 14 211 86 14 211 86 14 211 86 14 211 86 14 211 86 14 209 87 14
211 93 19 209 94 19 209 94 19 209 94 19 209 94 17 209 94 17 209 94 17
208 93 16 209 94 17 212 97 19 217 103 25 221 106 29 221 106 27
221 106 27 219 108 25 218 109 23 216 110 21 216 110 21 218 109 23
219 107 27 197 80 3 199 78 7 202 76 9 203 75 11 208 74 14 209 73 14
211 72 14 212 73 15 212 73 15 210 71 13 205 66 9 202 63 5 202 63 5
202 63 5 202 63 5 202 63 5 202 63 3 203 65 4 204 66 5 205 67 6
205 67 6 206 68 8 207 69 9 209 70 10 210 72 11 210 72 9 210 72 9
210 72 9 206 70 7 203 70 6 221 91 25 217 91 24 216 93 23 215 94 23
213 95 23 213 95 23 215 94 23 216 93 23 217 92 22 216 90 21 215 90 18
213 88 17 212 87 16 212 87 16 212 87 16 212 87 16 212 87 16 212 87 18
213 85 16 209 81 13 204 77 8 201 73 5 206 76 8 206 76 8 206 76 8
208 75 8 208 75 10 208 75 10 208 75 10 208 75 10 209 76 11 209 76 11
209 76 11 209 76 11 209 76 11 209 76 11 209 76 11 209 76 11 210 77 11
207 77 7 224 99 25 221 99 24 218 101 24 216 101 24 215 102 24
213 103 22 213 103 22 213 103 22 214 105 23 215 106 24 217 107 26
218 108 25 219 110 26 219 110 24 216 110 23 215 110 23 211 112 23
211 112 25 215 109 29 219 106 33 195 72 4 198 67 4 204 65 7 205 64 7
205 64 7 205 64 7 207 66 9 207 66 9 207 66 9 207 66 9 203 62 5
203 62 5 203 62 5 203 62 5 203 62 5 203 62 5 202 63 5 202 63 5
200 61 6 202 63 7 203 67 11 205 68 12 203 67 11 203 67 11 203 67 11
203 67 11 205 68 10 205 68 10 203 70 8 201 70 8 210 82 16 210 83 14
209 84 12 209 84 12 211 84 13 211 84 13 213 83 13 213 83 13 211 84 13
211 84 13 210 85 13 208 86 13 209 87 14 209 87 14 209 87 14 209 87 14
209 87 14 209 87 14 209 87 14 209 87 14 211 91 18 212 92 19 211 93 19
211 93 19 211 93 19 211 93 19 211 94 17 210 92 16 211 94 15 213 96 17
219 102 23 223 106 27 223 106 27 223 106 25 223 106 25 221 107 23
219 108 21 219 108 21 219 108 23 221 107 25 199 79 3 202 76 7
203 75 9 205 74 11 208 74 14 209 73 14 209 73 14 210 74 15 212 73 15
210 71 13 207 66 9 203 62 5 202 63 5 202 63 5 202 63 5 202 63 5
202 63 3 203 65 4 203 65 4 204 66 5 205 66 9 206 68 10 207 69 11
209 70 12 210 72 11 210 72 11 210 72 11 210 72 11 206 70 9 203 70 8
221 91 25 217 91 24 216 93 25 215 94 25 213 95 25 213 95 25 215 94 23
216 93 23 217 92 22 216 90 21 215 89 20 213 88 19 212 87 18 212 87 18
212 87 18 212 87 18 212 87 18 212 87 18 213 84 18 209 81 15 204 76 10
201 73 7 206 76 8 208 75 8 208 75 8 208 75 8 209 74 10 209 74 10
209 74 10 209 74 10 209 76 11 209 76 11 209 76 11 209 76 11 209 76 11
209 76 11 209 76 11 209 76 11 208 78 11 206 78 7 222 100 25
219 100 22 216 101 24 215 102 24 215 103 22 213 104 20 213 104 20
215 103 20 217 103 21 219 104 22 220 106 23 220 106 21 221 107 23
221 108 21 219 108 21 218 109 21 215 111 21 215 110 23 218 108 27
223 105 31 199 71 4 201 65 4 204 65 7 205 64 7 205 64 7 205 64 7
207 66 9 207 66 9 207 66 9 207 66 9 203 62 5 203 62 5 203 62 5
203 62 5 203 62 5 203 62 5 202 63 5 202 63 5 200 61 6 202 63 7
203 67 11 205 68 12 203 67 11 203 67 11 203 67 11 203 67 11 205 68 10
205 68 10 203 69 10 201 70 8 210 82 16 210 83 14 209 83 14 209 84 12
211 84 13 211 84 13 213 83 13 213 83 13 213 83 13 211 84 13 210 85 13
208 86 13 209 87 14 209 87 14 209 87 14 209 87 14 209 87 14 209 87 14
209 87 14 209 87 14 213 90 18 214 92 19 212 92 19 212 92 19 212 92 19
212 92 19 212 93 17 211 92 16 212 93 15 215 95 17 221 101 23
224 105 27 223 106 25 221 107 25 221 107 23 219 108 23 219 108 21
218 109 21 218 109 23 221 107 25 202 77 3 205 75 7 205 74 9 207 73 11
209 73 14 209 73 14 208 74 14 210 74 15 210 74 15 210 71 13 207 66 9
203 62 5 202 63 5 202 63 5 202 63 5 202 63 5 202 63 3 203 65 4
203 65 4 204 66 5 205 66 9 206 68 10 207 69 11 209 70 12 210 72 11
210 72 11 210 72 11 208 72 11 204 71 9 201 70 8 218 92 25 215 92 24
215 94 25 215 94 25 215 94 25 215 94 25 215 94 23 215 94 23 215 92 22
214 91 21 213 90 20 212 89 19 212 87 18 212 87 18 212 87 18 212 87 18
212 87 18 212 87 18 211 85 18 208 82 15 204 76 10 203 72 7 208 75 8
208 75 8 208 75 8 208 75 8 209 74 10 209 74 10 209 74 10 209 74 10
209 76 11 209 76 11 209 76 11 209 76 11 209 76 11 209 76 11 209 76 11
209 76 11 208 78 11 204 79 7 221 101 25 218 101 22 215 103 22
213 104 20 213 104 20 213 104 20 213 104 18 215 103 18 217 104 19
219 105 20 220 106 21 220 106 21 221 108 21 221 108 21 221 108 21
219 108 21 218 109 21 218 109 23 219 108 25 223 105 29 200 70 4
203 64 6 205 64 7 205 64 7 205 64 7 205 64 7 207 66 9 207 66 9
207 66 9 207 66 9 202 63 7 202 63 7 202 63 7 202 63 7 202 63 7
202 63 7 202 63 7 202 63 7 202 63 7 203 64 8 206 67 12 207 68 13
205 66 11 205 66 11 205 66 11 205 66 11 206 67 12 205 68 12 203 69 10
201 70 8 210 82 16 210 82 16 209 83 14 209 83 14 211 84 15 211 84 15
213 83 15 215 82 15 213 83 13 211 84 13 210 85 13 208 86 13 209 87 12
209 87 12 209 87 12 209 87 12 209 87 12 209 87 12 209 89 14 209 89 14
211 91 18 211 91 18 212 92 19 212 92 19 212 92 19 212 92 19 212 92 19
211 92 16 212 93 15 215 95 17 219 102 23 223 106 27 219 108 25
218 108 25 216 110 23 216 110 23 216 110 21 215 111 21 215 110 23
219 107 27 203 76 5 208 73 7 208 73 9 208 72 11 209 73 14 208 74 14
206 75 14 206 75 14 210 76 17 210 71 13 208 65 9 205 61 5 203 62 5
202 63 5 202 63 5 202 63 5 202 63 5 203 64 6 204 65 7 205 66 9
206 68 10 207 69 11 207 69 11 209 70 12 210 71 13 210 71 13 210 72 11
208 72 11 203 72 7 198 73 6 215 94 25 212 94 24 213 95 23 213 95 23
216 93 23 218 93 23 216 93 23 215 95 21 212 94 20 211 93 19 210 92 18
210 90 17 211 88 16 212 87 16 214 86 18 214 86 18 211 88 18 209 88 18
208 87 18 206 83 15 206 76 10 204 71 7 209 74 8 209 74 8 209 74 8
209 74 8 209 74 10 209 74 10 210 75 11 210 75 11 210 75 11 210 75 11
212 76 13 212 76 13 212 76 13 212 76 13 210 77 13 210 77 13 210 79 14
205 80 11 222 102 26 217 103 21 214 106 17 214 106 17 214 105 19
214 105 19 214 105 19 214 105 19 215 106 20 215 106 20 215 106 20
217 108 21 218 109 23 218 109 23 218 109 23 219 108 23 219 108 21
219 108 23 218 108 25 221 106 31 200 69 6 204 63 6 205 64 7 205 64 7
205 64 7 205 64 7 207 66 9 207 66 9 207 66 9 207 66 9 202 63 7
202 63 7 202 63 7 202 63 7 202 63 7 202 63 7 202 63 7 202 63 7
202 63 7 203 64 8 206 67 12 207 68 13 205 66 11 205 66 11 205 66 11
205 66 11 206 67 12 206 67 12 205 68 10 203 69 10 212 81 18 210 82 16
210 83 14 209 83 14 211 84 15 213 83 15 215 82 15 215 82 15 213 83 13
211 84 13 210 85 13 208 86 13 209 87 12 209 87 12 209 87 12 209 87 12
209 87 12 209 87 12 209 89 14 209 89 14 211 91 18 211 91 18 212 92 19
212 92 19 212 92 19 212 92 19 212 92 19 211 92 16 212 93 15 215 95 17
221 101 23 221 106 27 218 108 25 216 109 25 215 110 23 215 110 23
215 111 21 213 111 23 211 112 25 218 108 27 205 75 5 210 72 9
210 72 11 208 72 11 208 74 14 206 75 14 204 76 14 204 76 14 208 77 17
208 72 13 208 65 9 205 61 5 203 62 5 202 63 5 202 63 5 202 63 5
202 63 5 203 64 6 204 65 7 205 66 9 206 68 10 207 69 11 207 69 11
207 71 12 208 72 13 208 72 11 208 72 11 208 73 9 204 71 7 200 72 4
213 95 23 210 95 22 212 96 23 213 96 21 218 93 21 220 92 21 216 94 21
215 95 21 212 94 20 209 94 19 208 93 18 209 91 17 209 89 16 212 87 16
214 86 16 214 86 18 211 88 18 209 88 18 208 87 16 208 82 15 208 75 10
207 70 5 209 74 8 209 74 8 209 74 8 209 74 8 209 74 10 209 74 10
210 75 11 210 75 11 210 75 11 210 75 11 212 76 13 212 76 13 212 76 13
212 76 13 210 77 13 210 77 13 211 78 14 207 79 11 222 102 26
216 104 21 214 106 15 214 106 15 216 105 17 216 105 19 214 105 19
213 106 19 214 107 20 214 107 20 214 107 20 215 108 21 216 110 23
216 110 23 218 109 23 219 108 23 221 108 21 219 108 23 216 109 25
221 106 31 202 68 9 204 63 8 205 64 7 205 64 7 205 64 7 205 64 7
207 66 9 207 66 9 207 66 9 207 66 9 202 63 7 202 63 7 202 63 7
202 63 7 202 63 7 202 63 7 202 63 7 202 63 7 202 63 7 203 64 8
206 67 12 207 68 13 205 66 11 205 66 11 205 66 11 205 66 11 208 66 12
206 67 12 206 68 10 205 68 10 213 80 18 212 81 16 210 83 14 210 83 14
211 84 15 213 83 15 215 82 15 215 82 15 213 83 13 211 84 13 208 86 13
207 87 13 208 88 12 208 88 12 208 88 12 208 88 12 208 88 12 208 88 12
210 90 15 209 91 15 209 91 15 210 92 16 211 94 17 211 94 17 211 94 17
211 94 17 212 93 17 211 92 14 214 92 15 216 95 17 221 102 21
223 106 25 219 108 25 218 108 25 216 110 23 215 110 23 213 112 21
211 112 23 210 113 25 216 109 27 203 76 5 208 73 9 208 72 11
207 73 11 206 75 12 204 76 12 201 78 12 201 78 12 207 78 15 207 73 11
207 66 6 205 62 3 203 62 5 202 63 5 202 63 5 202 63 5 200 64 3
201 65 4 202 66 5 203 68 6 203 68 6 205 69 8 206 70 9 205 72 10
207 73 11 207 74 9 207 74 9 207 74 7 206 71 5 203 71 2 216 94 21
210 95 20 212 97 19 213 96 19 218 93 19 220 93 19 215 95 19 213 96 19
210 96 18 209 94 17 208 93 16 209 91 15 209 89 14 211 88 14 214 87 14
212 87 16 211 88 16 209 89 16 209 87 14 209 81 13 211 73 8 209 69 5
209 74 8 208 75 8 208 75 8 208 75 8 208 75 10 208 75 10 209 76 11
209 76 11 210 75 11 210 75 11 212 76 13 212 76 13 212 76 13 212 76 13
212 76 13 212 76 13 211 78 14 207 79 11 222 102 24 216 105 19
214 106 15 214 106 15 216 105 17 216 105 19 214 105 21 213 106 21
214 107 22 214 107 22 214 107 22 215 108 23 216 109 25 216 109 25
218 108 25 219 108 25 221 107 23 219 108 23 216 109 25 221 106 31
202 68 9 204 63 10 205 64 9 205 64 7 205 64 7 205 64 7 207 66 9
207 66 9 207 66 9 207 66 9 202 63 7 202 63 7 202 63 7 202 63 7
202 63 7 202 63 7 202 63 7 202 63 7 202 63 7 203 64 8 206 67 12
207 68 13 204 65 9 204 65 9 205 66 11 207 65 11 207 65 11 207 65 11
208 67 10 206 68 10 215 79 18 213 81 16 212 82 14 212 82 14 213 83 15
213 83 15 215 82 15 215 82 15 215 82 13 211 84 13 208 86 13 207 87 13
208 88 12 208 88 12 208 88 12 208 88 12 208 88 12 208 88 12 210 92 16
208 93 16 207 92 15 207 94 14 208 96 15 208 96 15 208 96 15 208 96 15
209 95 15 208 94 12 209 95 13 210 98 15 216 104 21 216 110 23
215 110 23 213 111 23 211 112 23 210 113 21 210 113 21 210 113 21
208 114 23 213 111 25 200 78 3 207 74 7 205 74 9 205 74 9 204 76 10
203 77 12 200 78 12 200 78 12 205 79 15 205 74 11 207 66 6 205 62 3
203 62 5 202 63 5 202 63 5 202 63 3 200 64 3 201 65 4 202 66 5
202 68 6 202 68 6 201 71 6 203 72 7 204 73 8 205 74 9 203 76 7
203 76 5 205 75 5 204 72 1 200 73 0 212 97 17 206 98 16 205 101 15
205 101 15 210 98 15 210 98 15 207 100 15 204 102 15 202 100 14
201 99 13 200 98 12 201 96 11 199 95 10 203 93 10 204 92 12 204 92 12
203 93 12 203 93 14 203 91 12 204 85 9 206 77 4 206 71 3 208 76 6
208 75 8 208 75 8 208 75 8 208 75 8 208 75 10 209 76 11 209 76 11
210 75 11 210 75 11 212 76 13 212 76 13 212 76 13 212 76 13 212 76 13
212 76 13 211 78 14 207 79 11 222 102 24 216 105 19 214 106 15
214 106 15 216 105 19 216 105 19 214 105 21 213 106 21 214 107 22
214 107 22 214 107 22 215 108 23 216 109 25 216 109 25 218 108 27
219 108 25 221 107 23 219 108 23 216 109 27 221 106 31 202 68 11
204 63 10 205 64 9 205 64 7 205 64 7 205 64 7 205 64 7 205 64 7
205 64 7 205 64 7 203 62 7 203 62 7 203 62 7 203 62 7 203 62 7
203 62 7 202 63 7 202 63 7 203 64 8 203 64 8 203 64 8 203 64 8
204 65 9 204 65 9 205 64 9 205 64 9 206 62 8 206 62 8 206 63 6
204 63 6 210 72 11 208 73 9 207 74 7 207 74 7 205 73 6 205 73 6
207 72 6 207 72 6 204 72 3 201 72 2 219 96 24 216 96 23 216 96 21
216 96 21 216 96 21 216 96 21 216 97 19 214 97 19 210 96 16 209 97 16
232 120 39 231 121 37 231 121 37 231 121 37 229 122 37 229 122 37
227 123 35 226 124 35 223 124 34 221 125 34 238 146 52 236 147 52
233 149 52 232 150 52 230 151 50 232 150 50 236 148 48 238 147 48
236 148 50 241 144 54 220 103 24 227 100 26 225 100 28 225 100 30
222 99 29 221 100 31 219 101 31 219 101 31 221 100 31 223 95 29
208 73 9 209 68 9 207 69 9 207 69 9 206 70 9 206 70 7 206 70 7
204 71 7 204 71 7 203 72 7 225 94 29 223 95 27 223 95 27 223 95 27
223 98 26 223 98 24 221 99 22 221 99 22 219 101 20 214 105 21
253 156 66 248 160 67 241 161 63 241 161 63 244 159 63 244 159 63
242 160 63 241 161 63 239 160 61 237 157 59 235 155 57 232 153 54
231 152 53 233 151 53 236 149 55 236 149 55 233 150 57 234 149 57
241 151 63 246 146 62 207 94 14 213 91 16 216 89 16 218 88 18
218 88 18 218 88 18 218 88 18 218 88 20 218 88 20 219 86 22 202 69 4
202 68 6 202 68 6 202 68 6 203 68 6 203 68 6 203 68 6 203 68 6
202 68 6 197 69 3 228 108 32 221 109 24 220 112 23 220 112 23
222 110 25 222 110 27 221 112 28 220 113 28 220 113 28 219 112 27
219 112 27 216 109 25 216 109 25 216 109 25 219 109 28 221 109 26
222 108 24 221 109 26 217 110 28 222 106 34 203 69 12 205 64 11
205 64 9 205 64 7 205 64 7 204 63 6 205 64 7 204 63 6 204 63 6
204 63 6 203 62 7 203 62 7 203 62 7 203 62 7 203 62 7 203 62 7
202 63 7 202 63 7 203 64 8 203 64 8 203 64 8 203 64 8 203 64 8
203 64 8 204 63 8 204 63 8 206 62 8 206 62 8 206 63 6 206 63 6
211 71 11 210 72 9 208 73 7 207 74 7 205 73 6 207 72 6 209 71 6
209 71 6 206 71 3 201 72 2 219 96 24 216 96 23 216 96 21 216 96 21
216 96 21 216 96 21 216 97 19 214 97 19 212 97 17 210 98 15
231 121 37 229 122 35 227 123 35 227 124 33 227 124 33 226 124 33
224 125 33 223 126 31 218 127 30 217 128 30 233 149 50 230 151 50
227 152 50 225 154 48 224 154 48 227 153 46 233 150 46 235 149 46
233 150 48 240 146 52 219 104 22 223 102 24 223 101 26 222 102 28
221 101 27 219 101 27 216 103 27 216 103 29 219 101 29 220 97 29
207 74 9 207 70 7 207 69 9 207 69 9 206 70 9 206 70 7 204 71 7
204 71 7 203 72 5 201 73 5 223 95 27 222 97 25 222 97 25 220 98 23
221 99 24 219 100 22 219 101 20 218 102 18 216 103 18 211 107 17
248 159 64 241 164 63 234 165 61 233 165 61 234 165 61 234 165 61
234 165 61 233 165 61 231 164 59 229 162 57 227 160 55 224 157 52
223 156 51 225 155 51 226 154 51 226 154 53 223 156 53 225 154 55
235 155 59 240 150 60 202 97 12 208 94 14 213 91 16 216 89 18
216 89 18 216 89 18 216 89 18 218 88 20 218 88 20 218 87 22 202 69 4
202 68 6 202 68 6 202 68 6 203 68 6 203 68 6 203 68 6 203 68 6
202 68 9 197 69 3 228 108 32 221 109 24 220 112 23 220 112 23
222 110 25 222 110 27 221 112 28 220 113 28 220 113 28 219 112 27
219 112 27 216 109 25 216 109 25 216 109 25 219 109 28 219 110 26
221 109 24 221 109 26 217 110 28 221 107 34 201 70 12 205 64 11
205 64 9 205 64 7 205 64 7 204 63 6 204 63 6 203 62 5 203 62 5
203 62 5 203 62 7 203 62 7 203 62 7 203 62 7 203 62 7 203 62 7
202 63 7 202 63 7 203 64 8 203 64 8 203 64 8 203 64 8 203 64 8
203 64 8 204 63 8 204 63 8 206 62 8 208 61 8 208 62 6 206 63 6
211 71 11 210 72 9 210 72 7 208 73 7 205 73 6 207 72 6 209 71 6
209 71 6 206 71 3 201 72 2 219 96 24 216 96 23 214 97 21 214 97 21
216 96 21 216 96 21 216 97 19 216 97 19 214 98 17 211 99 17
227 123 35 226 124 33 226 124 33 226 125 31 226 125 31 224 126 31
224 126 29 223 127 29 220 127 28 217 128 28 235 149 48 232 150 48
228 152 48 227 153 46 225 154 46 227 154 44 232 151 44 233 150 44
232 151 46 238 147 50 217 106 20 222 103 22 222 102 24 220 103 26
219 102 25 217 103 25 214 104 25 214 104 27 217 102 27 218 98 27
205 75 7 206 71 5 206 70 9 206 70 11 206 70 9 204 71 9 204 71 7
203 72 7 203 72 5 201 73 5 222 97 25 220 98 23 220 98 23 218 99 21
219 100 22 218 101 20 218 102 18 218 102 16 218 102 16 214 106 15
251 158 62 243 164 61 234 165 59 231 167 59 233 166 59 234 165 59
234 165 59 234 165 59 233 164 57 231 161 55 228 159 53 226 157 50
225 156 49 225 156 49 225 156 49 223 156 51 223 156 51 225 155 51
235 155 57 243 149 58 205 96 12 211 92 14 213 91 16 215 90 18
215 89 20 215 89 20 215 89 20 216 88 22 216 88 22 216 88 22 202 69 4
203 68 4 203 68 4 203 68 4 203 68 6 203 68 6 203 68 6 203 68 6
202 68 9 197 69 3 228 108 32 221 109 24 220 112 23 220 112 23
222 110 25 222 110 27 221 112 26 220 113 26 220 113 26 219 112 25
219 112 25 217 111 24 217 111 24 217 110 26 217 110 26 219 110 26
221 109 24 221 109 26 217 110 28 221 107 34 200 71 10 204 65 11
205 64 9 205 64 7 205 64 7 204 63 6 204 63 6 203 62 5 203 62 5
203 62 5 203 62 7 203 62 7 203 62 7 203 62 7 203 62 7 203 62 7
202 63 7 202 63 7 203 64 8 203 64 8 203 64 8 203 64 8 203 64 8
203 64 8 204 63 8 204 63 8 206 62 8 206 62 8 206 63 6 206 63 6
211 71 11 211 71 11 210 72 9 210 72 9 207 72 6 207 72 6 209 71 8
209 71 6 206 71 5 201 72 2 219 96 24 216 96 21 216 96 21 214 97 21
216 96 21 216 96 21 216 96 21 216 97 19 216 97 17 213 99 17
227 123 35 224 125 33 224 126 31 224 126 31 224 126 29 224 126 29
224 126 29 223 127 29 220 127 28 218 127 28 235 149 46 233 150 46
232 151 46 228 152 46 227 154 44 228 153 44 232 152 42 232 151 44
230 152 46 236 148 48 215 107 18 220 104 22 220 103 24 219 104 24
217 103 23 216 104 23 214 105 23 214 104 25 216 103 27 218 98 25
203 76 5 204 72 5 206 70 9 206 70 11 204 71 9 204 71 9 203 72 7
203 72 7 201 73 5 201 73 5 222 97 25 220 98 23 218 99 21 218 99 21
218 101 20 218 101 20 216 103 18 218 102 16 219 102 14 216 105 15
250 159 60 241 165 61 234 165 56 233 166 56 231 167 56 231 167 56
233 166 56 233 166 56 233 164 55 231 162 53 230 159 51 228 156 48
226 155 47 226 155 47 226 155 47 226 155 49 226 155 49 228 154 51
236 154 57 243 149 58 207 95 12 211 92 14 213 91 16 213 90 18
213 90 20 213 90 20 215 89 22 215 89 22 215 89 22 216 88 22 202 69 4
203 68 4 203 68 4 203 68 4 203 68 6 203 68 6 203 68 6 203 68 6
203 67 9 199 69 3 228 108 32 221 109 24 219 112 23 219 112 23
219 112 25 220 111 27 220 113 26 220 113 26 220 113 26 219 112 25
219 112 25 217 111 24 217 111 24 217 111 24 217 110 26 217 110 26
219 110 24 219 110 26 217 110 30 221 107 34 200 71 10 202 66 9
203 64 6 204 63 6 204 63 6 204 63 6 204 63 6 203 62 5 203 62 5
203 62 5 203 62 7 203 62 7 203 62 7 203 62 7 203 62 7 203 62 7
203 62 7 203 62 7 204 63 8 204 63 8 203 64 8 203 64 8 203 64 8
203 64 8 203 64 8 203 64 8 204 63 8 204 63 8 204 63 8 204 63 8
209 70 12 209 70 12 209 70 12 209 70 10 207 72 8 207 72 8 209 70 10
209 70 10 206 70 7 201 71 4 220 96 22 218 95 21 216 96 21 216 96 21
216 96 23 216 96 23 216 96 21 216 97 19 216 97 17 213 99 17
226 124 35 223 126 33 223 126 31 223 126 31 223 126 31 223 126 31
223 126 31 221 128 29 220 127 28 218 128 26 238 148 46 236 148 46
233 150 46 232 151 46 228 153 44 228 153 44 230 152 44 230 152 44
228 152 46 235 149 48 214 108 18 219 104 22 219 104 24 219 104 24
217 103 21 216 104 21 214 105 23 214 104 25 216 103 27 218 98 25
203 76 7 204 71 7 206 70 9 206 70 11 204 71 9 204 71 9 203 72 7
203 72 7 201 73 5 201 73 5 222 97 25 220 98 23 218 99 21 218 99 21
218 101 20 218 101 20 216 103 18 216 103 16 218 103 14 213 107 15
245 161 60 238 166 61 234 165 59 233 166 59 231 167 59 229 167 59
229 168 56 231 167 56 231 165 55 231 162 53 232 158 51 231 155 48
231 153 45 233 152 45 233 152 45 233 152 47 234 151 49 234 150 51
236 154 57 240 150 58 205 96 12 211 92 14 213 91 16 213 90 18
213 90 20 213 90 20 213 90 22 213 90 22 213 90 22 215 89 22 202 69 4
203 68 4 203 68 4 203 68 4 203 68 6 203 68 6 203 68 6 203 68 6
205 66 9 201 68 3 228 108 32 221 109 24 217 113 23 215 114 23
215 114 25 217 112 27 220 113 26 221 113 24 221 113 24 221 113 24
220 112 23 220 112 23 220 112 23 220 111 25 219 112 25 217 113 25
215 113 27 215 113 29 217 112 31 222 108 35 199 73 11 202 68 11
203 64 6 204 63 6 204 63 6 203 62 5 203 62 5 203 62 5 203 62 5
203 62 5 203 62 7 203 62 7 203 62 7 203 62 7 203 62 7 203 62 7
203 62 7 203 62 7 204 63 8 204 63 8 203 64 8 203 64 8 203 64 8
203 64 8 203 64 8 203 64 8 203 64 8 203 64 8 203 64 8 203 64 8
209 70 14 209 70 14 209 70 14 209 70 12 207 71 10 207 71 10 209 70 12
209 70 12 206 70 9 201 71 4 220 96 22 218 96 19 216 96 21 216 96 21
216 96 23 216 96 23 216 96 21 216 96 21 218 96 19 213 99 17
226 124 35 221 127 33 221 127 33 221 127 31 221 127 31 221 127 31
221 127 31 221 127 31 220 127 28 220 127 26 238 148 46 236 148 46
235 149 46 232 151 46 230 152 46 228 153 44 230 152 44 230 152 46
228 152 46 233 150 48 212 109 18 219 104 22 219 104 24 219 104 24
217 103 21 217 103 21 214 105 23 214 104 25 217 102 27 218 98 27
205 74 9 204 71 9 206 70 11 206 70 11 204 71 9 204 71 9 203 72 7
203 72 7 201 73 5 199 74 5 222 97 25 220 98 23 220 98 23 218 99 21
219 100 22 218 101 20 218 102 18 216 103 16 216 103 16 209 109 15
240 163 62 233 169 61 233 166 59 233 166 59 228 168 59 226 169 59
226 169 59 228 169 56 228 167 55 229 163 53 230 159 51 231 155 48
231 153 47 233 152 45 234 152 45 236 150 47 238 149 49 236 150 51
235 155 59 237 151 60 203 96 14 211 92 16 213 90 18 213 90 18
213 90 20 213 90 20 213 90 22 213 90 22 213 90 22 215 89 22 202 69 4
203 68 4 203 68 4 203 68 4 203 68 6 203 68 6 203 68 6 203 68 6
203 67 9 199 69 3 226 109 32 219 110 26 215 114 23 214 115 23
214 114 25 215 113 27 218 114 26 220 114 24 220 114 24 220 114 24
219 112 23 219 112 23 219 112 23 219 112 23 219 112 25 217 113 25
214 114 27 214 114 29 217 112 31 222 108 35 199 73 11 202 68 11
202 63 5 203 62 5 203 62 5 203 62 5 203 62 5 203 62 5 203 62 5
203 62 5 203 62 7 203 62 7 203 62 7 203 62 7 203 62 7 203 62 7
203 62 7 203 62 7 204 63 8 204 63 8 203 64 8 203 64 8 203 64 8
203 64 8 203 64 8 203 64 8 203 64 8 203 64 8 203 64 8 203 64 8
209 70 14 209 70 14 209 70 14 209 70 12 207 71 10 207 71 10 209 70 12
209 70 12 206 70 9 201 71 6 220 96 22 218 96 19 216 96 21 216 96 21
218 95 23 218 95 23 216 96 21 216 96 21 218 96 19 213 99 17
226 124 35 221 127 35 221 127 33 221 127 33 221 127 31 221 127 31
221 127 31 221 127 31 220 127 28 220 127 28 238 147 48 236 148 48
235 149 48 232 150 48 230 152 46 228 152 46 230 152 46 230 152 46
228 152 48 235 148 50 214 107 20 220 104 22 219 104 24 219 104 24
219 103 21 217 103 21 216 104 23 216 103 25 219 101 27 220 97 27
205 74 9 206 70 9 204 70 11 204 70 11 204 71 9 203 72 9 203 72 7
201 73 7 201 73 5 199 74 5 222 97 25 222 97 25 220 98 23 220 98 23
221 99 22 219 101 20 219 101 18 216 103 18 213 104 18 205 111 17
237 164 64 230 170 63 229 167 61 228 168 61 225 169 61 223 170 61
223 171 59 225 170 59 225 168 57 226 164 55 227 160 53 228 156 50
228 154 47 230 154 47 231 153 47 233 152 47 234 151 49 233 151 53
232 156 59 234 153 60 200 97 16 208 93 18 213 90 18 215 89 20
215 89 20 215 89 20 215 89 22 215 89 22 215 89 22 216 88 22 202 69 4
203 68 4 203 68 4 203 68 4 203 68 6 203 68 6 203 68 6 202 68 6
200 69 9 194 71 5 223 110 34 216 111 26 214 115 23 212 116 23
212 115 27 214 114 27 216 115 26 218 114 26 218 114 26 218 114 26
217 113 25 217 113 25 217 113 23 217 113 23 219 112 25 219 112 25
215 113 27 215 113 29 219 111 31 223 108 35 199 73 9 202 68 9
202 63 5 203 62 5 203 62 5 203 62 5 203 62 5 203 62 5 203 62 5
203 62 5 202 61 6 202 61 6 202 61 6 202 61 6 202 61 6 202 61 6
203 62 7 203 62 7 204 63 8 204 63 8 203 64 8 203 64 8 203 64 8
203 64 8 203 64 8 203 64 8 203 64 8 203 64 8 203 64 8 203 64 8
209 70 14 209 70 14 209 70 14 209 70 14 207 71 12 207 71 12 209 70 14
209 70 14 206 70 11 201 71 6 220 96 22 218 96 19 216 96 21 216 96 21
218 95 23 218 95 23 216 96 21 216 96 21 218 96 19 213 98 19
226 124 37 221 127 35 221 127 33 221 127 33 221 127 31 221 127 31
221 127 31 221 127 31 222 129 31 221 128 29 238 147 48 235 147 47
234 148 47 230 149 47 229 150 45 229 150 45 230 150 45 230 150 45
229 150 47 234 147 49 214 107 20 220 103 24 219 104 26 219 104 26
219 102 23 217 103 21 216 104 23 216 103 25 219 101 27 220 97 29
205 74 11 205 69 8 203 69 10 203 69 10 201 70 8 201 70 8 200 72 6
200 72 6 198 73 4 198 73 4 222 97 25 223 98 26 223 98 24 221 99 24
222 100 23 222 100 23 221 102 21 219 103 19 213 104 18 205 110 19
237 164 64 230 170 65 229 167 61 228 168 61 225 169 61 223 170 61
223 171 59 225 170 59 225 168 57 226 164 55 227 160 53 228 156 50
228 154 47 230 154 47 231 153 47 233 152 49 234 150 51 233 151 53
232 156 59 234 153 62 200 97 16 208 93 18 213 90 20 215 89 20
215 89 20 215 89 20 215 89 22 215 89 22 215 89 22 216 88 22 201 68 3
202 67 3 202 67 3 202 67 3 202 66 5 202 66 5 202 66 5 201 67 5
199 70 9 193 71 5 221 111 34 216 111 28 214 115 23 212 116 23
214 114 27 215 113 29 216 114 28 218 114 28 218 114 28 218 114 28
217 112 27 217 112 27 217 113 25 219 112 25 220 111 25 220 111 27
217 112 29 217 112 31 220 110 33 225 107 35 201 72 9 203 67 9
200 62 4 202 61 4 202 61 4 202 61 4 202 61 4 202 61 4 202 61 4
202 61 4 202 61 6 202 61 6 202 61 6 202 61 6 202 61 6 202 61 6
203 62 7 203 62 7 203 62 7 203 62 7 203 64 8 203 64 8 203 64 8
203 64 8 203 64 8 203 64 8 203 64 8 203 64 8 203 64 8 203 64 8
209 70 14 209 70 14 209 70 14 209 70 14 207 71 12 207 71 12 209 70 14
209 70 14 206 70 11 203 70 6 222 95 24 218 95 21 216 96 21 216 96 21
218 95 23 218 95 23 218 95 21 218 95 21 218 96 19 213 98 19
226 124 37 221 127 35 221 127 33 221 127 33 221 127 31 221 127 31
221 127 31 221 127 31 224 131 33 222 129 31 238 147 48 233 144 45
231 145 45 228 147 45 227 148 43 227 148 43 228 147 43 228 147 43
227 148 45 231 145 47 214 107 20 220 103 24 219 104 26 219 104 26
219 102 23 219 103 21 216 104 23 216 103 25 219 101 27 219 95 28
204 73 10 203 70 8 203 70 8 201 70 8 201 70 8 201 70 8 200 72 6
200 72 6 200 72 6 200 72 4 225 98 27 224 97 26 223 98 24 223 98 24
222 100 25 222 100 23 221 102 21 219 103 21 213 99 14 206 106 17
239 162 63 233 168 65 236 169 64 234 170 64 231 171 64 230 172 64
230 172 62 231 172 62 233 171 62 236 169 62 224 152 47 227 151 47
229 150 45 230 150 45 232 148 47 234 148 47 235 146 49 234 147 51
236 156 60 230 144 55 207 99 19 206 85 12 215 89 20 216 88 20
216 88 20 216 88 20 216 88 22 216 88 22 216 88 22 218 87 22 201 68 3
202 67 3 202 67 3 202 67 3 202 66 5 202 66 5 202 66 5 201 67 5
197 69 7 187 66 0 221 108 32 216 109 27 216 112 24 216 112 24
217 110 28 217 110 30 219 111 29 219 111 29 219 111 29 219 111 29
219 111 29 219 111 29 219 111 29 220 111 27 223 110 25 223 109 27
220 110 29 220 110 31 224 109 34 227 104 34 203 70 8 202 63 3
202 63 3 202 63 3 202 63 3 202 63 3 202 63 3 202 63 3 202 63 3
202 63 3 204 63 8 204 63 8 204 63 8 204 63 8 204 63 8 204 63 8
204 63 8 204 63 8 204 63 8 204 63 8 203 64 8 203 64 8 203 64 8
203 64 8 203 64 8 203 64 8 203 64 8 203 64 8 203 64 8 203 64 8
210 71 15 210 71 15 210 71 15 210 71 15 208 72 13 210 71 13 211 70 15
211 70 15 209 70 12 204 71 7 223 96 25 220 96 22 219 97 22 217 97 22
219 96 24 219 96 24 219 97 22 219 97 22 219 97 20 214 99 20
226 124 37 221 127 35 221 127 33 221 127 33 221 127 31 221 127 31
221 127 31 221 127 31 223 130 32 221 128 29 235 144 45 231 142 42
229 143 42 226 145 42 224 146 40 224 146 40 226 145 40 226 145 40
224 145 42 229 143 44 212 105 18 218 101 22 218 101 24 218 101 24
218 99 21 217 100 21 214 101 23 214 101 25 216 97 26 218 94 27
205 74 11 205 72 10 204 73 10 204 73 10 204 73 10 204 73 10 202 74 8
202 74 8 202 74 8 202 74 8 222 94 26 222 95 24 220 96 22 220 96 22
220 98 23 220 98 23 220 98 21 218 99 19 222 103 20 215 106 20
244 159 65 237 163 63 239 164 64 239 164 62 235 166 62 234 167 62
234 167 60 234 167 60 236 164 59 238 161 57 239 157 55 239 155 54
241 153 53 243 152 53 243 152 53 244 151 55 246 150 55 244 150 57
238 151 58 235 140 53 214 99 22 216 89 18 216 88 20 216 88 20
216 88 20 216 88 20 216 88 22 216 88 22 216 88 22 218 87 22 203 70 6
205 69 6 205 69 6 205 69 6 205 69 8 205 69 8 205 69 8 203 70 8
199 68 7 198 72 8 220 102 28 223 111 30 222 113 27 224 113 27
227 110 31 227 110 33 227 112 35 227 111 37 227 111 37 227 111 37
222 107 32 222 107 30 222 107 30 222 108 28 225 106 26 225 106 26
222 107 30 222 107 32 226 106 35 224 96 30 203 65 4 196 56 0 204 66 5
204 66 5 204 66 5 204 66 5 204 66 5 204 66 5 204 66 5 204 66 5
207 65 11 207 65 11 207 65 11 207 65 11 207 65 11 207 65 11 207 65 11
205 64 9 205 64 9 205 64 9 204 65 9 203 64 8 203 64 8 203 64 8
203 64 8 203 64 8 203 64 8 203 64 8 203 64 8 203 64 8 198 59 4
198 59 4 198 59 4 198 59 4 196 60 2 198 59 2 200 58 4 200 58 4
197 58 0 193 59 0 211 84 13 209 84 10 207 85 10 206 86 10 207 85 12
207 85 12 207 85 10 207 85 10 207 85 8 202 88 8 226 124 37 221 127 35
221 127 33 221 127 33 221 127 31 221 127 31 221 127 31 221 127 31
220 127 28 216 123 25 231 140 41 226 137 38 224 138 38 221 140 38
220 141 36 220 141 36 221 140 36 221 140 36 220 141 38 226 137 40
208 100 13 215 95 17 213 96 19 213 96 19 214 94 16 212 95 16
209 96 18 209 96 20 212 92 21 217 91 24 205 74 11 209 75 13 207 76 13
207 76 13 207 76 13 207 76 13 206 78 11 207 79 13 209 81 15 210 82 16
211 84 15 213 85 14 213 89 15 215 90 16 216 91 17 216 91 17 214 92 15
216 92 13 212 83 6 204 82 3 227 130 40 216 129 35 217 131 35
217 131 35 214 132 35 213 133 33 213 134 31 213 134 31 216 132 31
219 130 31 204 110 14 205 109 14 208 108 12 210 107 12 210 107 14
212 106 14 213 105 16 212 105 16 216 117 27 216 109 27 201 74 1
202 68 0 203 72 5 201 73 5 201 73 5 201 73 5 201 73 7 201 73 7
202 74 8 204 73 8 205 72 8 207 72 8 208 73 9 208 73 9 208 72 11
208 72 11 208 72 11 208 72 11 205 72 12 204 73 10 198 73 4 197 78 2
199 80 0 200 79 0 203 76 3 205 75 5 203 78 6 201 78 8 202 80 9
202 80 9 204 81 11 204 81 9 205 83 8 205 83 6 205 83 4 205 83 6
202 84 8 199 82 7 201 78 8 210 79 14 211 71 11 215 72 13 211 71 11
209 70 10 209 70 10 209 70 10 209 70 10 209 70 10 209 70 10 209 70 10
208 66 12 208 66 12 208 66 12 208 66 12 208 66 12 208 66 12 208 66 12
208 66 12 205 64 9 205 64 9 204 65 9 203 64 8 203 64 8 203 64 8
203 64 8 203 64 8 203 64 8 203 64 8 203 64 8 203 64 8 199 60 5
199 60 5 199 60 5 199 60 5 199 61 3 199 60 5 201 59 7 201 59 7
198 59 4 194 60 0 213 85 14 210 85 11 208 86 11 208 86 11 208 86 13
208 86 13 208 86 11 208 86 11 208 87 9 205 89 7 226 124 35 221 127 35
221 127 33 221 127 33 221 127 31 221 127 31 221 127 31 221 127 31
218 124 28 216 123 25 229 136 38 226 135 36 223 137 36 222 138 36
218 140 36 218 140 34 219 138 33 220 137 35 219 138 35 224 135 37
206 97 11 212 93 15 211 94 17 211 94 17 211 92 16 211 92 16 208 93 16
208 93 18 209 88 18 216 90 23 206 76 10 210 77 15 208 77 15 208 77 15
208 77 15 208 77 15 207 79 13 208 80 14 209 81 15 209 81 15 210 83 14
210 83 12 210 85 11 210 85 11 211 86 12 211 86 12 209 88 10 213 86 8
219 88 12 208 84 5 230 126 38 216 122 31 218 123 30 216 124 30
214 125 30 214 125 30 214 125 28 214 125 28 216 123 27 216 119 24
215 114 21 216 110 19 217 109 15 218 108 15 218 108 17 218 108 17
218 107 19 218 107 21 215 108 23 217 103 23 204 72 1 209 70 3
205 73 6 202 74 6 202 74 6 202 74 6 202 74 8 202 74 8 203 75 9
205 74 9 207 74 9 208 73 9 210 75 11 210 75 11 210 75 13 210 75 13
210 75 13 210 75 13 209 73 14 212 79 17 206 76 8 206 79 5 207 80 5
208 79 5 212 77 7 212 77 9 210 79 12 210 79 12 210 79 12 208 78 11
208 78 11 207 77 9 207 77 7 206 79 5 206 79 5 204 79 5 202 80 7
202 80 7 199 74 5 211 80 15 206 68 8 209 68 9 211 73 12 211 73 12
211 73 12 211 73 12 211 73 12 211 73 12 211 73 12 211 73 12 206 67 12
206 67 12 206 67 12 206 67 12 208 66 12 208 66 12 206 67 12 206 67 12
204 65 9 204 65 9 204 65 9 204 65 9 204 63 8 203 62 7 203 62 7
203 62 7 204 63 8 204 63 8 204 63 8 204 63 8 203 62 7 203 62 7
203 62 7 203 62 7 200 62 4 200 61 6 202 60 8 202 60 8 203 64 8
198 62 1 214 84 16 209 84 12 208 86 11 208 86 11 210 85 11 210 85 11
210 85 11 210 85 11 210 86 9 205 89 7 227 123 35 223 126 35
223 126 33 223 126 33 223 126 33 223 126 33 223 126 33 221 125 32
220 124 29 221 125 30 227 133 37 226 135 38 226 137 40 222 138 38
220 139 36 218 140 36 219 138 35 220 137 35 219 137 37 224 134 39
204 94 11 210 91 13 209 91 15 209 91 17 211 92 16 213 91 16 213 90 18
213 90 18 215 92 22 217 91 24 204 76 10 207 77 11 207 76 13 207 76 13
206 78 11 206 78 11 207 76 13 207 76 13 207 79 13 208 80 14 208 80 12
209 82 11 210 83 12 210 83 12 210 85 11 210 85 11 210 86 9 210 86 9
214 88 10 210 91 11 225 121 33 220 123 33 220 125 34 220 125 34
221 125 34 221 125 32 221 125 32 221 125 32 223 124 32 226 123 30
214 108 16 215 104 14 216 103 14 218 103 14 216 103 14 213 105 14
212 105 16 212 105 18 211 101 18 217 100 21 205 76 3 210 76 7
207 74 7 205 74 9 205 74 9 205 74 9 205 74 9 205 74 9 205 74 9
205 74 9 207 74 9 207 74 9 207 74 9 207 74 9 207 74 9 207 74 9
207 74 9 207 73 11 208 74 12 208 75 10 208 75 8 206 76 6 206 76 6
208 76 6 208 76 6 208 76 6 208 75 8 208 75 10 208 75 10 208 75 10
211 78 14 211 78 14 211 79 12 210 79 12 210 79 12 210 79 12 210 80 10
210 80 10 210 79 12 210 77 13 209 73 12 208 72 11 207 71 10 207 71 10
207 71 10 207 71 10 207 71 10 207 71 10 207 71 10 207 71 10 206 67 12
206 67 12 206 67 12 206 67 12 208 66 12 208 66 12 206 67 12 206 67 12
205 66 11 204 65 9 204 65 9 204 65 9 204 63 8 203 62 7 203 62 7
203 62 7 204 63 8 204 63 8 204 63 8 204 63 8 203 62 7 203 62 7
203 62 7 203 62 7 200 62 4 202 61 6 204 59 8 204 59 8 204 63 8
198 62 1 214 84 16 210 83 12 210 85 11 208 86 11 210 85 11 210 85 11
210 85 11 210 85 11 210 86 9 205 89 7 227 123 35 223 126 35
223 126 33 223 126 33 223 126 33 223 126 33 223 126 33 221 125 32
221 125 30 224 128 33 227 133 37 228 136 40 227 138 41 223 139 40
221 140 38 221 140 38 222 138 36 222 138 36 220 138 38 225 136 40
204 94 11 210 90 15 210 90 17 210 90 17 213 91 16 213 91 16 215 90 18
215 89 20 215 92 24 217 91 24 204 76 10 206 76 10 206 75 12 206 75 12
204 76 10 204 76 10 206 75 12 207 76 13 207 79 13 208 80 14 208 80 12
209 82 11 210 83 12 211 84 13 211 86 12 211 86 12 211 87 10 211 87 10
211 89 10 209 92 11 225 121 35 220 123 33 220 125 34 220 125 34
223 124 34 225 123 34 223 124 32 225 123 32 226 122 32 228 122 32
215 107 18 216 103 14 218 103 14 218 103 14 216 103 14 213 105 16
210 106 16 210 106 18 211 101 18 217 100 21 205 76 3 210 76 7
207 74 7 205 74 9 205 74 9 205 74 9 205 74 9 205 74 9 205 74 9
205 74 9 207 74 9 207 74 9 207 74 9 207 74 9 207 74 9 207 74 9
207 74 9 207 74 9 208 74 12 208 75 10 208 75 8 208 75 8 208 75 10
208 75 10 208 75 8 208 75 8 208 75 10 208 75 10 208 75 10 208 75 10
211 78 14 211 78 14 211 78 14 211 78 14 211 78 14 211 78 14 211 79 12
211 79 12 211 78 14 210 77 13 208 74 12 207 73 11 207 71 10 207 71 10
207 71 10 207 71 10 207 71 10 207 71 10 207 71 10 207 71 10 206 67 12
206 67 12 206 67 12 206 67 12 208 66 12 208 66 12 206 67 12 206 67 12
205 66 11 205 66 11 205 66 11 204 65 9 204 63 8 203 62 7 203 62 7
203 62 7 204 63 8 204 63 8 204 63 8 204 63 8 203 62 7 203 62 7
203 62 7 203 62 7 200 61 6 202 61 6 204 59 8 204 59 8 204 63 8
198 61 3 214 84 16 210 83 12 210 85 11 208 86 11 210 85 11 210 85 11
210 85 11 210 85 11 210 86 9 205 89 7 227 123 35 223 126 35
223 126 33 223 126 33 223 126 33 223 126 33 223 126 33 221 125 32
221 125 30 224 128 33 227 133 37 228 136 40 227 138 41 223 139 40
221 140 38 221 140 38 222 138 36 222 138 36 220 138 38 226 135 40
205 94 11 212 90 15 210 90 17 210 90 17 213 90 18 213 90 18 215 90 18
215 89 20 217 91 24 217 91 24 204 76 10 206 76 10 206 75 12 206 75 12
204 76 10 204 76 10 206 75 12 207 76 13 207 79 13 208 80 14 208 80 12
209 82 11 210 83 12 211 84 13 213 86 12 213 86 12 213 86 10 211 87 10
211 89 12 209 92 13 225 121 35 220 123 35 220 125 34 220 125 34
223 124 34 225 123 34 223 124 34 225 123 34 226 122 34 228 121 34
215 107 18 216 103 16 218 102 16 218 102 16 216 103 16 213 105 16
210 106 18 210 106 18 211 101 18 217 100 21 205 76 3 210 76 7
207 74 7 205 75 7 205 74 9 205 74 9 205 74 9 205 74 9 205 74 9
205 74 9 207 74 9 207 74 9 207 74 9 207 74 9 207 74 9 207 74 9
207 74 9 207 74 9 208 74 12 208 75 10 208 75 8 208 75 8 208 75 10
208 75 10 208 75 8 208 75 8 208 75 10 208 75 10 208 75 10 208 75 10
211 78 14 211 78 14 211 78 14 211 78 14 211 78 14 211 78 14 211 79 12
211 79 12 211 78 14 210 77 13 208 74 12 207 73 11 207 71 10 207 71 10
207 71 10 207 71 10 207 71 10 207 71 10 207 71 10 207 71 10 206 67 12
206 67 12 206 67 12 206 67 12 208 66 12 208 66 12 206 67 12 206 67 12
205 66 11 205 66 11 205 66 11 204 65 9 204 63 8 203 62 7 203 62 7
203 62 7 204 63 8 204 63 8 204 63 8 204 63 8 203 62 7 203 62 7
203 62 7 203 62 7 200 61 6 202 60 8 204 59 10 204 59 10 204 63 10
198 61 3 214 84 18 210 83 12 210 85 13 210 85 11 210 85 11 210 85 11
210 85 11 210 85 11 210 86 9 205 89 7 227 123 37 223 126 35
223 126 35 223 126 33 223 126 33 223 126 33 223 126 33 221 125 32
221 125 32 224 127 35 227 133 39 228 136 40 227 138 41 223 139 40
221 140 40 221 140 38 222 138 36 223 137 38 222 138 38 226 134 42
205 93 13 212 90 15 210 90 17 210 90 17 213 90 18 213 90 18 215 90 18
215 89 20 217 91 24 218 90 24 206 76 10 206 76 10 206 75 12 206 75 12
204 76 10 206 76 10 206 75 12 207 76 13 208 78 13 210 79 14 210 79 12
211 81 13 212 82 14 211 84 13 213 85 14 213 86 12 213 86 12 213 86 10
212 88 12 209 92 13 225 121 35 220 123 35 220 125 34 220 125 34
223 124 34 225 123 34 223 124 34 225 123 34 226 122 34 228 121 34
215 107 18 216 103 16 218 102 16 218 102 16 216 103 16 213 104 18
210 106 18 210 105 20 211 101 20 217 99 23 205 75 5 210 76 7 207 74 7
205 75 7 205 74 9 205 74 9 205 74 9 205 74 9 205 74 9 205 74 9
207 74 9 207 74 9 207 74 9 207 74 9 207 74 9 207 74 9 207 74 9
207 74 9 208 74 12 208 75 10 208 75 8 208 75 8 208 75 10 208 75 10
208 75 8 208 75 8 208 75 10 208 75 10 208 75 10 208 75 10 211 78 14
211 78 14 211 78 14 211 78 14 211 78 14 211 78 14 211 79 12 211 79 12
211 78 14 210 77 13 208 74 12 207 73 11 207 71 10 207 71 10 207 71 10
207 71 10 207 71 10 207 71 10 207 71 10 207 71 10 205 68 12 205 68 12
205 68 12 206 67 12 206 67 12 206 67 12 206 67 12 205 66 11 205 66 11
204 65 9 204 65 9 204 65 9 204 63 8 204 63 8 204 63 8 204 63 8
204 63 8 204 63 8 204 63 8 203 62 7 203 62 7 202 61 6 202 61 6
202 61 6 200 61 6 202 60 8 204 59 10 204 59 10 204 63 10 198 61 3
214 84 18 210 83 14 210 85 13 210 85 13 211 84 13 211 84 13 211 84 13
211 85 11 211 85 9 207 87 9 227 123 37 223 125 37 223 126 35
223 126 35 223 126 33 223 126 33 223 126 33 221 125 32 223 124 32
225 126 37 228 132 41 228 136 42 227 138 43 223 138 42 221 140 40
221 140 40 223 139 40 224 137 42 223 138 42 228 135 46 207 94 16
213 90 18 211 91 20 211 91 20 213 90 18 215 90 18 215 89 20 215 89 22
217 91 24 218 90 24 206 76 10 206 76 10 206 76 10 206 76 10 206 76 10
206 76 10 208 75 10 209 76 11 210 77 13 211 78 14 211 78 14 212 79 15
213 81 16 213 83 15 213 85 16 213 85 14 213 85 14 213 86 12 212 88 12
209 92 13 225 121 35 220 123 35 220 125 34 220 125 34 223 124 34
225 123 34 223 123 36 225 123 36 226 122 36 228 121 34 215 107 18
216 103 16 219 101 16 219 101 16 216 103 18 213 104 18 210 105 20
210 105 20 211 101 20 217 99 23 205 75 5 210 76 7 207 74 5 207 74 7
207 74 9 207 74 9 207 74 7 207 74 7 207 74 9 207 74 9 207 74 9
207 74 9 207 74 9 207 74 9 207 74 9 207 74 9 207 74 9 207 74 9
208 75 10 208 75 10 208 75 8 208 75 8 208 75 10 208 75 10 208 75 8
208 75 8 208 75 10 208 75 10 208 75 10 208 75 10 211 78 14 211 78 14
211 78 14 211 78 14 211 78 14 211 78 14 211 79 12 211 79 12 211 78 14
210 77 13 208 75 10 207 74 9 205 72 8 205 72 8 205 72 8 205 72 8
205 72 8 205 72 8 205 72 8 205 72 8 205 68 12 205 68 12 205 68 12
205 68 12 206 67 12 206 67 12 206 67 12 205 66 11 205 66 11 204 65 9
204 65 9 204 65 9 204 63 8 204 63 8 204 63 8 204 63 8 204 63 8
204 63 8 204 63 8 203 62 7 203 62 7 202 61 6 202 61 6 202 61 6
200 61 6 202 60 8 204 59 10 204 59 10 204 63 10 198 61 3 214 83 20
210 82 16 210 85 15 210 85 13 211 84 13 211 84 13 211 84 13 211 84 13
211 85 11 207 87 9 227 123 37 223 125 37 223 126 35 223 126 35
223 126 33 223 126 33 223 126 33 223 124 32 225 123 34 225 126 37
228 132 41 228 135 44 227 138 43 223 138 42 221 139 42 221 139 42
223 138 42 224 137 44 223 138 44 228 135 46 207 94 16 213 90 20
213 90 22 213 90 22 215 89 20 215 89 20 215 89 22 215 89 22 217 91 24
218 90 24 206 76 10 206 76 10 206 76 10 206 76 10 206 76 10 206 76 10
208 75 10 209 76 11 210 77 13 211 78 14 211 78 14 212 79 15 213 81 16
215 82 17 214 84 16 213 85 16 213 85 14 213 85 14 214 87 14 210 91 13
227 119 37 220 123 35 220 125 36 220 125 34 223 124 34 225 123 36
223 123 36 225 123 36 226 122 36 228 121 36 215 106 20 216 103 16
219 101 16 219 101 18 216 103 18 213 104 20 210 105 20 210 105 22
211 101 22 217 99 23 205 75 5 210 76 7 207 74 5 207 74 7 207 74 9
207 74 9 207 74 7 207 74 7 207 74 9 207 74 9 207 74 9 207 74 9
207 74 9 207 74 9 207 74 9 207 74 9 207 74 9 207 74 9 208 75 10
208 75 10 208 75 8 208 75 8 208 75 10 208 75 10 208 75 8 208 75 8
208 75 10 208 75 10 208 75 10 208 75 10 211 78 14 211 78 14 211 78 14
211 78 14 211 78 14 211 78 14 211 79 12 211 79 12 211 78 14 210 77 13
208 75 10 207 74 9 205 72 8 205 72 8 205 72 8 205 72 8 205 72 8
205 72 8 205 72 8 205 72 8 203 69 12 203 69 12 203 69 12 205 68 12
205 68 10 205 68 10 205 68 10 203 67 9 203 67 9 202 66 7 202 66 7
204 65 7 203 64 6 203 64 6 203 64 6 203 64 6 203 64 6 203 64 6
204 65 7 202 63 5 202 63 5 200 62 4 200 62 4 200 61 6 200 61 6
202 60 8 204 59 10 204 59 10 204 63 10 198 61 5 214 83 20 210 82 16
210 83 14 210 83 12 210 83 12 210 83 12 210 83 12 210 83 12 210 83 10
206 86 8 227 123 37 223 125 37 223 126 35 223 126 35 223 126 33
223 126 33 223 126 33 223 124 32 225 123 34 227 125 37 228 132 41
228 135 44 227 137 45 223 138 44 221 139 42 221 139 42 224 137 44
224 137 44 223 138 46 229 134 48 208 93 18 215 89 20 215 89 22
215 89 22 215 89 20 215 89 20 215 89 22 215 89 22 218 90 24 220 90 24
206 76 10 206 76 10 206 76 10 206 76 10 206 76 10 206 76 10 208 75 10
209 76 11 210 77 13 211 78 14 211 78 14 212 79 15 213 81 16 215 82 17
214 84 16 214 84 16 214 84 14 214 84 14 214 87 14 210 90 15
227 119 37 220 123 37 220 125 36 220 125 36 223 123 36 225 123 36
223 123 38 225 122 38 226 121 38 228 121 36 215 106 20 216 103 18
221 100 18 221 100 18 216 102 20 213 104 20 210 105 22 210 105 22
211 101 22 217 99 23 205 75 5 210 76 7 207 74 5 207 74 7 207 74 9
207 74 9 207 74 7 207 74 7 208 75 10 208 75 10 208 75 10 208 75 10
207 74 9 207 74 9 207 74 9 207 74 9 207 74 9 207 74 9 208 75 10
208 75 10 208 75 10 208 75 10 208 75 10 208 75 10 208 75 10 208 75 10
208 75 10 208 75 10 208 75 8 208 75 8 210 79 12 210 79 12 211 79 12
211 79 12 212 80 13 212 80 13 211 81 13 210 79 12 210 79 12 208 78 11
206 76 8 205 75 7 204 74 6 204 74 6 204 74 6 204 74 6 204 74 6
204 74 6 204 74 6 204 74 6 203 69 10 203 69 10 203 69 10 203 69 10
205 68 10 205 68 10 205 68 10 203 67 9 203 67 9 202 66 7 202 66 7
202 66 7 203 64 6 203 64 6 203 64 6 203 64 6 203 64 6 203 64 6
204 65 7 202 63 5 202 63 5 200 62 4 200 62 4 200 62 4 200 61 6
200 61 8 202 60 8 202 60 8 203 63 10 198 61 3 216 82 20 212 81 16
209 81 13 209 82 11 209 82 11 209 82 11 209 82 11 209 82 11 209 82 9
206 84 7 229 122 39 226 124 37 226 124 37 226 124 35 226 124 35
226 124 35 226 124 35 225 123 34 226 122 34 229 124 37 232 130 41
232 133 44 232 135 45 229 135 44 228 135 44 228 135 44 231 134 44
231 133 46 229 134 46 234 131 50 211 91 20 216 88 22 218 87 24
218 87 24 216 88 22 216 88 22 216 88 22 216 88 22 220 90 24 220 90 24
205 74 9 205 74 9 205 74 9 205 74 9 205 74 9 205 74 9 207 74 9
208 75 10 209 76 11 210 77 13 210 77 13 211 78 14 212 79 15 215 82 17
216 83 16 216 83 16 216 83 16 214 84 14 215 86 16 212 90 15
230 117 39 227 119 37 226 121 38 226 121 38 229 120 38 229 120 38
229 120 38 229 119 40 231 118 40 233 118 38 220 103 24 219 100 22
223 99 22 223 99 22 219 100 24 218 101 24 215 102 24 215 102 26
216 98 24 220 97 25 205 75 7 209 74 8 207 74 7 207 74 7 207 74 9
207 74 9 207 74 7 207 74 7 208 75 10 208 75 10 208 75 10 208 75 10
207 74 9 207 74 9 207 74 9 207 74 9 207 74 9 207 74 9 208 75 10
208 75 10 208 75 10 208 75 10 208 75 10 208 75 10 208 75 10 208 75 10
208 75 10 208 75 10 208 75 8 208 75 8 210 79 12 210 79 12 210 79 12
210 79 12 211 81 13 211 81 13 211 81 13 210 79 12 210 79 12 208 78 11
206 76 8 205 75 7 204 74 6 204 74 6 204 74 6 204 74 6 204 74 6
204 74 6 204 74 6 204 74 6 216 83 18 216 83 18 216 83 18 215 82 17
216 80 19 215 79 18 215 79 18 215 79 18 216 80 19 217 82 20 202 66 5
202 66 5 207 69 11 207 69 11 206 68 10 206 68 10 206 68 10 206 68 10
204 65 7 205 66 9 205 66 9 205 66 9 205 66 9 205 66 9 203 67 9
203 67 9 205 66 9 204 65 7 202 66 7 205 69 8 207 72 8 208 75 10
208 78 11 208 78 11 208 78 11 208 78 11 208 78 11 208 79 9 208 79 7
205 81 7 215 101 21 212 102 21 212 103 19 212 103 19 212 103 19
212 103 19 212 103 19 213 104 20 213 104 20 212 101 18 209 95 13
206 92 10 206 92 10 206 92 10 204 92 10 204 92 10 206 92 10 206 92 10
206 91 12 207 90 16 198 73 6 201 70 8 203 69 10 203 69 10 203 70 8
203 70 6 203 70 6 203 70 6 203 70 8 203 70 8 205 72 10 205 72 10
205 72 10 205 72 10 207 73 11 207 73 11 207 73 11 207 73 11 207 73 11
207 73 11 208 75 10 208 75 10 209 76 11 208 75 10 208 75 10 209 74 10
210 75 9 209 76 9 208 78 11 207 79 9 207 79 9 205 80 9 206 81 10
206 81 10 208 81 10 208 81 10 208 81 10 208 81 10 208 81 10 207 79 9
206 76 8 204 73 8 203 72 7 201 71 6 201 71 6 201 71 6 201 73 7
201 72 9 204 73 10 204 73 10 207 73 11 209 73 12 208 75 10 208 75 10
208 75 10 208 75 10 208 75 10 208 75 10 208 75 10 208 75 10 208 75 10
208 75 10 210 77 13 210 77 13 210 77 13 210 77 13 210 77 13 210 77 13
209 76 11 209 76 11 209 76 11 209 76 11 208 75 10 208 75 10 208 75 8
208 75 8 208 75 8 208 75 8 206 76 8 206 76 8 211 81 13 211 81 13
209 81 13 208 82 13 209 81 13 211 81 13 211 81 13 211 81 13 211 81 13
213 83 15 215 85 18 217 86 19 215 85 18 215 85 18 215 85 18 215 85 18
215 85 18 215 85 18 215 85 18 215 85 18 216 83 16 216 83 16 216 83 16
215 82 15 216 81 17 215 79 18 215 79 18 215 79 18 216 80 19 217 82 20
202 66 5 202 66 5 207 69 11 207 69 11 206 68 10 206 68 10 206 68 10
206 68 10 204 65 7 205 66 9 205 66 9 205 66 9 205 66 9 205 66 9
203 68 6 203 68 6 203 68 6 202 66 5 202 66 5 205 69 8 207 72 8
209 74 10 209 76 9 207 77 9 207 77 9 207 77 9 207 77 9 207 77 9
207 77 7 206 79 5 218 99 21 215 101 21 215 101 19 215 101 19
215 101 19 215 101 19 215 101 19 216 102 20 215 103 20 214 100 18
212 94 13 211 89 10 212 88 10 212 88 10 211 89 10 211 89 10 211 89 10
211 89 12 212 88 14 214 86 16 201 71 6 203 69 10 205 68 12 205 68 12
205 68 10 205 69 8 205 69 6 205 69 6 203 70 8 203 70 8 204 71 9
204 71 9 204 71 9 204 71 9 205 72 10 205 72 10 205 72 10 205 72 10
205 72 10 205 72 10 205 72 8 205 72 8 205 72 8 205 72 8 207 72 8
207 72 8 207 72 6 207 72 6 207 74 7 207 74 7 208 74 5 208 74 5
209 74 8 209 74 8 209 74 8 209 74 8 209 75 6 209 75 6 209 75 6
208 73 7 207 71 10 205 68 10 203 69 10 203 69 10 205 68 10 205 68 10
206 70 11 206 70 11 207 71 12 207 71 12 208 72 13 208 72 13 208 74 12
208 74 12 208 75 10 208 75 10 208 75 10 208 75 10 208 75 10 208 75 10
208 75 10 208 75 10 210 77 13 210 77 13 210 77 13 210 77 13 210 77 13
210 77 13 209 76 11 209 76 11 209 76 11 209 76 11 208 75 10 208 75 10
208 75 8 208 75 8 208 75 8 208 75 8 206 76 8 206 76 8 211 81 13
209 81 13 208 82 13 208 82 13 208 82 13 209 81 13 211 81 13 211 81 13
211 81 13 213 83 15 215 85 18 217 86 19 215 85 18 215 85 18 215 85 18
215 85 18 215 85 18 215 85 18 215 85 18 215 85 18 214 84 16 214 84 16
214 84 16 215 82 15 215 82 17 213 81 16 213 81 16 213 81 16 215 82 17
216 83 18 201 68 3 202 66 5 206 70 9 206 70 9 205 69 8 205 69 8
205 69 8 205 69 8 203 68 6 203 68 6 203 68 6 203 68 6 203 68 6
203 68 6 203 68 6 203 68 6 203 68 6 202 66 5 202 66 5 205 69 8
207 72 8 209 74 10 208 75 10 208 75 10 208 75 10 208 75 10 208 75 8
208 75 8 208 76 6 204 78 4 218 99 21 215 101 21 215 101 19 215 101 19
215 101 19 215 101 19 215 101 19 216 102 20 216 102 20 216 99 18
212 93 15 211 89 12 212 88 12 212 88 12 211 89 12 211 89 12 211 89 12
211 89 12 212 88 14 214 86 18 201 70 8 203 69 10 205 68 12 206 67 12
206 68 10 206 68 8 205 69 6 205 69 6 205 69 8 205 69 8 204 71 9
204 71 9 204 71 9 204 71 9 205 72 10 205 72 10 205 72 10 205 72 10
205 72 10 205 72 10 205 72 8 205 72 8 205 72 8 205 72 8 207 72 8
207 72 8 207 72 6 207 72 6 205 73 6 205 73 6 207 72 4 207 72 4
208 73 7 208 73 7 208 73 7 208 73 7 208 73 7 208 73 7 208 73 7
207 72 8 206 70 9 205 68 10 203 69 10 203 69 10 205 68 10 205 68 10
206 70 11 206 70 11 207 71 12 207 71 12 208 72 13 208 72 13 208 74 12
208 74 12 208 75 10 208 75 10 208 75 10 208 75 10 209 76 11 209 76 11
209 76 11 209 76 11 210 77 13 210 77 13 210 77 13 210 77 13 210 77 13
210 77 13 209 76 11 209 76 11 209 76 11 209 76 11 208 75 10 208 75 10
208 75 8 208 75 8 208 75 8 208 75 8 206 76 6 206 76 6 209 82 11
209 82 11 208 83 11 208 83 11 209 84 12 210 83 12 210 83 12 209 82 11
209 82 11 211 84 13 214 86 16 215 88 17 214 86 16 214 86 16 214 86 16
214 86 16 214 86 16 214 86 16 214 86 16 214 86 16 214 84 16 214 84 16
214 84 16 213 83 15 215 82 17 213 81 16 213 81 16 213 81 16 215 82 17
216 83 18 201 68 3 201 68 3 206 70 9 206 70 9 205 69 8 205 69 8
205 69 8 205 69 8 203 68 6 203 68 6 203 68 6 203 68 6 203 68 6
203 68 6 203 68 6 203 68 6 203 68 6 202 66 5 202 66 5 205 69 8
207 72 8 209 74 10 208 75 10 208 75 10 208 75 10 208 75 10 208 75 10
208 75 8 208 75 8 204 77 6 218 99 23 215 101 21 215 101 21 215 101 19
215 101 19 215 101 19 215 101 19 216 102 20 216 102 20 216 99 20
212 93 15 211 89 12 212 88 12 212 88 14 211 88 14 211 88 14 211 88 14
212 88 14 214 86 16 215 85 18 203 70 8 205 68 12 206 67 12 206 67 12
206 68 10 206 68 8 205 69 8 205 69 8 205 69 8 205 69 8 204 71 9
204 71 9 204 71 9 204 71 9 205 72 10 205 72 10 205 72 10 207 71 10
207 71 10 205 72 10 205 72 10 205 72 8 205 72 8 205 72 8 207 72 8
207 72 8 207 72 8 207 72 6 205 73 6 205 73 6 207 72 4 207 72 6
208 73 7 208 73 7 208 73 7 208 73 7 208 73 7 208 73 9 208 73 9
207 72 8 206 70 9 205 68 10 203 69 10 203 69 10 205 68 10 205 68 10
206 70 11 206 70 11 207 71 12 207 71 12 208 72 13 208 72 13 208 74 12
208 74 12 208 74 12 208 75 10 208 75 10 208 75 10 209 76 11 209 76 11
209 76 11 209 76 11 210 77 13 210 77 13 210 77 13 210 77 13 210 77 13
210 77 13 209 76 11 209 76 11 209 76 11 209 76 11 208 75 10 208 75 10
208 75 8 208 75 8 208 75 8 208 75 8 206 76 6 206 76 6 209 82 11
209 82 11 208 83 11 208 83 11 209 84 12 209 84 12 210 83 12 209 82 11
209 82 11 211 84 13 214 86 16 215 88 17 214 86 16 214 86 16 214 86 16
214 86 16 214 86 16 214 86 16 214 86 16 214 86 16 214 84 14 214 84 14
214 84 14 214 84 16 215 82 15 215 82 15 215 82 15 215 82 15 216 83 16
217 84 18 202 69 2 202 69 4 205 69 6 205 69 6 203 70 6 203 70 6
205 69 8 205 69 8 205 69 8 205 69 8 205 69 8 205 69 8 205 69 8
205 69 8 205 69 8 205 69 8 205 69 8 203 68 6 203 68 6 205 69 8
207 71 10 209 73 12 209 73 12 209 73 12 209 73 12 209 73 12 209 74 10
209 74 10 209 74 8 206 76 6 218 99 23 215 100 23 215 101 21
215 101 21 215 101 21 215 101 21 215 101 21 216 102 22 218 101 22
217 98 20 214 92 17 211 88 14 212 88 14 212 88 14 211 88 16 211 88 16
211 88 16 212 87 18 214 86 18 215 85 20 203 69 10 205 68 12 206 67 14
206 67 14 206 68 10 206 68 10 205 68 10 205 68 10 205 68 10 205 68 10
205 68 10 205 68 10 206 70 11 206 70 11 206 70 11 206 70 11 207 71 12
209 70 12 209 70 12 207 71 12 207 71 10 207 71 10 207 71 10 207 71 10
207 71 10 207 71 10 207 72 8 207 72 8 207 72 6 207 72 6 207 72 6
207 72 6 208 73 9 208 73 9 208 73 9 208 73 9 208 73 9 208 72 11
208 72 11 206 70 9 205 68 10 203 67 9 203 67 9 203 67 9 205 68 10
205 68 10 206 70 11 206 70 11 206 70 11 206 70 11 208 72 13 208 72 13
208 72 13 208 72 13 209 73 14 209 73 12 209 73 12 209 73 12 210 75 13
210 75 13 209 76 11 209 76 11 210 77 13 210 77 13 210 77 13 210 77 13
210 77 13 210 77 13 207 77 9 207 77 9 207 77 9 207 77 9 206 76 8
206 76 8 206 76 8 206 76 6 206 76 6 206 76 6 206 76 6 204 77 6
209 82 11 209 82 11 208 83 11 208 83 11 209 84 12 209 84 12 210 83 12
209 82 11 209 82 11 211 84 13 212 87 16 213 88 17 212 87 16 212 87 16
212 87 16 212 87 16 212 87 16 212 87 16 212 87 16 212 87 16 214 84 14
214 84 14 214 84 14 214 84 14 215 82 15 215 82 15 215 82 15 215 82 15
216 83 16 217 84 18 202 69 2 202 69 2 205 69 6 205 69 6 203 70 6
203 70 6 205 69 8 205 69 8 205 69 8 205 69 8 205 69 8 205 69 8
205 69 8 205 69 8 205 69 8 205 69 8 205 69 8 203 68 6 203 68 6
205 69 8 207 71 10 209 73 12 209 73 12 208 72 11 209 73 12 209 73 12
209 74 10 209 74 10 209 74 8 206 76 8 218 98 25 215 100 23 215 101 21
215 101 21 215 101 21 215 101 21 215 101 21 216 102 22 218 101 22
217 97 22 214 92 17 211 88 14 212 88 14 212 87 16 211 88 16 211 88 16
211 88 18 212 87 18 214 86 20 215 84 22 203 69 10 205 68 12 206 67 14
206 67 14 206 67 12 206 68 10 205 68 10 205 68 10 205 68 10 205 68 10
205 68 10 205 68 10 206 70 11 206 70 11 206 70 11 206 70 11 209 70 12
209 70 12 209 70 12 209 70 12 207 71 10 207 71 10 207 71 10 207 71 10
207 71 10 207 71 10 207 72 8 207 72 8 207 72 6 207 72 6 207 72 6
207 72 6 208 73 9 208 73 9 208 73 9 208 73 9 208 72 11 208 72 11
208 72 11 206 70 9 205 68 10 203 67 9 203 67 9 203 67 9 205 68 10
205 68 10 206 70 11 206 70 11 206 70 11 206 70 11 208 72 13 208 72 13
208 72 13 208 72 13 209 73 14 209 73 14 209 73 12 209 73 12 210 75 13
210 75 13 209 76 11 209 76 11 210 77 13 210 77 13 210 77 13 210 77 13
210 77 13 210 77 13 208 78 11 207 77 9 207 77 9 207 77 9 206 76 8
206 76 8 206 76 6 206 76 6 206 76 6 206 76 6 204 77 6 204 77 6
209 82 11 209 82 11 208 83 11 208 83 11 209 84 12 209 84 12 210 83 12
209 82 11 209 82 11 211 84 13 212 87 16 213 88 17 212 87 16 212 87 16
212 87 16 212 87 16 212 87 16 212 87 16 212 87 16 212 87 16 214 84 14
214 84 14 214 84 14 214 84 14 215 82 15 215 82 15 215 82 15 215 82 15
216 83 16 217 84 18 202 69 2 202 69 2 205 69 6 205 69 6 203 70 6
203 70 6 205 69 8 205 69 8 205 69 8 205 69 8 205 69 8 205 69 8
205 69 8 205 69 8 205 69 8 205 69 8 205 69 8 203 68 6 203 68 6
205 69 8 207 71 10 209 73 12 209 73 12 208 72 11 208 72 11 208 72 11
208 73 9 208 73 9 208 73 7 205 75 7 218 98 25 215 100 23 215 101 21
215 101 21 215 101 21 215 101 21 215 101 21 216 102 22 218 101 24
217 97 22 212 92 19 211 88 16 211 88 16 211 88 16 211 88 18 211 88 18
212 87 18 214 86 18 214 86 20 215 84 22 203 69 10 205 68 12 206 67 14
206 67 14 206 67 12 206 68 10 205 68 10 205 68 10 205 68 10 205 68 10
205 68 10 205 68 10 206 70 11 206 70 11 206 70 11 206 70 11 209 70 12
209 70 12 209 70 12 209 70 12 207 71 10 207 71 10 207 71 10 207 71 10
207 71 10 207 71 10 207 72 8 207 72 8 207 72 6 207 72 6 207 72 6
207 72 6 208 73 9 208 73 9 208 73 9 208 73 9 208 72 11 208 72 11
208 72 11 206 70 9 205 68 10 203 67 9 203 67 9 203 67 9 205 68 10
205 68 10 206 70 11 206 70 11 206 70 11 206 70 11 208 72 13 208 72 13
208 72 13 208 72 13 209 73 14 209 73 14 209 73 12 209 73 12 210 75 13
210 75 13 209 76 11 209 76 11 210 77 13 210 77 13 210 77 13 210 77 13
210 77 13 210 77 13 208 78 11 207 77 9 207 77 9 207 77 9 206 76 8
206 76 8 206 76 6 206 76 6 206 76 6 206 76 6 204 77 6 204 77 6
209 82 11 209 82 11 208 83 11 208 83 11 209 84 12 209 84 12 210 83 12
209 82 11 209 82 11 211 84 13 212 87 16 213 88 17 212 87 16 212 87 16
212 87 16 212 87 16 212 87 16 212 87 16 212 87 16 212 87 16 214 84 14
214 84 14 214 84 14 214 84 14 215 82 15 215 82 15 215 82 15 213 83 15
213 85 16 214 86 18 200 70 2 202 69 2 205 69 6 205 69 6 203 70 6
203 70 6 205 69 8 205 69 8 205 69 8 205 69 8 205 69 8 205 69 8
203 68 6 203 68 6 203 68 6 203 68 6 203 68 6 202 66 5 203 68 6
205 69 8 208 72 11 209 73 12 209 73 12 207 71 10 208 72 11 208 72 11
208 73 9 208 73 9 208 73 7 205 75 5 218 99 23 215 100 23 215 101 21
215 101 21 215 101 21 215 101 21 215 101 21 218 101 24 218 101 24
216 98 22 212 92 19 209 89 16 211 88 16 211 88 16 209 88 18 211 88 18
214 86 18 215 85 20 215 85 20 217 84 22 205 68 10 205 68 12 206 67 14
206 67 12 206 68 10 206 68 10 205 68 10 205 68 10 205 68 10 205 68 10
205 68 10 205 68 10 206 70 11 206 70 11 206 70 11 206 70 11 209 70 12
209 70 12 209 70 12 209 70 12 207 71 10 207 71 10 207 71 10 207 71 10
207 71 10 207 71 10 207 72 8 207 72 8 207 72 6 207 72 6 208 73 7
207 72 6 208 73 9 208 73 9 208 73 9 208 73 9 208 72 11 208 72 11
208 72 11 206 70 9 206 70 11 205 68 10 205 68 10 205 68 10 205 68 10
205 68 10 206 70 11 206 70 11 206 70 11 206 70 11 208 72 13 208 72 13
208 72 13 208 72 13 209 73 14 209 73 14 209 73 12 209 73 12 210 75 13
210 75 13 209 76 11 209 76 11 210 77 13 210 77 13 210 77 13 210 77 13
210 77 13 210 77 13 210 79 12 207 77 9 205 75 7 207 77 9 205 75 7
205 75 7 205 75 5 205 75 5 205 75 5 205 75 5 204 77 6 204 77 6
208 81 10 209 82 11 208 83 11 208 83 11 209 84 12 209 84 12 210 83 12
209 82 11 209 82 11 211 84 13 212 87 16 213 88 17 212 87 16 212 87 16
212 87 16 212 87 16 212 87 16 212 87 16 212 87 16 212 87 16 215 86 14
215 86 14 215 86 14 215 86 16 214 84 14 214 84 14 214 84 14 213 85 14
209 89 16 210 90 17 200 72 2 203 70 4 203 68 2 203 68 2 202 69 2
202 69 4 202 69 4 202 69 4 202 69 4 202 69 4 202 69 4 202 69 4
203 70 6 203 70 6 202 69 4 202 69 4 202 69 4 202 69 4 200 67 2
203 70 6 207 74 9 209 76 11 205 72 8 205 72 8 205 72 8 205 72 8
205 72 8 205 72 8 207 74 7 203 76 5 221 101 25 217 103 25 217 103 25
217 103 25 219 102 25 219 102 25 219 102 25 219 101 27 218 98 25
215 95 21 210 90 17 208 88 14 211 88 18 212 89 19 212 89 19 213 88 19
217 86 21 218 85 21 218 85 23 218 85 23 205 68 10 205 68 12 206 67 12
206 67 12 205 68 10 205 68 10 205 68 10 205 68 10 205 66 9 207 69 11
211 72 14 213 75 17 207 69 11 207 69 11 207 69 11 207 69 11 207 71 10
207 71 10 207 71 10 207 71 10 207 71 10 207 72 8 207 72 8 207 72 8
205 72 8 205 72 8 205 72 8 205 72 8 202 69 4 204 71 7 207 74 7
210 77 11 208 73 9 208 72 11 208 72 11 208 72 11 208 72 11 208 72 11
208 72 11 207 71 10 207 69 11 206 67 12 206 67 12 206 67 12 207 68 13
207 68 13 207 68 13 207 68 13 207 68 13 207 68 13 209 70 14 209 70 14
209 70 12 209 70 12 210 71 13 210 71 13 210 71 13 210 71 13 209 73 12
209 73 12 210 75 13 210 75 13 210 77 13 210 77 13 208 78 11 208 78 11
208 78 11 211 81 13 210 79 12 210 79 12 205 75 7 200 70 2 202 75 4
203 76 5 203 76 5 203 76 5 203 76 5 203 76 5 204 78 4 206 79 5
206 82 8 206 82 8 209 84 10 209 84 10 209 84 12 209 84 12 209 84 12
208 83 11 208 83 11 210 85 13 212 87 16 213 88 17 213 88 17 213 88 17
212 89 17 212 89 17 212 89 17 212 89 17 212 89 17 212 89 17 212 88 14
212 88 14 212 88 14 212 88 14 211 86 14 211 86 14 211 86 14 209 87 14
206 91 16 209 91 17 198 73 2 203 71 2 203 68 2 205 68 2 203 68 2
202 69 2 202 69 4 202 69 4 203 70 6 203 70 6 204 71 7 204 71 7
205 72 8 205 72 8 204 71 7 204 71 7 204 71 7 204 71 7 203 70 6
204 71 7 207 74 9 207 74 9 204 71 7 204 71 7 205 72 8 205 72 8
205 72 8 205 72 8 207 74 7 205 75 5 221 99 26 219 100 24 219 100 24
219 100 24 219 100 24 219 99 26 219 99 26 219 99 26 221 99 26
218 95 23 213 90 18 211 88 18 212 89 19 215 89 20 215 89 20 215 89 20
218 87 22 219 86 22 219 86 24 219 86 24 205 68 10 205 68 10 206 67 12
206 67 12 205 68 10 205 68 10 205 68 10 205 68 10 206 68 10 206 68 10
209 70 12 210 71 13 206 68 10 206 68 10 206 68 10 206 68 10 205 69 8
205 69 8 206 70 9 206 70 9 206 70 7 206 70 7 207 72 8 207 72 8
205 72 8 205 72 8 205 72 8 205 72 8 204 71 7 205 72 8 207 74 7
207 74 9 208 72 11 207 71 10 207 71 10 207 71 10 207 71 10 207 71 10
207 71 10 206 70 11 207 68 13 206 67 12 206 67 12 206 67 12 206 67 12
206 67 12 206 67 12 206 67 12 206 67 12 206 67 12 207 68 13 207 68 13
207 69 11 207 69 11 209 70 12 209 70 12 209 70 12 209 70 12 208 72 11
208 72 11 209 73 12 210 75 13 210 77 13 210 77 13 208 78 11 208 78 11
208 78 11 210 79 12 211 81 13 211 81 13 208 78 11 207 77 9 207 79 9
207 79 9 207 79 9 207 79 9 207 79 9 207 79 9 208 81 8 208 81 8
208 83 9 208 83 9 209 84 10 209 84 10 209 84 12 209 84 12 209 84 12
208 83 11 208 83 11 210 85 13 212 87 16 213 88 17 213 88 17 213 88 17
212 89 17 212 89 17 212 89 17 212 89 17 212 89 17 212 89 17
223 105 29 223 105 29 223 105 29 223 105 29 221 104 30 221 104 30
221 104 30 220 104 30 219 106 31 224 106 32 213 88 17 218 86 17
219 84 18 220 83 18 219 84 18 217 84 18 217 84 20 217 84 20 217 84 20
217 84 20 209 76 11 209 76 11 209 76 11 209 76 11 208 75 10 208 75 10
208 75 10 208 75 10 208 75 10 207 74 9 204 71 7 203 70 6 203 70 6
204 71 7 204 71 7 204 71 7 204 71 7 204 71 7 205 73 6 205 73 6
203 72 5 203 73 3 201 74 3 201 74 3 201 74 3 201 73 5 201 73 5
202 74 6 204 77 8 202 74 6 196 71 1 194 68 0 195 69 2 197 69 3
197 69 3 197 69 3 201 68 3 202 67 3 203 68 6 203 68 6 203 67 9
203 67 9 206 68 10 206 68 10 205 68 10 205 68 10 205 68 10 205 68 10
206 68 10 206 68 10 205 66 9 204 65 7 204 65 7 204 65 7 204 65 7
204 65 7 202 66 5 203 68 6 203 68 6 205 69 8 205 69 6 206 70 7
206 70 7 208 73 9 207 74 9 207 74 9 207 74 9 207 74 9 207 74 9
207 74 9 205 73 6 204 71 7 205 69 8 205 69 8 205 69 8 205 69 8
205 69 8 205 69 8 205 69 8 203 67 9 205 66 11 204 65 9 204 65 9
204 65 9 204 65 9 204 65 9 204 65 9 204 65 9 204 65 9 204 65 9
205 66 11 205 66 11 205 66 9 205 66 9 206 68 10 206 68 10 206 68 10
206 68 10 206 70 9 207 71 10 209 73 12 210 75 13 210 77 13 210 77 13
208 78 11 208 78 11 208 78 11 210 79 12 210 79 12 213 83 15 215 85 18
218 88 20 216 89 18 216 89 18 216 89 18 216 89 18 216 89 18 216 89 18
215 88 15 214 87 14 211 86 12 210 85 11 210 85 11 210 85 11 210 85 13
210 85 13 210 85 13 209 84 12 209 84 12 211 86 14 213 88 17 215 90 18
213 88 17 213 88 17 212 89 17 212 89 17 212 89 17 212 89 17 212 89 17
212 89 17 218 106 28 218 106 28 218 106 28 218 106 28 217 104 28
217 104 28 217 104 28 217 104 28 218 105 30 223 105 31 212 87 16
217 85 16 217 82 16 217 82 16 216 83 16 216 83 16 216 83 18 216 83 18
216 83 18 216 83 18 211 78 14 211 78 14 210 77 13 210 77 13 209 76 11
209 76 11 209 76 11 209 76 11 211 78 14 208 75 10 203 70 6 201 68 3
202 69 4 203 70 6 203 70 6 203 70 6 203 70 6 203 70 6 203 70 6
205 69 6 206 70 7 205 70 4 205 70 4 205 70 4 205 69 6 205 69 6
203 70 6 205 72 8 209 76 11 208 75 10 201 71 6 199 69 3 200 69 6
201 70 8 201 71 6 201 71 6 205 69 6 205 69 6 205 69 8 205 69 8
205 68 10 205 68 10 206 68 10 206 68 10 205 68 10 205 68 10 205 68 10
205 68 10 207 69 11 205 66 9 202 63 5 199 61 3 203 64 6 203 64 6
203 64 6 203 64 6 201 65 4 201 65 4 201 65 4 201 65 4 207 72 8
207 72 8 207 72 8 208 73 9 207 74 9 207 74 9 207 74 9 207 74 9
210 77 13 207 74 9 204 71 7 202 69 4 202 66 5 202 66 5 202 66 5
202 66 5 202 66 5 202 66 5 202 66 5 201 65 6 203 64 8 202 63 7
202 63 7 202 63 7 202 63 7 202 63 7 202 63 7 202 63 7 202 63 7
202 63 7 203 64 8 203 64 8 203 64 6 203 64 6 204 65 7 204 65 7
204 65 7 204 65 7 204 65 7 202 66 5 212 76 15 212 76 15 210 77 13
210 77 13 208 78 11 208 78 11 208 78 11 208 78 11 210 79 12 214 84 16
219 89 21 225 95 27 221 93 23 221 93 23 221 93 23 221 93 23 221 93 23
221 93 23 221 94 21 220 93 19 210 85 11 210 85 11 210 85 11 210 85 11
210 85 13 210 85 13 210 85 13 209 84 12 209 84 12 211 86 14 213 88 17
215 90 18 213 88 17 213 88 17 212 89 17 212 89 17 212 89 17 212 89 17
212 89 17 212 89 17 218 108 27 218 108 27 218 108 27 218 108 29
217 106 28 217 106 28 217 106 28 217 106 28 217 105 26 221 104 28
211 86 12 216 84 14 216 81 15 216 81 15 215 82 15 213 83 15 215 82 15
215 82 15 215 82 15 215 82 15 208 75 10 208 75 10 209 76 11 209 76 11
209 76 11 209 76 11 209 76 11 209 76 11 209 76 11 207 74 9 203 70 6
201 68 3 201 68 3 202 69 4 203 70 6 203 70 6 203 68 6 203 68 6
203 68 6 205 67 6 205 67 6 205 67 4 205 67 4 205 67 6 208 67 8
208 67 8 205 67 6 205 67 6 205 67 6 205 67 6 202 67 3 202 67 3
203 68 6 203 68 6 202 69 4 203 68 4 205 69 8 206 68 8 205 69 8
205 69 8 206 68 8 206 68 8 206 68 10 206 68 10 205 68 12 205 68 12
205 68 12 205 68 12 206 67 12 205 66 11 202 63 7 200 61 6 202 63 7
202 63 7 202 63 5 202 63 5 203 64 6 203 64 6 203 65 4 203 65 4
209 73 12 209 73 12 209 74 10 208 73 9 207 74 9 207 74 9 207 74 9
207 74 9 207 74 9 207 74 9 203 70 6 201 67 5 202 66 5 202 66 7
202 66 7 202 66 7 204 65 7 204 65 7 204 65 7 203 64 6 203 64 8
202 63 7 202 63 7 202 63 7 202 63 7 202 63 7 202 63 7 202 63 7
203 62 7 203 62 7 204 63 8 204 63 8 204 63 8 204 63 8 205 64 9
205 64 9 205 64 9 205 64 9 204 65 7 203 64 6 212 76 15 212 76 15
210 77 13 210 77 13 208 78 11 208 78 11 208 78 11 207 77 9 208 81 10
210 83 12 216 89 18 217 90 19 221 93 23 219 95 21 219 95 21 219 95 21
219 95 21 219 95 21 219 95 21 218 93 19 212 88 14 212 88 14 211 86 12
211 86 12 210 85 13 210 85 13 210 85 13 209 84 12 209 84 12 211 86 14
212 89 17 213 90 18 213 90 18 213 90 18 213 90 18 211 91 18 211 91 18
211 91 18 211 91 18 211 91 18 218 108 27 218 108 27 218 108 27
218 108 27 217 106 28 217 106 28 217 106 28 217 106 28 217 105 26
221 104 28 211 86 12 216 84 14 216 81 15 216 81 15 215 82 15
213 83 15 215 82 15 215 82 15 215 82 15 215 82 15 208 75 10 208 75 10
208 75 10 208 75 10 209 76 11 209 76 11 209 76 11 209 76 11 209 76 11
207 74 9 203 70 6 201 68 3 201 68 3 202 69 4 202 69 4 202 68 6
202 66 5 202 66 5 204 66 5 204 66 5 205 67 6 207 66 9 207 66 9
207 66 9 208 67 10 208 67 10 207 66 9 207 66 9 207 66 9 207 66 6
204 66 5 204 66 5 205 67 6 205 67 6 205 67 4 203 68 4 206 68 8
206 68 8 205 69 8 205 69 8 206 68 8 206 68 8 206 68 10 206 68 10
205 68 12 205 68 12 205 68 12 205 68 12 206 67 12 205 66 11 202 63 7
200 61 6 202 63 7 202 63 7 202 63 5 202 63 5 203 64 6 203 64 6
203 65 4 203 65 4 209 73 12 209 73 12 209 74 10 208 73 9 207 74 9
207 74 9 207 74 9 208 75 10 207 74 9 205 72 8 203 70 8 201 67 5
202 66 7 203 67 9 203 67 9 203 67 9 205 66 9 205 66 9 205 66 9
204 65 7 204 65 9 203 64 8 203 64 8 203 64 8 203 64 8 203 64 8
203 64 8 203 64 8 204 63 8 204 63 8 204 63 8 204 63 8 205 64 9
205 64 9 205 64 9 205 64 9 205 64 9 205 64 9 204 65 7 204 65 7
212 76 15 212 76 15 210 77 13 210 77 13 208 78 11 208 78 11 208 78 11
207 77 9 207 79 9 209 82 11 214 86 16 217 90 19 218 93 21 218 93 19
218 93 19 218 93 19 218 93 19 218 93 19 218 93 19 216 91 17 215 90 16
213 89 15 212 88 14 212 88 14 210 85 13 210 85 13 210 85 13 209 84 12
209 84 12 211 86 14 212 89 17 213 90 18 213 90 18 213 90 18 211 91 18
211 91 18 211 91 18 211 91 18 211 91 18 211 91 18 219 108 25
219 108 25 219 108 25 219 107 27 218 106 26 218 106 26 218 106 26
218 106 26 217 105 26 221 104 28 211 86 12 216 84 14 216 81 15
216 81 15 215 82 15 213 83 15 213 83 15 213 83 15 213 83 15 213 83 15
208 75 8 208 75 8 208 75 8 208 75 10 209 76 11 209 75 13 209 75 13
209 75 13 209 75 13 207 73 11 203 70 8 201 67 5 202 66 5 203 68 6
203 68 6 203 68 6 202 66 7 202 66 7 202 66 7 202 66 7 203 67 9
205 66 11 205 66 11 205 66 11 206 67 12 206 67 12 205 66 11 205 66 11
205 66 9 205 66 9 204 65 7 204 66 5 207 66 6 207 66 6 205 67 6
205 67 6 206 68 8 206 68 8 206 68 8 206 68 8 206 68 10 206 68 10
206 68 10 206 68 10 205 68 10 205 68 10 205 68 10 205 68 10 206 67 12
205 66 11 202 63 7 200 61 6 202 63 7 202 63 7 202 63 5 202 63 5
203 64 6 203 64 6 203 65 4 203 65 4 209 73 12 209 73 12 209 73 12
209 73 12 208 75 10 208 75 10 208 75 10 208 75 10 207 74 9 205 72 8
203 70 8 201 67 5 202 66 7 203 67 9 203 67 9 203 67 9 205 66 9
205 66 9 205 66 9 204 65 7 204 65 9 203 64 8 203 64 8 203 64 8
203 64 8 203 64 8 203 64 8 203 64 8 204 63 8 204 63 8 204 63 8
204 63 8 205 64 9 205 64 9 205 64 9 205 64 9 205 64 9 205 64 9
204 65 7 202 66 7 212 76 15 212 76 13 210 77 13 210 77 11 208 78 11
208 79 9 208 79 9 207 77 7 207 79 11 209 81 13 214 86 18 217 90 21
218 93 21 218 93 21 218 93 19 218 93 19 218 93 19 218 93 19 220 93 19
217 90 17 215 90 16 213 89 15 211 88 14 211 88 14 212 87 16 212 87 16
211 86 14 210 85 13 210 85 13 212 87 16 213 90 18 214 92 19 213 90 18
213 90 18 211 91 18 210 92 18 210 92 18 210 92 18 210 92 18 210 92 18
219 108 25 219 108 25 219 108 25 219 108 25 218 106 26 218 106 26
218 106 26 220 105 26 219 104 26 223 103 28 211 86 12 214 84 14
215 82 13 215 82 15 213 83 15 213 83 15 213 83 15 213 83 15 213 83 15
213 83 15 208 75 8 208 75 8 208 75 8 208 75 10 209 75 13 209 75 13
209 75 13 209 75 13 209 75 13 207 73 11 203 70 8 202 66 5 202 66 5
203 68 6 203 68 6 203 67 9 202 66 7 202 66 7 202 66 7 202 66 9
205 66 11 205 66 11 205 66 11 205 66 11 206 67 12 206 67 12 205 66 11
205 66 11 205 66 9 205 66 9 204 65 7 204 65 7 207 66 6 207 66 6
205 67 6 205 67 6 206 68 8 206 68 8 206 68 8 206 68 8 206 68 10
206 68 10 206 68 10 206 68 10 205 68 10 205 68 10 205 68 10 205 68 10
206 67 12 205 66 11 202 63 7 200 61 6 202 63 7 202 63 7 202 63 5
202 63 5 203 64 6 203 64 6 203 65 4 203 65 4 209 73 12 209 73 12
209 73 12 209 73 12 208 75 10 208 75 10 208 75 10 208 75 10 207 74 9
205 72 8 203 70 8 201 67 5 202 66 7 203 67 9 203 67 9 203 67 9
205 66 9 205 66 9 205 66 9 204 65 7 204 65 9 203 64 8 203 64 8
203 64 8 203 64 8 203 64 8 203 64 8 203 64 8 204 63 8 204 63 8
204 63 8 204 63 8 205 64 9 205 64 9 205 64 9 205 64 9 205 64 9
205 64 9 204 65 7 202 66 5 212 76 13 212 76 13 210 77 11 210 77 11
208 79 9 208 79 9 208 79 9 207 77 7 208 78 11 209 81 13 214 86 18
217 90 21 218 93 21 216 94 21 216 94 19 216 94 19 216 94 19 218 93 19
218 93 19 216 91 17 215 90 16 213 89 15 211 88 14 211 88 14 212 87 16
212 87 16 211 86 14 210 85 13 210 85 13 212 87 16 213 90 18 214 92 19
213 90 18 211 91 18 210 92 18 210 92 18 210 92 18 210 92 18 210 92 18
210 92 18 218 108 25 218 108 25 218 108 25 218 108 25 218 108 25
218 108 25 218 108 25 219 107 27 223 103 28 227 102 31 214 86 16
214 86 16 214 84 14 214 84 14 213 85 14 213 85 14 214 84 14 214 84 14
214 84 14 214 84 14 207 77 9 207 77 9 207 77 9 207 77 11 209 75 13
209 75 15 210 74 15 210 74 15 210 74 15 208 72 13 205 68 10 202 66 7
202 66 7 203 67 9 205 66 9 205 66 9 205 66 11 205 66 11 205 66 11
205 66 11 207 65 13 207 65 13 207 65 11 207 65 11 208 66 14 208 66 14
208 66 12 208 66 12 205 66 11 205 66 11 207 66 9 207 66 9 205 66 9
205 66 9 205 67 6 205 67 6 206 68 8 206 68 8 206 68 8 206 68 8
206 68 10 206 68 10 206 68 10 206 68 10 205 68 10 205 68 10 205 68 10
205 68 10 206 67 12 205 66 11 203 64 8 202 63 7 202 63 7 202 63 7
202 63 7 202 63 7 203 64 6 203 64 6 203 64 6 203 64 6 209 73 14
209 73 14 209 73 12 209 73 12 209 73 12 209 73 12 209 73 12 209 73 12
208 72 11 207 71 10 205 69 8 202 66 5 202 66 7 203 67 9 203 67 9
203 67 9 205 66 9 205 66 9 205 66 9 204 65 7 205 64 9 204 63 8
204 63 8 204 63 8 204 63 8 204 63 8 204 63 8 204 63 8 204 63 8
204 63 8 204 63 8 204 63 8 205 64 9 205 64 9 205 64 9 205 64 9
205 64 7 205 64 7 204 65 7 202 66 5 210 77 13 210 77 13 210 77 11
208 78 11 208 79 9 208 79 9 210 78 9 210 78 9 210 78 9 212 82 12
215 88 17 217 92 20 216 94 21 215 95 21 213 96 19 213 96 19 215 95 21
216 94 21 215 93 18 214 92 17 213 91 16 212 90 15 211 88 14 211 88 14
212 87 16 212 87 16 212 87 16 211 86 14 211 86 14 213 88 17 214 92 19
215 93 20 212 92 19 212 92 19 211 93 19 211 93 19 211 93 19 211 93 19
211 93 19 211 93 19 216 109 25 216 109 25 216 109 25 216 109 25
216 109 25 216 109 27 216 109 27 219 107 27 225 102 28 229 102 31
214 86 16 214 86 16 213 85 14 213 85 14 213 85 14 213 85 14 214 84 14
214 84 14 214 84 14 214 84 14 207 77 9 207 77 9 207 77 9 207 77 11
209 75 13 209 75 15 209 75 15 210 74 15 210 74 15 208 72 13 205 68 10
202 66 7 202 66 7 203 67 9 205 66 9 205 66 9 205 66 11 205 66 11
205 66 11 205 66 11 207 65 13 208 64 13 208 64 11 207 65 11 208 66 14
208 66 14 208 66 12 208 66 12 205 66 11 205 66 11 207 66 9 207 66 9
205 66 9 205 66 9 205 67 6 205 67 6 206 68 8 206 68 8 206 68 8
206 68 8 206 68 10 206 68 10 206 68 10 206 68 10 205 68 10 205 68 10
205 68 10 205 68 10 206 67 12 205 66 11 203 64 8 202 63 7 202 63 7
202 63 7 202 63 7 202 63 7 203 64 6 203 64 6 203 64 6 203 64 6
209 73 14 209 73 14 209 73 12 209 73 12 209 73 12 209 73 12 209 73 12
209 73 12 208 72 11 207 71 10 205 69 8 202 66 5 202 66 7 203 67 9
203 67 9 203 67 9 205 66 9 205 66 9 205 66 9 204 65 7 205 64 9
204 63 8 204 63 8 204 63 8 204 63 8 204 63 8 204 63 8 204 63 8
204 63 8 204 63 8 204 63 8 204 63 8 205 64 9 205 64 9 205 64 9
205 64 9 205 64 7 205 64 7 204 66 5 202 66 5 210 77 13 208 78 13
207 79 11 207 79 11 207 79 9 208 79 9 208 79 9 210 78 9 210 78 9
213 81 12 217 87 17 217 92 20 215 95 21 213 96 19 212 97 19 212 97 19
213 96 21 213 96 21 214 94 18 212 93 17 211 92 16 212 90 15 211 88 14
211 88 14 212 87 16 212 87 16 212 87 16 211 86 14 211 86 14 213 88 17
214 92 19 215 93 20 214 92 19 212 92 19 212 92 19 212 92 19 212 92 19
212 92 19 212 92 19 212 92 19 216 109 27 216 109 27 216 109 27
216 109 27 216 109 27 216 108 29 216 108 29 219 107 29 225 102 28
229 102 29 214 87 14 214 87 14 213 85 14 213 85 14 213 85 14
213 85 14 213 85 14 213 85 14 213 85 14 213 85 14 206 78 9 206 78 9
206 78 9 207 77 9 207 77 11 207 76 13 207 76 13 209 75 13 209 75 13
207 73 11 203 70 8 202 66 5 202 66 5 203 68 6 203 68 6 203 67 9
205 66 9 205 66 9 205 66 9 205 66 11 206 67 12 208 66 12 208 66 12
206 67 12 206 67 12 206 67 12 206 67 12 206 67 12 206 68 10 206 68 10
206 68 10 206 68 10 206 68 8 206 68 8 206 68 8 206 68 8 206 68 8
206 68 8 207 69 9 207 69 9 207 69 9 207 69 9 207 69 9 207 69 9
205 68 10 205 68 10 205 68 10 205 68 10 205 68 10 203 67 9 201 65 6
200 64 5 202 63 5 202 63 5 202 63 5 202 63 5 201 65 6 201 65 6
201 65 6 201 65 6 209 73 12 209 73 12 209 73 12 209 73 12 209 73 12
209 73 12 209 73 12 209 73 12 208 72 11 207 71 10 205 69 8 202 66 5
202 66 7 203 67 9 203 67 9 203 67 9 205 66 9 205 66 9 205 66 9
204 65 7 205 64 9 204 63 8 204 63 8 204 63 8 204 63 8 204 63 8
204 63 8 204 63 8 204 63 8 204 63 8 204 63 8 204 63 8 205 64 9
205 64 9 205 64 9 205 64 9 205 64 7 205 64 7 205 65 5 202 66 5
207 79 13 205 80 11 205 80 11 205 80 9 205 80 9 205 81 7 207 80 7
208 79 7 210 78 7 213 82 10 217 87 15 218 91 18 216 94 19 213 96 17
212 97 17 210 98 19 210 98 19 210 98 19 210 96 18 209 94 17 211 94 17
211 92 16 212 89 17 212 89 17 213 88 17 212 87 16 212 87 16 211 86 14
211 86 14 213 88 17 216 91 19 217 92 20 214 92 19 214 92 19 214 92 19
214 92 19 214 92 19 214 92 19 214 92 19 214 92 19 221 106 29
221 106 29 221 106 29 221 106 29 221 106 29 221 106 31 221 106 31
223 105 29 226 102 28 229 102 29 214 87 14 214 87 14 213 85 14
213 85 14 213 85 14 213 85 14 213 85 14 213 85 14 213 85 14 213 85 14
204 79 9 204 79 9 206 78 9 206 78 9 206 78 11 207 77 11 207 77 11
207 77 11 207 77 11 207 73 11 203 70 8 201 67 5 201 67 5 203 68 6
203 68 6 203 68 6 203 68 6 205 66 9 205 66 9 205 66 9 206 68 10
206 67 12 206 67 12 206 67 12 206 67 12 206 67 12 206 67 12 206 67 12
206 68 10 206 68 10 206 68 10 206 68 10 206 68 8 206 68 8 206 68 8
206 68 8 206 68 8 206 68 8 207 69 9 207 69 9 207 69 9 207 69 9
207 69 9 207 69 9 205 69 8 205 68 10 205 68 10 205 68 10 205 68 10
203 67 9 201 65 6 200 64 5 200 64 5 202 63 5 202 63 5 200 64 5
201 65 6 201 65 6 201 65 6 201 65 4 209 73 12 209 73 12 209 73 12
209 73 12 209 73 12 209 73 12 209 73 12 209 73 12 208 72 11 207 71 10
205 69 8 202 66 5 202 66 7 203 67 9 203 67 9 203 67 9 205 66 9
205 66 9 205 66 9 204 65 7 205 64 9 204 63 8 204 63 8 204 63 8
204 63 8 204 63 8 204 63 8 204 63 8 204 63 8 204 63 8 204 63 8
204 63 8 205 64 9 205 64 9 205 64 9 205 64 9 205 64 7 205 64 7
205 65 5 202 66 5 205 79 13 202 82 11 202 82 9 202 82 9 202 82 7
204 81 7 204 81 7 204 82 5 205 81 5 207 86 6 210 91 11 212 96 14
210 98 15 207 100 15 205 101 15 205 100 17 205 100 17 205 100 19
206 98 18 208 95 17 209 94 17 210 92 16 212 89 17 212 89 17 213 88 17
212 87 16 212 87 16 211 86 14 211 86 14 213 88 17 216 91 19 217 92 20
216 91 19 216 91 19 216 91 19 216 91 19 216 91 19 216 91 19 216 91 19
216 91 19 211 81 11 211 81 11 211 81 11 210 80 10 210 80 10 208 78 11
208 78 11 208 79 9 207 79 9 209 82 11 213 85 14 214 86 16 213 85 14
211 84 13 211 84 13 211 84 13 211 84 13 211 84 13 210 85 13 210 85 13
217 92 20 217 92 20 218 91 20 218 91 22 218 91 22 218 91 22 218 91 22
218 91 22 218 91 22 218 87 22 214 84 18 212 81 16 212 81 16 215 82 17
215 82 17 215 82 17 215 82 17 216 80 19 216 80 19 216 80 19 206 70 9
206 70 11 206 70 11 206 70 11 206 70 11 206 70 11 207 71 12 207 71 12
206 70 11 206 70 9 206 70 9 206 70 9 207 69 9 206 68 8 206 68 8
206 68 8 207 69 9 207 69 9 207 69 9 207 69 9 209 70 10 209 70 10
210 72 11 210 72 11 208 72 11 208 72 11 209 73 12 209 73 12 208 72 11
208 72 11 208 72 11 208 72 11 208 72 11 208 72 11 208 72 11 207 73 11
208 74 12 208 74 12 208 74 12 208 74 12 208 74 12 208 74 12 208 74 12
208 74 12 208 74 12 208 74 12 208 74 12 208 74 12 208 72 11 207 71 10
205 69 8 202 66 5 204 66 5 205 67 6 205 67 6 205 67 6 205 66 9
205 66 9 205 66 9 204 65 7 205 64 9 204 63 8 204 63 8 204 63 8
204 63 8 204 63 8 204 63 8 204 63 8 206 62 8 206 62 8 206 62 8
206 62 8 205 64 9 205 64 9 205 64 9 205 64 9 205 64 7 205 64 7
205 65 5 202 66 5 225 101 34 221 103 32 221 104 30 221 104 28
221 104 28 221 104 26 220 105 26 218 106 23 217 107 23 212 108 20
232 130 41 227 130 40 225 133 41 224 134 41 222 135 41 222 135 41
224 133 45 227 132 45 230 130 45 235 127 45 208 95 17 210 92 16
213 90 18 215 90 18 215 90 18 217 92 20 217 92 20 217 92 20 217 92 20
218 93 21 203 78 6 203 78 6 202 77 5 203 76 5 203 76 5 203 76 5
203 76 7 203 76 7 203 76 7 203 76 7 216 78 15 216 78 15 216 78 15
214 77 12 214 77 12 213 76 11 213 76 11 212 77 11 208 78 11 209 82 11
213 85 14 214 86 16 213 85 14 211 84 13 211 84 13 211 84 13 211 84 13
211 84 13 210 85 13 210 85 13 217 92 20 217 92 20 217 92 20 217 92 20
217 92 20 217 92 22 217 92 22 217 92 22 217 92 22 216 88 20 213 85 16
210 83 14 210 83 14 213 83 15 213 83 15 213 83 15 213 83 15 215 82 17
215 82 17 215 82 17 204 71 7 204 71 9 204 71 9 204 71 9 206 70 11
206 70 11 207 71 12 207 71 12 206 70 9 206 70 9 207 71 10 206 70 9
207 69 9 206 68 8 206 68 8 206 68 8 207 69 9 207 69 9 207 69 9
207 69 9 209 70 10 209 70 10 210 72 11 210 72 11 209 74 10 209 74 10
209 74 10 209 74 10 208 73 9 208 73 9 208 73 9 208 73 9 207 74 9
207 74 9 207 74 9 207 74 9 208 75 10 208 75 10 208 75 10 208 75 10
208 74 12 208 74 12 208 74 12 208 74 12 208 74 12 208 74 12 208 74 12
208 74 12 208 72 11 207 71 10 205 69 8 202 66 5 204 66 5 205 67 6
205 67 6 205 67 6 205 66 9 205 66 9 205 66 9 204 65 7 205 64 9
204 63 8 204 63 8 204 63 8 204 63 8 204 63 8 204 63 8 204 63 8
206 62 8 206 62 8 206 62 8 206 62 8 205 64 9 205 64 9 205 64 9
205 64 9 205 64 7 205 64 7 205 65 5 201 67 5 223 102 34 220 104 32
220 104 30 220 105 28 220 105 26 218 106 26 217 107 23 215 108 23
212 110 21 207 111 20 225 134 39 222 133 38 220 136 39 217 138 39
216 138 39 217 138 39 219 136 43 220 135 45 225 132 45 232 129 45
206 96 17 210 92 16 213 90 18 215 90 18 215 90 18 217 92 20 217 92 20
217 92 20 217 92 20 218 93 21 203 78 6 204 77 6 203 76 5 203 76 5
203 76 5 203 76 5 203 76 7 205 75 7 205 75 7 205 75 7 213 77 16
213 77 16 213 77 16 213 77 14 213 77 14 212 76 13 212 76 13 210 77 13
208 78 11 211 81 13 211 84 13 214 86 16 213 85 14 211 84 13 211 84 13
211 84 13 211 84 13 211 84 13 210 85 13 210 85 13 215 93 20 215 93 20
215 93 20 215 93 20 215 93 20 215 93 20 215 93 20 215 93 20 215 93 20
215 90 18 211 86 14 209 84 12 209 84 12 211 84 13 211 84 13 211 84 13
211 84 13 213 83 15 213 83 15 213 83 15 204 73 8 204 73 8 205 72 8
205 72 10 204 71 9 204 71 9 205 72 10 205 72 10 207 71 10 207 71 10
208 72 11 207 71 10 207 71 10 206 70 9 207 69 9 207 69 9 207 69 9
207 69 9 209 70 10 209 70 10 210 72 11 210 72 11 211 73 12 211 73 12
209 74 10 209 74 10 209 74 10 209 74 10 208 73 7 208 73 7 207 74 7
207 74 7 207 74 7 207 74 7 205 75 7 205 75 7 206 76 10 206 76 10
206 76 10 206 76 10 208 75 10 208 75 10 208 75 10 208 75 10 208 74 12
208 74 12 208 74 12 208 74 12 208 72 11 207 71 10 205 69 8 202 66 5
204 66 5 205 67 6 205 67 6 205 67 6 205 66 9 205 66 9 205 66 9
204 65 7 205 64 9 204 63 8 204 63 8 204 63 8 204 63 8 204 63 8
204 63 8 204 63 8 206 62 8 206 62 8 206 62 8 206 62 8 205 64 9
205 64 9 207 65 11 207 65 11 207 66 9 207 66 9 207 66 6 202 68 6
221 103 34 218 105 32 218 105 30 218 106 28 218 106 26 217 107 23
217 107 23 215 108 23 212 110 21 209 110 18 227 133 39 224 133 36
222 136 37 219 137 37 217 138 37 216 138 39 216 138 41 217 137 43
222 134 45 228 131 45 207 97 18 211 94 17 214 92 19 216 90 21
216 91 19 217 92 20 217 92 20 217 92 20 218 91 20 220 92 21 204 77 6
204 77 6 205 75 5 205 75 5 205 75 5 205 75 5 205 75 7 207 74 7
207 74 7 207 74 7 213 77 16 213 77 16 213 77 16 213 77 14 213 77 14
210 77 13 210 77 13 210 77 13 208 78 11 211 81 13 211 84 13 214 86 16
213 85 14 211 84 13 211 84 13 211 84 13 211 84 13 211 84 13 210 85 13
210 85 13 215 93 20 215 93 20 215 93 20 215 93 20 215 93 18 214 94 18
214 94 18 214 94 18 215 93 18 213 91 16 209 87 12 207 85 10 209 84 10
210 85 11 210 85 11 210 85 11 211 84 13 211 84 13 211 84 13 211 84 13
204 73 8 204 73 8 205 72 8 205 72 8 204 71 9 204 71 9 205 72 10
205 72 10 207 71 10 207 71 10 208 72 11 207 71 10 207 71 10 206 70 9
207 69 9 207 69 9 207 69 9 206 70 9 207 71 10 207 71 10 208 72 11
208 72 11 209 73 12 209 73 12 209 74 10 209 74 10 209 74 10 209 74 10
208 73 7 207 74 7 207 74 7 207 74 7 207 74 7 207 74 7 205 75 7
205 75 7 206 76 10 206 76 10 206 76 10 206 76 10 208 75 10 208 75 10
208 75 10 208 75 10 208 74 12 208 74 12 208 74 12 208 74 12 208 72 11
207 71 10 205 69 8 202 66 5 204 66 5 205 67 6 205 67 6 205 67 6
205 66 9 205 66 9 205 66 9 204 65 7 205 64 9 204 63 8 204 63 8
204 63 8 204 63 8 204 63 8 204 63 8 204 63 8 206 62 8 206 62 8
206 62 8 206 62 8 205 64 9 205 64 9 207 65 11 207 65 11 207 66 9
207 66 9 207 66 6 202 69 4 220 104 32 215 107 30 215 107 28
215 107 28 215 108 26 215 108 23 215 108 23 213 109 23 213 109 21
211 109 18 228 132 37 226 132 36 224 135 37 220 136 37 219 137 37
216 139 37 214 139 39 216 138 41 219 136 43 225 132 45 206 98 18
211 93 19 212 92 21 216 90 21 216 91 19 217 92 20 217 92 20 218 91 20
218 91 20 220 92 21 204 77 6 204 77 6 205 75 5 205 75 5 205 75 5
205 75 5 207 74 7 207 74 7 207 74 7 207 74 7 211 78 14 211 78 14
211 78 14 210 77 13 210 77 13 208 78 13 208 78 11 207 77 9 207 77 9
208 81 10 211 84 13 213 85 14 213 85 14 213 85 14 213 85 14 213 85 14
210 85 13 210 85 13 210 85 13 210 85 13 215 93 20 215 93 20 214 94 20
214 94 20 214 94 18 214 94 18 214 94 18 214 94 18 215 93 18 213 91 16
209 87 12 207 85 10 210 85 11 210 85 11 210 85 11 210 85 11 211 85 11
211 85 11 211 85 11 211 84 13 204 73 8 205 72 10 205 72 10 205 72 10
205 72 8 205 72 8 207 72 8 207 72 8 208 73 9 208 73 9 208 73 9
208 73 9 207 72 8 207 72 8 207 72 8 207 72 8 207 71 10 205 72 10
205 72 8 205 72 8 207 73 11 207 73 11 207 74 9 207 74 9 208 75 10
208 75 10 208 75 8 208 75 8 208 75 8 206 76 8 206 76 8 206 76 8
208 75 8 208 75 8 208 75 8 208 75 8 206 76 10 206 76 10 206 76 10
206 76 10 205 74 9 205 74 9 205 74 9 205 74 9 205 74 9 205 74 9
205 74 9 207 74 9 208 73 9 209 71 8 206 68 6 204 66 3 204 66 5
205 67 6 205 67 6 205 67 6 205 66 9 205 66 9 205 66 9 204 65 7
205 64 7 204 63 6 204 63 6 204 63 6 204 63 6 204 63 6 204 63 6
204 63 6 206 63 6 206 63 6 207 64 7 207 64 7 207 66 9 207 66 9
207 66 9 207 66 9 207 66 9 207 66 6 205 67 6 200 70 4 219 106 33
213 110 31 213 110 29 213 110 29 213 110 27 213 110 27 213 111 25
215 110 25 215 110 23 213 110 19 233 131 40 228 132 39 226 135 38
225 136 38 222 138 38 218 139 38 217 140 40 217 139 42 218 138 44
225 134 46 207 99 19 210 95 20 212 94 22 214 91 21 217 92 20
218 91 20 218 91 20 218 91 20 220 90 22 221 91 23 206 76 8 206 76 8
205 75 7 205 75 7 205 75 7 205 75 7 207 74 7 207 74 7 207 74 7
207 74 7 210 79 12 210 79 12 210 79 12 208 78 11 208 78 13 208 78 13
208 78 11 207 77 9 206 78 7 208 81 10 211 84 13 213 85 14 213 85 14
213 85 14 213 85 14 213 85 14 210 85 13 210 85 13 210 85 13 210 85 13
215 93 20 215 93 20 214 94 20 214 94 20 212 95 18 212 95 18 214 94 18
214 94 18 215 93 18 213 91 16 209 87 12 207 85 10 210 85 11 210 85 11
210 85 11 210 85 11 211 85 11 211 85 11 211 85 11 213 83 13 205 72 8
205 72 10 205 72 10 205 72 10 205 72 10 205 72 8 207 72 8 207 72 8
208 73 9 208 73 9 208 73 9 208 73 9 207 72 8 207 72 8 207 72 8
207 72 8 207 71 10 205 72 10 205 72 8 205 72 8 207 73 11 207 73 11
207 74 9 207 74 9 208 75 10 208 75 10 208 75 8 208 75 8 208 75 8
208 75 8 208 75 8 208 75 8 208 75 8 208 75 8 208 75 8 208 75 8
206 76 10 206 76 10 206 76 10 206 76 10 205 74 9 205 74 9 205 74 9
205 74 9 205 74 9 205 74 9 205 74 9 207 74 9 208 73 9 209 71 8
206 68 6 204 66 3 204 66 5 205 67 6 205 67 6 205 67 6 205 66 9
205 66 9 205 66 9 204 65 7 205 64 7 204 63 6 204 63 6 204 63 6
204 63 6 204 63 6 204 63 6 204 63 6 206 63 6 206 63 6 207 64 7
207 64 7 207 66 9 207 66 9 207 66 9 207 66 9 207 66 6 205 67 6
205 67 4 199 71 4 219 106 33 215 109 31 215 109 29 215 109 29
215 110 27 215 110 27 215 110 25 216 109 25 216 110 23 215 109 19
234 131 40 230 131 39 228 134 40 225 136 38 223 137 38 220 138 38
217 140 40 217 140 40 217 139 42 223 135 46 207 99 19 212 94 20
212 94 22 212 92 21 217 92 20 218 91 20 218 91 20 218 91 20 220 90 22
221 91 23 206 76 8 206 76 8 205 75 7 205 75 7 205 75 7 205 75 7
207 74 7 207 74 7 207 74 7 207 74 7 208 78 11 208 78 11 208 78 11
208 78 11 208 78 11 208 78 11 208 78 11 207 77 9 206 78 7 208 81 10
210 83 12 213 85 14 213 85 14 213 85 14 213 85 14 213 85 14 210 85 13
210 85 13 210 85 13 210 85 13 215 93 20 214 94 20 214 94 20 212 94 20
212 95 18 212 95 18 214 94 18 214 94 18 215 93 18 213 91 16 209 87 12
207 85 10 210 85 11 210 85 11 210 85 11 210 85 11 211 85 11 211 85 11
211 85 11 213 83 13 205 72 10 207 71 12 207 71 12 207 71 12 207 71 10
207 71 10 207 71 10 207 71 10 207 74 9 207 74 9 207 74 9 207 74 9
207 72 8 207 72 8 207 72 8 207 72 8 207 72 8 207 72 8 207 72 8
207 72 8 210 72 9 210 72 9 210 72 9 210 72 9 209 74 8 209 74 8
209 74 8 209 74 8 209 74 8 209 74 8 209 74 8 209 74 8 209 74 8
209 74 8 208 75 8 208 75 8 206 76 10 206 76 10 206 76 10 206 76 10
205 74 9 205 74 9 205 74 9 205 74 9 205 74 9 205 74 9 205 74 9
207 74 9 208 73 9 209 71 8 206 68 6 204 66 3 204 66 5 205 67 6
205 67 6 205 67 6 205 66 9 205 66 9 205 66 9 204 65 7 204 65 7
203 64 6 203 64 6 203 64 6 204 63 6 204 63 6 204 63 6 204 63 6
204 63 6 204 63 6 205 64 7 205 64 7 207 66 9 205 66 9 206 68 10
206 68 10 206 68 8 205 69 8 203 70 6 200 72 6 226 103 33 223 105 31
221 106 29 221 106 29 219 107 27 219 108 25 219 108 25 219 108 25
218 109 23 215 108 21 234 130 42 230 131 41 228 134 40 225 136 40
223 137 38 220 138 38 218 139 38 217 140 40 217 139 42 223 135 46
208 98 19 214 94 20 214 93 22 214 91 21 217 92 22 218 91 22 218 91 20
218 91 20 220 90 22 221 91 23 206 76 8 206 76 8 205 75 7 205 75 7
205 75 7 205 75 7 207 74 7 207 74 7 207 74 7 207 74 7 208 78 11
208 78 11 208 78 11 208 78 11 208 78 11 208 78 11 208 78 11 207 77 9
206 78 7 207 79 9 209 82 11 213 85 14 213 85 14 213 85 14 213 85 14
213 85 14 210 85 13 210 85 13 210 85 13 208 86 13 214 94 20 214 94 20
212 94 20 212 94 20 212 95 18 212 95 18 214 94 18 214 94 18 215 93 18
213 91 16 209 87 12 207 85 10 210 85 11 210 85 11 210 85 11 210 85 11
211 85 11 211 85 11 211 85 11 213 83 13 205 72 10 207 71 12 207 71 12
207 71 12 207 71 10 207 71 10 207 71 10 205 72 10 207 74 9 207 74 9
207 74 9 207 74 9 205 72 8 205 72 8 205 72 8 207 72 8 207 72 8
207 72 8 207 72 8 209 71 8 210 72 9 210 72 9 210 72 9 210 72 7
211 73 8 209 74 8 209 74 8 209 74 8 209 74 8 209 74 8 209 74 8
209 74 8 209 74 8 208 73 7 207 74 7 207 74 7 205 74 9 205 74 9
205 74 9 205 74 9 205 74 9 205 74 9 205 74 9 205 74 9 205 74 9
205 74 9 205 74 9 207 74 9 208 73 9 209 71 8 206 68 6 204 66 3
204 66 5 205 67 6 205 67 6 205 67 6 205 66 9 205 66 9 205 66 9
204 65 7 204 65 7 203 64 6 203 64 6 203 64 6 203 64 6 204 63 6
204 63 6 204 63 6 204 63 6 204 63 6 205 64 7 204 65 7 205 66 9
205 66 9 206 68 10 205 68 10 205 69 8 203 70 8 201 71 6 200 72 4
227 102 31 226 103 31 224 104 29 223 106 27 223 106 25 223 106 25
223 106 25 221 107 25 219 108 23 215 108 21 234 130 42 230 131 41
228 134 40 226 135 40 223 136 40 222 138 38 220 138 38 220 138 40
218 138 42 226 134 46 212 97 19 217 92 20 215 92 22 216 90 21
218 91 22 218 91 22 218 91 20 218 91 20 220 90 22 221 91 23 207 77 9
206 76 8 205 75 7 205 75 7 205 75 7 205 75 7 207 74 7 207 74 7
207 74 7 207 74 7 208 78 11 208 78 11 208 78 11 208 78 11 208 78 11
208 78 11 208 78 11 207 77 9 207 77 7 208 79 9 209 82 11 210 83 12
210 83 12 210 83 12 210 83 12 210 83 12 210 85 13 210 85 13 208 86 13
208 86 13 214 94 20 214 94 20 212 94 20 212 94 20 212 95 18 212 95 18
214 94 18 214 94 18 215 93 18 213 91 16 209 87 12 207 85 10 210 85 11
210 85 11 210 85 11 210 85 11 211 85 11 211 85 11 211 84 13 213 83 15
205 72 10 207 71 12 205 72 12 205 72 12 205 72 10 205 72 10 205 72 10
204 73 10 208 78 13 200 70 4 210 79 14 201 71 6 204 74 6 204 74 6
204 74 6 204 74 6 205 73 6 205 73 6 207 74 7 208 73 7 209 74 8
210 75 9 212 77 11 212 77 9 211 79 10 211 79 10 211 79 10 210 78 9
209 76 9 209 76 9 210 77 11 211 79 12 205 73 6 207 74 7 207 74 7
207 74 7 205 74 9 205 74 9 205 74 9 205 74 9 206 76 10 206 76 10
206 76 10 206 76 10 204 76 10 204 76 10 204 76 10 206 76 10 209 74 10
210 72 9 207 70 7 205 67 4 205 67 6 206 68 8 206 68 8 206 68 8
206 68 8 206 68 8 206 68 8 205 67 6 205 66 9 204 65 7 204 65 7
204 65 7 204 65 7 204 65 7 204 65 7 204 65 7 203 64 6 199 61 3
207 69 11 203 67 9 203 67 9 203 67 9 203 67 9 202 68 9 202 68 6
200 69 6 199 71 4 197 72 2 225 102 30 223 103 28 221 104 28
220 105 26 220 106 23 220 106 21 220 106 21 218 107 21 217 108 21
212 105 18 236 131 44 229 130 40 232 135 45 229 137 45 227 138 43
226 139 43 226 139 41 226 139 43 224 139 45 232 135 47 217 97 22
222 93 23 221 93 25 220 91 25 219 89 21 219 89 21 219 89 21 219 89 21
224 93 26 218 88 20 210 79 12 205 75 7 206 76 8 206 76 8 206 76 8
206 76 8 208 75 10 208 75 10 208 75 10 208 75 10 208 78 11 208 78 11
208 78 11 208 78 11 208 78 11 208 78 11 208 78 11 207 77 9 207 77 7
210 80 10 210 83 12 211 84 13 211 84 13 211 84 13 211 84 13 211 84 13
211 86 14 211 86 14 209 87 14 209 87 14 215 95 21 215 95 21 213 96 21
213 96 21 213 96 19 213 96 19 215 95 19 215 95 19 216 94 19 214 92 17
211 88 14 208 86 11 211 86 12 211 86 12 211 86 12 211 86 12 213 86 12
213 86 12 213 85 14 214 84 16 205 72 10 207 71 12 205 72 12 205 72 12
205 72 10 205 72 10 204 73 10 204 73 10 200 70 4 193 65 0 206 78 11
198 73 6 201 75 6 201 75 6 201 76 4 201 76 4 201 76 4 201 76 2
203 76 3 203 76 3 204 78 4 206 78 7 207 79 9 207 79 9 206 81 10
206 81 10 206 81 10 206 81 10 204 79 9 203 78 8 202 76 7 203 76 7
206 76 8 209 76 9 209 76 9 209 76 9 207 77 11 207 77 11 207 77 11
207 77 11 207 77 11 207 77 11 207 77 11 207 77 11 206 78 11 206 78 11
206 78 11 207 77 11 210 75 11 211 73 10 209 71 8 206 68 6 206 68 8
207 69 9 207 69 9 207 69 9 207 69 9 207 69 9 207 69 9 206 68 8
206 68 10 205 66 9 205 66 9 205 66 9 203 67 9 203 67 9 203 67 9
203 67 9 198 61 3 196 60 2 206 70 11 203 69 10 203 69 10 203 69 10
203 69 10 201 70 10 201 70 8 200 72 6 200 72 6 197 74 4 221 106 29
219 107 29 218 108 27 216 109 25 216 110 23 216 110 23 216 110 23
216 110 23 212 105 18 215 108 21 232 128 40 232 133 44 227 130 40
226 131 40 224 132 38 222 133 38 224 133 36 224 132 38 222 133 40
229 129 42 214 92 17 219 87 20 219 86 22 218 87 22 219 89 21
220 90 22 220 90 22 220 90 22 218 88 20 214 84 16 210 79 12 206 76 8
206 76 8 206 76 8 206 76 8 206 76 8 208 75 10 208 75 10 208 75 10
208 75 10 208 78 11 208 78 11 208 78 11 208 78 11 208 78 11 208 78 11
208 78 11 208 78 11 210 80 10 212 82 12 213 85 14 213 88 17 215 88 17
215 88 17 213 88 17 213 88 17 215 90 18 215 90 18 213 91 16 213 91 16
218 98 25 217 99 25 217 99 25 215 100 25 215 100 23 217 99 23
218 99 21 218 99 21 218 99 21 216 97 19 214 92 15 212 90 13 213 91 16
213 91 16 213 91 16 215 90 16 215 90 18 215 90 18 215 90 18 216 88 20
205 72 8 207 71 10 205 72 10 205 72 10 204 73 10 204 73 8 204 73 8
202 74 8 208 80 14 206 78 11 219 95 28 216 93 25 217 97 26 217 97 24
217 97 22 217 97 22 216 98 22 216 99 20 215 101 21 215 101 21
216 102 22 217 103 25 219 104 26 219 104 26 221 104 28 221 104 28
221 104 28 221 104 30 220 102 30 217 99 27 211 93 21 209 88 18
209 81 13 211 81 13 211 81 13 211 81 13 211 81 13 211 81 13 210 79 12
210 79 12 208 80 12 208 80 12 207 79 11 207 79 11 207 79 13 207 79 13
207 79 13 208 78 13 212 76 13 212 74 11 210 72 9 207 70 7 206 70 9
207 71 10 207 71 10 207 71 10 207 71 10 207 71 10 207 71 10 206 70 9
206 70 11 205 68 10 205 68 10 205 68 10 205 68 10 205 68 10 203 69 10
203 69 10 204 70 11 204 70 11 217 83 24 217 83 24 215 84 22 215 84 22
215 84 22 214 85 22 214 85 22 214 86 20 214 86 18 209 89 16
229 123 43 224 126 41 224 126 41 222 127 39 222 128 37 224 127 37
224 127 37 225 126 37 234 133 42 232 128 38 212 110 21 207 107 18
216 119 28 214 120 28 212 121 26 212 121 26 214 120 24 216 119 26
214 120 28 219 117 30 204 79 5 209 74 8 208 75 10 207 74 9 205 75 7
205 75 7 205 75 7 205 75 7 211 81 13 210 79 12 208 78 11 206 76 8
207 77 9 207 77 9 207 77 9 207 77 9 209 76 11 209 76 11 209 76 11
209 76 11 208 78 11 208 78 11 208 78 11 208 78 11 208 78 11 208 78 11
208 78 11 208 78 11 211 81 11 213 83 13 215 88 17 215 90 18 215 90 18
215 90 18 215 90 18 215 90 18 216 91 19 216 91 19 214 92 17 212 93 17
218 101 24 218 101 24 216 101 24 216 101 24 216 102 22 216 102 22
218 101 22 219 100 22 219 100 22 217 98 20 215 94 16 213 91 16
214 92 17 214 92 17 214 92 17 214 92 17 216 91 19 216 91 19 216 91 19
217 90 21 205 72 8 207 71 10 205 72 10 205 72 10 204 73 8 204 73 8
204 73 8 204 73 8 201 71 6 200 72 6 216 93 25 213 95 23 216 98 24
214 99 22 216 99 20 214 99 20 212 100 20 212 101 18 212 103 19
212 103 19 213 103 22 214 105 23 215 106 24 217 105 24 218 106 28
218 106 28 218 106 28 218 106 28 218 105 30 212 99 26 206 90 18
203 83 12 211 84 15 213 83 15 213 83 15 213 83 15 213 83 15 213 83 15
212 82 14 212 82 14 209 81 13 209 81 13 208 80 12 208 80 12 208 80 14
208 80 14 208 80 14 210 79 14 213 77 14 212 76 13 209 74 10 207 72 8
207 71 10 208 72 11 208 72 11 208 72 11 208 72 11 208 72 11 208 72 11
207 71 10 207 71 12 206 70 11 206 70 11 206 70 11 206 70 11 206 70 11
206 70 11 206 70 11 202 68 9 203 69 10 215 84 22 218 87 24 216 88 22
216 88 22 216 88 24 215 88 24 215 89 22 215 89 20 215 90 18 210 92 16
228 128 43 221 131 43 221 131 41 221 131 41 221 132 39 223 131 39
224 130 39 226 129 39 229 130 38 234 133 42 208 107 18 210 111 21
211 114 24 209 115 24 209 115 22 209 115 22 213 114 20 213 114 22
211 114 24 217 110 26 199 75 1 205 70 4 203 70 6 203 70 8 205 74 9
206 76 8 206 76 8 206 76 8 205 75 7 206 76 8 207 77 9 207 77 9
207 77 9 207 77 9 207 77 9 207 77 9 209 76 11 209 76 11 209 76 11
209 76 11 208 78 11 208 78 11 208 78 11 208 78 11 208 78 11 208 78 11
208 78 11 208 78 11 211 81 11 208 79 9 218 91 20 216 91 19 214 92 19
214 92 19 216 91 19 216 91 19 216 91 17 216 91 17 214 92 17 212 93 17
218 101 22 218 101 20 216 102 20 216 102 20 216 102 20 216 102 20
218 101 22 218 101 22 218 99 23 221 101 25 210 90 15 212 93 17
211 91 18 211 91 18 213 90 18 213 90 18 213 90 18 213 90 18 215 90 18
216 88 20 204 73 8 205 72 10 205 72 10 205 72 10 205 72 10 205 72 10
205 72 10 205 72 10 207 73 11 203 75 9 218 97 29 215 99 27 216 103 27
216 103 25 217 103 21 217 103 21 215 103 20 215 103 20 216 104 21
216 104 21 217 105 24 218 106 26 219 107 27 219 107 27 221 106 29
219 107 29 218 108 29 218 108 29 218 105 30 220 104 30 207 85 12
211 84 13 213 83 13 213 83 13 213 83 13 213 83 13 213 83 15 213 83 15
212 82 14 212 82 14 209 81 13 209 81 13 208 80 12 208 80 12 210 79 12
210 79 12 210 79 12 210 79 12 211 79 12 210 77 11 208 75 8 205 72 8
207 71 10 208 72 11 208 72 11 208 72 11 208 72 11 208 72 11 208 72 11
207 71 10 207 71 12 206 70 11 204 70 11 204 70 11 206 70 9 206 70 11
207 69 11 207 69 11 203 67 9 203 70 8 214 86 18 215 89 20 215 89 20
215 89 22 215 89 22 213 90 22 213 90 22 213 90 20 213 90 18 208 93 16
226 128 43 221 131 41 223 130 41 223 131 39 223 131 39 224 130 37
224 130 39 226 129 39 228 132 41 225 126 37 214 114 25 210 111 21
211 114 24 211 114 24 211 114 22 213 114 22 216 112 22 216 112 22
214 112 24 219 110 26 204 78 4 208 73 7 207 74 9 204 73 10 205 74 9
205 75 7 205 75 7 205 75 7 205 72 8 207 74 9 209 76 11 209 76 11
209 76 11 209 76 11 210 77 13 210 77 13 209 76 11 209 76 11 209 76 11
209 76 11 208 78 11 208 78 11 208 78 11 208 78 11 208 78 11 208 78 11
208 78 11 208 78 11 210 80 10 207 79 9 217 92 20 214 92 19 212 92 19
212 92 19 214 92 19 216 91 19 216 91 17 216 91 17 214 92 17 212 93 15
218 101 20 218 102 18 216 103 18 216 103 18 216 103 18 216 102 20
218 101 22 218 101 22 218 99 23 221 101 25 210 90 15 212 93 17
211 91 18 211 91 18 213 90 18 213 90 18 213 90 18 213 90 18 215 90 18
216 88 20 204 73 8 205 72 10 205 72 10 205 72 10 205 72 10 205 72 10
205 72 10 205 72 10 207 73 11 205 74 9 218 98 27 214 101 25
214 104 25 214 105 23 217 103 21 217 104 19 215 103 18 215 103 18
216 104 21 216 104 21 217 105 24 218 106 26 219 107 27 219 107 27
221 106 29 219 107 29 218 108 29 218 108 29 218 105 30 221 104 30
209 84 12 213 83 13 213 83 13 213 83 13 213 83 13 213 83 13 213 83 15
213 83 15 212 82 14 212 82 14 209 81 13 209 81 13 208 80 12 208 80 12
210 79 12 210 79 12 210 79 12 210 79 12 210 79 12 208 78 11 206 76 8
204 73 8 205 72 10 208 72 11 208 72 11 208 72 11 208 72 11 208 72 11
208 72 11 207 71 10 207 71 12 206 70 11 204 70 11 204 70 11 206 70 9
207 69 11 209 68 13 209 68 13 205 66 9 203 70 6 212 87 16 213 91 16
213 90 18 213 90 20 213 90 22 213 90 22 213 90 20 213 90 18 213 91 16
208 94 14 226 129 41 221 131 41 223 131 39 223 131 39 224 130 37
224 130 37 226 129 39 226 129 39 228 132 41 224 127 37 214 114 25
210 111 21 211 114 24 211 114 24 211 114 22 214 113 22 217 111 22
217 111 22 216 112 24 219 110 26 204 78 4 207 74 7 205 74 9 204 73 10
205 74 9 205 75 7 205 75 7 205 75 7 205 72 8 207 74 9 209 76 11
209 76 11 209 76 11 209 76 11 210 77 13 210 77 13 209 76 11 209 76 11
209 76 11 209 76 11 208 78 11 208 78 11 208 78 11 208 78 11 208 78 11
208 78 11 208 78 11 208 78 11 210 80 10 207 79 9 217 92 20 214 92 19
212 92 19 212 92 19 214 92 19 214 92 19 216 91 17 216 91 17 214 92 15
212 93 15 218 101 20 218 102 18 216 103 18 215 103 18 215 103 18
216 102 20 216 102 22 218 101 22 217 100 21 219 102 23 209 91 15
211 94 17 211 92 16 211 92 16 211 91 18 211 91 18 213 90 18 213 90 18
213 90 18 215 89 20 204 73 8 205 72 8 205 72 8 205 72 8 205 72 8
205 72 8 205 72 8 205 72 8 208 73 9 205 74 9 218 98 27 214 101 25
214 104 25 214 105 23 217 103 21 217 104 19 215 103 18 215 103 18
216 104 21 216 104 21 217 105 24 218 106 26 219 107 27 219 107 27
221 106 29 219 107 29 218 108 29 218 108 29 218 105 30 221 104 30
209 84 12 213 83 13 211 84 13 211 84 13 211 84 13 211 84 13 211 84 13
211 84 13 210 83 12 210 83 12 209 82 11 209 82 11 208 81 10 208 81 10
210 79 12 210 79 12 210 79 12 210 79 12 210 79 12 208 78 11 206 76 8
204 73 8 205 72 10 207 73 11 207 73 11 207 73 11 207 73 11 207 73 11
207 73 11 205 72 10 205 72 12 204 70 11 204 70 11 204 70 11 206 70 9
207 69 11 209 68 13 209 68 13 205 66 9 203 70 6 212 87 16 213 91 16
211 91 18 211 91 20 211 91 20 211 91 20 211 91 20 211 91 18 211 92 16
207 94 14 226 129 41 221 132 39 223 131 39 223 131 37 224 130 37
224 130 37 226 130 37 226 130 37 228 132 41 224 127 37 215 115 28
211 112 25 213 113 24 213 113 24 213 114 22 214 113 22 219 110 22
219 110 22 216 112 24 219 110 26 204 78 4 207 74 7 205 74 9 202 74 10
205 74 9 205 75 7 205 75 7 205 75 7 205 72 8 207 74 9 209 76 11
209 76 11 210 77 13 210 77 13 211 78 14 211 78 14 210 77 13 210 77 13
210 77 13 210 77 13 208 78 11 208 78 11 208 78 11 208 78 11 208 78 11
208 78 11 208 78 11 208 78 11 210 80 10 207 79 9 217 92 20 214 92 19
212 92 19 212 92 19 214 92 19 214 92 19 216 91 17 216 91 17 214 92 15
212 93 15 218 101 20 218 102 18 216 103 18 215 103 18 215 103 18
215 103 20 216 102 22 216 102 22 217 100 21 219 102 23 209 91 15
211 94 17 211 92 16 211 92 16 211 91 18 211 91 18 213 90 18 213 90 18
213 90 18 215 89 20 204 73 8 205 72 8 205 72 8 205 72 8 205 72 8
205 72 8 205 72 8 207 72 8 210 72 9 207 74 9 218 98 27 214 101 25
214 104 25 214 105 23 217 103 21 219 103 19 216 103 18 215 103 18
216 104 21 216 104 21 217 105 24 217 105 24 218 106 26 218 106 26
221 106 29 219 107 29 218 108 29 218 108 29 218 105 30 221 104 30
209 84 12 213 83 13 211 84 13 211 84 13 211 84 13 211 84 13 211 84 13
211 84 13 210 83 12 210 83 12 209 82 11 209 82 11 208 81 10 208 81 10
210 79 12 210 79 12 210 79 12 210 79 12 210 79 12 208 78 11 206 76 8
204 73 8 205 72 10 207 73 11 207 73 11 207 73 11 207 73 11 207 73 11
207 73 11 205 72 10 205 72 12 204 70 11 204 70 11 204 70 11 206 70 9
207 69 11 209 68 13 209 68 13 205 66 9 203 70 6 212 87 16 213 91 16
211 91 18 211 91 18 211 91 20 211 91 20 211 91 18 211 91 18 211 92 16
207 95 12 226 129 39 221 132 39 223 131 37 223 131 37 224 131 35
224 131 35 226 130 37 226 130 37 227 130 40 224 127 37 215 115 28
211 112 25 213 113 24 213 113 24 213 113 24 216 112 22 219 110 22
219 110 22 216 112 24 219 110 26 203 76 3 205 73 6 204 73 8 202 74 10
204 73 8 205 75 7 205 75 7 205 75 7 205 72 8 207 74 9 209 76 11
209 76 11 210 77 13 210 77 13 211 78 14 211 78 14 210 77 13 210 77 13
210 77 13 210 77 13 208 78 11 208 78 11 208 78 11 208 78 11 208 78 11
208 78 11 208 78 11 208 78 11 211 79 10 208 79 9 217 92 20 214 92 19
212 92 19 212 92 19 214 92 19 214 92 19 216 91 17 216 91 17 214 92 15
212 93 15 218 101 20 218 102 18 216 103 18 215 103 18 215 103 18
215 103 20 216 102 22 216 102 22 217 100 21 219 102 23 209 91 15
211 94 17 211 92 16 211 92 16 211 91 18 211 91 18 213 90 18 213 90 18
213 90 20 215 89 20 204 73 8 205 72 8 205 72 8 205 72 8 205 72 8
205 72 8 205 72 8 207 72 8 210 72 9 207 74 9 218 98 27 214 101 25
213 103 24 213 103 22 216 102 20 218 102 18 216 103 18 215 103 18
216 104 21 216 104 21 216 104 23 217 105 24 218 106 26 218 106 26
220 105 28 218 106 28 217 106 28 217 106 28 217 104 28 220 102 28
208 83 11 212 82 12 211 84 13 211 84 13 211 84 13 211 84 13 211 84 13
211 84 13 210 83 12 210 83 12 209 82 11 209 82 11 208 81 10 208 81 10
210 79 12 210 79 12 210 79 12 210 79 12 210 79 12 208 78 11 206 76 8
204 73 8 205 72 10 207 73 11 207 73 11 207 73 11 207 73 11 207 73 11
207 73 11 205 72 10 205 72 12 204 70 11 204 70 11 204 70 11 206 70 9
207 69 11 209 68 13 209 68 13 205 66 9 203 70 6 212 87 16 213 91 16
211 91 18 211 91 18 211 91 20 211 91 20 211 91 18 211 91 18 211 92 16
207 95 12 226 129 39 221 132 37 223 131 37 223 132 35 224 131 35
224 131 35 226 130 37 227 131 38 227 131 38 223 126 35 215 116 26
211 112 23 214 112 26 215 113 27 215 114 25 217 113 25 220 112 23
220 112 23 217 113 25 220 111 27 203 76 3 205 73 6 204 73 8 201 72 9
204 73 8 205 72 8 205 72 8 205 72 8 207 74 9 207 74 9 208 75 10
209 76 11 210 77 13 210 77 13 210 77 13 210 77 13 210 77 13 210 77 13
210 77 13 210 77 13 208 78 11 208 78 11 208 78 11 208 78 11 208 78 11
208 78 11 208 78 11 208 78 11 211 79 10 208 79 9 217 92 20 214 92 19
212 92 19 212 92 19 214 92 19 214 92 19 216 91 17 216 91 17 214 92 15
212 93 15 218 101 20 218 102 18 216 103 18 215 103 18 215 103 18
215 103 20 216 102 22 216 102 22 217 100 21 219 102 23 209 91 15
211 94 17 211 92 16 211 92 16 211 91 18 211 91 18 213 90 18 213 90 18
213 90 20 215 89 20 204 73 8 205 72 8 205 72 8 205 72 8 205 72 8
205 72 8 205 72 8 207 72 8 210 72 9 207 74 9 218 98 27 214 101 25
213 103 24 213 103 22 216 102 20 218 102 18 216 103 18 215 103 18
216 104 21 216 104 21 216 104 23 216 104 23 217 105 24 217 105 24
220 105 28 218 106 28 217 106 28 217 106 28 217 104 28 220 102 28
208 83 11 212 82 12 211 84 13 211 84 13 211 84 13 211 84 13 211 84 13
211 84 13 210 83 12 210 83 12 209 82 11 209 82 11 208 81 10 208 81 10
210 79 12 210 79 12 210 79 12 210 79 12 210 79 12 208 78 11 206 76 8
204 73 8 205 72 10 207 73 11 207 73 11 207 73 11 207 73 11 207 73 11
207 73 11 205 72 10 205 72 12 204 70 11 204 70 11 204 70 11 206 70 9
207 69 11 209 68 13 209 68 13 205 66 9 203 70 6 212 87 16 213 91 16
211 91 18 211 91 18 211 91 20 211 91 20 211 91 18 211 91 18 211 92 16
207 95 12 226 129 39 221 132 37 223 132 35 223 132 35 224 131 35
224 131 35 226 130 37 227 131 38 226 130 37 223 126 33 215 116 26
211 112 23 214 112 26 215 113 27 217 113 25 219 112 25 220 112 23
220 112 23 217 113 25 220 111 27 202 75 2 204 72 5 203 72 7 203 72 9
204 71 7 205 72 8 205 72 8 205 72 8 207 74 9 207 74 9 208 75 10
209 76 11 210 77 13 210 77 13 210 77 13 210 77 13 210 77 13 210 77 13
210 77 13 210 77 13 208 78 11 208 78 11 208 78 11 208 78 11 208 78 11
208 78 11 208 78 11 208 78 11 211 79 10 208 79 9 217 92 20 214 92 19
212 92 19 212 92 19 214 92 19 214 92 19 216 91 17 216 91 17 214 92 15
212 93 15 218 101 20 218 102 18 216 103 18 215 103 18 215 103 18
215 103 20 216 102 22 216 102 22 217 100 21 219 102 23 209 91 15
211 94 17 211 92 16 211 92 16 211 91 18 211 91 18 213 90 18 213 90 18
213 90 20 215 89 20 204 73 8 205 72 8 205 72 8 205 72 8 205 72 8
205 72 8 205 72 8 207 72 8 210 72 9 207 74 9 218 98 27 214 101 25
213 103 24 213 103 22 216 102 20 218 102 18 216 103 18 215 103 18
216 104 21 216 104 21 216 104 23 216 104 23 217 105 24 217 105 24
220 105 28 218 106 28 217 106 28 217 106 28 217 104 28 220 102 28
208 83 11 212 82 12 211 84 13 211 84 13 211 84 13 211 84 13 211 84 13
211 84 13 210 83 12 210 83 12 209 82 11 209 82 11 208 81 10 208 81 10
210 79 12 210 79 12 210 79 12 210 79 12 210 79 12 208 78 11 206 76 8
204 73 8 205 72 10 207 73 11 207 73 11 207 73 11 207 73 11 207 73 11
207 73 11 205 72 10 205 72 12 204 70 11 204 70 11 204 70 11 206 70 9
207 69 11 209 68 13 209 68 13 205 66 9 203 70 6 212 87 16 213 91 16
211 91 18 211 91 18 211 91 20 211 91 20 211 91 18 211 91 18 211 92 16
207 95 12 226 129 39 221 132 37 223 132 35 223 132 35 224 131 35
224 131 35 226 130 37 227 131 38 226 130 37 223 126 33 216 117 27
213 113 24 214 112 26 215 113 27 217 113 25 219 112 25 220 112 23
220 112 23 217 113 25 220 111 27 202 75 2 204 72 5 203 72 7 203 72 9
204 71 7 205 72 8 205 72 8 205 72 8 207 74 9 207 74 9 208 75 10
209 76 11 210 77 13 210 77 13 210 77 13 210 77 13 210 77 13 210 77 13
210 77 13 210 77 13 208 78 11 208 78 11 208 78 11 208 78 11 208 78 11
208 78 11 208 78 11 208 78 11 211 79 10 208 79 9 217 92 20 214 92 19
212 92 19 212 92 19 214 92 19 214 92 19 216 91 17 216 91 17 214 92 15
212 93 15 218 101 20 218 102 18 216 103 18 215 103 18 215 103 18
215 103 20 216 102 22 216 102 22 217 100 21 219 102 23 209 91 15
211 94 17 211 92 16 211 92 16 211 91 18 211 91 18 213 90 18 213 90 18
213 90 20 215 89 20 204 73 8 205 72 8 205 72 8 205 72 8 205 72 8
205 72 8 205 72 8 207 72 8 210 72 9 207 74 9 218 98 27 214 101 25
213 103 24 213 103 22 216 102 20 218 102 18 216 103 18 215 103 18
216 104 21 216 104 21 216 104 23 216 104 23 217 105 24 217 105 24
220 105 28 218 106 28 217 106 28 217 106 28 217 104 28 220 102 28
208 83 11 212 82 12 211 84 13 211 84 13 211 84 13 211 84 13 211 84 13
211 84 13 210 83 12 210 83 12 209 82 11 209 82 11 208 81 10 208 81 10
210 79 12 210 79 12 210 79 12 210 79 12 210 79 12 208 78 11 206 76 8
204 73 8 205 72 10 207 73 11 207 73 11 207 73 11 207 73 11 207 73 11
207 73 11 205 72 10 205 72 12 204 70 11 204 70 11 204 70 11 206 70 9
207 69 11 209 68 13 209 68 13 205 66 9 203 70 6 212 87 16 213 91 16
211 91 18 211 91 18 211 91 20 211 91 20 211 91 18 211 91 18 211 92 16
207 95 12 226 129 39 221 132 37 223 132 35 223 132 35 224 131 35
224 131 35 226 130 37 227 131 38 226 130 37 223 126 33 216 117 27
213 113 24 214 112 26 215 113 27 217 113 25 219 112 25 220 112 23
220 112 23 217 113 25 220 111 27 202 75 2 204 72 5 203 72 7 203 72 9
204 71 7 205 72 8 205 72 8 205 72 8 207 74 9 207 74 9 208 75 10
209 76 11 210 77 13 210 77 13 210 77 13 210 77 13 210 77 13 210 77 13
210 77 13 210 77 13
