P3
160 160
255
215 103 22 215 103 22 215 103 22 215 103 22 217 103 25 217 103 25
219 102 25 219 102 25 221 101 27 222 102 28 201 79 6 204 81 9
209 83 14 209 83 14 209 83 14 210 83 14 212 82 14 212 82 14 212 82 14
212 82 14 210 79 12 210 79 12 210 79 12 210 79 12 208 80 14 208 80 14
210 79 12 211 79 10 210 80 8 208 83 9 217 98 20 217 100 21 214 99 22
214 99 22 217 99 23 217 99 23 217 99 23 217 99 23 218 101 22
215 103 22 229 127 41 226 129 41 226 129 39 226 129 39 226 129 39
226 129 39 226 129 39 226 129 39 228 128 39 227 127 38 224 125 35
222 123 33 222 123 33 222 123 33 220 123 33 220 123 33 220 123 33
222 123 33 223 122 33 225 121 33 216 110 23 218 109 23 219 108 23
219 108 23 217 107 23 217 107 23 215 108 23 215 108 23 218 108 25
222 108 26 213 92 12 215 90 14 214 86 16 214 86 18 214 86 18
214 86 18 215 85 18 214 84 16 214 84 16 213 83 15 212 82 12 211 81 11
211 81 11 210 80 10 211 79 10 211 79 10 210 80 10 210 80 10 211 84 13
207 79 9 219 94 23 216 91 19 217 92 20 217 92 20 217 92 20 217 92 20
217 92 20 217 92 20 217 92 20 216 91 19 216 91 19 215 90 18 215 90 16
215 90 16 215 90 16 215 90 16 215 90 14 213 89 13 213 89 13 212 88 12
212 88 12 214 87 14 215 86 16 215 85 18 215 85 18 215 85 18 215 85 18
215 85 18 215 85 18 214 86 16 217 92 18 215 94 16 215 94 16 215 94 16
215 94 16 215 94 16 215 94 16 217 93 16 217 91 15 215 90 14
228 115 35 220 117 34 219 121 36 219 121 36 222 120 34 224 119 34
222 121 32 221 121 32 222 123 31 222 123 31 223 124 32 223 124 32
224 125 33 224 125 33 224 125 35 224 125 35 224 125 35 224 125 35
222 123 33 222 123 33 222 123 33 222 123 33 222 123 33 222 123 33
222 123 33 222 123 33 222 123 33 222 123 33 222 123 33 222 123 33
215 103 22 215 103 22 215 103 22 215 103 22 217 103 25 217 103 25
219 102 25 219 102 25 221 101 27 222 102 28 201 79 6 204 81 9
209 83 14 209 83 14 209 83 14 210 83 14 212 82 14 212 82 14 212 82 14
212 82 14 210 79 12 210 79 12 210 79 12 210 79 12 208 80 14 208 80 14
210 79 12 211 79 10 210 80 8 208 83 9 217 98 20 217 100 21 214 99 22
214 99 22 217 99 23 217 99 23 217 99 23 217 99 23 218 101 22
215 103 22 229 127 41 226 129 41 226 129 39 226 129 39 226 129 39
226 129 39 226 129 39 226 129 39 228 128 39 227 127 38 224 125 35
222 123 33 222 123 33 222 123 33 220 123 33 220 123 33 220 123 33
222 123 33 223 122 33 225 121 33 216 110 23 218 109 23 219 108 23
219 108 23 217 107 23 217 107 23 215 108 23 215 108 23 218 108 25
222 108 26 213 92 12 215 90 14 214 86 16 214 86 18 214 86 18
214 86 18 215 85 18 214 84 16 214 84 16 213 83 15 212 82 12 211 81 11
211 81 11 210 80 10 211 79 10 211 79 10 210 80 10 210 80 10 211 84 13
207 79 9 219 94 23 216 91 19 217 92 20 217 92 20 217 92 20 217 92 20
217 92 20 217 92 20 217 92 20 216 91 19 216 91 19 215 90 18 215 90 16
215 90 16 215 90 16 215 90 16 215 90 14 213 89 13 213 89 13 212 88 12
212 88 12 214 87 14 215 86 16 215 85 18 215 85 18 215 85 18 215 85 18
215 85 18 215 85 18 214 86 16 217 92 18 215 94 16 215 94 16 215 94 16
215 94 16 215 94 16 215 94 16 217 93 16 217 91 15 215 90 14
228 115 35 220 117 34 219 121 36 219 121 36 222 120 34 224 119 34
222 121 32 221 121 32 222 123 31 222 123 31 223 124 32 223 124 32
224 125 33 224 125 33 224 125 35 224 125 35 224 125 35 224 125 35
222 123 33 222 123 33 222 123 33 222 123 33 222 123 33 222 123 33
222 123 33 222 123 33 222 123 33 222 123 33 222 123 33 222 123 33
215 103 22 215 103 22 215 103 22 215 103 22 217 103 25 217 103 25
219 102 25 219 102 25 221 101 27 221 101 27 202 80 7 204 81 9
209 83 14 209 83 14 209 83 14 210 83 14 212 82 14 212 82 14 212 82 14
212 82 14 210 79 12 210 79 12 210 79 12 210 79 12 208 80 14 208 80 14
210 79 12 211 79 10 210 80 8 208 83 9 217 98 20 217 100 21 214 99 22
214 99 22 217 99 23 217 99 23 217 99 23 217 99 23 218 101 22
215 103 22 229 127 41 226 129 41 226 129 39 226 129 39 226 129 39
226 129 39 226 129 39 226 129 39 228 128 39 227 127 38 224 125 35
222 123 33 222 123 33 222 123 33 220 123 33 220 123 33 220 123 33
222 123 33 223 122 33 225 121 33 216 110 23 218 109 23 219 108 23
219 108 23 217 107 23 217 107 23 215 108 23 215 108 23 218 108 25
222 108 26 213 92 12 215 90 14 214 86 16 214 86 18 214 86 18
214 86 18 215 85 18 214 84 16 214 84 16 213 83 15 212 82 12 211 81 11
211 81 11 210 80 10 211 79 10 211 79 10 210 80 10 210 80 10 211 84 13
207 79 9 219 94 23 216 91 19 217 92 20 217 92 20 217 92 20 217 92 20
217 92 20 217 92 20 217 92 20 216 91 19 216 91 19 215 90 18 215 90 16
215 90 16 215 90 16 215 90 16 215 90 14 213 89 13 213 89 13 212 88 12
212 88 12 214 87 14 215 86 16 215 85 18 215 85 18 215 85 18 215 85 18
215 85 18 215 85 18 214 86 16 217 92 18 215 94 16 215 94 16 215 94 16
215 94 16 215 94 16 215 94 16 217 93 16 218 92 16 216 92 15
229 117 36 221 119 35 219 121 36 219 121 36 222 120 34 224 119 34
222 121 32 221 121 32 222 123 31 222 123 31 223 124 32 223 124 32
224 125 33 224 125 33 224 125 35 224 125 35 224 125 35 224 125 35
222 123 33 222 123 33 222 123 33 222 123 33 222 123 33 222 123 33
222 123 33 222 123 33 222 123 33 222 123 33 222 123 33 222 123 33
215 103 22 215 103 22 215 103 22 216 102 22 217 103 25 217 103 25
219 102 25 219 102 25 221 101 27 219 99 26 204 81 9 204 81 9
209 83 14 209 83 14 209 83 14 210 83 14 212 82 14 212 82 14 212 82 14
212 82 14 210 79 12 210 79 12 210 79 12 210 79 12 208 80 14 208 80 14
210 79 12 211 79 10 210 80 8 208 83 9 217 98 20 217 100 21 214 99 22
214 99 22 217 99 23 217 99 23 217 99 23 217 99 23 218 101 22
215 103 22 229 127 41 226 129 41 226 129 39 226 129 39 226 129 39
226 129 39 226 129 39 226 129 39 228 128 39 227 127 38 224 125 35
222 123 33 222 123 33 222 123 33 220 123 33 220 123 33 220 123 33
222 123 33 223 122 33 225 121 33 216 110 23 218 109 23 219 108 23
219 108 23 217 107 23 217 107 23 215 108 23 215 108 23 218 108 25
222 108 26 213 92 12 215 90 14 214 86 16 214 86 18 214 86 18
214 86 18 215 85 18 214 84 16 214 84 16 213 83 15 212 82 12 211 81 11
211 81 11 210 80 10 211 79 10 211 79 10 210 80 10 210 80 10 211 84 13
207 79 9 219 94 23 216 91 19 217 92 20 217 92 20 217 92 20 217 92 20
217 92 20 217 92 20 217 92 20 216 91 19 216 91 19 215 90 18 215 90 16
215 90 16 215 90 16 215 90 16 215 90 14 213 89 13 213 89 13 212 88 12
212 88 12 214 87 14 215 86 16 215 85 18 215 85 18 215 85 18 215 85 18
215 85 18 215 85 18 214 86 16 217 92 18 215 94 16 215 94 16 215 94 16
215 94 16 215 94 16 215 94 16 217 93 16 218 92 16 216 92 15
229 117 36 221 119 35 219 121 36 219 121 36 222 120 34 224 119 34
222 121 32 221 121 32 222 123 31 222 123 31 223 124 32 223 124 32
224 125 33 224 125 33 224 125 35 224 125 35 224 125 35 224 125 35
222 123 33 222 123 33 222 123 33 222 123 33 222 123 33 222 123 33
222 123 33 222 123 33 222 123 33 222 123 33 222 123 33 222 123 33
215 101 21 215 101 21 215 101 21 215 101 21 218 101 24 218 101 24
218 101 24 218 101 24 221 101 27 218 98 25 205 82 10 204 81 9
208 82 13 208 82 13 208 82 13 209 81 13 211 81 13 211 81 13 211 81 13
211 81 13 208 78 11 208 78 11 208 78 11 208 78 11 208 80 14 208 80 14
210 79 12 211 79 10 210 80 8 208 83 9 217 98 20 217 100 21 215 100 23
215 100 23 217 99 23 217 99 23 219 100 24 219 100 24 219 100 22
216 102 22 229 127 41 226 129 41 226 129 39 226 129 39 226 129 39
226 129 39 226 129 39 226 129 39 228 128 39 227 127 38 224 125 35
222 123 33 222 123 33 222 123 33 220 123 33 220 123 33 220 123 33
222 123 33 223 122 33 225 121 33 216 109 25 218 108 25 219 108 25
219 108 25 218 108 25 218 108 25 216 109 25 216 109 25 217 107 23
221 107 25 212 90 11 213 89 13 213 85 14 213 85 16 213 85 16
213 85 16 215 85 18 214 84 16 214 84 16 213 83 15 212 82 12 211 81 11
211 81 11 210 80 10 211 79 10 211 79 10 210 80 10 210 80 10 211 84 13
207 79 9 219 94 23 216 91 19 217 92 20 217 92 20 217 92 20 217 92 20
217 92 20 217 92 20 217 92 20 216 91 19 215 90 18 213 88 17 213 89 15
213 89 15 213 89 15 213 89 15 213 89 13 212 88 12 212 88 12 211 87 10
211 87 10 213 86 12 214 84 14 214 84 16 214 84 16 214 84 16 214 84 16
214 84 16 214 84 16 213 85 14 217 92 18 215 94 16 215 94 16 215 94 16
215 94 16 215 94 16 215 94 16 217 93 16 220 93 17 217 93 16
230 118 37 224 119 36 222 122 37 222 122 37 223 121 35 225 121 35
223 122 33 222 123 33 222 123 33 222 123 33 223 124 34 223 124 34
223 124 34 223 124 34 223 124 34 223 124 34 223 124 34 223 124 34
223 124 34 223 124 34 223 124 34 223 124 34 223 124 34 223 124 34
223 124 34 223 124 34 223 124 34 223 124 34 223 124 34 223 124 34
215 101 21 215 101 21 215 101 21 215 101 21 218 101 24 218 101 24
218 101 24 218 101 24 221 101 27 217 97 24 206 83 11 204 81 9
208 82 13 208 82 13 208 82 13 208 82 13 209 81 13 211 81 13 211 81 13
211 81 13 208 78 11 208 78 11 208 78 11 208 78 11 208 80 14 208 80 14
210 79 12 211 79 10 210 80 8 208 83 9 217 98 20 217 100 21 215 100 23
217 99 23 217 99 23 217 99 23 219 100 24 219 100 24 219 100 22
216 102 22 229 127 41 226 129 41 226 129 39 226 129 39 226 129 39
226 129 39 226 129 39 226 129 39 228 128 39 227 127 38 224 125 35
222 123 33 222 123 33 222 123 33 220 123 33 220 123 33 220 123 33
220 123 33 222 123 33 223 122 33 215 110 25 216 109 25 218 108 25
219 108 25 218 108 25 218 108 25 216 109 25 216 109 25 217 107 23
221 107 25 212 90 11 213 89 13 213 85 14 213 85 16 213 85 16
213 85 16 215 85 18 214 84 16 214 84 16 213 83 15 212 82 12 211 81 11
211 81 11 210 80 10 211 79 10 211 79 10 210 80 10 210 80 10 211 84 13
207 79 9 219 94 23 216 91 19 217 92 20 217 92 20 217 92 20 217 92 20
217 92 20 217 92 20 217 92 20 216 91 19 215 90 18 213 88 17 213 89 15
213 89 15 213 89 15 213 89 15 213 89 13 212 88 12 212 88 12 211 87 10
211 87 10 213 86 12 214 84 14 214 84 16 214 84 16 214 84 16 214 84 16
214 84 16 214 84 16 213 85 14 217 92 18 215 94 16 215 94 16 215 94 16
215 94 16 215 94 16 215 94 16 217 93 16 220 93 17 217 93 16
230 118 37 224 119 36 222 122 37 222 122 37 223 121 35 223 121 35
222 123 33 222 123 33 222 123 33 222 123 33 223 124 34 223 124 34
223 124 34 223 124 34 223 124 34 223 124 34 223 124 34 223 124 34
223 124 34 223 124 34 223 124 34 223 124 34 223 124 34 223 124 34
223 124 34 223 124 34 223 124 34 223 124 34 223 124 34 223 124 34
215 101 21 215 101 21 215 101 21 215 101 21 218 101 24 218 101 24
218 101 24 218 101 24 221 101 25 216 96 21 207 85 10 204 81 9
206 83 11 206 83 11 206 83 11 208 83 11 209 81 13 211 81 13 211 81 13
211 81 13 208 78 11 208 78 11 208 78 11 208 78 11 208 80 14 208 80 14
210 79 12 211 79 10 210 80 8 208 83 9 217 98 20 217 100 21 217 99 23
217 99 23 218 99 23 218 99 23 219 100 24 219 100 24 219 100 22
216 102 22 229 127 41 224 130 41 224 130 39 224 130 39 226 129 39
226 129 39 226 129 39 226 129 39 226 129 39 225 128 38 223 126 35
220 123 33 222 123 33 222 123 33 220 123 33 220 123 33 220 123 33
220 123 33 222 123 33 223 122 33 215 110 25 216 109 25 218 108 25
218 108 25 218 108 25 218 108 25 216 109 25 216 109 25 217 107 23
221 107 25 212 90 11 213 89 13 212 88 14 212 87 16 212 87 16
214 86 16 214 86 16 213 85 14 213 85 14 211 84 13 210 83 12 209 82 11
209 82 11 210 80 10 210 80 10 210 80 10 210 80 10 208 81 10 211 85 11
207 80 7 219 95 21 216 91 17 217 92 18 217 92 18 217 92 18 217 92 18
217 92 18 217 92 18 217 92 18 216 91 17 215 90 16 213 89 15 213 89 15
213 89 13 213 89 13 213 89 13 213 89 13 212 88 12 212 88 12 211 87 10
211 87 10 213 86 12 214 84 14 214 84 16 214 84 16 214 84 16 214 84 16
214 84 16 214 84 16 213 85 14 217 92 18 215 94 16 215 94 16 215 94 16
215 94 16 215 94 16 215 94 16 217 93 16 221 94 19 216 95 17
231 119 38 225 120 37 222 122 37 222 122 37 223 121 35 223 121 35
222 123 33 222 123 33 222 123 33 222 123 33 223 124 34 223 124 34
223 124 34 223 124 34 223 124 34 223 124 34 223 124 34 223 124 34
223 124 34 223 124 34 223 124 34 223 124 34 223 124 34 223 124 34
223 124 34 223 124 34 223 124 34 223 124 34 223 124 34 223 124 34
215 101 21 215 101 21 215 101 21 215 101 21 218 101 24 218 101 24
218 101 24 218 101 24 221 101 25 216 96 21 208 86 11 204 81 7
205 82 10 206 83 11 206 83 11 208 83 11 209 81 13 211 81 13 211 81 13
211 81 13 208 78 11 208 78 11 208 78 11 208 78 11 208 80 12 208 80 12
210 80 10 210 80 10 208 81 8 208 83 9 219 97 22 218 99 23 218 99 23
218 99 23 218 99 23 218 99 23 219 100 24 219 100 24 219 100 22
216 102 22 229 127 41 224 130 41 224 130 39 224 130 39 226 129 39
226 129 39 226 129 39 226 129 39 226 129 39 225 128 38 223 126 35
220 123 33 222 123 33 222 123 33 220 123 33 220 123 33 220 123 33
222 123 33 222 123 33 223 122 33 215 110 25 215 110 25 216 109 25
218 108 25 218 108 25 218 108 25 216 109 25 218 108 25 218 106 23
221 107 25 212 90 11 213 89 13 212 88 14 212 87 16 212 87 16
212 87 16 214 86 16 213 85 14 213 85 14 211 84 13 210 83 12 209 82 11
209 82 11 208 81 10 210 80 10 210 80 10 208 81 10 210 80 10 215 83 11
208 79 7 221 94 21 216 91 17 215 93 18 217 92 18 217 92 18 217 92 18
217 92 18 217 92 18 217 92 18 216 91 17 215 90 16 213 89 15 213 89 13
213 89 13 213 89 13 212 90 13 212 90 13 211 89 12 211 89 12 211 87 10
213 86 10 213 86 12 214 84 14 214 84 16 214 84 16 214 84 16 214 84 16
214 84 16 214 84 16 213 85 14 217 92 18 215 93 18 215 93 18 215 94 16
215 94 16 215 94 16 215 94 16 217 93 16 220 96 20 218 96 19
232 120 39 226 121 38 223 123 38 223 123 38 225 123 36 225 123 36
223 124 34 223 124 34 223 124 34 223 124 34 223 124 34 223 124 34
223 124 34 223 124 34 223 124 34 223 124 34 223 124 34 223 124 34
223 124 34 223 124 34 223 124 34 223 124 34 225 123 34 225 123 34
225 123 34 225 123 34 225 123 34 225 123 34 225 123 34 225 123 34
217 100 21 217 100 21 217 100 21 217 100 21 218 101 22 218 101 22
219 100 22 219 100 22 219 100 24 218 99 23 210 90 15 206 86 10
206 84 9 206 84 9 206 84 9 208 83 11 209 82 11 211 81 11 211 81 11
211 81 11 210 80 10 210 80 10 210 80 10 210 80 10 208 79 9 208 79 9
208 79 9 208 79 9 208 81 10 208 81 10 222 97 25 222 97 23 221 99 24
221 99 24 221 99 24 221 99 24 221 99 24 221 99 24 221 99 22
216 102 22 229 127 41 224 130 41 224 130 39 224 130 39 224 130 39
224 130 39 224 130 39 224 130 39 223 126 35 226 129 39 216 119 28
219 122 32 222 122 35 222 122 35 222 122 35 222 122 35 222 122 35
222 122 35 223 121 35 223 121 35 216 111 26 216 111 26 216 111 26
217 110 26 219 110 26 219 110 26 221 109 26 222 108 26 223 106 27
225 106 28 213 91 14 213 91 14 212 88 14 212 88 14 212 88 14
212 88 14 213 88 17 212 87 16 212 87 16 211 86 14 211 84 13 210 83 12
210 83 12 209 82 11 209 82 11 209 82 11 209 82 9 212 81 9 212 73 4
209 72 2 220 91 16 214 92 15 210 91 13 212 90 13 213 89 13 215 88 13
213 89 13 213 89 13 213 89 13 213 89 13 215 90 14 215 90 14 215 90 14
215 90 14 213 91 14 211 92 14 210 93 12 211 94 13 212 94 13 213 90 11
214 86 8 215 83 9 213 83 13 213 83 13 213 83 13 213 83 13 213 83 13
213 83 13 213 83 13 211 84 13 219 94 23 219 94 23 219 94 23 219 95 21
219 95 21 219 95 21 219 95 21 219 95 21 220 96 20 218 96 19
232 120 39 228 121 38 225 123 36 223 123 36 225 123 36 225 123 36
223 123 36 223 123 36 225 123 34 225 123 34 226 124 35 226 124 35
226 124 35 226 124 35 222 123 33 222 123 33 222 123 33 222 123 33
221 121 32 222 123 33 223 124 34 225 123 34 226 122 34 226 122 34
226 122 34 226 122 34 226 122 34 226 122 34 226 122 34 226 122 34
217 100 21 217 100 21 217 100 21 217 100 21 218 101 22 218 101 22
219 100 22 219 100 22 219 100 24 219 100 24 215 95 19 209 89 14
208 86 11 209 87 12 209 87 12 209 87 12 208 83 11 209 82 11 209 82 11
209 82 11 209 82 11 209 82 11 209 82 11 209 82 11 208 81 10 208 81 10
208 81 10 208 81 10 206 81 10 210 85 13 220 95 24 225 100 28
220 98 23 220 98 23 222 97 23 222 97 23 220 98 23 220 98 23 220 98 21
215 101 21 232 130 43 228 131 43 228 132 41 228 132 41 228 132 41
228 132 41 228 132 41 228 132 41 227 127 38 230 131 41 220 120 31
223 124 34 223 121 35 223 121 35 223 121 35 223 121 35 223 121 35
223 121 35 223 121 35 225 121 35 216 111 26 216 111 26 216 111 26
217 110 26 219 110 26 221 109 26 222 108 26 224 107 26 224 105 27
225 106 28 213 91 14 213 91 14 212 88 14 212 88 14 212 88 14
212 88 14 213 88 17 212 87 16 212 87 16 211 86 14 211 84 13 210 83 12
210 83 12 209 82 11 209 82 11 209 82 11 209 82 9 211 81 9 206 70 0
205 68 0 218 94 17 213 96 17 209 95 15 209 95 15 212 93 15 212 93 15
211 94 15 211 94 15 211 94 15 211 94 15 206 89 10 206 89 10 206 89 10
206 89 10 206 89 10 205 90 10 203 91 8 203 91 8 207 93 11 214 93 13
213 84 7 216 84 10 214 85 12 214 84 14 214 84 14 214 84 14 214 84 14
214 84 14 214 84 14 214 84 14 218 91 20 217 92 20 217 92 20 217 92 20
217 92 18 217 92 18 217 92 18 217 92 18 219 95 19 215 95 17
233 118 38 227 119 37 223 121 35 222 122 35 223 121 35 223 121 35
222 122 35 222 122 35 225 123 34 225 123 34 225 123 34 225 123 34
226 124 35 226 124 35 223 124 34 223 124 34 223 124 34 223 124 34
223 124 34 223 124 34 222 123 33 222 121 32 224 120 32 225 119 32
225 119 32 225 119 32 225 119 32 225 119 32 225 119 32 225 119 32
217 100 21 217 100 21 217 100 21 217 100 21 218 101 22 218 101 22
219 100 22 219 100 22 219 100 22 221 101 23 218 99 21 212 93 15
210 91 13 211 92 14 211 92 14 211 92 16 216 96 21 216 96 21 216 96 21
216 96 21 219 100 24 219 100 24 219 100 24 219 100 24 218 98 25
218 98 25 218 98 25 218 98 25 220 97 25 220 97 25 213 90 18 213 90 18
216 94 19 216 94 19 216 94 19 216 94 19 218 95 21 218 95 21 218 96 19
214 97 19 217 112 27 214 114 27 214 114 25 214 114 25 214 114 25
214 114 25 215 114 25 215 114 25 213 109 21 217 113 25 208 101 14
212 105 18 208 101 17 208 101 17 208 101 17 208 101 17 208 101 17
208 101 17 208 101 17 208 101 17 217 110 26 217 110 26 217 110 26
217 110 26 219 110 26 221 109 26 222 108 26 224 107 26 224 105 27
225 106 28 213 91 14 213 91 14 212 90 13 212 90 13 212 90 13
212 90 15 212 90 15 211 88 14 211 88 14 211 86 12 210 85 13 209 84 12
209 84 12 208 83 11 208 83 11 208 83 11 208 83 9 209 82 9 214 85 10
213 89 13 231 117 37 230 123 39 226 122 36 226 122 36 228 121 36
228 121 36 225 123 36 223 123 36 224 124 37 224 124 37 225 126 39
225 126 39 227 127 40 228 126 40 233 124 40 233 124 40 231 124 40
231 124 40 235 126 42 235 119 37 212 88 10 210 84 8 212 83 10
212 82 12 212 82 12 212 82 12 212 82 12 212 82 12 212 82 12 212 82 12
211 84 13 210 85 13 210 85 13 210 85 13 210 85 11 210 85 11 210 85 11
210 85 11 211 89 12 208 88 10 226 111 31 221 112 30 218 114 28
216 114 28 215 115 28 215 115 28 215 115 28 215 115 28 219 117 28
220 118 30 222 121 32 223 122 33 226 124 35 226 124 35 225 126 37
225 126 37 225 126 37 225 126 37 227 127 38 224 125 35 221 121 32
219 117 28 220 116 28 222 115 28 222 115 28 222 115 28 222 115 28
222 115 28 222 115 28 222 115 28 217 100 21 217 100 21 217 100 21
217 100 21 217 100 21 217 100 21 218 99 21 218 99 21 218 99 21
219 100 22 218 99 21 215 95 17 214 94 16 214 94 16 214 94 16
214 94 16 214 97 19 214 97 21 214 97 21 214 97 21 219 102 25
219 102 25 219 102 25 219 102 25 218 100 26 218 100 26 218 100 26
218 100 26 218 98 25 222 102 28 211 91 18 215 95 21 215 93 18
215 93 18 215 93 18 215 93 18 215 93 18 215 93 18 215 94 16 212 95 16
221 114 29 218 116 29 219 115 27 219 115 27 219 115 27 219 115 27
221 114 27 221 114 27 219 110 24 222 113 27 214 102 17 217 106 20
211 99 17 211 99 17 211 99 17 211 99 17 211 99 17 211 99 17
210 100 17 210 100 17 219 110 26 219 110 26 219 110 26 219 110 26
219 110 26 221 109 26 222 108 26 224 107 26 224 105 27 225 106 28
213 91 14 213 91 14 212 90 13 212 90 13 212 90 13 212 90 13 212 90 15
211 88 14 211 88 14 209 87 12 210 85 13 209 84 12 209 84 12 208 83 11
208 83 11 208 83 11 208 83 9 208 83 9 205 83 6 206 89 10 227 120 35
230 128 42 225 128 40 225 128 40 228 126 40 227 127 40 225 128 40
223 128 40 223 128 40 222 127 39 222 127 39 221 126 37 221 126 37
223 125 37 227 123 37 229 122 37 226 124 37 226 124 37 230 123 39
234 123 40 206 87 6 210 86 9 211 85 11 213 83 13 213 83 13 213 83 13
213 83 13 213 83 13 213 83 13 213 83 13 209 82 11 208 83 11 208 83 11
208 83 11 208 83 9 208 83 9 208 83 9 208 83 9 208 87 9 206 86 8
223 109 29 219 109 28 216 111 26 214 112 26 213 113 26 213 113 26
213 113 26 213 113 26 215 114 25 215 114 25 226 124 35 226 124 35
226 124 35 226 124 35 228 128 39 228 128 39 228 128 39 228 128 39
229 130 40 225 126 37 220 120 31 218 116 27 219 115 27 221 114 27
221 114 27 221 114 27 221 114 27 221 114 27 221 114 27 221 114 27
218 99 21 218 99 21 218 99 21 217 98 20 218 99 21 217 98 20 217 98 20
217 98 20 218 99 21 217 98 20 218 99 19 217 98 18 216 97 17 216 97 17
216 97 17 216 97 17 214 98 17 213 98 19 213 98 19 213 98 19
215 101 21 215 101 21 215 101 21 215 101 21 216 101 24 216 101 26
218 100 26 218 100 26 218 100 26 216 98 24 215 95 21 214 94 20
214 94 18 214 94 18 215 93 18 215 93 18 215 93 18 215 93 18 217 93 16
214 94 16 219 110 26 217 110 26 219 112 27 219 112 27 219 112 27
220 111 27 221 112 28 223 111 28 223 112 26 226 112 27 213 99 14
214 100 16 214 100 18 214 100 18 214 100 18 214 100 18 214 100 18
214 100 18 214 100 18 212 101 18 219 107 27 219 107 27 219 107 27
219 107 27 221 109 26 221 109 26 222 108 26 224 107 26 224 105 27
225 106 28 213 91 14 213 91 14 213 91 14 213 91 14 211 92 14
211 92 14 213 91 16 212 90 15 212 90 15 211 88 14 211 86 14 210 85 13
210 85 13 209 84 12 209 84 12 209 84 12 209 84 10 207 85 10 207 87 9
201 87 7 231 126 43 226 128 43 222 127 41 222 127 41 224 126 41
225 125 41 224 126 39 224 126 39 224 126 39 224 126 39 224 126 39
224 126 39 224 126 39 225 126 39 227 125 39 227 125 39 225 126 39
225 126 39 226 124 37 230 123 39 201 87 5 207 85 8 210 83 10
212 82 12 212 82 12 212 82 12 212 82 12 212 82 12 212 82 12 212 82 12
210 83 12 209 84 12 209 84 12 209 84 12 209 84 10 209 84 10 209 84 10
209 84 10 208 87 9 206 86 8 225 108 29 221 108 28 217 110 26
214 112 26 213 113 26 213 113 26 213 113 26 213 113 26 214 112 26
214 112 26 227 125 39 227 125 39 227 125 39 227 125 39 227 127 38
227 127 38 227 127 38 227 127 38 227 127 38 228 128 39 217 118 28
220 118 30 220 116 28 222 115 28 222 115 28 222 115 28 222 115 28
222 115 28 222 115 28 222 115 28 218 99 21 218 99 21 218 99 21
217 98 20 217 98 20 216 97 19 216 97 19 216 97 19 217 98 20 217 98 20
217 98 18 217 98 18 216 97 17 216 97 17 216 97 17 216 97 17 214 98 17
214 98 17 214 98 17 214 98 17 217 100 19 217 100 19 217 100 19
217 100 21 218 101 24 218 100 26 218 100 26 218 100 26 218 100 26
217 97 24 215 95 21 214 94 20 214 94 18 215 93 18 215 93 18 215 93 18
215 93 18 215 93 18 217 93 16 214 94 16 221 109 26 219 110 26
220 111 27 220 111 27 220 111 27 220 111 27 223 111 28 223 111 28
224 111 26 226 112 27 213 99 14 216 99 16 216 99 18 216 99 18
216 99 18 216 99 18 216 99 18 216 99 18 214 100 18 214 100 18
221 106 27 221 106 27 221 106 27 219 107 27 221 109 26 221 109 26
222 108 26 222 108 26 223 106 27 225 106 28 213 91 14 213 91 14
213 91 14 213 91 14 211 92 14 211 92 14 213 91 16 212 90 15 212 90 15
211 88 14 211 86 14 210 85 13 210 85 13 209 84 12 209 84 12 209 84 12
209 84 10 209 84 10 208 87 9 201 87 7 231 126 43 226 128 43
222 127 41 222 127 41 224 126 41 225 125 41 225 126 39 225 126 39
225 126 39 225 126 39 225 126 39 225 126 39 225 126 39 225 126 39
227 125 39 225 126 39 224 126 39 224 126 39 224 124 37 230 123 39
201 87 5 206 86 8 210 83 10 212 82 12 212 82 12 212 82 12 212 82 12
212 82 12 212 82 12 212 82 12 210 83 12 209 84 12 209 84 12 209 84 12
209 84 10 209 84 10 209 84 10 209 84 10 209 88 10 207 87 9 226 109 30
222 110 29 219 112 27 217 112 27 215 113 27 214 114 27 214 114 27
215 113 27 215 113 27 215 113 27 227 125 39 227 125 39 227 125 39
227 125 39 227 127 38 227 127 38 227 127 38 227 127 38 227 127 38
228 128 39 217 118 28 220 118 30 220 116 28 222 115 28 222 115 28
222 115 28 222 115 28 222 115 28 222 115 28 222 115 28 218 99 21
218 99 21 218 99 21 217 98 20 217 98 20 216 97 19 216 97 19 216 97 19
217 98 20 217 98 20 217 98 18 217 98 18 216 97 17 216 97 17 216 97 17
216 97 17 216 97 14 216 97 14 216 97 14 216 97 14 218 100 17
218 100 17 218 100 17 218 99 19 219 100 24 219 99 26 219 99 26
219 99 26 219 99 26 219 96 24 216 94 21 215 93 20 215 93 18 217 92 18
217 92 18 217 92 18 217 92 18 217 92 18 215 94 16 214 94 16
222 108 26 221 109 26 222 110 27 222 110 27 222 110 27 222 110 27
223 111 28 223 111 28 223 112 26 224 113 27 211 100 14 214 100 16
214 100 18 214 100 18 214 100 18 214 100 18 214 100 18 214 100 18
214 100 18 214 100 18 223 106 25 223 106 25 221 107 25 221 107 25
221 109 26 221 109 26 221 109 26 222 108 26 223 106 27 225 106 28
211 92 14 211 92 14 211 92 14 211 92 14 211 92 14 211 92 14 213 91 16
212 90 15 212 90 15 212 90 15 211 86 14 210 85 13 210 85 13 209 84 12
209 84 12 209 84 12 209 84 10 209 84 10 210 86 9 204 85 7 232 125 43
229 127 43 224 126 41 224 126 41 227 124 41 229 124 41 227 125 39
225 126 39 225 126 39 225 126 39 225 126 39 225 126 39 225 126 39
225 126 39 227 125 39 225 126 39 224 126 39 224 126 39 226 124 37
230 123 39 201 87 5 206 86 8 210 83 10 212 82 12 212 82 12 212 82 12
212 82 12 212 82 12 212 82 12 212 82 12 210 83 12 209 84 12 209 84 12
209 84 12 209 84 10 209 84 10 209 84 10 209 84 10 209 88 10 207 87 9
226 109 30 222 110 29 219 112 27 217 112 27 215 113 27 214 114 27
215 113 27 215 113 27 217 112 27 217 112 27 227 125 39 225 126 39
227 125 39 227 125 39 227 127 38 227 127 38 227 127 38 227 127 38
227 127 38 228 128 39 217 118 28 220 118 30 220 116 28 222 115 28
222 115 28 222 115 28 222 115 28 222 115 28 222 115 28 222 115 28
218 99 21 218 99 21 218 99 21 217 98 20 217 98 20 216 97 19 216 97 19
216 97 19 217 98 20 217 98 20 217 98 18 217 98 18 216 97 17 216 97 17
216 97 17 216 97 17 214 98 17 214 98 17 214 98 17 214 98 17
217 100 19 217 100 19 217 100 19 217 100 21 218 101 24 218 100 26
218 100 26 219 99 26 219 99 26 219 96 24 216 94 21 215 93 20
217 92 18 217 92 18 217 92 18 217 92 18 217 92 18 217 92 18 215 94 16
214 94 16 222 108 26 221 109 26 222 110 27 222 110 27 222 110 27
222 110 27 223 111 28 223 111 28 223 112 26 224 113 27 211 100 14
212 101 16 214 100 18 216 99 18 216 99 18 216 99 18 216 99 18
216 99 18 216 99 18 216 99 18 223 106 25 221 107 25 221 107 25
219 108 25 221 109 26 221 109 26 221 109 26 221 108 28 221 106 27
224 107 28 210 93 14 211 92 14 211 92 14 211 92 14 211 92 14
211 92 14 213 91 16 212 90 15 212 90 15 212 90 15 211 86 14 210 85 13
210 85 13 209 84 12 209 84 12 209 84 12 209 84 10 210 83 10 211 85 9
206 84 7 236 124 43 231 126 43 225 125 41 225 125 41 229 124 41
229 124 41 225 126 39 224 126 39 224 126 39 224 126 39 224 126 39
224 126 39 224 126 39 225 126 39 227 125 39 227 125 39 224 126 39
224 126 39 226 124 37 230 123 39 201 87 5 207 85 8 210 83 10
212 82 12 212 82 12 212 82 12 212 82 12 212 82 12 212 82 12 212 82 12
210 83 12 210 83 12 210 83 12 210 83 12 210 83 10 210 83 10 210 83 10
209 84 10 209 88 10 207 87 9 226 109 30 222 110 29 219 112 27
217 112 27 215 113 27 214 114 27 215 113 27 217 112 27 219 112 27
219 112 27 225 126 39 225 126 39 227 125 39 227 125 39 227 127 38
225 128 38 225 128 38 225 128 38 225 128 38 228 128 39 219 117 28
222 117 30 222 115 28 222 115 28 222 115 28 222 115 28 222 115 28
222 115 28 222 115 28 222 115 28 217 98 20 217 98 20 217 98 20
217 98 20 219 97 20 219 97 20 219 97 18 219 97 18 217 98 18 217 98 18
217 98 18 217 98 18 217 98 18 217 98 18 217 98 18 216 99 18 212 97 17
212 97 17 212 97 17 212 97 17 216 102 22 216 102 22 216 102 22
216 101 24 216 101 26 216 101 26 216 101 26 218 100 26 219 100 24
219 97 22 216 94 19 217 92 18 217 92 18 217 92 18 217 92 18 217 92 18
218 92 16 217 93 16 215 94 16 214 94 16 222 108 28 221 108 28
219 110 26 219 110 26 220 111 27 220 111 27 220 111 27 220 111 27
220 111 27 221 112 28 210 98 15 213 99 17 216 99 18 217 98 18
217 98 18 217 98 18 219 97 18 219 97 18 217 98 18 216 99 18
221 104 26 220 105 26 218 106 26 217 107 26 218 108 27 218 108 27
219 107 27 219 107 27 220 105 28 221 106 29 207 92 15 209 91 15
210 92 16 210 92 16 211 92 16 211 92 16 213 91 16 213 91 16 213 91 16
211 88 14 210 85 11 209 84 10 209 84 10 209 84 10 210 83 10 210 83 10
210 83 10 210 83 10 213 84 11 208 83 9 236 124 43 231 126 43
227 125 39 227 125 39 230 123 39 229 124 39 224 126 39 222 127 39
222 127 39 222 127 39 222 128 37 222 128 37 222 128 37 224 127 37
227 125 37 229 124 37 225 126 37 225 126 37 226 124 35 232 123 37
203 87 3 207 86 6 210 83 12 212 82 14 212 82 14 212 82 14 212 82 14
212 82 14 212 82 14 212 82 14 212 82 14 212 82 14 212 82 12 212 82 12
212 82 12 212 82 12 212 83 10 210 83 10 211 86 12 207 87 11
226 109 30 222 110 29 219 111 29 217 112 29 215 113 27 215 113 27
217 112 27 219 112 27 222 110 27 220 111 27 225 126 37 224 127 37
227 125 37 227 125 37 225 128 38 223 129 36 220 131 36 220 131 36
222 130 36 226 130 37 222 116 26 225 116 28 223 117 30 223 117 30
223 117 30 223 117 30 223 116 32 223 116 32 223 116 32 223 116 32
217 98 20 217 98 20 217 98 20 217 98 20 219 97 20 219 97 20 219 97 18
219 97 18 217 98 18 217 98 18 217 98 18 217 98 18 217 98 18 219 97 18
219 97 18 217 98 18 212 97 17 212 97 19 212 97 19 212 97 19
216 101 24 216 101 24 216 101 24 215 102 24 215 102 26 215 102 26
216 101 26 218 100 26 219 100 24 217 97 22 216 94 19 217 92 18
217 92 18 217 92 18 217 92 18 217 92 18 217 93 16 217 93 16 215 94 16
214 94 16 222 108 28 221 108 28 221 109 26 219 110 26 220 111 27
220 111 27 220 111 27 220 111 27 220 111 27 221 112 28 210 98 15
213 99 17 217 98 18 219 97 20 219 97 20 219 97 20 220 96 20 219 97 20
217 98 20 216 99 20 220 105 26 218 106 26 217 107 26 217 107 26
218 108 27 219 107 27 219 107 27 221 106 27 220 105 28 221 106 29
207 92 15 207 92 15 210 92 16 210 92 16 211 92 16 211 92 16 213 91 16
213 91 16 213 91 16 211 88 14 210 85 11 209 84 10 209 84 10 209 84 10
210 83 10 210 83 10 210 83 10 212 83 10 215 83 11 209 82 9 237 123 43
231 126 43 227 125 39 227 125 39 230 123 39 229 124 39 224 126 39
222 127 39 222 127 39 222 127 39 222 128 37 222 128 37 222 128 37
224 127 37 229 124 37 230 124 37 227 125 37 227 125 37 227 123 35
232 123 37 204 86 3 209 85 6 210 83 12 212 82 14 212 82 14 212 82 14
212 82 14 212 82 14 212 82 14 212 82 14 212 82 14 212 82 14 212 82 12
212 82 12 212 82 12 212 82 12 212 83 10 210 83 10 211 86 12 207 87 11
226 109 30 222 110 29 219 111 29 217 112 29 215 113 27 215 113 27
219 112 27 220 111 27 223 109 27 220 111 27 224 127 37 221 128 37
224 127 37 225 126 37 225 128 36 222 130 36 219 132 36 219 132 36
222 130 36 228 129 37 224 115 26 226 115 28 225 116 30 223 117 30
223 117 30 223 117 30 223 116 32 223 116 32 223 116 32 223 116 32
216 99 20 216 99 20 216 99 20 217 98 20 217 98 20 217 98 20 217 98 18
217 98 18 219 97 18 219 97 18 219 97 18 219 97 18 219 97 18 220 97 18
220 97 18 219 97 18 213 96 17 213 96 17 213 96 17 213 96 17
218 101 22 218 101 22 218 101 22 216 101 24 215 102 24 215 102 24
216 101 24 218 101 24 219 100 24 217 97 22 216 94 19 215 93 18
215 94 16 215 94 16 215 94 16 215 94 16 215 94 16 215 94 16 214 94 16
212 95 16 222 108 28 222 108 28 221 109 26 221 109 26 222 110 29
222 110 29 222 110 29 222 110 29 222 110 29 223 111 30 212 97 17
214 97 19 219 97 20 220 96 22 220 96 22 220 96 22 219 97 22 219 97 22
216 98 22 214 99 22 218 106 28 217 106 28 217 106 28 217 106 28
218 108 29 219 107 29 221 106 29 221 106 29 221 104 28 223 105 29
210 92 16 209 91 15 211 94 17 211 94 17 212 93 17 212 93 17 213 91 16
212 90 15 212 90 15 211 88 14 212 88 14 211 86 12 211 86 12 210 85 11
211 85 11 211 85 11 211 85 11 213 84 11 215 83 11 211 85 11
237 123 43 230 125 42 227 125 39 227 125 39 230 123 39 230 123 39
225 126 39 224 126 39 224 126 39 224 126 39 224 127 37 224 127 37
224 127 37 225 126 37 229 124 37 230 124 37 229 124 37 227 125 37
227 123 35 233 122 37 203 85 2 209 85 6 210 83 12 212 82 14 212 82 14
212 82 14 212 82 14 212 82 14 212 82 14 212 82 14 212 82 14 212 82 14
212 82 12 212 82 12 212 82 12 212 82 12 212 83 10 210 83 10 210 85 11
207 87 11 226 109 30 223 111 30 220 112 30 218 113 30 216 114 28
216 114 28 220 113 28 223 111 28 226 109 28 221 112 28 221 128 37
217 130 37 219 129 37 221 128 37 223 129 36 223 129 36 220 131 36
220 131 36 222 130 36 228 129 37 225 114 26 228 115 28 223 117 30
222 117 30 222 117 30 222 117 30 222 117 32 222 117 32 222 117 32
222 117 32 216 99 20 216 99 20 216 99 20 216 99 20 216 99 20
216 99 20 216 99 18 216 99 18 216 99 18 216 99 18 216 99 18 216 99 18
217 98 18 217 98 18 217 98 18 216 99 18 212 97 15 210 98 17 210 98 17
210 98 17 215 103 22 215 103 22 215 103 22 215 103 22 213 103 22
213 103 24 215 102 24 216 101 24 218 101 24 216 98 22 215 95 19
214 94 16 214 94 16 214 94 16 214 94 16 214 94 16 214 94 16 214 94 16
212 95 16 212 95 16 224 107 28 222 108 28 222 108 28 222 108 28
223 109 29 223 108 31 223 108 31 223 108 31 223 108 31 226 109 32
215 95 19 218 95 21 220 96 22 222 95 24 222 95 24 222 95 24 222 95 24
220 95 24 219 96 24 217 97 22 221 104 28 220 105 28 220 105 28
220 105 28 221 106 29 221 106 29 223 105 29 223 105 29 223 103 28
224 104 29 211 92 16 210 90 15 212 93 17 212 93 17 212 93 17
212 93 17 213 91 16 212 90 15 212 90 15 211 88 14 212 88 14 211 86 12
211 86 12 210 85 11 211 85 11 211 85 11 211 85 11 213 84 11 215 83 11
213 86 12 237 123 43 227 122 39 227 124 41 227 125 39 230 123 39
230 123 39 227 125 39 225 126 39 225 126 39 225 126 39 225 126 37
225 126 37 225 126 37 227 125 37 230 124 37 230 124 37 229 124 37
229 124 37 229 122 35 233 122 37 202 83 1 208 82 4 212 82 12
212 82 14 212 82 14 212 82 14 212 82 14 212 82 14 212 82 14 212 82 14
212 82 14 212 82 14 212 82 12 212 82 12 212 82 12 212 82 12 212 83 10
210 83 10 208 83 9 204 85 9 226 109 30 223 111 30 220 112 30
218 113 30 216 114 28 216 114 28 221 112 28 224 110 28 226 109 28
221 112 28 219 129 37 213 133 37 213 133 37 214 132 37 219 132 36
217 132 36 214 134 36 214 134 36 217 132 36 223 131 37 219 117 26
223 117 28 222 117 30 220 118 30 220 118 30 220 118 30 220 118 32
220 118 32 220 118 32 220 118 32 220 105 26 220 105 26 220 105 26
220 105 26 220 105 26 220 105 26 218 106 23 218 106 23 221 109 26
218 108 25 232 123 37 231 122 35 231 121 37 231 121 37 231 121 37
229 122 37 229 124 39 227 125 39 227 125 39 227 125 39 222 120 34
222 120 34 222 120 34 222 120 34 223 121 35 225 120 37 227 119 37
228 119 37 230 118 37 230 118 37 221 106 27 222 108 28 224 107 28
224 107 28 224 107 28 224 107 28 224 107 28 224 107 28 224 107 28
224 107 28 207 90 12 207 90 12 207 90 12 206 89 12 208 88 12
207 87 13 207 87 13 207 87 13 210 90 17 211 88 16 197 72 0 197 70 0
200 70 0 202 69 2 203 68 2 205 68 2 205 68 2 205 68 2 203 68 2
202 70 0 206 76 6 204 77 6 203 78 6 203 78 6 202 80 7 202 80 7
202 80 7 202 80 7 205 82 10 200 78 5 213 90 18 211 88 16 214 92 17
212 93 17 212 93 17 212 93 17 214 92 17 214 92 17 213 91 16 213 91 16
212 88 14 212 88 14 211 86 12 211 86 12 213 86 12 213 86 12 213 86 12
214 85 12 216 84 12 214 87 14 222 107 30 225 120 39 214 112 28
214 112 28 217 110 28 219 109 28 217 110 26 216 111 26 216 111 26
216 111 26 216 112 24 216 112 24 216 112 24 217 111 24 219 110 24
217 111 24 216 112 24 216 112 24 215 108 21 222 110 25 200 81 0
207 81 3 206 76 6 206 76 8 206 76 8 206 76 8 206 76 8 206 76 8
206 76 8 206 76 8 210 79 12 210 79 12 210 80 10 210 80 10 210 80 10
210 80 10 210 80 8 208 81 8 206 82 8 203 83 8 226 109 30 224 112 31
221 114 31 219 114 31 218 116 29 218 116 29 222 113 29 226 111 29
226 111 29 219 115 29 250 168 73 242 172 73 242 172 73 242 172 73
243 173 72 242 174 72 239 176 72 239 176 72 245 178 75 249 174 74
223 138 42 228 136 42 231 134 44 232 133 44 232 133 44 232 133 44
232 133 46 232 133 46 232 133 46 232 133 46 218 106 26 218 106 26
218 106 26 218 106 26 218 106 26 218 106 26 217 107 23 217 107 23
217 110 26 216 109 25 230 124 37 229 122 35 229 122 37 229 122 37
229 122 37 227 123 37 225 126 37 225 126 37 225 126 37 225 126 37
221 121 32 221 121 32 221 121 32 221 121 32 222 122 35 222 122 35
223 121 35 225 121 35 227 120 35 228 119 35 219 108 25 221 109 26
221 108 28 222 108 28 222 108 28 222 108 28 222 108 28 222 108 28
222 108 28 224 107 28 209 90 12 211 89 12 211 88 14 209 87 12
209 87 14 210 85 13 210 85 13 210 85 13 213 88 17 212 87 16 199 71 0
199 69 1 203 68 2 205 68 2 207 67 2 207 66 4 208 66 4 207 66 4
207 66 4 205 68 2 209 74 8 208 76 6 206 76 6 204 77 6 206 78 7
204 79 7 204 79 9 204 79 9 206 81 10 202 77 5 215 90 18 211 88 16
214 92 17 214 92 17 212 93 17 212 93 17 214 92 17 214 92 17 213 91 16
213 91 16 212 88 14 212 88 14 211 86 12 211 86 12 213 86 12 213 86 12
213 86 12 213 86 12 214 85 12 213 89 15 221 108 30 223 117 37
214 112 28 214 112 28 217 110 28 219 109 28 219 110 26 219 110 26
219 110 26 219 110 26 219 110 24 219 110 24 219 110 24 219 110 24
219 110 24 217 111 24 216 112 24 216 112 24 215 108 21 222 110 25
199 80 0 206 79 1 206 76 6 206 76 8 206 76 8 206 76 8 206 76 8
206 76 8 206 76 8 206 76 8 210 79 12 210 79 12 210 80 10 210 80 10
210 80 10 210 80 10 210 80 8 208 81 8 204 79 5 202 82 7 226 109 30
224 112 31 221 114 31 219 114 31 218 116 29 219 115 29 224 112 29
226 111 29 226 111 29 218 116 29 247 169 73 239 174 73 238 174 73
236 175 73 237 177 72 237 177 72 234 178 72 234 178 72 241 180 75
243 177 74 216 142 42 223 138 42 228 135 44 231 134 44 231 134 44
231 134 44 231 133 46 231 133 46 231 133 46 231 133 46 217 107 23
217 107 23 217 107 23 217 107 23 217 107 26 217 107 26 217 107 23
215 108 23 219 110 26 218 108 25 232 123 37 231 122 35 231 121 37
231 121 37 231 121 37 229 122 37 227 125 37 227 126 35 227 126 35
227 126 35 222 121 30 222 121 30 222 121 30 221 121 32 222 123 33
222 123 33 223 122 33 225 121 33 227 120 35 228 119 35 218 108 25
219 110 26 219 110 26 221 109 26 221 109 26 221 109 26 221 109 26
221 109 26 221 108 28 222 108 28 211 89 12 212 88 12 212 88 14
211 86 14 211 86 14 211 84 13 211 84 15 211 84 15 215 87 19 214 86 18
200 70 2 201 68 3 205 67 4 207 66 4 207 66 4 208 65 6 207 66 6
207 66 6 205 67 6 203 68 4 208 75 8 206 76 8 206 76 8 204 77 8
206 78 9 206 78 9 206 78 9 206 78 9 208 81 10 203 76 5 216 91 19
212 87 16 215 93 18 215 93 18 214 94 18 214 94 18 214 92 17 214 92 17
213 91 16 213 91 16 212 90 15 212 90 15 212 90 15 213 89 15 212 88 14
212 88 14 212 88 14 212 88 14 213 86 12 214 92 17 221 108 30
222 116 36 214 112 28 214 112 28 216 111 28 219 109 28 219 110 26
221 109 26 221 109 26 221 109 26 221 109 24 221 109 24 221 109 24
219 110 24 219 110 24 217 111 24 216 112 22 216 112 22 215 109 19
222 111 23 197 79 0 206 79 1 206 76 6 206 76 8 206 76 8 206 76 8
206 76 8 206 76 8 206 76 8 206 76 8 210 79 12 210 79 12 210 80 10
210 80 10 210 80 10 210 80 10 210 80 8 208 81 8 203 78 4 202 82 7
226 109 30 225 113 32 222 115 32 220 115 32 219 117 30 220 116 30
225 113 30 227 113 30 225 113 30 216 118 30 245 172 74 235 177 74
234 178 74 234 178 74 237 177 72 237 177 72 235 178 72 235 178 72
241 180 75 244 177 74 218 141 42 223 138 42 226 136 44 229 135 44
229 135 44 229 135 44 229 134 46 229 134 46 229 134 46 229 134 46
217 107 23 217 107 23 217 107 23 217 107 23 217 107 26 217 107 26
217 107 23 217 107 23 219 110 26 216 109 25 230 124 37 229 122 35
229 122 37 227 123 37 227 123 37 227 123 37 227 125 37 227 126 35
227 126 35 227 126 35 222 121 30 222 121 30 222 121 30 222 121 32
222 123 33 222 123 33 223 122 33 225 121 33 227 120 35 227 120 35
218 108 25 219 110 26 219 110 26 219 110 26 219 110 26 219 110 26
219 110 26 219 110 26 219 109 28 222 108 28 211 89 12 214 87 14
214 87 14 213 85 14 213 85 14 211 84 13 211 84 15 211 84 15 215 87 19
214 86 18 200 70 4 201 68 3 205 67 4 207 66 6 207 66 6 208 65 9
207 66 9 207 66 6 205 67 6 203 68 6 208 75 10 206 76 8 204 77 8
204 77 8 206 78 9 206 78 9 206 78 9 206 78 9 208 81 10 203 76 5
216 91 19 212 87 16 214 92 17 214 92 17 214 92 17 212 93 17 214 92 17
214 92 17 213 91 16 213 91 16 212 90 15 212 90 15 212 90 15 212 90 15
211 88 14 211 88 14 211 88 14 211 88 14 210 85 11 211 92 16
219 107 29 222 114 35 214 112 28 214 112 28 217 110 28 219 109 28
219 110 26 221 109 26 221 109 26 221 109 26 221 109 24 221 109 24
221 109 24 221 109 24 221 109 24 219 110 24 216 112 22 216 112 22
217 108 19 223 110 23 199 78 0 206 79 1 206 76 6 208 75 10 208 75 10
208 75 10 208 75 10 208 75 10 208 75 10 206 76 10 210 79 12 210 79 12
210 80 10 210 80 10 210 80 10 210 80 10 210 80 8 208 81 8 204 78 4
204 81 7 226 109 30 224 114 32 220 115 32 219 116 32 219 117 30
220 116 30 224 114 30 225 113 30 224 114 30 216 118 30 243 173 74
234 178 74 232 179 74 234 178 74 237 177 72 237 177 72 235 178 72
235 178 72 239 179 74 243 175 73 217 140 40 222 137 40 226 136 44
228 135 44 228 135 44 228 135 44 228 135 46 228 135 46 228 135 46
228 135 46 219 108 25 219 108 25 219 108 25 219 108 25 219 108 25
219 108 25 219 108 25 219 108 25 219 112 27 216 111 26 228 126 40
227 125 39 225 126 39 224 126 39 222 127 39 224 126 39 225 126 37
227 125 37 227 125 37 227 125 37 222 121 32 222 121 32 222 121 32
222 121 32 221 121 34 221 121 34 222 120 34 224 119 34 225 119 32
225 119 32 217 108 21 219 110 24 217 111 24 217 111 24 217 111 24
217 111 24 217 110 26 217 110 26 217 110 26 221 108 28 212 88 12
215 86 14 215 86 14 215 86 14 214 84 14 214 84 14 213 85 14 213 85 14
214 86 16 213 85 16 199 69 3 200 67 2 202 66 5 204 65 7 205 64 7
205 64 9 205 64 9 205 64 7 204 65 7 202 66 5 207 74 9 205 74 9
203 76 7 202 76 7 203 78 8 203 78 8 204 77 8 204 77 8 208 78 11
202 74 6 215 90 18 211 86 14 216 91 19 216 91 19 214 92 17 214 92 17
214 92 17 214 92 17 214 92 17 214 92 17 213 91 16 213 91 16 212 90 15
212 90 15 212 90 15 210 90 15 210 90 15 210 90 15 207 87 11 210 92 16
219 107 27 222 115 32 219 111 29 219 111 29 219 112 27 220 111 27
220 111 27 220 111 27 220 111 25 220 111 25 220 111 25 220 111 25
220 112 23 220 112 23 222 111 23 222 111 23 219 112 23 219 112 23
219 108 21 226 110 24 202 79 0 208 80 3 208 75 8 209 73 12 209 73 12
209 73 12 209 73 12 209 73 12 209 73 12 208 74 12 210 79 14 208 80 12
208 81 10 208 81 10 208 81 10 208 81 10 208 81 8 210 80 8 206 77 4
207 80 7 224 110 30 222 115 32 219 116 32 219 116 32 222 115 30
222 115 30 222 115 30 222 115 30 222 115 30 214 119 30 245 174 75
235 179 75 237 178 75 238 177 75 240 177 73 238 178 73 237 179 73
237 179 73 239 179 74 243 175 73 217 140 40 222 137 40 225 135 42
226 134 42 226 134 42 226 134 42 228 135 46 228 135 46 228 135 46
228 135 46 219 108 25 219 108 25 219 108 25 219 108 25 219 108 25
219 108 25 221 107 25 219 108 25 219 112 27 216 111 26 228 126 40
225 126 39 224 126 39 222 127 39 221 128 39 222 127 39 225 126 37
227 125 37 227 125 37 227 125 37 222 121 32 222 121 32 222 121 32
221 121 32 221 121 34 221 121 34 222 120 34 222 120 34 224 120 32
225 119 32 217 108 21 219 110 24 217 111 24 217 111 24 217 111 24
217 111 24 217 110 26 217 110 26 217 110 26 221 108 28 212 88 14
215 86 14 215 86 14 215 86 14 214 84 14 214 84 14 213 85 14 213 85 14
214 86 16 213 85 16 199 69 3 200 66 4 202 66 7 204 65 7 205 64 9
205 64 9 205 64 9 205 64 9 204 65 7 202 66 5 207 74 9 203 75 9
202 76 7 202 76 7 203 78 8 203 78 8 204 77 8 204 77 8 208 78 11
204 74 6 216 89 18 213 85 14 216 89 18 215 90 18 215 90 16 215 90 16
216 91 17 216 91 17 216 91 17 214 92 17 213 91 16 213 91 16 212 90 15
212 90 15 210 90 15 210 90 15 210 90 15 209 91 15 204 87 10 207 92 15
218 106 26 222 113 31 220 110 29 219 111 29 220 111 27 220 111 27
219 112 27 219 112 25 219 112 25 219 112 23 219 112 23 217 113 23
217 113 23 219 112 23 222 111 23 222 111 23 219 112 23 219 112 25
219 108 23 226 110 26 202 78 0 208 79 5 208 75 10 209 73 14 209 73 14
209 73 14 209 73 14 209 73 14 209 73 14 208 74 12 210 79 14 208 80 12
208 81 10 208 81 10 208 81 10 208 81 10 208 81 8 210 80 8 209 75 4
208 79 7 226 109 30 222 115 32 219 116 32 220 115 32 225 113 30
225 113 30 222 115 30 222 115 30 222 115 30 214 119 30 243 175 75
235 179 75 235 179 75 237 178 75 238 178 73 237 179 73 235 179 73
235 179 73 237 179 73 240 175 72 214 139 39 220 136 39 225 135 42
226 134 42 226 134 42 226 134 42 228 135 46 228 135 46 228 135 46
228 135 46 221 107 23 221 107 23 221 107 23 221 107 23 221 107 25
221 107 25 219 108 25 219 108 25 220 111 27 217 110 26 230 125 40
227 125 39 224 126 39 222 127 39 222 127 39 222 127 39 224 127 37
225 126 37 225 126 37 225 126 37 221 121 32 221 121 32 221 121 32
219 122 32 219 122 34 221 121 34 221 121 34 222 120 34 224 120 32
225 119 32 215 108 21 217 111 24 219 110 24 219 110 24 219 110 24
219 110 24 219 110 24 219 110 24 219 110 26 222 108 28 212 88 14
215 86 14 215 86 14 215 86 14 214 84 14 214 84 14 213 85 14 213 85 14
214 86 16 213 85 16 199 69 3 200 66 4 202 66 7 204 65 7 205 64 9
205 64 11 205 64 11 205 64 9 204 65 7 202 66 5 207 74 9 203 76 7
202 76 7 200 78 5 203 78 8 203 78 8 204 77 6 204 77 6 208 79 9
204 74 4 218 88 18 214 85 12 218 88 16 216 89 16 216 89 16 216 90 14
217 91 15 217 91 15 217 91 15 216 92 15 215 90 16 215 90 16 213 91 16
213 91 16 212 90 15 212 90 15 210 90 15 209 91 15 204 87 10 207 92 15
218 106 26 224 112 31 220 111 27 220 111 27 219 112 27 219 112 25
219 112 25 219 112 23 217 113 23 217 114 21 217 114 21 215 114 21
215 114 21 217 114 21 219 112 23 219 112 25 217 113 25 217 112 27
216 109 25 223 111 28 199 80 0 207 80 5 208 75 10 209 73 14 209 73 14
209 73 14 209 73 14 209 73 14 209 73 14 208 74 12 210 79 14 208 80 12
208 81 10 208 81 10 208 81 10 208 81 10 208 81 8 211 79 8 212 73 4
212 77 7 229 107 30 227 112 32 224 114 32 224 114 32 228 112 30
228 112 30 227 113 30 225 113 30 224 114 30 214 119 30 244 176 76
235 181 76 233 182 76 233 182 76 235 179 73 235 179 73 232 181 73
232 181 73 233 180 73 237 177 72 212 140 39 219 137 39 225 135 42
228 133 42 228 133 42 228 133 42 229 134 46 229 134 46 229 134 46
229 134 46 221 107 23 221 107 23 221 107 23 221 107 23 221 107 25
221 107 25 219 108 25 219 108 25 222 110 27 219 110 26 231 124 40
229 124 39 225 126 39 224 126 39 224 126 39 224 126 39 224 127 37
225 126 37 225 126 37 225 126 37 221 121 32 221 121 32 221 121 32
221 121 32 221 121 34 221 121 34 221 121 34 222 120 34 224 120 32
225 119 32 215 108 21 219 110 24 219 110 24 219 110 24 219 110 24
219 110 24 219 110 24 219 110 24 219 110 26 222 108 28 212 88 14
215 86 14 215 86 14 215 86 16 214 84 14 214 84 14 213 85 14 213 85 14
214 86 16 213 85 16 199 69 3 200 66 4 202 66 7 204 65 7 205 64 9
205 64 11 205 64 11 205 64 9 204 65 7 201 67 5 205 74 9 203 76 7
202 77 5 200 78 5 203 78 8 203 78 8 204 77 6 204 77 6 208 79 9
204 74 4 218 88 18 214 85 12 218 88 16 216 89 16 216 90 14 216 90 14
217 91 15 217 91 15 217 91 15 216 92 15 215 90 16 215 90 16 213 91 16
213 91 16 212 90 15 212 90 15 210 90 15 210 90 15 204 87 10 209 91 15
220 105 26 226 111 31 222 110 27 222 110 27 220 111 27 220 111 25
220 111 25 220 112 23 219 112 23 219 113 21 217 114 21 217 114 21
215 114 21 217 113 23 219 112 25 219 112 27 217 112 29 217 112 29
216 109 27 224 110 30 199 77 0 207 79 9 208 74 12 209 73 14 209 73 14
209 73 14 209 73 14 209 73 14 209 73 14 208 74 12 210 79 14 208 80 12
208 81 10 208 81 10 208 81 10 208 81 10 208 81 8 211 79 8 215 76 7
213 77 7 231 107 30 227 112 32 224 114 32 224 114 32 228 112 30
228 112 30 227 113 30 225 113 30 224 114 30 214 119 30 244 176 76
235 181 76 233 182 76 233 182 76 235 179 73 235 179 73 232 181 73
232 181 73 233 180 73 237 177 72 212 140 39 220 138 40 225 135 42
228 133 42 228 133 42 228 133 42 229 134 46 229 134 46 229 134 46
229 134 46 219 108 25 219 108 25 219 108 25 219 108 25 219 108 25
219 108 25 221 107 25 221 107 25 217 103 21 222 110 27 227 118 34
231 124 40 229 124 41 227 124 41 225 125 41 225 126 39 225 126 37
227 125 37 227 125 37 227 125 37 223 122 33 223 122 33 223 122 33
223 122 33 225 123 36 225 123 36 225 123 36 226 122 36 228 121 34
226 117 31 220 111 25 217 108 21 217 108 21 217 108 21 217 108 21
217 108 21 217 108 21 217 108 21 217 107 23 220 105 26 212 88 14
215 86 14 215 86 16 215 86 16 214 84 16 214 84 16 213 85 14 213 85 14
215 85 18 214 84 16 199 69 3 200 66 4 202 66 7 204 65 7 205 64 9
205 64 9 205 64 9 205 64 9 204 65 7 201 67 5 206 76 10 204 77 8
203 78 6 201 79 6 204 79 9 204 79 9 206 78 9 207 77 9 203 76 7
201 73 5 220 92 21 218 91 20 214 87 14 212 88 14 212 88 12 212 88 12
213 89 13 213 89 13 213 89 13 212 90 13 213 91 16 213 91 16 213 91 16
213 91 16 212 90 15 212 90 15 210 90 15 210 90 15 209 89 14 206 86 10
231 112 34 226 109 30 224 107 28 224 107 28 222 108 26 222 108 26
222 108 26 222 108 24 221 109 24 221 110 22 219 110 22 219 110 22
217 111 24 219 110 26 221 108 28 221 108 30 219 108 32 219 108 32
222 109 33 224 104 31 203 76 5 205 73 6 209 73 12 209 73 14 209 73 14
209 73 14 209 73 14 209 73 14 209 73 14 208 74 12 211 81 13 209 82 11
209 82 11 209 82 11 209 82 11 209 82 11 209 82 9 211 81 9 214 80 7
208 76 2 236 116 38 222 113 29 222 117 32 222 117 32 226 115 32
226 115 30 225 116 30 223 117 30 223 117 30 215 121 30 242 172 73
233 177 73 234 178 74 234 178 74 238 178 73 237 179 73 235 181 74
235 181 74 239 181 75 239 174 71 218 143 43 223 138 42 224 134 41
225 133 41 225 133 41 225 133 41 226 134 42 226 134 42 226 134 42
226 134 42 219 108 25 219 108 25 219 108 25 219 108 25 219 108 25
219 108 25 221 107 25 221 107 25 219 104 22 222 108 26 225 113 30
227 118 34 229 122 39 227 122 39 226 123 39 226 123 39 227 123 37
229 122 35 229 122 35 229 122 35 225 119 32 225 119 32 225 119 32
224 120 32 225 121 35 227 120 35 227 120 35 228 119 35 230 118 33
226 115 30 224 111 26 221 109 24 221 109 24 219 110 24 219 110 24
219 110 24 219 110 24 219 110 24 219 110 26 222 108 28 212 88 14
215 86 14 215 86 16 214 84 14 214 84 16 214 84 16 213 85 14 213 85 14
215 85 18 214 84 16 199 69 3 200 66 4 202 66 7 204 65 7 205 64 9
205 64 9 205 64 9 205 64 9 204 65 7 201 68 3 206 76 8 203 78 6
201 79 4 201 79 4 204 79 7 206 78 9 207 77 9 207 77 9 203 76 7
201 73 5 220 92 21 217 92 20 213 91 16 211 92 16 211 92 14 211 92 14
212 93 15 212 93 15 211 92 14 211 92 14 211 92 16 211 92 16 210 90 15
210 90 15 209 89 14 209 89 14 209 89 14 209 89 14 204 81 7 207 85 10
226 104 29 229 107 32 227 105 30 227 105 28 227 105 28 227 105 28
227 105 28 225 106 28 225 106 28 225 106 28 224 107 28 224 107 28
222 108 28 224 106 30 227 104 32 227 104 32 224 106 34 224 105 36
225 101 34 224 96 30 213 77 14 217 79 16 209 73 12 209 73 14
209 73 14 209 73 14 209 73 14 209 73 14 209 73 14 208 74 12 208 78 11
207 79 9 207 79 9 207 79 9 207 79 9 207 79 9 207 80 7 207 80 7
208 81 6 200 78 1 232 122 39 223 121 35 214 117 29 214 117 29
218 116 27 219 115 27 216 117 27 214 118 27 216 117 27 210 120 27
243 173 74 239 175 74 240 175 74 240 175 74 243 175 73 241 176 73
238 178 73 238 178 73 247 182 79 242 172 71 223 141 44 222 133 38
225 133 41 225 133 41 225 133 41 225 133 41 226 134 42 226 134 42
226 134 42 226 134 42 219 108 25 219 108 25 219 108 25 219 108 25
219 108 25 219 108 25 221 107 25 221 107 25 220 106 23 221 107 25
221 109 26 219 110 26 218 108 27 215 108 26 213 109 26 215 108 26
218 106 23 220 106 21 220 106 21 220 106 21 216 103 18 216 103 18
216 103 18 215 103 18 216 104 21 216 104 21 217 103 21 217 103 21
219 103 19 218 100 17 217 101 17 216 99 16 214 100 16 212 101 16
211 102 16 211 102 16 211 102 16 211 102 16 211 101 18 214 99 20
212 88 14 215 86 14 215 86 16 214 84 14 214 84 16 214 84 16 213 85 14
213 85 14 215 85 18 214 84 16 199 69 3 200 66 4 202 66 7 204 65 7
205 64 9 205 64 9 205 64 9 205 64 9 204 65 7 201 68 3 220 90 22
217 92 20 215 93 18 215 93 18 218 93 21 220 92 21 221 91 21 221 91 21
217 90 19 215 88 17 234 106 35 229 107 32 225 113 35 222 115 32
224 114 32 224 114 30 225 115 32 225 113 30 224 112 29 223 111 30
224 110 32 223 108 31 224 106 30 223 105 29 221 104 28 223 103 28
223 103 28 223 103 28 225 102 28 223 98 24 206 79 5 202 75 4 201 72 2
201 72 0 201 72 0 201 72 0 201 72 2 200 72 2 200 72 2 200 72 4
200 72 4 200 72 4 200 72 4 201 71 6 203 70 6 203 70 6 201 71 6
201 70 8 203 70 8 204 66 5 217 71 13 214 69 11 210 71 13 208 72 13
208 72 13 208 72 13 208 72 13 208 72 13 208 72 13 207 73 11 217 86 19
215 88 17 215 88 17 215 88 17 215 88 17 215 88 17 215 88 15 213 89 15
210 91 13 203 93 12 240 143 55 234 144 54 237 151 60 237 151 60
240 150 58 240 150 58 237 152 58 237 152 58 240 150 58 236 149 55
225 152 54 222 152 53 226 149 52 228 148 52 225 148 49 223 149 49
221 148 47 221 148 47 219 144 44 223 141 44 222 130 36 226 130 37
227 132 41 225 133 41 225 133 41 225 133 41 226 134 42 226 134 42
226 134 42 226 134 42 219 108 25 219 108 25 219 108 25 219 108 25
219 108 25 219 108 25 221 107 25 221 107 25 221 107 25 220 106 23
217 105 22 216 104 21 215 106 24 215 106 24 214 107 24 215 106 24
219 104 22 220 104 22 220 104 22 220 104 22 217 100 19 217 100 19
217 100 19 217 100 19 216 102 20 216 102 20 218 101 20 218 101 20
218 99 19 218 99 19 219 101 20 218 101 20 218 101 20 216 102 20
215 103 20 215 103 20 215 103 20 215 103 20 215 103 20 218 101 22
212 88 14 215 86 14 214 84 14 214 84 14 214 84 16 214 84 16 213 85 14
213 85 14 215 85 18 214 84 16 199 69 3 200 67 2 202 66 5 202 66 7
204 65 9 205 64 9 205 64 9 204 65 9 202 66 7 201 68 3 219 89 21
216 91 19 214 92 17 214 92 15 217 92 18 218 91 20 220 90 20 220 90 20
216 89 18 212 87 16 229 107 32 225 108 31 224 117 35 221 119 35
223 118 33 223 118 33 225 119 34 224 117 33 224 114 30 222 113 29
223 111 30 222 109 31 221 106 29 220 105 28 220 103 26 220 103 26
222 102 26 222 102 26 218 95 21 223 98 24 200 70 0 205 73 4 205 70 2
205 70 2 203 71 2 203 70 4 203 70 6 205 69 6 205 69 8 205 69 8
205 69 8 205 69 8 205 68 10 205 68 10 206 68 8 206 68 8 205 69 8
205 69 8 204 66 5 202 59 1 223 75 18 218 71 13 211 70 13 208 72 13
208 72 13 208 72 13 208 72 13 208 72 13 208 72 13 207 73 11 214 84 16
213 85 14 213 85 14 213 85 14 213 85 14 213 86 12 213 86 12 209 88 10
205 88 9 199 95 12 239 147 57 235 152 60 231 151 57 231 151 57
233 150 55 233 150 55 230 152 55 230 152 55 234 150 55 234 150 55
228 151 54 226 150 53 230 148 53 231 146 52 228 146 49 225 146 47
224 147 47 223 145 46 229 147 50 235 148 52 224 130 37 221 125 32
227 132 41 225 133 41 225 133 41 225 133 41 226 134 42 226 134 42
226 134 42 226 134 42 219 108 25 219 108 25 219 108 25 219 108 25
219 107 27 219 107 27 219 107 27 219 107 27 220 105 26 220 105 26
218 106 26 218 106 26 218 106 26 217 107 26 217 107 26 217 107 26
219 104 24 220 103 24 220 103 24 220 103 24 219 102 23 219 102 23
219 102 23 219 102 23 219 102 23 219 102 23 219 102 23 219 102 23
218 101 22 218 101 22 218 101 22 218 101 22 217 100 21 217 100 21
215 101 21 215 101 21 215 101 21 215 101 21 215 101 21 218 99 21
212 88 14 214 86 16 213 85 14 213 85 14 214 84 16 214 84 16 214 84 16
214 84 16 215 85 18 214 84 16 201 68 3 200 67 2 202 66 5 202 66 7
204 65 9 204 65 9 204 65 9 204 65 9 202 66 7 201 68 3 217 90 21
216 91 19 214 92 17 214 92 15 217 92 18 218 91 18 220 90 20 220 90 20
220 92 21 214 92 19 228 113 36 222 114 35 222 117 34 220 117 34
222 117 32 222 117 32 224 117 33 224 117 33 226 117 33 226 117 33
215 106 24 217 105 24 217 105 24 219 104 24 219 104 26 220 103 26
222 102 26 222 102 26 219 99 26 225 102 30 204 74 4 210 76 7 207 70 5
207 70 5 206 71 5 204 71 7 207 71 12 209 70 14 209 70 14 209 70 14
203 64 8 203 64 8 203 64 8 203 64 8 203 64 6 203 64 6 203 64 6
203 64 6 203 64 6 205 64 7 208 67 10 210 69 12 210 72 11 208 72 11
208 72 11 208 72 11 208 72 11 208 72 11 208 72 11 207 74 9 215 87 19
213 88 17 213 89 15 213 89 15 213 89 15 213 89 13 213 89 13 213 89 13
210 91 13 204 94 13 237 144 55 229 146 54 233 148 56 232 149 56
230 150 54 230 150 54 230 152 55 231 151 55 233 150 55 232 149 54
229 149 51 226 149 50 228 148 50 228 148 50 227 147 49 227 147 49
227 147 49 228 146 49 227 143 46 229 142 46 226 135 40 225 134 39
225 134 39 225 134 39 225 134 39 225 134 39 226 134 42 226 134 42
226 134 42 226 134 42 219 108 25 219 108 25 219 108 25 219 108 25
219 107 27 219 107 27 219 107 27 219 107 27 220 105 26 220 105 26
218 106 26 218 106 26 218 106 26 218 106 26 217 107 26 218 106 26
219 104 24 220 103 24 220 103 24 220 103 24 219 102 23 219 102 23
219 102 23 219 102 23 219 102 23 219 102 23 219 102 23 219 102 23
218 101 22 218 101 22 218 101 22 218 101 22 217 100 21 217 100 21
217 100 21 217 100 21 217 100 21 217 100 21 217 100 21 218 99 23
212 87 16 214 86 16 213 85 14 213 85 14 214 84 16 214 84 16 214 84 16
214 84 16 215 85 18 214 84 16 201 68 3 200 67 2 202 66 5 202 66 7
204 65 9 204 65 9 204 65 9 204 65 9 202 66 7 199 69 3 217 90 21
214 92 17 212 93 15 212 93 15 215 94 16 218 91 18 220 91 18 220 90 20
220 92 21 212 92 19 225 115 36 220 115 35 220 117 34 220 117 34
222 117 32 222 117 32 224 117 33 224 117 33 226 117 33 226 117 33
215 106 24 215 106 24 217 105 24 217 105 24 219 104 26 220 103 26
222 102 26 222 102 26 218 100 26 223 103 30 204 74 4 212 75 7
209 69 5 209 69 5 206 71 5 206 70 7 209 70 14 209 69 16 209 69 16
209 69 16 203 63 10 203 63 10 203 63 10 203 63 10 203 64 8 203 64 6
203 64 6 203 64 6 203 64 6 204 65 7 206 68 10 209 70 12 208 72 11
208 72 11 208 72 11 208 72 11 208 72 11 208 72 11 208 72 11 207 74 9
215 87 19 213 88 17 213 89 15 213 89 13 213 89 13 213 89 13 213 90 11
213 90 11 212 90 13 205 93 13 237 144 55 231 146 54 235 147 56
233 148 56 230 150 54 228 151 54 231 151 55 231 151 55 233 150 55
232 149 54 229 149 51 228 148 50 226 149 50 226 149 50 225 148 49
227 147 49 228 146 49 230 145 49 229 142 46 229 142 46 225 136 40
224 134 39 225 134 39 225 134 39 225 134 39 225 134 39 226 134 42
226 134 42 226 134 42 226 134 42 219 108 25 219 108 25 219 108 25
219 108 25 219 107 27 219 107 27 218 108 27 219 107 27 218 106 26
218 106 26 218 106 26 218 106 26 218 106 26 218 106 26 218 106 26
218 106 26 219 104 24 220 103 24 220 103 24 220 103 24 219 102 23
219 102 23 219 102 23 219 102 23 219 102 23 219 102 23 219 102 23
219 102 23 218 101 22 218 101 22 218 101 22 218 101 22 217 100 21
217 100 21 217 100 21 217 100 21 217 100 21 217 100 21 217 100 21
218 99 23 212 87 16 214 86 16 213 85 14 213 85 14 214 84 16 214 84 16
214 84 16 214 84 16 215 85 18 214 84 16 201 68 3 200 67 2 202 66 5
202 66 7 204 65 9 204 65 9 204 65 9 204 65 9 202 66 7 199 69 3
217 90 19 214 92 17 212 93 15 212 94 13 215 94 14 218 92 16 220 91 18
220 91 18 220 93 19 212 93 17 225 115 36 220 115 32 220 117 34
220 118 32 222 117 32 222 117 30 224 117 33 224 117 33 226 117 33
226 117 33 215 106 22 215 106 22 217 105 22 217 105 24 219 104 26
220 103 26 222 102 26 220 103 26 216 101 26 221 104 30 202 75 4
210 76 7 209 69 5 209 69 5 206 71 5 206 70 7 209 70 14 209 69 16
209 69 16 209 69 16 203 63 10 203 63 10 203 63 10 203 63 10 203 64 8
203 64 6 203 64 6 203 64 6 203 64 6 204 65 7 206 68 10 209 70 12
207 71 10 207 71 10 207 71 10 207 71 10 207 71 10 207 71 10 207 71 10
205 72 8 215 87 19 213 88 17 213 89 15 213 89 13 213 89 13 213 89 13
213 90 11 213 90 11 212 90 13 205 93 13 237 144 55 231 146 54
235 147 56 233 148 56 230 150 54 228 151 54 231 151 55 231 151 55
231 151 55 230 150 54 229 149 51 228 148 50 226 149 50 226 149 50
225 148 49 227 147 49 228 146 49 230 145 49 229 142 46 229 142 46
225 136 40 224 134 39 225 134 39 225 134 39 225 134 39 225 134 39
226 134 42 226 134 42 226 134 42 226 134 42 219 108 25 219 108 25
219 108 25 219 108 25 219 107 27 219 107 27 218 108 27 218 108 27
218 106 26 218 106 26 218 106 26 218 106 26 218 106 26 218 106 26
218 106 26 220 105 26 220 103 24 220 103 24 220 103 24 220 103 24
219 102 23 219 102 23 219 102 23 219 102 23 219 102 23 219 102 23
219 102 23 219 102 23 218 101 22 218 101 22 218 101 22 218 101 22
217 100 21 217 100 21 217 100 21 217 100 21 217 100 21 217 100 21
217 100 21 218 99 23 212 87 16 214 86 16 213 85 14 213 85 14
214 84 16 214 84 16 214 84 16 214 84 16 215 85 18 214 84 16 201 68 3
200 67 2 202 66 5 202 66 5 204 65 7 204 65 9 204 65 9 204 65 7
202 66 5 199 69 3 217 90 19 214 92 17 212 93 15 212 94 13 215 94 14
218 92 16 220 91 18 220 91 18 220 93 19 212 93 17 225 115 34
220 115 32 220 118 32 220 118 32 222 117 30 222 117 30 224 117 33
224 117 33 226 117 33 226 117 33 215 106 22 215 106 22 217 105 22
217 105 24 219 104 26 219 104 26 220 103 26 220 103 26 216 101 26
221 104 30 202 75 4 210 76 7 209 69 5 209 69 5 206 71 5 204 71 7
207 70 14 209 69 16 209 69 16 209 69 16 203 63 10 203 63 10 203 63 10
203 63 10 203 64 8 203 64 6 203 64 6 203 64 6 203 64 6 204 65 7
206 68 10 209 70 12 207 71 10 207 71 10 207 71 10 207 71 10 207 71 10
207 71 10 207 71 10 205 72 8 215 87 19 213 89 15 213 89 13 213 89 13
213 89 13 213 89 13 213 90 11 213 90 11 212 90 13 205 93 13
237 144 55 229 146 54 233 148 56 233 148 56 230 150 54 228 151 54
231 151 55 231 151 55 231 151 55 229 149 53 228 148 50 227 147 49
225 148 49 225 148 49 225 148 49 227 147 49 228 146 49 230 145 49
229 142 46 229 142 46 225 136 40 224 134 39 225 134 39 225 134 39
225 134 39 225 134 39 226 134 42 226 134 42 226 134 42 226 134 42
219 107 27 219 107 27 219 107 27 219 107 27 219 107 27 219 107 27
219 107 27 219 107 27 219 107 27 219 107 27 219 107 27 218 106 26
218 106 26 217 105 24 217 105 24 219 104 24 220 103 24 220 103 24
220 103 24 220 103 24 219 102 23 219 102 23 219 102 23 219 102 23
219 102 23 219 102 23 219 102 23 219 102 23 218 101 22 218 101 22
218 101 22 218 101 22 217 100 21 217 100 21 217 100 21 217 100 21
217 100 21 217 100 21 217 100 21 218 99 23 212 87 16 214 86 16
213 85 14 213 85 14 214 84 16 214 84 16 214 84 16 214 84 16 217 84 20
216 83 18 201 68 3 200 67 2 202 66 5 202 66 5 202 66 7 202 66 7
204 65 7 204 66 5 202 66 5 201 68 1 216 91 19 214 92 17 212 93 15
212 94 13 215 94 14 218 92 16 220 91 18 220 91 18 220 93 19 212 93 17
225 115 34 220 115 32 220 118 32 220 118 32 220 118 30 222 117 30
223 118 33 224 117 33 224 117 33 224 117 33 215 106 22 215 106 22
217 105 22 217 105 24 219 104 26 219 104 26 220 103 26 220 103 26
215 102 26 220 104 30 201 76 4 209 77 7 207 70 5 207 70 5 204 72 5
204 71 7 207 70 14 209 69 16 209 69 16 209 69 16 203 63 10 203 63 10
203 63 10 203 63 10 203 64 8 203 64 6 203 64 6 203 64 6 203 64 6
204 65 7 206 68 10 209 70 12 207 71 10 207 71 10 207 71 10 207 71 10
207 71 10 207 71 10 207 71 10 205 72 8 215 88 17 213 89 15 213 89 13
213 89 13 213 89 13 213 89 13 213 90 11 213 90 11 212 90 11 205 94 11
235 145 55 229 147 52 232 147 53 230 148 53 229 149 53 227 150 51
230 150 52 230 150 52 230 150 52 229 149 51 228 148 50 227 147 49
225 148 49 225 148 49 225 148 49 227 147 49 228 146 49 230 145 49
229 142 48 229 142 48 225 135 42 224 134 41 224 134 41 224 134 41
224 134 41 224 134 41 225 135 42 225 135 42 225 135 42 225 135 42
219 107 27 219 107 27 219 107 27 219 107 27 219 107 27 219 107 27
219 107 27 219 107 27 219 107 27 219 107 27 219 107 27 218 106 26
218 106 26 217 105 24 217 105 24 219 104 24 220 103 24 220 103 24
220 103 24 220 103 24 219 102 23 219 102 23 219 102 23 219 102 23
219 102 23 219 102 23 219 102 23 219 102 23 218 101 22 218 101 22
218 101 22 218 101 22 217 100 21 217 100 21 217 100 21 217 100 21
217 100 21 217 100 21 217 100 21 218 99 23 212 87 16 214 86 16
213 85 14 213 85 14 214 84 16 214 84 16 214 84 16 214 84 16 217 84 20
216 83 18 201 68 3 200 67 2 201 67 5 202 66 5 202 66 5 202 66 5
204 66 5 204 66 3 202 67 3 201 68 1 216 91 17 212 93 15 211 94 13
211 94 13 215 94 14 218 92 14 220 91 16 220 91 18 220 93 19 212 93 17
225 115 34 220 115 32 220 118 32 220 118 32 220 118 30 220 118 30
221 119 33 221 119 33 223 118 33 224 117 33 215 106 22 217 105 22
217 105 22 219 104 22 219 104 24 219 104 26 220 103 26 219 104 26
215 102 26 220 104 30 201 76 4 209 77 7 207 70 5 207 70 5 204 72 5
204 71 7 207 70 14 209 69 16 209 69 16 209 69 16 203 63 10 203 63 10
203 63 10 203 63 10 203 64 8 203 64 6 203 64 6 203 64 6 203 64 6
204 65 7 206 68 10 209 70 12 207 71 10 207 71 10 207 71 10 207 71 10
207 71 10 207 71 10 207 71 10 205 72 8 215 88 17 213 89 15 213 89 13
213 89 13 213 89 13 213 89 13 213 90 11 213 90 11 212 90 11 205 94 11
235 146 53 228 148 52 230 148 53 230 148 53 229 149 51 227 150 51
230 150 52 230 150 52 230 150 52 228 148 50 227 147 49 225 146 47
224 147 47 224 147 47 225 148 49 227 147 49 228 146 49 230 145 49
229 142 48 229 142 48 225 135 42 224 134 41 224 134 41 224 134 41
224 134 41 224 134 41 225 135 42 225 135 42 225 135 42 225 135 42
219 107 27 219 107 27 219 107 27 219 107 27 219 107 27 219 107 27
219 107 27 219 107 27 219 107 27 219 107 27 219 107 27 218 106 26
218 106 26 217 105 24 217 105 24 219 104 24 220 103 24 220 103 24
220 103 24 220 103 24 219 102 23 219 102 23 219 102 23 219 102 23
219 102 23 219 102 23 219 102 23 219 102 23 218 101 22 218 101 22
218 101 22 218 101 22 217 100 21 217 100 21 217 100 21 217 100 21
217 100 21 217 100 21 217 100 21 218 99 23 212 87 16 214 86 16
213 85 14 213 85 14 214 84 16 214 84 16 214 84 16 214 84 16 215 85 20
214 84 18 199 69 3 198 67 2 199 69 3 201 68 3 201 68 3 202 67 3
204 66 3 204 66 3 202 67 1 201 69 0 216 91 17 212 93 15 209 95 13
211 94 13 215 94 12 218 92 14 220 91 14 220 91 16 220 93 17 212 93 15
225 115 34 220 116 30 220 118 32 220 118 30 218 119 30 218 119 30
220 120 33 220 120 33 220 120 33 223 118 33 217 105 22 219 104 22
219 104 22 220 104 22 220 103 24 220 103 24 220 103 24 219 104 26
213 103 24 218 106 28 199 77 2 207 77 7 206 71 3 206 71 3 203 73 3
203 72 7 207 70 14 209 69 16 209 69 16 209 69 16 203 63 10 203 63 10
203 63 10 203 63 10 203 64 8 203 64 6 203 64 6 203 64 6 203 64 6
204 65 7 206 68 10 209 70 12 207 71 10 207 71 10 207 71 10 207 71 10
207 71 10 207 71 10 207 71 10 205 72 8 213 88 17 212 90 15 212 90 13
212 90 13 212 90 13 212 90 13 212 90 11 212 90 11 213 92 12 207 95 12
236 147 54 229 149 53 232 149 54 232 149 54 230 150 52 228 151 52
230 152 53 230 152 53 230 152 53 226 149 50 227 147 49 225 146 47
224 147 47 224 147 47 225 148 49 227 147 49 228 146 49 230 145 49
229 142 48 229 142 48 225 135 42 224 134 41 224 134 41 224 134 41
224 134 41 224 134 41 225 135 42 225 135 42 225 135 42 225 135 42
218 106 26 218 106 26 218 106 26 218 106 26 218 106 26 218 106 26
218 106 26 218 106 26 218 106 26 218 106 26 221 106 27 220 105 26
221 104 26 220 103 24 219 104 24 220 103 24 222 102 26 222 102 26
222 102 26 222 102 24 221 101 23 219 102 23 219 102 23 219 102 23
219 102 23 221 101 23 221 101 23 221 101 23 219 100 22 219 100 22
219 100 22 219 100 22 218 99 21 218 99 23 218 99 23 218 99 23
218 99 23 218 99 23 218 99 23 220 98 23 214 86 16 215 86 16 214 84 14
214 84 14 214 84 16 214 84 16 214 84 16 214 84 16 213 83 17 213 83 17
199 69 3 198 67 2 199 69 3 199 69 3 201 68 3 201 68 3 202 67 3
204 66 1 202 68 0 199 70 0 212 93 15 209 95 15 208 96 13 208 96 13
212 96 12 214 95 12 215 94 14 215 94 14 213 97 15 208 96 13
222 117 32 217 118 30 217 120 30 217 120 30 217 120 30 217 120 30
218 121 33 218 121 33 218 121 33 220 120 33 214 107 22 217 105 22
217 105 22 217 105 22 217 105 24 217 105 24 217 105 24 215 106 24
212 104 24 218 106 28 199 77 2 207 78 5 206 71 3 206 71 3 203 73 3
203 72 5 205 72 10 207 70 14 207 70 14 207 70 14 201 65 8 201 65 8
201 65 8 201 65 6 201 65 6 201 65 4 201 65 4 201 65 4 201 65 4
202 66 7 206 68 10 209 70 10 207 71 10 207 71 10 207 71 10 207 71 10
207 71 10 207 71 10 207 71 10 205 72 8 213 88 17 212 90 15 212 90 13
212 90 13 212 90 13 212 90 13 212 90 11 212 90 11 214 93 13 206 97 13
236 149 55 228 151 54 231 151 55 231 151 55 230 152 53 230 152 53
231 154 54 231 154 54 231 154 54 228 148 50 230 145 49 230 143 47
229 144 47 229 144 47 230 145 49 230 145 49 231 144 49 233 144 49
232 140 48 232 140 48 228 133 42 227 132 41 227 132 41 227 132 41
227 132 41 227 132 41 228 133 42 228 133 42 228 133 42 228 133 42
218 106 26 218 106 26 218 106 26 218 106 26 217 105 24 217 105 24
217 105 24 217 105 24 215 106 24 218 106 26 208 88 10 211 89 12
211 87 10 211 87 10 209 88 10 209 87 12 212 87 16 214 86 18 212 87 16
212 88 14 218 95 21 216 96 21 216 97 19 216 97 19 216 97 19 218 96 19
218 96 19 218 96 19 216 95 17 218 96 19 207 85 8 207 85 8 209 84 10
209 84 12 209 84 12 209 84 12 209 84 12 209 84 12 209 84 12 210 83 12
211 81 11 212 80 13 211 79 12 210 79 12 210 79 12 210 79 12 211 81 13
211 81 13 212 82 14 212 82 14 212 82 14 212 82 14 211 83 17 213 83 17
213 83 15 215 82 15 216 81 15 218 80 15 218 81 13 211 85 11
232 120 39 227 122 39 227 123 37 227 123 37 230 124 37 230 124 37
230 124 37 229 124 37 231 132 42 225 128 38 236 144 52 231 141 48
232 142 51 232 142 51 233 141 49 235 140 49 236 142 51 236 142 51
236 142 51 238 141 51 223 124 34 223 124 34 223 124 34 223 123 36
225 123 36 225 123 36 225 123 36 225 122 38 229 124 41 232 122 41
209 90 12 215 88 15 218 86 15 218 86 15 215 88 15 215 88 17 215 87 19
215 87 21 215 87 21 215 87 21 214 86 20 214 86 20 214 86 20 214 86 20
215 85 20 215 85 20 214 86 20 214 86 20 214 84 18 216 82 20 207 71 10
210 72 9 207 72 8 207 72 8 207 72 8 207 72 8 207 71 10 207 71 10
207 71 10 205 72 8 219 94 23 218 95 21 218 96 19 218 96 19 218 96 19
218 96 19 218 96 17 218 96 17 215 94 14 207 98 14 236 151 56
228 153 55 231 153 56 231 153 56 231 154 54 231 154 54 232 155 56
232 155 56 232 155 56 239 155 58 217 120 30 220 118 30 218 119 30
218 119 30 217 118 28 217 118 28 217 118 28 219 117 28 219 117 28
219 117 28 219 117 28 219 117 28 219 117 28 219 117 28 219 117 28
219 117 28 219 117 28 219 117 28 219 117 28 219 117 28 217 105 24
217 105 24 217 105 24 217 105 24 216 104 23 216 104 23 216 104 23
216 104 23 214 105 23 219 104 24 209 88 10 214 87 12 214 85 10
214 85 10 213 86 10 213 86 12 215 85 18 215 85 20 214 86 18 214 86 16
219 95 21 218 95 21 216 97 19 216 97 19 218 96 19 218 96 19 218 96 19
218 96 19 216 95 17 218 96 19 207 85 8 209 84 10 210 83 12 210 83 12
210 83 12 210 83 12 210 83 12 210 83 12 210 83 12 212 82 12 212 80 13
212 80 13 211 79 12 211 79 12 210 79 12 210 79 12 211 81 13 211 81 13
211 81 13 211 81 13 212 82 14 212 82 14 211 84 15 211 84 15 211 84 15
213 83 15 216 81 15 218 81 13 218 81 11 211 85 11 229 122 39
223 125 39 224 124 37 226 124 37 227 125 37 225 126 37 224 127 37
222 128 37 226 134 42 220 130 38 233 145 52 227 143 48 229 143 51
230 143 51 232 142 49 233 141 49 236 142 51 236 142 51 236 142 51
236 142 51 220 125 34 220 125 34 220 125 34 220 125 34 221 124 36
221 124 36 221 124 36 223 123 36 227 124 41 232 122 41 209 90 12
215 88 13 217 87 15 217 87 15 215 88 15 213 89 15 213 88 17 213 88 17
213 88 17 213 88 17 212 87 16 212 87 16 212 87 16 212 87 16 214 86 18
214 86 18 212 87 18 212 87 18 213 84 18 214 84 18 207 72 8 210 72 9
207 72 8 207 72 8 207 72 8 207 72 8 207 71 10 207 71 10 207 71 10
205 72 8 219 94 23 218 95 21 218 96 19 218 96 19 218 96 19 218 96 19
218 96 17 218 96 17 216 95 15 208 99 15 237 152 58 228 155 56
230 155 58 232 154 58 232 155 56 232 155 56 233 156 57 233 156 57
233 156 57 239 155 58 220 118 30 225 116 30 223 117 30 223 117 30
222 115 28 222 115 28 222 115 28 222 115 28 222 115 28 222 115 28
222 115 28 222 115 28 222 115 28 222 115 28 222 115 28 222 115 28
222 115 28 222 115 28 222 115 28 222 115 28 217 105 24 217 105 24
217 105 24 217 105 24 216 104 23 216 104 23 216 104 23 216 104 23
214 105 23 219 104 24 209 88 10 214 87 12 214 85 10 214 85 10
213 86 10 213 86 12 215 85 18 215 85 20 214 86 18 214 86 16 219 95 21
218 95 21 216 97 19 216 97 19 218 96 19 218 96 19 218 96 19 218 96 19
216 95 17 218 96 19 207 85 8 209 84 10 210 83 12 210 83 12 210 83 12
210 83 12 210 83 12 210 83 12 210 83 12 212 82 12 212 80 13 212 80 13
211 79 12 211 79 12 210 79 12 210 79 12 211 81 13 211 81 13 209 81 13
209 81 13 210 83 14 210 83 14 211 84 15 210 85 13 211 86 14 214 84 14
216 82 13 218 81 13 218 81 11 211 85 9 229 122 39 223 125 37
224 124 37 224 124 37 225 126 37 225 126 37 224 127 37 222 128 37
226 134 42 220 130 38 233 145 52 227 143 48 229 143 51 230 143 51
232 142 51 233 141 51 235 142 53 235 142 53 235 142 53 235 142 53
220 125 34 220 125 34 220 125 34 220 125 34 221 125 34 221 125 34
221 125 34 223 123 36 227 125 39 230 123 39 207 91 10 213 89 13
217 88 13 217 88 13 213 89 13 212 90 15 213 88 17 213 88 17 213 88 17
213 88 17 212 87 16 212 87 16 212 87 16 212 87 16 214 86 18 214 86 18
212 87 18 212 87 18 213 85 16 214 84 16 207 72 6 210 72 7 207 72 8
207 72 8 207 72 8 207 72 8 207 72 8 207 72 8 207 72 8 205 73 6
219 94 23 216 96 21 216 97 19 216 97 19 216 97 19 216 97 19 216 97 17
216 97 17 218 96 17 210 100 17 236 154 59 229 156 58 232 156 59
232 156 59 233 156 57 233 156 57 233 158 58 233 158 58 233 158 58
239 155 58 220 118 30 225 116 30 223 117 30 223 117 30 222 115 28
222 115 28 222 115 28 222 115 28 222 115 28 222 115 28 222 115 28
222 115 28 222 115 28 222 115 28 222 115 28 222 115 28 222 115 28
222 115 28 222 115 28 222 115 28 217 105 24 217 105 24 217 105 24
217 105 24 216 104 23 216 104 23 216 104 23 216 104 23 214 105 23
219 104 24 209 88 10 214 87 12 214 85 10 214 85 10 213 86 10
213 86 12 215 85 18 215 85 20 214 86 18 214 86 16 219 95 21 218 95 21
216 97 19 216 97 19 218 96 19 218 96 19 218 96 19 218 96 19 216 95 17
218 96 19 207 85 8 209 84 10 210 83 12 210 83 12 210 83 12 210 83 12
210 83 12 210 83 12 210 83 12 212 82 12 212 80 13 212 80 13 211 79 12
211 79 12 210 79 12 210 79 12 211 81 13 211 81 13 209 81 13 209 81 13
210 83 14 210 83 14 210 85 13 210 85 13 211 86 14 213 85 14 216 82 13
218 81 11 218 82 9 211 85 9 229 122 37 223 125 37 224 124 37
224 124 37 225 126 37 224 127 37 222 128 37 222 128 37 225 133 41
219 129 37 231 144 51 226 141 47 229 143 51 230 143 51 232 142 51
232 142 51 235 142 53 235 142 53 235 142 53 235 142 53 220 125 34
220 125 34 220 125 34 220 125 34 221 125 34 221 125 34 221 125 34
221 125 34 225 126 39 230 123 39 207 91 10 213 90 11 215 88 13
215 88 13 213 89 13 212 90 15 213 88 17 213 88 17 213 88 17 213 88 17
212 87 16 212 87 16 212 87 16 212 87 16 214 86 18 214 86 18 212 87 18
212 87 18 213 85 16 214 84 16 207 72 6 210 72 7 207 72 8 207 72 8
207 72 8 207 72 8 207 72 8 207 72 8 207 72 8 205 73 6 219 94 23
216 96 21 216 97 19 216 97 19 216 97 19 216 97 19 216 97 17 216 97 17
218 96 17 210 100 17 236 154 59 227 157 58 230 157 59 232 156 59
233 155 59 233 156 57 233 158 58 233 158 58 233 158 58 239 154 60
220 118 30 225 116 30 223 117 30 223 117 30 222 115 28 222 115 28
222 115 28 222 115 28 222 115 28 222 115 28 222 115 28 222 115 28
222 115 28 222 115 28 222 115 28 222 115 28 222 115 28 222 115 28
222 115 28 222 115 28 217 103 23 217 103 23 217 103 23 217 103 23
217 103 23 217 103 23 217 103 23 216 104 23 214 105 23 219 104 24
209 88 10 214 87 12 214 85 10 214 85 10 213 86 10 213 86 12 215 85 18
215 85 20 214 86 18 214 86 16 219 95 21 218 95 21 216 97 19 216 97 19
218 96 19 218 96 19 218 96 19 218 96 19 216 95 17 218 96 19 207 85 8
209 84 10 210 83 12 210 83 12 210 83 12 210 83 12 210 83 14 210 83 14
210 83 12 212 82 12 212 80 13 212 80 13 211 79 12 211 79 12 210 79 12
210 79 12 210 79 12 210 79 12 209 82 11 208 83 11 209 84 12 209 84 12
210 85 13 209 87 14 209 87 12 213 86 12 217 83 12 219 83 10 221 82 10
214 85 10 230 123 39 224 126 39 225 126 39 225 126 39 225 128 38
225 128 38 223 129 38 223 129 38 225 133 41 219 129 37 231 144 51
226 141 47 227 142 50 229 141 50 231 141 50 231 141 50 232 142 51
232 142 51 232 142 51 233 141 51 217 125 33 217 125 33 219 124 33
219 124 33 219 124 35 219 124 35 220 123 35 220 123 35 224 124 37
227 123 37 206 90 8 212 88 10 214 87 12 214 87 12 212 88 12 211 88 14
213 88 17 213 88 17 213 88 17 213 88 17 212 87 16 212 87 16 212 87 16
212 87 16 214 86 16 214 86 16 212 87 16 212 87 16 213 85 16 215 85 18
208 73 7 211 73 8 207 72 6 207 72 6 207 72 6 207 72 6 207 72 8
207 72 8 207 72 8 205 73 6 219 94 23 216 96 21 216 97 19 216 97 19
218 96 19 218 96 19 218 96 19 218 96 19 218 96 17 210 100 17
236 153 61 227 156 60 230 157 61 232 156 61 233 155 59 233 155 59
233 157 60 233 157 60 233 157 60 239 154 60 220 118 32 225 115 32
223 116 32 223 116 32 222 115 28 222 115 28 222 115 28 222 115 28
222 115 30 222 115 30 222 115 30 222 115 30 222 115 30 222 115 30
222 115 30 222 115 30 222 115 30 222 115 30 222 115 30 222 115 30
217 103 23 217 103 23 217 103 23 217 103 23 217 103 23 217 103 23
217 103 23 217 103 23 216 104 23 219 104 24 209 88 10 214 87 12
214 85 10 214 85 10 213 86 10 213 86 12 215 85 18 215 85 20 214 86 18
214 86 16 219 95 21 218 95 21 216 97 19 216 97 19 218 96 19 218 96 19
218 96 19 218 96 19 216 95 17 218 96 19 207 85 8 209 84 10 210 83 12
210 83 12 210 83 12 210 83 12 210 83 14 210 83 14 210 83 12 212 82 12
212 80 13 212 80 13 211 79 12 211 79 12 210 79 12 210 79 12 210 79 12
210 79 12 209 82 11 208 83 11 209 84 12 209 84 12 208 86 13 209 87 14
209 87 12 211 86 12 216 84 10 219 83 10 221 82 10 214 85 10
230 123 39 224 126 39 225 126 39 225 126 39 225 128 38 225 128 38
223 129 38 222 130 38 222 133 40 218 128 35 230 143 49 225 140 46
227 142 50 229 141 50 231 141 50 231 141 50 232 142 51 232 142 51
232 142 51 232 142 51 217 125 33 217 125 33 219 124 33 219 124 33
219 124 35 219 124 35 220 123 35 220 123 35 224 124 37 227 123 37
206 90 8 212 88 10 214 87 12 214 87 12 212 88 12 211 88 14 213 88 17
213 88 17 213 88 17 213 88 17 212 87 16 212 87 16 212 87 16 212 87 16
214 86 16 214 86 16 212 87 16 212 87 16 213 85 16 215 85 18 208 73 7
211 73 8 207 72 6 207 72 6 207 72 6 207 72 6 207 72 8 207 72 8
207 72 8 205 73 6 219 94 23 216 96 21 216 97 19 216 97 19 218 96 19
218 96 19 218 96 19 218 96 19 218 96 17 210 100 17 236 153 61
227 156 60 230 157 61 232 156 61 233 155 59 233 155 59 233 157 60
233 157 60 233 157 60 239 154 60 220 118 32 225 115 32 223 116 32
223 116 32 222 115 28 222 115 28 222 115 28 222 115 28 222 115 30
222 115 30 222 115 30 222 115 30 222 115 30 222 115 30 222 115 30
222 115 30 222 115 30 222 115 30 222 115 30 222 115 30 217 103 23
217 103 23 217 103 23 217 103 23 217 103 23 217 103 23 217 103 23
217 103 23 216 104 23 219 104 24 209 88 10 214 87 12 214 85 10
214 85 10 213 86 10 213 86 12 215 85 18 215 85 20 214 86 18 214 86 16
219 95 21 218 95 21 216 97 19 216 97 19 218 96 19 218 96 19 218 96 19
218 96 19 216 95 17 218 96 19 207 85 8 209 84 10 210 83 12 210 83 12
210 83 12 210 83 12 210 83 14 210 83 14 210 83 12 212 82 12 212 80 13
212 80 13 211 79 12 211 79 12 210 79 12 210 79 12 210 79 12 210 79 12
209 82 11 208 83 11 209 84 12 209 84 12 208 86 11 209 87 12 209 89 14
212 88 14 216 84 10 219 83 10 219 83 10 213 86 10 230 123 39
224 126 39 225 126 39 225 126 39 225 128 38 223 129 38 223 129 38
222 130 38 222 133 40 218 128 35 230 143 49 225 140 46 227 142 50
229 141 50 231 141 50 231 141 50 232 142 51 232 142 51 232 142 51
232 142 51 217 125 33 217 125 33 219 124 33 219 124 33 219 124 35
219 124 35 219 124 35 220 123 35 224 124 37 227 123 37 206 90 8
213 90 11 215 88 13 215 88 13 213 89 13 212 90 15 212 89 17 213 88 17
213 88 17 213 88 17 212 87 16 211 88 16 212 87 16 212 87 16 214 86 16
214 86 16 212 87 16 212 87 16 213 85 14 215 86 16 208 74 5 211 74 6
207 72 6 207 72 6 207 72 6 207 72 6 209 71 6 209 71 6 207 72 6
205 73 6 219 94 23 218 95 21 218 96 19 218 96 19 218 96 19 218 96 19
218 96 19 218 96 19 218 96 17 210 100 17 236 153 61 227 156 60
230 157 61 232 156 61 233 155 59 233 155 59 233 157 60 233 157 60
233 157 60 239 154 60 220 118 32 225 115 32 223 116 32 223 116 32
222 115 28 222 115 28 222 115 28 222 115 28 222 115 30 222 115 30
222 115 30 222 115 30 222 115 30 222 115 30 222 115 30 222 115 30
222 115 30 222 115 30 222 115 30 222 115 30 217 103 23 217 103 23
217 103 23 217 103 23 217 103 23 217 103 23 217 103 23 217 103 23
216 104 23 219 104 26 209 87 12 214 87 14 214 85 12 214 85 12
213 86 12 211 86 12 214 86 18 214 86 18 214 86 16 212 87 16 219 95 21
218 95 21 218 95 21 218 95 21 218 95 21 219 95 21 219 95 21 219 95 21
218 93 19 219 95 21 209 84 10 209 84 10 210 83 12 210 83 12 210 83 12
210 83 12 210 83 14 210 83 14 210 83 12 212 82 12 211 81 13 212 80 13
211 79 12 210 79 12 210 79 12 208 80 12 208 80 12 208 81 10 209 84 12
206 81 10 210 85 13 209 84 12 208 86 11 209 87 12 209 89 14 211 88 14
214 85 10 216 84 10 217 84 10 213 86 10 230 123 39 225 126 39
227 125 39 225 126 39 225 128 38 223 129 38 222 130 38 222 130 38
221 132 39 216 129 35 228 141 47 225 140 46 229 143 51 230 143 51
230 143 51 232 142 51 233 143 53 232 142 51 232 142 51 233 141 51
217 125 33 219 124 33 219 124 33 219 124 33 219 124 35 219 124 35
219 124 35 220 123 35 224 124 37 229 122 37 207 91 10 213 89 13
217 88 13 215 88 13 213 89 13 212 90 15 212 90 15 212 89 17 215 88 17
215 88 17 211 88 16 211 88 16 212 87 16 214 86 16 214 86 16 214 86 16
212 87 16 212 87 16 213 85 14 215 86 16 208 74 5 211 74 6 207 72 6
207 72 6 207 72 6 207 72 6 207 72 6 207 72 6 207 72 6 204 74 6
219 94 23 218 95 21 218 96 19 218 96 19 218 96 19 218 96 19 218 96 19
218 96 19 216 97 17 206 102 17 236 153 61 229 156 60 230 157 61
232 156 61 233 155 59 235 155 59 234 157 60 234 157 60 236 156 60
241 153 60 218 119 32 223 116 32 223 116 32 223 116 32 222 115 30
222 115 30 222 115 30 222 115 30 222 115 30 222 115 30 222 115 30
222 115 30 222 115 30 224 114 30 224 114 30 224 114 30 224 114 30
224 114 30 224 114 30 224 114 30 219 102 23 219 102 23 219 102 23
219 102 23 219 102 23 219 102 23 219 102 23 217 103 23 216 101 24
219 101 27 208 86 13 213 85 14 213 83 13 213 83 13 211 84 13
210 85 13 211 86 14 211 86 14 211 86 14 211 86 14 218 93 21 218 93 21
218 93 21 218 93 21 220 92 21 220 92 21 220 92 21 220 92 21 221 93 23
222 95 24 211 84 13 211 84 13 213 83 15 213 83 15 213 83 15 213 83 15
213 83 15 213 83 15 213 83 15 212 82 14 211 81 13 210 79 12 210 80 10
208 81 10 208 81 10 206 81 10 206 81 10 206 82 8 212 88 14 205 81 7
212 90 15 204 81 7 208 86 11 207 87 11 208 88 10 209 88 10 211 87 10
213 86 10 217 86 10 212 88 10 234 127 42 229 129 42 230 128 42
230 128 42 228 132 41 227 132 41 225 133 41 223 131 39 221 132 39
220 132 39 224 137 44 227 139 46 231 144 51 233 145 52 233 145 52
231 144 51 231 144 53 233 143 53 233 143 53 235 142 53 216 121 33
216 121 33 218 121 33 218 121 33 218 121 33 218 121 33 218 121 33
220 120 33 232 129 45 235 126 44 210 91 13 215 88 13 217 87 15
217 87 15 212 90 15 210 90 15 211 92 16 213 91 16 216 89 16 215 88 15
209 89 16 208 88 14 211 86 12 213 86 12 214 84 14 213 85 14 211 86 12
211 86 12 220 92 21 219 89 19 205 73 4 205 70 2 207 70 3 207 70 3
207 70 3 206 71 3 206 71 5 204 72 5 204 72 5 203 72 5 219 94 23
219 95 21 219 95 21 219 95 21 218 95 21 218 95 21 218 96 19 216 97 19
217 105 24 204 104 20 238 153 61 235 157 63 235 159 64 237 159 64
238 158 64 239 156 63 240 155 63 239 154 62 241 153 62 244 151 62
218 119 32 222 117 32 223 116 32 223 116 32 222 115 30 222 115 32
222 115 32 222 115 32 223 116 34 223 116 34 222 115 32 222 115 32
224 114 32 225 113 32 225 113 32 225 113 32 225 113 32 225 113 32
225 113 32 225 113 32 219 102 23 219 102 23 219 102 23 219 102 23
219 102 23 219 102 23 219 102 23 219 102 25 216 101 26 219 101 27
208 86 13 213 85 14 213 83 13 213 83 13 211 84 13 210 85 13 211 86 14
211 86 14 211 86 14 211 86 14 219 94 23 219 94 23 219 94 23 221 93 23
222 93 23 222 93 23 222 93 23 222 93 23 224 93 26 225 95 27 214 84 16
214 84 16 214 84 16 214 84 16 214 84 16 214 84 16 214 84 16 214 84 16
214 84 16 214 84 16 210 79 12 210 79 12 208 81 10 208 81 10 206 82 8
206 82 8 205 83 8 205 83 8 212 88 14 205 81 7 218 95 21 212 90 15
206 86 10 206 86 10 207 87 9 207 87 9 207 87 9 208 87 9 213 86 8
209 88 8 227 123 37 223 125 37 226 124 37 226 124 37 224 127 37
222 128 37 221 128 37 220 130 38 221 134 40 226 138 45 228 141 47
228 141 47 229 142 48 230 143 49 230 143 49 230 143 49 230 143 51
230 143 51 232 142 51 235 140 51 223 123 36 225 123 36 225 123 36
226 122 36 226 122 36 226 122 36 226 122 36 226 122 36 224 119 36
230 118 37 208 88 10 215 88 13 217 87 15 217 87 15 213 89 15
210 90 15 210 90 15 212 90 15 216 89 16 215 90 16 210 92 18 208 93 18
214 92 17 216 91 17 214 92 19 214 92 19 211 94 17 211 94 17 216 96 23
215 93 20 203 76 5 203 73 3 204 74 4 205 73 4 205 73 4 204 74 4
204 74 6 202 74 6 202 74 6 201 76 4 216 91 17 216 91 17 216 91 17
216 91 17 214 92 17 214 92 17 214 92 15 212 93 15 210 96 16
207 100 17 240 143 55 242 152 62 240 155 63 242 154 63 245 153 63
244 151 62 244 151 62 244 149 61 246 149 61 247 148 61 221 119 33
224 117 33 226 117 33 228 116 33 225 115 34 225 115 34 225 115 34
225 115 34 221 112 30 222 113 31 224 114 32 225 115 34 226 114 34
226 114 34 226 114 34 226 114 34 226 114 34 226 114 34 226 114 34
226 114 34 219 102 23 219 102 23 219 102 23 219 102 23 219 102 23
219 102 23 219 102 23 219 102 25 216 101 26 219 101 27 208 86 13
213 85 14 213 83 13 213 83 13 211 84 13 210 85 13 211 86 14 211 86 14
211 86 14 211 86 14 209 84 12 209 84 12 209 84 12 210 83 12 212 82 12
212 82 12 212 82 12 212 82 12 213 83 15 214 84 16 204 74 6 204 74 6
204 74 6 204 74 6 204 74 6 204 74 6 204 74 6 204 74 6 204 74 6
204 74 6 211 81 13 211 81 13 209 82 11 209 82 11 208 83 9 208 83 9
206 84 9 206 84 9 211 86 12 208 83 9 226 104 29 222 100 25 226 107 29
226 107 29 226 109 30 226 109 30 224 110 30 226 109 30 230 109 29
227 111 29 240 141 54 237 142 54 240 141 54 240 141 54 238 144 53
237 145 53 237 145 53 234 144 52 229 142 48 227 139 46 226 138 45
226 138 45 226 138 45 226 138 45 226 138 45 226 138 45 226 138 47
226 138 47 227 137 47 232 135 47 208 99 15 212 97 15 212 97 15
213 97 15 213 97 15 212 97 15 210 98 15 208 99 15 211 101 20
220 105 26 202 81 3 213 86 10 214 85 12 214 85 12 211 86 12 209 87 12
207 90 14 209 89 14 214 87 14 212 88 14 238 125 49 236 126 49
240 125 47 240 125 47 238 125 49 235 127 49 233 128 47 233 128 47
234 126 46 233 123 44 221 106 29 220 103 26 221 104 30 223 103 30
223 103 30 223 103 30 223 103 30 223 103 30 223 103 30 223 103 30
208 88 12 209 87 12 209 87 12 209 87 12 209 87 12 209 87 12 209 88 10
211 87 10 213 86 10 205 81 5 217 103 21 212 105 20 209 107 21
211 107 21 214 105 21 213 104 20 210 105 20 209 104 19 209 102 18
210 100 17 212 97 15 212 96 14 212 94 13 212 94 13 210 93 14
208 94 14 208 94 14 208 94 14 209 95 15 213 98 19 216 102 22
219 104 24 217 105 24 217 105 24 217 105 24 217 105 24 217 105 24
217 105 24 217 105 24 217 105 24 219 102 23 219 102 23 219 102 23
219 102 23 219 102 23 219 102 23 219 102 23 219 102 25 216 101 26
219 101 27 208 86 13 213 85 14 213 83 13 213 83 13 211 84 13
210 85 13 211 86 14 211 86 14 211 86 14 211 86 14 210 85 13 210 85 13
210 85 13 211 84 13 213 83 13 213 83 13 213 83 13 213 83 13 214 84 16
215 85 18 205 75 7 205 75 7 205 75 7 205 75 7 205 75 7 205 75 7
205 75 7 205 75 7 205 75 7 205 75 7 211 81 13 211 81 13 209 82 11
209 82 11 208 83 9 208 83 9 206 84 9 206 84 9 210 85 11 209 84 10
229 107 32 230 108 33 225 106 28 225 106 28 225 108 29 223 109 29
222 110 29 222 110 29 226 109 28 223 111 28 233 138 49 229 139 49
233 138 49 233 138 49 232 140 48 232 140 48 231 141 48 229 140 47
227 139 46 226 138 45 226 138 45 224 137 44 223 136 42 223 136 42
223 136 42 223 136 42 223 136 44 223 136 44 225 135 44 230 132 44
214 100 18 220 97 18 220 97 18 220 97 18 220 97 18 219 97 18
217 98 18 214 100 18 205 90 10 213 96 17 202 81 3 211 85 9 213 84 11
213 84 11 211 85 11 208 86 11 205 88 11 207 87 11 210 85 11 208 86 11
239 131 54 236 133 54 239 132 52 239 132 52 236 133 54 235 134 54
233 135 52 233 135 52 230 130 47 229 126 45 216 110 30 217 106 28
218 107 31 218 107 31 218 107 31 219 106 31 219 106 31 221 106 31
221 106 31 223 105 31 204 87 10 206 86 10 207 85 10 207 85 10
207 85 10 209 84 10 209 85 8 210 84 8 205 74 0 206 77 2 225 106 28
215 103 20 214 105 21 214 105 21 217 103 21 216 102 20 215 103 20
212 103 19 214 102 19 214 98 17 216 95 15 217 93 14 218 92 14
218 92 14 214 92 15 212 93 15 212 93 15 212 93 15 210 91 13 214 94 16
219 100 22 221 104 26 220 105 26 218 106 26 218 106 26 218 106 26
218 106 26 218 106 26 218 106 26 218 106 26 218 101 22 218 101 22
218 101 22 218 101 22 218 101 22 218 101 22 218 101 22 218 101 24
215 100 25 218 100 26 207 85 12 211 84 13 212 82 12 212 82 12
210 83 12 209 84 12 210 85 13 210 85 13 210 85 13 210 85 13 210 85 13
210 85 13 210 85 13 211 84 13 213 83 13 213 83 13 213 83 13 213 83 13
212 82 14 211 81 13 205 75 7 205 75 7 205 75 7 205 75 7 205 75 7
205 75 7 205 74 9 205 74 9 205 75 7 205 75 7 211 81 13 211 81 13
209 82 11 209 82 11 208 83 9 208 83 9 206 84 9 206 84 9 207 85 8
207 85 8 230 109 31 228 108 30 226 107 29 225 108 29 225 108 27
223 109 27 221 112 28 221 112 28 223 111 28 220 113 28 229 139 49
226 141 49 229 139 49 231 139 49 231 141 48 231 141 48 231 141 48
231 141 48 227 139 46 226 138 45 226 138 45 224 137 44 223 136 42
222 135 41 222 135 41 222 135 41 223 136 44 223 136 44 223 136 44
230 132 44 217 98 18 224 95 18 224 95 18 224 95 18 224 95 20
222 95 20 219 97 20 217 98 20 213 98 19 211 94 15 208 83 9 213 86 12
213 84 11 213 84 11 211 85 11 210 85 11 206 85 12 204 84 11 208 83 11
203 85 11 232 131 52 228 134 52 231 133 50 231 133 50 229 133 50
229 133 50 228 134 50 228 135 48 224 129 45 224 126 43 212 109 28
211 106 25 214 106 26 214 106 26 214 106 26 214 106 26 215 105 28
217 104 28 217 104 28 219 103 28 203 85 9 204 85 9 204 84 11
206 83 11 208 83 9 209 82 9 209 82 9 209 82 9 208 79 7 204 79 5
217 105 26 212 104 22 209 107 23 209 107 23 213 105 23 216 104 23
215 103 22 216 102 22 217 100 21 219 97 20 219 95 19 221 92 17
222 90 16 220 91 16 216 92 15 214 92 15 214 92 15 214 92 15 213 91 14
213 91 14 223 102 24 222 102 24 219 104 24 217 105 24 217 105 24
217 105 24 217 105 24 217 105 24 217 105 24 217 105 24 218 101 22
218 101 22 218 101 22 218 101 22 218 101 22 218 101 22 218 101 22
218 101 24 215 100 25 218 100 26 207 85 12 211 84 13 212 82 12
212 82 12 210 83 12 209 84 12 210 85 13 210 85 13 210 85 13 210 85 13
210 85 13 210 85 13 210 85 13 211 84 13 213 83 13 213 83 13 213 83 13
213 83 13 212 82 14 211 81 13 205 75 7 205 75 7 205 75 7 205 75 7
205 75 7 205 75 7 205 74 9 205 74 9 205 75 7 205 75 7 211 81 13
211 81 13 209 82 11 209 82 11 208 83 9 208 83 9 206 84 9 206 84 9
207 85 8 207 85 8 228 108 30 228 108 30 225 108 29 225 108 29
225 108 27 222 110 27 220 113 28 218 114 28 221 112 28 216 114 28
228 140 49 223 143 49 226 141 49 229 139 49 231 141 48 231 141 48
231 141 48 231 141 48 227 139 46 226 138 45 226 138 45 224 137 44
223 136 42 223 136 42 223 136 42 223 136 42 223 136 44 223 136 44
223 136 44 230 132 44 217 98 18 224 95 18 224 95 18 224 95 18
224 95 20 222 95 20 219 97 20 217 98 20 214 97 19 211 94 15 211 86 12
213 86 12 213 84 11 213 84 11 211 85 11 210 85 11 207 85 12 206 83 11
208 83 11 201 86 11 229 133 52 224 136 52 224 136 50 226 135 50
228 134 50 229 133 50 228 135 48 228 135 48 224 129 45 224 126 43
212 109 28 211 106 25 214 106 26 214 106 26 214 106 26 214 106 26
215 105 28 217 104 28 217 104 28 219 103 28 204 87 10 206 86 10
206 85 12 207 85 12 209 84 10 210 83 10 210 83 10 210 83 10 207 80 7
202 80 5 217 105 26 210 105 24 208 108 23 209 107 23 213 105 23
214 105 23 215 103 22 216 102 22 217 100 21 219 97 20 219 95 19
221 92 17 222 90 16 220 91 16 216 92 15 214 92 15 214 92 15 214 92 15
213 91 14 213 91 14 223 102 24 222 102 24 219 104 24 217 105 24
217 105 24 217 105 24 217 105 24 217 105 24 217 105 24 217 105 24
218 101 22 218 101 22 218 101 22 218 101 22 218 101 22 218 101 22
218 101 22 218 101 24 215 100 25 218 100 26 207 85 12 211 84 13
212 82 12 212 82 12 210 83 12 209 84 12 210 85 13 210 85 13 210 85 13
210 85 13 210 85 13 210 85 13 210 85 13 211 84 13 213 83 13 213 83 13
213 83 13 213 83 13 212 82 14 211 81 13 205 75 7 205 75 7 205 75 7
205 75 7 205 75 7 205 75 7 205 75 7 205 75 7 205 75 7 205 75 7
212 82 14 212 82 14 210 83 12 210 83 12 209 84 10 209 84 10 207 85 10
207 85 10 207 85 10 207 85 10 228 108 32 228 108 32 225 108 29
225 108 29 223 109 29 222 110 29 216 114 30 216 114 30 220 113 28
215 115 28 226 141 49 221 143 49 225 142 49 228 140 49 231 141 48
231 141 48 231 141 48 229 142 48 227 139 46 226 138 45 226 138 45
224 137 44 223 136 42 223 136 42 223 136 42 223 136 42 223 136 44
223 136 44 223 136 44 230 132 44 214 100 16 220 97 16 220 97 16
220 97 18 220 97 18 219 97 18 217 98 20 216 99 20 213 98 19 211 94 15
209 87 12 213 86 12 213 84 11 213 84 11 211 85 11 211 85 11 209 84 10
208 83 9 208 83 9 201 86 9 228 134 50 221 138 50 221 138 50
223 137 48 229 134 48 232 132 48 231 133 48 231 133 48 229 129 44
228 126 42 216 109 27 215 106 24 217 105 24 217 105 24 217 105 24
217 105 26 217 105 26 219 104 26 219 104 26 220 103 26 204 87 10
206 86 10 207 85 12 207 85 12 209 84 10 210 83 10 210 83 10 210 83 10
210 80 8 205 81 7 220 105 28 213 105 25 209 107 23 211 106 23
214 105 23 214 105 23 213 103 22 213 103 22 214 101 21 216 99 20
216 97 19 218 94 17 218 92 16 218 92 16 214 92 15 212 93 15 212 93 15
212 93 15 211 92 14 211 92 14 222 102 24 220 103 24 219 104 24
217 105 24 217 105 24 217 105 24 217 105 24 217 105 24 217 105 24
217 105 24 218 101 22 218 101 22 218 101 22 218 101 22 218 101 22
218 101 22 218 101 22 218 101 24 215 100 25 218 100 26 207 85 12
210 85 13 210 83 12 210 83 12 210 83 12 209 84 12 210 85 13 210 85 13
210 85 13 210 85 13 210 85 13 210 85 13 210 85 13 211 84 13 211 84 13
213 83 13 213 83 13 213 83 13 212 82 14 211 81 13 205 75 7 205 75 7
205 75 7 205 75 7 205 75 7 205 75 7 205 75 7 205 75 7 205 75 7
205 75 7 212 82 14 212 82 14 210 83 12 210 83 12 209 84 10 209 84 10
209 84 10 209 84 10 209 84 10 207 85 10 228 108 32 224 110 32
222 109 31 222 110 29 222 110 29 220 110 29 218 113 30 216 114 30
218 114 28 215 115 28 228 140 49 225 142 49 226 141 49 228 140 49
231 141 48 231 141 48 229 142 48 229 142 48 227 139 46 226 138 45
226 138 45 226 136 44 225 135 42 225 135 42 225 135 42 225 135 42
225 135 44 225 135 44 225 135 44 230 132 44 211 100 14 214 98 14
214 98 14 216 97 14 217 98 18 217 98 18 216 99 20 214 99 20 214 97 19
212 93 15 209 87 12 211 86 12 211 85 11 211 85 11 211 85 11 211 85 11
209 84 10 208 83 9 208 83 9 201 86 9 226 133 48 220 136 48 220 137 46
222 136 46 229 134 48 232 132 48 231 133 46 231 133 46 229 129 42
228 126 42 216 109 27 215 106 24 217 105 24 219 104 24 219 104 24
219 104 24 219 104 24 219 104 26 220 103 26 220 103 26 206 86 10
207 85 10 207 85 12 209 84 12 210 83 10 210 83 10 210 83 10 212 83 10
210 80 8 207 80 7 221 104 28 216 103 25 213 105 23 213 105 23
214 105 23 216 104 23 213 103 22 213 103 22 214 101 21 214 99 20
214 97 19 215 95 17 215 94 16 215 94 16 212 93 15 212 93 15 212 93 15
211 94 15 210 93 14 210 93 14 220 103 24 219 104 24 217 105 24
217 105 24 217 105 24 217 105 24 217 105 24 217 105 24 217 105 24
217 105 24 216 102 22 216 102 22 216 102 22 216 102 22 216 102 22
216 102 22 216 102 22 216 101 24 217 99 25 218 100 26 207 85 12
210 85 13 210 83 12 210 83 12 210 83 12 210 83 12 211 84 13 211 84 13
211 84 13 211 84 13 211 84 13 211 84 13 211 84 13 211 84 13 211 84 13
211 84 13 211 84 13 211 84 13 210 83 12 209 82 11 203 76 5 203 76 5
205 75 5 205 75 5 205 75 5 205 75 5 205 75 7 205 75 7 205 75 5
205 75 5 210 83 14 210 83 14 210 83 12 210 83 12 210 83 12 210 83 12
210 83 12 210 83 12 212 82 12 209 84 12 224 109 34 220 112 34
218 112 34 218 113 32 221 111 32 221 111 32 220 112 30 218 113 30
218 114 28 215 115 28 231 139 49 229 139 49 231 139 49 231 139 49
232 140 48 231 141 48 227 143 48 227 143 48 225 140 46 224 139 45
227 137 45 228 135 44 228 135 44 228 135 44 228 135 44 228 135 44
229 135 44 229 135 44 231 134 44 232 133 44 208 101 14 210 101 14
210 101 14 211 100 14 213 99 17 213 98 19 214 97 19 214 97 19
215 95 19 213 91 16 210 85 11 210 85 11 209 84 10 209 84 10 209 84 10
210 85 11 210 83 10 210 83 10 210 83 10 204 87 10 228 133 46
222 136 46 223 135 46 225 135 44 226 134 44 228 133 44 226 134 44
226 134 42 226 131 40 225 128 40 213 111 25 214 107 22 214 105 21
216 104 21 216 104 21 216 104 21 217 103 21 219 102 23 219 102 23
221 101 25 206 84 9 208 83 11 208 83 11 209 82 11 209 82 11 211 81 11
211 81 11 211 81 11 210 80 8 207 80 7 225 102 28 221 101 25
219 104 24 217 105 24 217 105 24 217 105 24 216 104 23 216 104 23
215 103 22 215 101 21 213 98 19 213 96 17 212 95 16 214 94 16
214 92 15 216 92 15 214 92 15 212 93 15 210 93 14 210 93 14
219 104 24 219 104 24 217 105 24 215 106 24 215 106 24 215 106 24
215 106 24 215 106 24 215 106 24 215 106 24 216 102 22 216 102 22
216 102 22 216 102 22 216 102 22 216 102 22 216 102 22 216 101 24
217 99 25 219 99 26 207 85 12 210 85 13 210 83 12 210 83 12 212 82 12
212 82 12 211 84 13 211 84 13 211 84 13 211 84 13 211 84 13 211 84 13
211 84 13 211 84 13 211 84 13 211 84 13 211 84 13 211 84 13 210 83 12
209 82 11 203 76 5 203 76 5 205 75 5 205 75 5 205 75 5 205 75 5
205 75 7 205 75 7 205 75 5 205 75 5 210 83 12 210 83 12 210 83 12
210 83 12 210 83 12 210 83 12 210 83 12 210 83 12 213 81 12 210 83 12
224 109 34 220 112 34 216 113 34 216 113 34 220 112 32 223 110 32
223 111 30 221 112 30 218 114 28 216 114 28 234 137 49 233 138 49
233 138 49 231 139 49 232 140 48 229 142 48 226 143 48 224 144 48
222 142 46 224 139 45 227 137 45 229 135 44 229 135 44 229 135 44
229 135 44 229 135 44 231 134 44 232 133 44 234 132 44 234 132 44
205 101 13 207 100 15 208 99 15 208 99 15 211 99 19 213 98 21
214 97 21 216 96 21 216 94 19 213 91 16 210 85 11 210 85 11 209 84 10
209 84 10 209 84 10 210 85 11 210 83 10 212 83 10 212 83 10 206 86 10
228 131 45 222 134 45 224 134 43 225 133 43 226 134 44 226 134 44
225 135 42 225 135 42 224 132 40 223 129 38 211 112 23 212 108 20
213 106 19 214 105 19 214 105 19 216 105 19 217 103 21 219 103 21
219 102 23 221 101 25 206 83 11 208 83 11 209 82 11 209 82 11
211 81 11 211 81 11 211 81 11 211 81 11 210 80 8 208 79 7 228 101 28
222 100 25 222 102 24 220 103 24 219 104 24 217 105 24 216 104 23
216 104 23 216 102 22 215 101 21 213 98 19 212 97 17 210 96 16
212 95 16 214 92 15 216 92 15 214 92 15 212 93 15 211 92 14 210 93 14
220 103 24 219 104 24 217 105 24 217 105 24 217 105 24 217 105 24
217 105 24 217 105 24 217 105 24 217 105 24 218 101 22 218 101 22
218 101 22 218 101 22 218 101 22 218 101 22 218 101 22 218 101 24
217 99 25 219 99 26 207 85 12 210 85 13 210 83 12 210 83 12 212 82 12
212 82 12 211 84 13 211 84 13 211 84 13 211 84 13 211 84 13 211 84 13
211 84 13 211 84 13 211 84 13 211 84 13 211 84 13 211 84 13 210 83 12
209 82 11 203 76 5 203 76 5 205 75 5 205 75 5 205 75 5 205 75 5
205 75 5 205 75 5 203 76 5 203 76 5 210 83 12 209 84 10 209 84 10
209 84 10 209 84 10 209 84 10 209 84 10 210 83 10 213 82 10 212 83 10
226 109 32 221 111 32 218 113 32 218 113 32 221 111 32 224 110 30
224 110 30 223 111 28 220 113 28 218 114 26 236 137 47 234 137 47
233 138 47 231 139 47 231 141 48 227 143 48 223 145 48 221 146 48
220 143 46 222 140 45 229 137 45 231 134 44 231 134 44 231 134 44
231 134 44 232 133 44 234 132 46 236 131 46 236 131 46 237 130 46
208 99 15 210 98 17 210 98 17 212 97 17 214 97 21 216 96 23 218 95 23
218 95 23 218 93 21 215 90 18 211 88 14 209 87 12 208 86 11 208 86 11
210 85 11 210 85 11 213 86 10 213 84 9 215 83 9 207 87 9 231 131 46
225 135 44 226 134 44 226 134 42 228 135 44 228 135 44 226 136 44
226 137 42 225 134 39 227 133 39 214 115 23 213 110 19 214 107 20
215 106 20 215 106 20 217 106 20 219 104 22 219 104 22 220 103 24
222 102 26 206 83 11 208 83 11 209 82 11 209 82 11 211 81 11
211 81 11 211 81 11 211 81 11 211 81 9 210 80 8 229 102 29 223 101 26
222 102 24 220 103 24 219 104 24 217 105 24 216 104 23 216 104 23
216 102 22 215 101 21 214 99 20 213 98 19 212 97 17 213 96 17
214 92 15 214 92 15 214 92 15 212 93 15 211 92 14 211 92 14
220 103 24 219 104 24 219 104 24 219 104 24 219 104 24 219 104 24
219 104 24 219 104 24 219 104 24 219 104 24 219 100 22 219 100 22
219 100 22 219 100 22 219 100 22 219 100 22 219 100 22 218 101 24
217 99 25 219 99 26 207 85 12 210 85 13 210 83 12 210 83 12 212 82 12
212 82 12 211 84 13 211 84 13 211 84 13 211 84 13 211 84 13 211 84 13
211 84 13 211 84 13 211 84 13 211 84 13 211 84 13 211 84 13 210 83 12
209 82 11 203 76 5 203 76 5 205 75 5 205 75 5 205 75 5 205 75 5
205 75 5 205 75 5 203 76 5 203 76 5 209 84 10 207 85 10 207 85 10
207 85 10 207 85 10 207 85 10 207 85 10 207 85 10 210 83 10 207 85 10
221 111 32 215 114 32 212 116 32 213 116 30 216 114 30 218 114 28
218 114 28 218 114 26 215 116 26 212 117 26 231 139 47 228 141 47
226 141 47 225 142 47 226 143 48 224 144 48 219 147 48 219 147 48
219 143 46 222 140 45 230 136 45 232 133 44 232 133 44 232 133 44
234 132 44 236 131 46 237 130 46 237 130 46 239 129 46 240 128 48
212 97 17 212 97 19 213 96 19 215 95 19 218 95 23 218 95 25 219 94 25
221 93 25 218 93 23 215 90 18 213 88 17 211 88 14 209 87 12 209 87 12
211 86 12 213 86 12 215 86 14 214 85 10 216 84 10 209 88 10
232 133 46 226 136 46 228 135 44 228 135 44 229 137 45 229 137 45
227 138 43 227 138 43 225 134 39 228 134 40 214 115 23 213 110 19
215 108 21 217 108 21 217 108 21 218 107 21 220 106 23 220 106 23
221 104 26 223 103 28 206 83 11 208 83 11 209 82 11 209 82 11
211 81 11 211 81 11 211 81 11 211 81 11 210 80 8 208 79 7 228 101 28
222 100 25 221 101 23 219 102 23 217 103 23 216 104 23 216 104 23
216 104 23 216 102 22 215 101 21 214 99 20 214 99 20 213 98 19
214 97 19 212 93 15 212 93 15 212 93 15 212 93 15 211 92 14 211 92 14
222 102 24 220 103 24 220 103 24 220 103 24 220 103 24 220 103 24
220 103 24 220 103 24 220 103 24 220 103 24 215 94 16 215 94 16
215 94 16 215 94 16 215 94 16 215 94 16 215 94 16 214 94 18 213 96 21
214 94 20 209 87 14 210 85 13 208 81 10 208 81 10 210 80 10 210 80 10
210 83 12 210 83 12 210 83 12 210 83 12 216 89 18 216 89 18 216 89 18
216 89 18 214 86 16 214 86 16 214 86 16 214 86 16 214 86 16 214 86 16
213 85 14 213 85 14 214 84 14 214 84 14 213 83 13 213 83 13 213 83 13
213 83 13 213 84 11 211 85 11 223 101 26 222 102 24 222 102 24
222 102 24 222 102 24 222 102 24 222 102 24 220 103 24 218 106 26
215 113 29 234 144 56 233 150 59 230 151 59 230 152 57 234 149 57
236 149 55 236 149 55 234 150 53 233 151 53 230 152 53 240 168 67
237 170 67 234 169 66 236 168 66 238 168 66 238 168 66 233 168 65
235 167 65 239 166 68 248 166 70 213 118 27 221 119 31 219 115 27
219 115 27 221 114 29 222 113 29 224 112 31 224 112 31 226 111 31
227 110 33 195 75 0 195 75 2 197 74 2 197 72 2 199 71 2 197 69 3
199 69 3 199 69 3 200 72 6 199 71 2 215 90 18 215 90 18 212 89 17
212 89 17 213 88 17 216 89 18 217 87 15 217 87 15 218 87 13 212 90 13
235 135 48 228 138 48 230 138 46 230 138 46 231 139 45 231 139 45
229 140 47 229 140 47 238 146 54 230 136 45 215 116 26 215 110 23
216 110 23 218 109 23 218 109 23 219 108 23 221 107 25 221 107 25
223 106 27 224 104 29 208 83 11 209 82 11 209 82 11 209 82 11
211 81 13 212 80 13 212 80 11 212 80 11 208 79 9 207 77 7 227 100 26
221 99 24 219 100 24 218 101 24 216 102 22 215 103 22 215 103 22
215 103 22 216 102 22 216 102 22 215 101 21 215 101 21 215 101 21
215 101 21 218 101 22 219 100 22 219 100 22 219 100 22 221 99 22
219 97 20 216 95 17 214 94 16 214 94 16 214 94 16 214 94 16 214 94 16
214 94 16 214 94 16 214 94 16 214 94 16 215 94 16 215 94 16 215 94 16
215 94 16 215 94 16 215 94 16 215 94 16 215 93 18 215 95 21 214 94 20
209 87 14 210 85 13 208 81 10 208 81 10 210 80 10 210 80 10 210 83 12
210 83 12 210 83 12 210 83 12 216 89 18 216 89 18 216 89 18 216 89 18
214 86 16 214 86 16 214 86 16 214 86 16 214 86 16 214 86 16 214 86 16
214 86 16 215 86 16 215 86 16 215 86 16 215 86 16 215 86 16 215 86 16
215 86 14 214 87 14 224 105 27 223 106 25 223 106 25 223 106 25
223 106 25 223 106 25 223 106 25 219 108 25 216 111 26 213 118 29
232 149 56 230 155 60 227 156 60 227 157 58 230 155 58 234 154 56
234 154 56 232 155 56 229 157 54 227 158 54 237 172 68 234 173 68
232 174 68 232 174 68 235 172 68 235 172 68 232 172 67 234 171 67
238 167 68 246 166 70 213 118 27 223 119 31 221 114 27 222 113 27
222 113 29 224 112 29 226 111 31 227 110 31 227 110 33 229 109 33
197 74 2 198 73 4 198 73 4 199 71 4 200 70 4 201 67 5 201 67 5
201 68 3 201 71 6 199 71 4 216 90 21 216 91 19 213 90 18 215 90 18
216 89 18 217 90 19 218 88 16 218 88 16 219 88 14 213 91 14
236 136 49 229 139 49 231 139 47 231 139 47 232 141 46 232 141 46
231 141 48 231 141 48 238 146 54 233 138 47 215 116 26 215 110 23
217 111 24 219 110 24 219 110 24 219 110 24 221 109 26 222 108 26
224 107 28 225 106 30 208 83 11 209 82 11 209 82 11 211 81 11
212 80 13 212 80 13 212 80 11 212 80 11 207 77 7 206 76 6 225 98 25
220 98 23 218 99 23 217 99 23 215 101 21 214 101 21 215 103 22
215 103 22 216 102 22 216 102 22 216 102 22 216 102 22 216 102 22
216 102 22 216 102 22 218 101 22 218 101 22 219 100 22 221 99 22
219 97 20 216 95 17 215 94 16 215 94 16 214 94 16 214 94 16 214 94 16
214 94 16 214 94 16 214 94 16 214 94 16 217 93 16 217 93 16 217 93 16
217 93 16 217 93 16 217 93 16 217 93 16 215 93 18 215 95 21 214 94 20
209 87 14 210 85 13 208 81 10 208 81 10 210 80 10 210 80 10 210 83 12
210 83 12 210 83 12 210 83 12 216 89 18 216 89 18 216 89 18 216 89 18
214 86 16 214 86 16 214 86 16 214 86 16 214 86 16 214 86 16 214 86 16
214 86 16 215 86 16 215 86 16 215 86 16 215 86 16 215 86 16 215 86 16
214 86 16 212 88 14 224 105 25 221 107 23 221 107 23 221 107 23
221 107 23 221 107 23 221 107 23 219 108 23 217 111 24 214 118 27
233 148 54 232 154 58 229 156 58 229 156 56 232 155 56 235 153 54
235 153 54 234 154 54 232 157 55 230 158 55 237 170 65 235 173 66
232 172 65 231 173 65 231 173 67 231 173 67 229 174 67 231 173 67
234 169 66 245 168 68 213 118 27 223 119 31 222 113 27 224 113 27
224 112 29 226 111 29 226 111 31 227 110 31 229 109 33 230 108 33
197 72 0 199 71 2 199 71 4 200 70 4 202 68 6 202 66 7 202 66 7
201 67 5 201 71 6 199 71 4 218 93 23 217 92 20 214 92 19 216 91 19
217 90 19 218 91 20 219 90 17 219 90 17 220 89 15 214 92 15
237 137 50 231 141 50 232 140 48 232 140 48 233 142 47 233 142 47
232 142 49 232 142 49 237 145 53 235 140 49 216 117 27 216 112 24
219 112 25 219 112 25 219 112 25 220 111 25 220 111 27 222 110 27
223 109 29 226 107 31 208 83 11 209 82 11 209 82 11 211 81 11
212 80 13 212 80 13 212 80 11 212 80 11 207 77 7 206 76 6 225 98 25
220 98 23 218 99 23 217 99 23 215 101 21 214 101 21 215 103 22
215 103 22 215 103 22 215 103 22 216 104 23 216 104 23 216 104 23
216 104 23 215 103 22 216 102 22 218 101 22 219 100 22 221 99 22
219 97 20 218 94 17 217 93 16 215 94 16 215 94 16 215 94 16 215 94 16
215 94 16 215 94 16 215 94 16 215 94 16 217 93 16 217 93 16 217 93 16
217 93 16 217 93 16 217 93 16 217 93 16 215 93 18 215 95 21 214 94 20
209 87 14 210 85 13 206 81 10 208 81 10 208 81 10 208 81 10 210 83 12
210 83 12 210 83 12 210 83 12 216 89 18 216 89 18 216 89 18 216 89 18
214 86 16 214 86 16 214 86 16 214 86 16 214 86 16 214 86 16 214 86 16
214 86 16 215 86 16 215 86 16 215 86 16 215 86 16 215 86 16 215 86 16
214 86 16 212 88 14 223 106 25 221 107 23 221 107 23 221 107 23
221 107 23 221 107 23 221 107 23 219 108 23 217 111 22 216 117 25
233 149 52 232 155 56 230 156 56 230 156 56 234 154 54 235 153 54
235 153 54 235 153 54 233 156 55 230 158 55 236 169 64 236 171 65
234 172 65 232 172 65 229 174 67 229 174 67 229 174 67 231 173 67
231 171 66 242 169 68 211 119 27 223 119 31 222 113 27 224 113 27
224 112 29 226 111 29 226 111 31 227 110 33 227 110 33 230 108 35
199 71 2 202 69 2 202 69 4 202 69 4 203 68 6 202 66 7 202 66 7
202 66 5 203 70 6 200 70 4 220 92 23 217 92 20 216 91 19 216 91 19
217 90 19 218 91 20 217 90 19 219 90 17 219 90 17 212 93 15
237 137 50 231 141 50 231 141 48 232 140 48 233 142 47 233 141 49
232 142 49 232 142 49 237 145 53 238 141 51 216 115 26 216 112 24
217 113 25 219 112 25 219 112 25 219 112 25 219 112 27 220 111 27
222 110 29 225 108 29 208 83 11 209 82 11 209 82 11 211 81 11
211 81 13 212 80 13 212 80 11 212 80 11 207 77 7 204 77 6 224 99 25
220 98 23 218 99 23 217 99 23 215 101 21 214 101 21 215 103 22
215 103 22 215 103 22 215 103 22 216 104 23 216 104 23 216 104 23
216 104 23 215 103 22 216 102 22 218 101 22 218 101 22 219 100 22
219 97 20 218 94 17 217 93 16 215 94 16 215 94 16 215 94 16 215 94 16
215 94 16 215 94 16 215 94 16 215 94 16 215 93 18 215 93 18 215 93 18
215 93 18 215 93 18 215 93 18 215 93 18 215 93 18 214 92 19 213 90 20
209 83 14 208 82 13 208 82 13 208 82 13 208 82 13 209 81 13 210 83 12
210 83 12 210 83 12 210 83 12 214 86 16 214 86 16 214 86 16 214 86 16
214 86 16 214 86 16 214 86 16 214 86 16 214 86 16 214 86 16 214 86 16
214 86 16 215 86 16 215 86 16 215 86 16 215 86 16 214 86 16 214 86 16
214 87 14 212 88 14 223 106 27 221 107 25 221 107 25 221 107 25
219 108 23 219 108 23 219 108 23 219 108 23 219 110 22 216 117 25
232 150 52 230 156 56 232 155 56 234 154 56 234 154 54 234 154 54
235 153 54 235 153 54 235 155 55 233 158 56 238 168 64 234 170 64
234 171 67 232 172 67 229 174 67 229 174 67 230 171 68 230 171 68
228 170 67 237 169 69 208 119 26 220 118 30 222 115 28 224 115 28
224 114 30 225 113 30 225 113 32 227 112 35 227 111 37 230 110 37
200 70 2 203 68 2 203 68 4 202 67 3 203 68 6 205 67 6 205 67 6
203 68 6 206 70 7 203 70 6 221 93 25 220 92 23 217 92 22 217 92 22
218 91 22 220 92 23 217 92 20 217 92 20 218 91 18 212 95 16
235 140 51 229 143 51 230 143 49 232 142 49 235 140 49 235 140 49
233 141 51 233 141 51 238 144 55 239 140 53 218 114 28 216 111 26
217 112 27 217 112 27 217 112 27 217 112 27 217 112 27 219 112 27
219 112 27 222 110 29 206 83 11 209 81 13 211 81 13 211 81 13
211 81 11 211 81 11 211 81 11 211 81 11 207 77 7 204 77 6 224 99 27
220 97 25 218 99 23 217 99 23 215 100 23 214 101 23 215 102 24
215 102 24 215 102 24 215 102 24 216 103 25 216 103 25 216 103 25
216 103 25 216 101 24 218 101 24 218 101 24 218 101 24 219 102 25
218 99 23 216 96 21 215 95 19 216 94 19 216 94 19 216 94 19 216 94 19
216 94 19 216 94 19 216 94 19 216 94 19 215 93 18 215 93 18 215 93 18
215 93 18 215 93 18 215 93 18 215 93 18 215 93 20 216 90 21 215 89 20
209 83 14 208 82 13 208 82 13 208 82 13 208 82 13 208 82 13 210 83 12
210 83 12 210 83 12 210 83 12 214 86 16 214 86 16 214 86 16 214 86 16
214 86 16 214 86 16 214 86 16 214 86 16 214 86 16 214 86 16 214 86 16
214 86 16 215 86 16 215 86 16 215 86 16 215 86 16 214 86 16 214 86 16
214 87 14 212 88 14 223 106 27 221 106 27 221 106 27 219 108 25
219 108 25 219 108 23 219 108 23 219 108 23 221 109 24 218 116 25
232 150 52 232 155 56 235 153 56 237 152 56 235 153 54 235 153 54
235 153 54 235 153 54 233 156 55 233 158 56 236 167 63 233 168 63
234 171 67 232 172 67 229 174 67 229 174 67 231 170 68 231 170 68
227 171 67 236 170 69 207 120 26 220 118 30 222 115 28 224 115 28
224 114 30 224 114 30 224 114 32 225 113 35 225 112 37 228 111 37
200 70 2 203 68 2 203 68 4 202 67 3 205 67 6 205 67 6 205 67 6
205 67 6 206 70 7 203 70 6 222 92 25 220 92 23 217 92 22 218 91 22
220 90 22 220 92 23 215 93 20 214 94 20 215 93 18 209 96 18
232 141 53 225 145 51 227 145 49 229 144 49 233 141 49 235 140 49
233 141 51 233 141 51 238 144 55 239 142 54 215 113 27 216 111 26
217 112 27 217 112 27 217 112 27 217 112 27 217 112 27 217 112 27
217 112 27 220 110 29 206 83 11 209 81 13 211 81 13 211 81 13
211 81 11 211 81 11 211 81 11 211 81 11 206 78 7 204 77 6 224 99 27
220 97 25 218 99 23 217 99 23 215 100 23 214 101 23 215 102 24
215 102 24 215 102 24 216 101 24 217 103 25 217 103 25 217 103 25
217 103 25 216 101 24 218 101 24 218 101 24 218 101 24 219 102 25
217 99 23 214 97 21 213 96 19 215 95 19 216 94 19 216 94 19 216 94 19
216 94 19 216 94 19 216 94 19 216 94 19 215 93 18 215 93 18 215 93 18
215 93 18 215 93 18 215 93 18 215 93 18 215 93 20 216 90 21 215 89 20
209 83 14 208 82 13 208 82 13 208 82 13 208 82 13 208 82 13 210 83 12
210 83 12 210 83 12 210 83 12 214 86 16 214 86 16 214 86 16 214 86 16
214 86 16 214 86 16 214 86 16 214 86 16 214 86 16 214 86 16 214 86 16
214 86 16 215 86 16 215 86 16 215 86 16 215 86 16 215 86 16 215 86 16
215 86 14 212 88 14 221 106 29 219 107 29 219 107 27 218 108 27
218 108 25 218 108 25 218 108 25 219 108 25 224 108 24 222 113 27
236 147 54 235 153 58 240 151 56 240 151 56 240 151 56 238 151 56
235 153 56 234 154 56 233 158 58 232 160 59 234 166 64 232 169 65
231 171 66 230 172 66 230 171 68 230 171 68 233 170 68 231 170 68
227 171 67 236 170 69 207 120 26 218 119 30 220 116 28 222 115 28
222 115 30 222 115 30 222 115 32 224 113 35 224 113 35 227 111 37
199 69 0 204 66 1 204 66 1 204 66 3 205 67 4 205 67 4 205 67 4
205 67 4 206 70 7 203 70 6 222 92 25 220 92 23 217 92 22 218 91 22
220 90 22 220 92 23 214 94 20 210 95 20 212 95 18 206 98 18
229 143 53 222 147 51 224 146 49 225 145 49 230 143 49 232 142 49
230 143 51 230 143 51 234 144 54 236 143 54 212 115 27 215 113 27
217 112 27 219 112 27 219 112 27 219 112 27 219 112 27 219 112 27
219 112 27 222 110 29 206 83 11 209 81 13 211 81 13 211 81 13
211 81 11 211 81 11 211 81 11 211 81 11 207 79 9 204 77 6 224 99 27
220 97 25 218 99 23 217 99 23 215 100 23 215 100 23 216 101 24
216 101 24 216 101 24 218 101 24 219 102 25 219 102 25 219 102 25
217 103 25 216 101 24 216 101 24 216 101 24 216 101 24 217 103 25
215 100 23 213 98 21 212 97 19 215 95 19 216 94 19 216 94 19
216 94 19 216 94 19 216 94 19 216 94 19 216 94 19 215 93 18 215 93 18
215 93 18 215 93 18 215 93 18 215 93 18 215 93 18 215 93 20 216 90 21
215 89 20 209 83 14 208 82 13 208 82 13 208 82 13 208 82 13 208 82 13
210 83 12 210 83 12 210 83 12 210 83 12 214 86 16 214 86 16 214 86 16
214 86 16 214 86 16 214 86 16 214 86 16 214 86 16 214 86 16 214 86 16
214 86 16 214 86 16 215 86 16 215 86 16 215 86 16 215 86 16 215 86 16
215 86 16 215 86 14 212 88 14 219 107 29 216 108 29 216 109 27
216 109 27 216 109 25 216 109 25 216 109 25 219 108 25 224 108 24
222 113 27 236 147 54 237 152 58 240 151 56 242 150 56 242 150 56
238 151 56 235 153 56 232 155 56 231 159 58 229 161 59 228 165 61
228 167 63 228 171 65 227 171 65 230 171 68 231 170 68 233 170 68
233 170 68 227 171 67 236 170 69 207 120 26 218 119 30 219 115 27
221 114 27 221 114 29 221 114 29 221 114 31 221 114 31 221 113 33
226 111 33 199 69 0 204 67 0 204 66 1 204 66 1 205 67 4 205 67 4
205 67 4 205 67 4 206 70 7 203 70 6 222 92 27 220 92 23 218 91 22
218 91 22 220 90 22 220 92 23 212 94 22 210 95 20 212 94 20 206 98 18
229 143 53 222 147 51 224 146 49 225 145 49 230 143 49 232 142 49
230 143 51 230 143 51 234 144 54 237 144 55 211 114 26 215 113 27
219 112 27 220 111 27 220 111 27 220 111 27 220 111 27 220 111 27
220 111 27 222 110 29 206 83 11 209 81 13 211 81 13 211 81 13
211 81 11 211 81 11 211 81 11 211 81 11 207 79 9 206 78 7 224 99 27
220 97 25 218 99 23 217 99 23 215 100 23 215 100 23 216 101 24
218 101 24 218 101 24 219 100 24 221 101 25 221 101 25 221 101 25
219 102 25 216 101 24 216 101 24 216 101 24 216 101 24 217 103 25
215 100 23 213 98 21 212 97 19 215 95 19 216 94 19 216 94 19
216 94 19 216 94 19 216 94 19 216 94 19 216 94 19 216 94 19 216 94 19
216 94 19 216 94 19 216 94 19 216 94 19 216 94 19 216 94 21 216 90 21
213 88 19 210 85 15 208 82 13 208 82 13 208 82 13 208 82 13 208 82 13
210 83 12 210 83 12 210 83 12 210 83 12 214 86 16 214 86 16 214 86 16
214 86 16 214 86 16 214 86 16 214 86 16 214 86 16 211 84 13 211 84 13
211 84 13 211 84 13 213 83 13 213 83 13 213 83 13 213 83 13 213 83 13
213 83 13 213 84 11 208 86 11 218 108 29 215 109 29 215 110 27
215 110 27 215 110 25 215 110 25 215 110 25 216 109 25 213 99 14
207 100 13 237 150 56 231 151 55 238 151 56 240 151 56 238 151 56
237 152 56 232 155 56 229 156 56 229 159 58 227 162 59 227 166 61
225 169 63 225 172 65 225 172 65 228 172 68 231 170 68 233 170 68
233 170 68 227 171 67 236 170 69 207 120 26 218 119 30 220 116 28
222 115 28 222 115 30 222 115 30 222 115 32 222 115 32 222 114 35
227 112 35 199 69 0 204 67 0 204 66 1 205 68 2 205 67 4 205 67 4
205 67 4 205 67 4 205 69 8 203 70 8 220 90 24 220 90 24 218 90 24
218 90 24 220 90 24 220 91 25 215 92 24 214 93 22 214 94 20 207 97 18
235 145 57 229 148 55 229 149 53 232 147 53 237 145 53 238 144 53
237 144 55 237 144 57 233 137 51 231 133 48 218 115 31 217 110 28
220 110 29 222 110 29 222 110 29 222 110 29 222 110 29 222 110 29
222 110 29 223 108 31 208 83 11 211 81 13 211 81 13 211 81 13
211 81 11 211 81 11 211 81 11 211 81 11 208 81 10 207 79 9 223 98 26
220 97 25 219 100 24 218 101 24 216 101 24 216 101 24 217 99 23
218 99 23 218 99 23 220 98 23 221 99 24 221 99 24 221 99 24
219 100 24 218 101 24 218 101 24 218 101 24 218 101 24 220 103 26
218 101 24 216 98 22 214 97 21 214 92 17 216 91 17 216 91 17
216 91 17 216 91 17 216 91 17 216 91 17 216 91 17 214 92 17 214 92 17
214 92 17 214 92 17 214 92 17 214 92 17 214 92 17 214 92 19 216 90 21
213 88 19 210 85 15 208 82 13 208 82 13 208 82 13 208 82 13 208 82 13
210 83 12 210 83 12 210 83 12 210 83 12 216 89 18 216 89 18 216 89 18
216 89 18 216 89 18 216 89 18 216 89 18 216 89 18 214 86 16 214 86 16
214 86 16 214 86 16 215 86 16 215 86 16 215 86 16 215 86 16 215 86 16
215 86 16 215 86 14 211 88 14 217 110 30 214 111 30 214 112 28
214 112 28 214 112 26 214 112 26 214 112 26 214 112 26 213 106 19
207 107 18 237 157 61 231 158 60 230 150 52 230 150 52 230 150 52
228 151 52 225 153 52 222 154 52 220 155 52 217 157 52 229 174 67
228 174 67 227 176 68 229 176 68 230 174 70 234 173 70 236 173 72
236 173 72 230 174 70 239 174 73 210 123 30 222 123 33 223 119 31
224 118 31 224 117 33 224 117 33 224 117 35 224 117 35 224 117 37
229 114 37 199 69 0 204 67 0 204 66 1 205 68 2 205 67 4 205 67 4
205 67 4 205 67 4 206 70 9 203 68 6 218 85 21 214 84 18 220 91 25
221 91 25 223 90 25 222 92 27 220 91 25 220 91 25 220 92 23 213 96 19
235 138 52 229 141 50 229 142 48 232 140 48 237 138 48 239 136 50
237 137 52 237 137 52 235 133 49 234 129 46 225 115 34 225 113 32
221 108 28 222 108 28 222 108 28 222 108 28 222 108 28 222 108 28
222 108 28 224 106 30 208 83 11 211 81 13 211 81 13 211 81 13
211 81 11 211 81 11 211 81 11 211 81 11 208 81 10 209 82 11 218 93 21
215 93 20 216 96 21 214 97 21 213 98 21 213 98 21 216 96 21 218 95 21
219 97 22 219 97 22 220 98 23 220 98 23 221 99 24 221 99 24 221 99 24
221 99 24 221 99 24 221 99 24 223 101 26 221 99 24 219 97 22
218 95 21 217 92 18 217 92 18 217 92 18 217 92 18 217 92 18 217 92 18
217 92 18 217 92 18 212 90 15 212 90 15 212 90 15 212 90 15 212 90 15
212 90 15 212 90 15 212 89 17 216 90 21 213 88 19 210 85 15 208 82 13
208 82 13 208 82 13 208 82 13 208 82 13 210 83 12 210 83 12 210 83 12
210 83 12 208 81 10 208 81 10 208 81 10 208 81 10 208 81 10 208 81 10
208 81 10 208 81 10 206 78 7 206 78 7 206 78 7 206 78 7 207 77 7
207 77 7 207 77 7 207 77 7 207 77 7 207 77 7 207 78 5 202 80 5
227 119 37 222 122 37 222 122 37 222 122 35 222 122 35 222 123 33
222 123 33 220 123 33 220 123 33 213 125 32 243 175 75 239 175 74
248 180 78 249 179 78 248 180 78 246 181 78 246 181 78 244 182 78
242 181 77 239 181 75 235 181 74 232 181 73 232 181 73 232 181 73
235 179 75 238 177 75 241 178 76 241 178 76 235 179 75 244 178 77
215 128 34 227 127 38 226 124 35 227 123 35 227 123 37 227 123 37
227 122 39 227 122 39 227 122 41 232 120 41 199 69 0 204 67 0
205 68 2 205 68 2 205 67 4 205 67 4 205 67 4 205 67 4 207 71 10
201 65 4 211 78 14 204 73 8 200 72 6 201 71 6 203 70 6 204 71 7
205 69 6 206 68 6 208 68 4 201 72 0 214 107 24 207 110 22 209 110 20
211 109 20 215 106 20 217 105 22 215 106 24 215 106 24 216 104 23
220 105 26 214 94 16 216 97 19 219 102 23 219 102 23 219 102 23
219 102 23 219 102 23 219 102 23 219 102 23 221 101 25 208 83 11
209 81 13 209 81 13 209 81 13 209 82 11 209 82 11 209 82 11 209 82 11
210 83 12 210 83 12 213 88 17 211 88 16 211 92 16 210 92 16 208 93 16
208 93 16 211 92 16 215 90 16 215 90 16 215 90 16 208 83 9 208 83 9
208 83 9 208 83 9 209 82 9 211 81 9 211 81 9 211 81 9 213 84 11
211 81 9 208 79 7 206 79 5 207 80 7 207 80 7 207 80 7 207 80 7
207 80 7 207 80 7 207 80 7 207 80 7 211 88 16 211 88 16 211 88 16
211 88 16 211 88 16 211 88 16 211 88 16 212 87 16 216 90 21 215 87 19
211 84 15 209 81 13 209 81 13 209 81 13 209 81 13 209 81 13 210 83 12
210 83 12 210 83 12 210 83 12 210 83 12 210 83 12 210 83 12 210 83 12
210 83 12 212 82 12 212 82 12 212 82 12 210 80 10 210 80 10 210 80 10
210 80 10 210 80 10 210 80 10 210 80 10 210 80 10 210 80 10 210 80 10
210 80 8 205 83 8 226 121 38 221 124 38 221 124 36 221 124 36
221 125 34 221 125 34 221 125 34 221 125 34 223 129 38 216 131 37
244 181 80 239 183 79 239 179 74 241 178 74 238 180 74 238 180 74
239 179 74 239 179 74 238 180 74 236 181 74 236 183 75 234 183 75
234 185 77 235 185 77 237 181 77 241 180 77 243 180 79 243 180 79
237 181 77 246 181 80 217 130 37 229 130 40 228 126 38 230 126 38
230 125 40 230 125 40 230 125 42 230 125 42 230 124 44 234 122 44
199 69 0 204 67 0 205 68 2 205 68 2 205 67 4 205 67 4 205 67 4
205 67 4 207 71 10 201 65 4 208 75 10 198 67 2 201 73 7 203 72 7
204 71 7 207 72 8 209 69 7 211 68 7 211 68 5 204 72 3 214 99 20
209 102 18 209 103 16 211 102 16 214 100 16 214 100 18 212 100 20
212 100 20 215 101 21 222 102 24 219 95 19 224 100 23 219 100 22
218 101 22 218 101 22 218 101 22 218 101 22 219 100 22 219 100 22
219 100 24 208 83 11 209 81 13 209 81 13 209 81 13 209 82 11
209 82 11 209 82 11 209 82 11 210 83 12 209 84 12 215 90 18 206 83 11
209 87 12 208 88 12 206 89 12 206 89 12 211 88 14 212 88 14 212 88 14
211 86 12 210 85 11 209 84 10 209 84 10 210 83 10 212 83 10 213 81 12
213 81 12 213 81 12 216 84 14 213 81 12 211 79 10 208 79 9 211 81 11
209 82 11 209 82 11 209 82 11 209 82 11 209 82 11 209 82 11 209 82 11
212 87 18 212 87 18 212 87 18 212 87 18 212 87 18 212 87 18 212 87 18
212 87 18 214 86 18 214 84 16 211 81 13 210 79 12 211 81 13 211 81 13
211 81 13 209 81 13 210 83 14 210 83 14 210 83 14 210 83 14 208 80 12
208 80 12 208 80 12 208 80 12 210 79 12 211 79 12 211 79 12 211 79 12
211 79 12 211 79 12 211 79 12 210 79 12 210 80 10 210 80 10 210 80 10
210 80 10 210 80 8 210 80 8 210 80 8 205 83 6 226 121 38 221 124 38
221 124 36 221 124 36 221 125 34 221 125 34 221 125 34 221 125 34
227 128 36 217 131 35 246 181 78 239 183 77 239 181 75 239 181 75
236 183 75 236 183 75 237 182 75 237 182 75 237 182 75 236 183 75
234 183 75 234 183 75 234 183 75 236 183 75 239 183 79 242 181 79
243 180 79 243 180 79 237 181 77 246 181 80 217 130 37 229 130 40
229 128 39 229 128 39 229 127 41 229 127 41 229 127 43 229 127 43
229 126 45 236 123 45 199 69 0 205 68 0 205 68 2 205 68 2 205 67 4
205 67 4 205 67 6 205 67 6 206 70 9 203 68 6 203 70 8 201 70 8
201 72 9 203 72 9 204 71 9 206 70 9 207 70 7 207 70 7 207 70 5
203 73 3 221 101 25 216 104 21 216 105 19 216 105 19 215 103 20
215 103 20 213 103 22 213 103 22 215 103 22 218 101 22 220 98 21
220 98 21 218 99 21 218 99 21 217 98 20 217 98 20 217 97 22 219 97 22
219 97 22 219 97 22 208 83 11 208 83 11 208 83 11 208 83 11 209 82 11
209 82 11 209 82 11 209 82 11 209 84 12 209 84 12 212 87 16 212 87 16
211 88 14 212 90 15 212 90 15 212 90 15 213 89 15 215 88 15 213 89 15
213 89 15 209 84 10 209 84 10 209 84 10 210 83 10 212 82 12 212 82 14
212 82 14 212 82 14 214 84 16 212 82 14 210 79 12 208 78 11 210 79 12
210 79 12 210 79 12 210 79 12 210 79 12 210 79 12 210 79 12 210 79 12
212 87 18 212 87 18 212 87 18 212 87 18 212 87 18 212 87 18 212 87 18
212 87 18 214 86 18 214 84 16 211 81 13 210 79 12 211 81 13 211 81 13
211 81 13 211 81 13 210 83 14 210 83 14 210 83 14 210 83 14 208 80 12
208 80 12 208 80 12 210 79 12 211 79 12 211 79 12 211 79 12 211 79 12
211 79 12 211 79 12 211 79 12 211 79 12 210 80 10 210 80 10 210 80 10
210 80 10 210 80 8 210 80 8 210 81 6 205 83 6 226 121 38 221 124 38
221 124 36 221 124 36 221 125 34 221 125 34 221 125 34 223 124 34
228 127 36 219 130 35 246 181 78 239 183 77 239 181 75 237 182 75
234 183 75 233 184 75 234 183 75 236 183 75 236 183 75 236 183 75
234 183 75 234 183 75 234 183 75 236 183 75 239 181 77 241 180 77
244 178 77 242 179 77 236 180 76 245 179 79 216 129 35 228 128 39
228 126 38 228 126 38 228 126 40 228 126 40 228 126 42 228 126 42
228 125 44 234 122 44 199 69 0 205 68 0 205 68 2 205 68 2 205 67 4
205 67 4 205 67 6 205 67 6 205 69 8 205 69 8 203 70 8 201 70 8
201 72 9 203 72 9 204 71 9 206 70 9 207 70 7 207 70 7 206 71 5
203 73 3 222 100 25 219 102 23 217 103 21 216 105 19 215 103 20
215 103 20 213 103 22 213 103 22 215 103 22 216 102 22 218 99 21
220 98 21 218 99 21 218 99 21 217 98 20 217 98 20 219 97 22 219 97 22
219 97 22 219 97 22 208 83 11 208 83 11 208 83 11 208 83 11 209 82 11
209 82 11 209 82 11 209 82 11 208 83 11 209 84 12 210 85 13 211 86 14
212 90 15 212 90 15 213 89 15 213 89 15 215 88 15 215 88 15 213 89 15
213 89 15 209 84 10 209 84 10 209 84 10 210 83 12 212 82 14 212 82 14
212 82 14 212 82 14 214 84 16 212 82 14 210 79 12 208 78 11 210 79 12
210 79 12 210 79 12 210 79 12 210 79 12 210 79 12 210 79 12 210 79 12
212 87 18 212 87 18 212 87 18 212 87 18 212 87 18 212 87 18 212 87 18
212 87 18 214 86 18 213 85 16 209 81 13 208 80 12 209 81 13 209 81 13
209 81 13 209 81 13 210 83 14 210 83 14 210 83 14 210 83 14 206 81 12
206 81 12 208 80 12 210 79 12 211 79 12 211 79 12 211 79 12 211 79 12
211 79 12 211 79 12 211 79 12 211 79 12 210 80 10 210 80 10 210 80 10
210 80 10 210 80 8 210 80 8 210 81 6 205 83 6 228 121 38 223 123 38
223 123 36 223 123 36 223 124 34 223 124 34 223 124 34 223 124 34
228 126 38 221 128 37 246 181 80 239 183 79 239 181 77 237 181 77
234 183 75 233 184 75 234 183 75 234 183 75 234 183 75 234 183 75
234 183 75 234 183 75 236 183 75 237 182 75 241 180 77 242 179 77
244 178 77 242 179 77 236 180 76 245 179 79 216 129 35 228 128 39
228 126 38 228 126 38 228 126 40 228 126 40 228 126 42 228 126 42
228 125 44 234 122 44 200 70 0 205 68 0 205 68 2 205 68 2 205 67 4
205 67 4 205 67 6 205 67 6 205 69 8 205 69 8 203 70 8 201 70 8
201 72 9 203 72 9 204 71 9 206 70 9 207 70 7 207 70 7 206 71 5
203 73 3 222 100 25 219 102 23 217 103 21 216 105 19 215 103 20
215 103 20 213 103 22 213 103 24 215 103 22 218 101 22 218 99 21
220 98 21 218 99 21 218 99 21 217 98 20 217 98 20 219 97 22 219 97 22
219 97 22 219 97 22 206 83 11 206 83 11 206 83 11 208 83 11 208 83 11
208 83 11 208 83 11 208 83 11 208 83 11 209 84 12 209 84 12 212 87 16
212 90 15 212 90 15 213 89 15 213 89 15 213 89 15 213 89 15 213 89 15
213 89 15 209 84 10 209 84 10 209 84 10 210 83 12 212 82 14 212 82 14
212 82 14 212 82 14 214 84 16 212 82 14 210 79 12 208 78 11 210 79 12
210 79 12 210 79 12 210 79 12 210 79 12 210 79 12 210 79 12 210 79 12
212 87 18 212 87 18 212 87 18 212 87 18 212 87 18 212 87 18 212 87 18
212 87 18 214 86 18 213 85 16 209 81 13 208 80 12 209 81 13 209 81 13
209 81 13 209 81 13 210 83 14 210 83 14 210 83 14 210 83 14 206 81 12
206 81 12 208 80 12 208 80 12 210 79 12 211 79 12 211 79 12 211 79 12
211 79 12 211 79 12 211 79 12 211 79 12 210 80 10 210 80 10 210 80 10
210 80 10 210 80 8 210 80 8 210 80 8 205 83 6 228 121 38 223 123 38
223 123 36 223 123 36 223 124 34 223 124 34 223 124 34 225 123 34
230 126 38 221 128 37 246 181 80 239 183 79 239 181 77 237 181 77
234 183 75 233 184 75 234 183 75 234 183 75 234 183 75 234 183 75
234 183 75 233 182 74 235 181 74 236 181 74 241 180 77 244 178 77
245 177 77 244 178 77 238 179 76 245 179 79 216 129 35 228 128 39
228 126 38 228 126 38 228 126 40 228 126 40 228 126 42 228 126 42
228 125 44 234 122 44 200 70 0 205 68 0 205 68 2 205 68 2 205 67 4
205 67 4 205 67 6 205 67 6 205 69 8 205 69 8 203 70 8 201 70 8
203 72 9 203 72 9 204 71 9 206 70 9 207 69 9 207 70 7 206 70 7
203 72 5 222 100 27 219 102 25 217 103 21 216 105 19 215 103 20
215 103 22 213 103 24 213 103 24 215 102 24 217 100 21 218 99 21
220 98 21 217 98 20 217 98 20 217 98 20 217 98 20 219 97 22 219 97 22
219 97 22 219 97 22 206 83 11 206 83 11 206 83 11 206 83 11 208 83 11
208 83 11 208 83 11 208 83 11 208 83 11 208 83 11 209 84 12 211 86 14
211 88 14 212 90 15 213 89 15 213 89 15 213 89 15 213 89 15 213 89 15
213 89 15 209 84 10 209 84 10 209 84 10 209 84 10 210 83 12 212 82 14
212 82 14 212 82 14 214 84 16 212 82 14 210 79 12 208 78 11 210 79 12
210 79 12 210 79 12 210 79 12 210 79 12 210 79 12 210 79 12 210 79 12
211 88 16 211 88 16 211 88 16 211 88 16 211 88 16 211 88 16 211 88 16
212 87 16 212 87 16 211 86 14 209 84 12 208 83 11 208 83 11 208 83 11
208 83 11 208 83 11 210 83 12 210 83 12 210 83 12 210 83 12 208 83 11
208 83 11 208 83 11 209 82 11 211 81 11 211 81 11 211 81 11 211 81 11
208 79 9 208 79 9 208 79 9 208 79 9 210 80 10 210 80 10 210 80 10
210 80 10 210 80 10 210 80 10 210 80 8 205 83 8 228 121 38 223 123 38
223 123 36 223 123 36 223 123 36 223 123 36 223 123 36 225 123 36
230 126 38 221 128 37 246 181 80 239 183 79 240 182 79 239 183 79
235 184 79 234 185 79 235 184 79 235 184 79 235 185 77 234 183 75
233 182 74 233 182 74 235 181 74 236 181 74 242 179 77 244 178 77
245 177 77 244 178 77 238 179 76 245 179 79 216 129 35 228 128 39
227 125 37 227 125 37 227 125 39 227 125 39 227 125 39 227 124 41
227 124 41 233 121 43 200 70 0 205 68 0 205 68 2 205 68 2 205 67 4
205 67 4 205 67 6 205 67 6 206 68 10 205 68 10 203 69 10 203 69 10
203 71 11 203 71 11 204 70 11 206 70 11 207 69 11 207 69 9 206 70 9
203 72 7 222 99 29 219 101 27 217 103 23 216 104 21 216 104 21
216 104 23 214 104 25 213 103 26 215 100 23 217 99 23 218 99 21
220 98 21 217 97 22 217 97 22 217 97 22 217 97 22 219 97 22 219 97 22
219 97 22 219 97 22 206 84 9 206 84 9 206 84 9 206 84 9 206 84 9
206 84 9 206 84 9 206 84 9 208 83 11 209 84 12 210 85 13 212 87 16
213 89 15 213 89 15 213 89 15 213 89 15 213 89 15 213 89 15 213 89 15
213 89 15 209 84 10 209 84 10 209 84 10 209 84 10 210 83 12 210 83 12
210 83 12 210 83 12 213 85 14 210 83 12 208 81 10 207 79 9 208 81 10
208 81 10 208 81 10 208 81 10 208 81 10 208 81 10 208 81 10 208 81 10
212 89 17 212 89 17 212 89 17 212 89 17 212 89 17 212 89 17 212 89 17
212 89 17 213 88 17 212 87 16 209 84 12 208 83 11 208 83 11 208 83 11
208 83 11 208 83 11 210 83 12 210 83 12 210 83 12 210 83 12 208 83 11
208 83 11 208 83 11 209 82 11 211 81 11 211 81 11 211 81 11 211 81 11
210 80 10 208 79 9 208 79 9 208 79 9 210 80 10 210 80 10 210 80 10
210 80 10 210 80 10 210 80 10 210 80 8 205 83 8 228 121 38 223 123 38
223 123 38 223 123 36 223 123 36 223 123 36 223 123 36 225 123 36
230 125 40 222 128 37 248 180 80 239 183 79 240 182 79 239 183 79
235 184 79 234 185 79 235 184 79 235 184 79 235 185 77 234 183 75
233 182 74 232 181 73 235 181 74 236 181 74 241 178 76 244 176 76
245 177 77 244 178 77 238 179 76 245 179 79 214 127 33 229 128 39
226 124 35 226 124 35 226 124 37 226 124 37 226 124 37 226 124 37
226 123 39 232 120 41 200 70 0 205 68 0 205 68 2 205 68 2 205 67 4
205 67 4 205 67 6 205 67 6 206 68 10 206 68 10 205 68 10 203 69 10
203 71 11 204 70 11 206 70 11 206 70 11 207 69 11 207 69 11 206 70 9
203 72 9 222 99 31 219 101 27 217 103 23 216 104 21 216 104 21
216 104 23 214 104 25 213 103 26 215 100 23 217 97 22 218 96 19
218 96 19 217 97 22 217 97 22 217 97 22 217 97 22 219 97 22 219 97 22
219 97 22 219 97 22 206 84 9 206 84 9 206 84 9 206 84 9 206 84 9
206 84 9 206 84 9 206 84 9 208 83 11 209 84 12 211 86 14 212 87 16
213 89 15 213 89 15 213 89 15 213 89 15 213 89 15 213 89 15 213 89 15
213 89 15 210 85 11 210 85 11 210 85 11 210 85 11 210 83 12 210 83 12
211 84 13 210 83 12 214 86 16 211 84 13 209 82 11 208 81 10 209 82 11
209 82 11 209 82 11 209 82 11 209 82 11 209 82 11 209 82 11 209 82 11
213 90 18 213 90 18 213 90 18 213 90 18 213 90 18 213 90 18 213 90 18
213 90 18 212 89 17 211 88 16 207 85 12 206 83 11 206 83 11 206 83 11
206 83 11 208 83 11 210 83 12 210 83 12 210 83 12 210 83 12 208 83 11
206 83 11 208 83 11 209 82 11 211 81 11 211 81 11 211 81 11 211 81 11
211 81 11 208 79 9 208 79 9 210 80 10 208 79 9 208 79 9 208 79 9
208 79 9 210 80 10 210 80 10 210 80 8 205 83 8 228 120 40 223 123 40
223 123 38 223 123 38 223 123 38 223 123 38 223 123 38 225 122 38
231 124 40 222 127 39 248 179 82 239 182 81 240 181 81 239 182 81
235 184 79 234 185 79 235 184 79 235 184 79 235 185 77 234 183 75
233 182 74 232 181 73 235 181 74 238 180 74 243 177 76 246 175 76
247 177 77 244 178 77 238 179 76 245 179 79 214 125 32 229 128 39
225 121 33 225 121 33 225 121 35 225 121 35 225 121 35 225 121 35
225 120 37 230 117 39 201 72 2 206 69 2 206 69 4 206 69 4 206 68 6
206 68 6 206 68 8 206 68 8 206 68 10 206 68 10 205 68 10 203 69 10
201 70 10 203 69 10 205 68 10 205 68 10 206 68 10 206 68 10 205 69 8
201 70 8 222 99 31 219 101 29 217 103 23 216 104 21 216 104 21
216 104 23 214 104 27 213 103 26 217 99 23 217 97 22 218 96 19
216 95 17 216 96 21 216 96 21 216 96 21 216 96 21 218 95 21 218 95 21
219 97 22 219 97 22 206 84 9 206 84 9 206 84 9 206 84 9 206 84 9
206 84 9 206 84 9 206 84 9 209 84 12 210 85 13 213 88 17 213 88 17
213 89 15 213 89 15 213 89 15 213 89 15 213 89 15 213 89 15 213 89 15
213 89 15 210 85 11 210 85 11 210 85 11 210 85 11 210 83 12 210 83 12
211 84 13 210 83 12 214 86 16 211 84 13 209 82 11 208 81 10 209 82 11
209 82 11 209 82 11 209 82 11 209 82 11 209 82 11 209 82 11 209 82 11
214 92 19 214 92 19 214 92 19 214 92 19 214 92 19 214 92 19 214 92 19
214 92 19 213 90 18 212 89 17 207 85 12 206 83 11 206 83 11 206 83 11
204 84 11 204 84 11 207 85 12 207 85 12 207 85 12 207 85 12 206 83 11
206 83 11 208 83 11 208 83 11 209 82 11 211 81 11 211 81 11 211 81 11
212 82 12 208 79 9 208 79 9 210 80 10 208 79 9 208 79 9 208 79 9
208 79 9 210 80 10 210 80 10 210 80 8 206 82 8 233 118 40 228 120 40
228 121 38 228 121 38 228 121 38 228 121 38 228 121 38 229 120 38
233 124 40 225 126 39 252 177 82 245 179 81 245 179 81 245 179 81
243 180 79 242 181 79 242 181 79 243 180 79 243 181 77 242 179 75
241 178 74 240 177 73 241 178 74 243 177 74 246 175 76 246 175 76
247 177 77 245 177 77 241 178 76 250 177 79 214 122 30 229 128 39
224 120 32 224 120 32 224 119 34 224 119 34 224 119 34 224 119 36
224 119 36 229 116 38 201 72 2 206 69 2 206 69 4 206 69 4 206 68 6
206 68 6 206 68 8 206 68 8 206 68 10 206 68 10 205 68 10 203 69 10
203 69 10 203 69 10 205 68 10 205 68 10 206 68 10 206 68 10 205 68 10
203 70 8 224 98 31 222 99 29 221 101 27 221 101 25 221 101 25
219 101 27 217 102 29 216 101 28 217 99 25 217 97 22 216 95 17
215 94 16 216 96 21 216 96 21 216 96 21 216 96 21 218 95 21 218 95 21
219 97 22 219 97 22 206 84 9 206 84 9 206 84 9 206 84 9 206 84 9
206 84 9 206 84 9 206 84 9 209 84 12 213 88 17 213 88 17 213 88 17
213 89 15 213 89 15 213 89 15 213 89 15 213 89 15 213 89 15 213 89 15
213 89 15 211 86 12 211 86 12 211 86 12 211 86 12 211 84 13 211 84 13
213 85 14 210 83 12 215 88 17 213 85 14 210 83 12 209 82 11 210 83 12
210 83 12 210 83 12 210 83 12 210 83 12 210 83 12 210 83 12 210 83 12
215 93 18 215 93 18 215 93 18 215 93 18 215 93 18 215 93 18 214 94 18
214 94 18 214 92 17 212 90 15 232 113 37 230 110 35 230 110 35
230 110 35 228 111 35 227 112 35 226 114 36 225 115 36 225 115 36
226 114 36 213 96 19 216 94 19 216 94 19 218 93 19 218 91 18
218 91 18 220 91 18 220 91 18 213 83 13 221 91 21 207 77 7 211 81 11
210 78 9 210 78 9 210 78 9 210 78 9 210 78 9 210 78 9 210 78 9
208 79 9 207 80 7 205 81 7 205 81 7 205 81 7 205 81 5 205 81 5
205 81 5 204 82 5 200 84 3 193 86 1 226 134 44 220 135 43 219 136 43
219 136 43 220 135 43 220 135 43 220 136 41 220 136 41 222 137 42
222 137 42 223 138 44 223 138 44 224 139 45 222 140 45 218 142 45
216 143 45 214 144 45 216 143 45 216 141 44 224 139 45 216 119 28
217 113 25 222 117 30 222 117 30 222 117 32 222 117 32 222 117 34
222 116 36 222 116 36 226 113 38 203 73 3 207 70 3 207 70 5 207 70 5
206 68 6 206 68 6 208 67 8 208 67 8 207 69 11 207 69 11 206 70 11
205 68 10 203 69 10 202 68 9 202 66 7 204 65 7 205 66 11 205 66 11
203 67 9 203 68 6 201 68 3 201 68 3 202 68 6 202 68 6 202 68 6
200 69 6 200 70 4 197 72 2 197 74 2 194 74 0 214 94 16 214 94 16
215 95 17 215 95 17 215 95 17 215 95 17 215 95 19 215 95 19 216 96 21
217 97 22 218 99 23 219 100 24 222 102 26 222 102 26 223 101 26
223 101 26 223 101 26 223 101 26 224 99 25 218 93 19 215 90 16
213 89 15 212 88 14 213 89 15 213 89 15 213 89 15 213 89 15 213 89 15
213 89 15 213 89 15 211 88 14 211 88 14 212 90 15 213 89 15 212 87 16
212 87 16 212 87 16 216 91 19 213 88 17 212 87 16 210 85 13 209 84 12
210 85 13 210 85 13 210 85 13 210 85 13 211 84 13 211 84 13 211 84 13
211 84 13 216 94 19 216 94 19 216 94 19 216 94 19 216 94 19 216 94 19
215 95 19 215 95 19 215 93 18 213 91 16 232 113 37 230 110 35
230 110 35 228 111 35 227 112 35 225 113 35 223 115 36 222 116 36
222 116 36 223 115 36 212 97 19 215 95 19 216 94 19 218 93 19
218 91 18 218 91 18 220 91 18 220 91 18 214 84 14 221 91 21 207 77 7
211 81 11 210 78 9 210 78 9 210 78 9 210 78 9 210 78 9 210 78 9
210 78 9 210 78 9 210 78 7 210 78 7 210 78 7 210 78 7 210 78 7
210 79 5 210 79 5 207 80 5 202 83 5 194 85 1 233 131 44 227 132 43
224 134 43 224 134 43 228 131 43 230 130 43 228 132 41 227 132 41
228 133 42 228 133 42 229 135 44 229 135 44 230 136 45 227 137 45
221 141 45 216 143 45 216 143 45 218 142 45 221 139 44 227 137 45
215 116 26 217 113 25 220 116 28 220 116 28 220 116 30 220 115 32
220 115 35 220 115 35 220 115 37 225 112 37 203 73 3 207 70 3
207 70 5 207 70 5 206 68 6 206 68 6 208 67 8 208 67 8 207 69 11
207 69 11 206 70 11 205 68 10 203 69 10 203 67 9 204 65 7 204 65 7
205 66 11 205 66 11 203 67 9 203 67 9 204 66 5 204 66 5 205 66 9
205 66 11 205 66 11 205 66 9 203 68 4 202 69 2 198 73 2 194 74 0
212 93 17 212 93 15 215 95 17 215 95 17 215 95 17 215 95 17 215 95 19
215 95 19 216 96 21 217 97 22 218 99 23 219 100 24 222 102 26
222 102 26 223 101 26 223 101 26 223 101 26 223 101 26 224 99 25
220 96 22 215 90 16 213 89 15 212 88 14 213 89 15 213 89 15 213 89 15
213 89 15 213 89 15 213 89 15 213 89 15 212 90 15 212 90 15 212 90 15
212 90 15 215 90 18 215 90 18 213 88 17 216 91 19 215 90 18 213 88 17
211 86 14 210 85 13 211 86 14 211 86 14 211 86 14 211 86 14 213 85 14
213 85 14 213 85 14 213 85 14 218 95 21 218 95 21 218 95 21 218 95 21
218 95 21 218 95 21 216 96 21 216 96 21 214 94 18 211 92 16
232 113 37 228 111 35 228 111 35 228 111 35 227 112 35 224 113 35
223 115 36 222 116 36 222 116 36 223 115 36 212 97 19 215 95 19
216 94 19 218 93 19 218 91 18 218 91 18 220 91 18 220 91 18 215 86 16
221 91 21 207 77 7 212 82 12 209 77 7 209 77 7 209 77 7 209 77 7
210 78 9 210 78 9 210 78 9 210 78 9 210 78 9 210 78 9 210 78 9
210 78 9 210 78 7 210 78 7 210 78 7 207 80 7 202 83 5 196 84 3
233 130 46 227 132 45 224 133 45 224 133 45 228 131 43 230 130 43
228 132 41 227 132 41 228 133 42 228 133 42 229 135 44 229 135 44
230 136 45 227 137 45 221 141 45 218 142 45 216 143 45 218 142 45
221 139 44 227 137 45 215 114 25 219 112 25 220 113 26 220 113 26
220 113 28 220 112 30 220 112 32 220 112 32 220 112 34 224 109 34
204 74 4 209 72 4 209 71 6 209 71 6 207 70 7 207 70 7 209 68 9
209 68 9 207 69 11 207 69 11 206 70 11 205 68 10 202 68 9 202 66 7
204 65 7 204 65 7 203 64 8 203 64 8 202 66 7 202 66 7 204 66 5
204 66 5 205 66 9 205 66 11 205 66 11 205 66 9 203 68 6 202 69 2
198 73 2 195 73 0 212 93 17 211 92 14 214 94 16 214 94 16 214 94 16
214 94 16 214 94 18 214 94 18 216 96 21 217 97 22 218 99 23
219 100 24 222 102 26 222 102 26 223 101 26 223 101 26 223 101 26
223 101 26 224 99 25 220 96 22 216 91 17 213 89 15 212 88 14
213 89 15 213 89 15 213 89 15 213 89 15 213 89 15 213 89 15 213 89 15
212 90 15 212 90 15 212 90 15 212 90 15 215 90 18 215 90 18 213 88 17
216 91 19 215 90 18 213 88 17 211 86 14 210 85 13 211 86 14 211 86 14
211 86 14 211 86 14 213 85 14 213 85 14 213 85 14 213 85 14 219 97 22
219 97 22 219 97 22 219 97 22 219 97 22 219 97 22 217 97 22 217 97 22
215 95 19 212 93 17 231 113 37 228 111 35 228 111 35 227 112 35
225 113 35 224 113 35 223 115 36 222 116 36 222 116 36 223 115 36
212 97 19 213 96 19 215 95 19 216 94 19 217 92 18 218 91 18 220 91 18
220 91 18 217 87 17 221 91 21 207 77 7 212 82 12 209 77 7 209 77 7
209 77 7 209 77 7 210 78 9 210 78 9 210 78 9 210 78 9 210 78 9
210 78 9 210 78 9 210 78 9 210 78 7 210 78 7 210 78 7 208 79 7
204 82 5 196 84 3 233 130 46 227 132 45 224 133 45 224 133 45
228 131 43 230 130 43 228 131 43 227 132 41 228 133 42 228 133 42
229 135 44 229 135 44 230 136 45 227 137 45 222 140 45 219 142 45
218 142 45 218 142 45 221 139 44 227 137 45 213 111 23 219 112 25
219 112 25 219 112 27 219 112 27 219 111 29 219 111 31 219 111 31
219 110 33 223 108 33 204 74 4 209 72 4 209 71 6 209 71 6 207 70 7
207 69 9 209 68 9 209 68 11 207 69 11 207 69 11 207 69 11 205 68 10
203 67 9 202 66 7 204 65 7 204 65 9 203 64 8 203 64 8 202 66 9
202 66 7 204 65 7 204 65 7 205 66 11 205 66 11 205 66 11 205 66 9
203 68 6 202 69 4 198 73 4 195 73 0 211 92 16 210 91 13 214 94 16
214 94 16 214 94 16 214 94 16 214 94 18 214 94 18 216 96 21 217 97 22
218 99 23 219 100 24 222 102 26 222 102 26 223 101 26 223 101 26
223 101 26 223 101 26 224 99 25 220 96 22 216 91 17 213 89 15
212 88 14 213 89 15 213 89 15 213 89 15 213 89 15 213 89 15 213 89 15
213 89 15 213 91 16 213 91 16 213 91 16 213 91 16 215 90 18 215 90 18
215 90 18 216 91 19 216 91 19 215 90 18 212 87 16 212 87 16 212 87 16
212 87 16 212 87 16 212 87 16 214 86 16 214 86 16 214 86 16 214 86 16
217 98 20 217 98 20 217 98 20 217 98 20 217 98 20 217 98 20 217 98 20
216 99 20 213 96 17 211 94 15 231 114 35 227 112 32 227 112 32
227 112 32 225 113 32 224 114 32 223 116 34 222 117 34 222 117 34
223 116 34 212 97 17 213 96 17 215 95 17 216 95 17 218 94 17
220 93 17 220 93 17 220 93 19 218 88 16 222 93 21 208 79 7 213 84 11
208 79 9 208 79 9 208 79 9 208 79 9 210 77 11 210 77 11 210 77 11
210 77 11 210 78 9 210 78 9 210 78 9 210 78 9 210 78 9 210 78 9
210 78 9 208 79 7 204 82 5 198 83 3 233 130 46 227 132 45 224 133 45
224 133 45 228 131 45 230 130 45 228 131 45 227 132 43 228 133 44
228 133 44 229 134 46 229 134 46 230 135 47 227 137 47 222 140 45
219 142 45 218 142 45 218 142 45 221 139 44 227 137 45 213 111 25
219 112 27 219 112 27 219 112 27 219 111 29 219 111 29 219 111 31
219 111 31 219 110 33 223 108 33 204 74 4 209 72 4 209 71 6 209 71 6
207 70 7 207 69 9 209 68 11 209 68 11 209 68 13 209 68 13 207 68 13
205 66 11 202 66 9 201 65 8 203 64 8 203 64 8 203 63 10 203 63 10
203 64 8 203 64 8 204 65 7 204 65 7 204 65 9 204 65 9 205 66 11
205 66 9 203 68 6 202 69 4 200 72 4 195 73 0 211 92 16 210 91 13
214 94 16 214 94 16 214 94 16 214 94 16 214 94 16 214 94 16 216 97 19
217 98 20 218 99 21 219 100 22 222 102 24 222 102 24 223 102 24
223 102 24 223 102 24 223 102 24 222 100 25 219 97 22 216 91 17
213 89 15 211 88 14 212 90 15 213 89 15 213 89 15 213 89 15 213 89 15
213 89 15 213 89 15 213 91 16 213 91 16 213 91 16 213 91 16 213 91 16
213 91 16 213 91 16 213 91 16 213 91 16 213 91 16 213 91 16 212 90 15
212 90 15 212 90 15 212 90 15 213 89 15 213 89 15 213 89 15 213 89 15
213 89 15 217 98 20 217 98 20 217 98 20 217 98 20 217 98 20 217 98 20
216 99 20 216 99 20 213 96 17 211 94 15 229 115 35 227 112 32
227 112 32 225 113 32 224 114 32 222 115 32 222 117 34 222 117 34
222 117 34 223 116 34 212 97 17 213 96 17 215 95 17 216 95 17
218 94 17 218 94 17 220 93 17 220 93 17 218 88 16 222 93 21 208 79 7
213 84 11 208 79 9 208 79 9 208 79 9 208 79 9 210 77 11 210 77 11
210 77 11 210 77 11 210 78 9 210 78 9 210 78 9 210 78 9 210 78 9
210 78 9 210 78 9 208 79 9 204 81 7 198 83 5 233 130 48 227 132 45
224 133 45 224 133 45 228 131 45 230 130 45 228 131 45 227 132 45
228 133 44 228 133 44 229 134 46 229 134 46 230 135 47 229 136 47
224 139 45 221 141 45 218 142 45 218 142 45 221 139 44 227 137 45
213 111 25 219 112 27 219 112 27 219 112 27 219 111 29 219 111 29
219 111 31 219 111 31 219 110 33 223 108 33 204 74 4 209 71 6
209 71 6 207 70 7 207 69 9 207 69 9 209 68 11 209 68 11 209 68 13
209 68 13 207 68 13 205 66 11 202 66 9 201 65 8 203 64 8 203 64 8
203 63 10 203 63 10 203 64 8 203 64 8 204 65 7 204 65 7 204 65 9
204 65 9 205 66 11 205 66 9 205 67 6 202 69 4 201 71 4 197 72 0
213 91 16 210 91 13 214 94 16 214 94 16 214 94 16 214 94 16 214 94 16
214 94 16 216 97 19 217 98 20 218 99 21 219 100 22 222 102 24
222 102 24 223 102 24 223 102 24 223 102 24 223 102 24 222 100 25
219 97 22 216 91 17 213 89 15 211 88 14 212 90 15 213 89 15 213 89 15
213 89 15 213 89 15 213 89 15 213 89 15 213 91 16 213 91 16 213 91 16
213 91 16 213 91 16 213 91 16 213 91 16 213 91 16 213 91 16 213 91 16
213 91 16 213 91 16 212 90 15 212 90 15 212 90 15 212 90 15 213 89 15
213 89 15 213 89 15 213 89 15 216 99 20 216 99 20 216 99 20 216 99 20
216 99 20 216 99 20 216 99 20 216 99 20 213 97 15 211 94 13
229 115 33 225 113 30 225 113 30 224 114 30 224 114 30 222 115 30
222 117 32 222 117 32 222 117 32 223 116 32 210 98 15 213 97 15
215 96 15 216 95 15 218 94 17 218 94 17 220 93 17 220 93 17 218 88 16
222 93 21 208 79 7 213 84 11 208 79 7 208 79 7 207 80 7 208 79 9
208 79 9 208 79 9 208 78 11 208 78 11 210 77 11 210 77 11 210 77 11
210 77 11 210 77 11 210 77 11 210 77 11 208 79 9 204 81 9 196 83 7
233 129 50 227 131 47 224 133 47 224 133 47 228 131 45 230 130 45
228 131 45 227 132 45 228 133 44 228 133 44 229 134 46 229 134 46
230 135 47 229 136 47 226 138 45 222 140 45 219 142 45 219 142 45
221 139 44 227 137 45 213 111 25 220 111 27 220 111 27 220 111 27
220 110 29 220 110 31 220 110 31 220 110 31 220 110 33 225 107 33
204 74 6 209 71 6 209 71 8 207 70 7 207 69 9 207 69 9 209 68 11
209 68 11 209 68 13 209 68 13 207 68 13 205 66 11 202 66 9 201 65 8
203 64 8 203 64 8 203 63 10 203 63 10 203 64 8 204 65 9 204 65 7
204 65 7 204 65 7 204 65 7 207 66 9 207 66 9 205 67 6 203 68 4
203 70 4 199 71 0 215 90 16 210 91 13 214 95 14 212 96 14 214 95 14
214 95 14 214 95 14 214 95 14 216 97 17 217 98 18 218 99 19
219 101 20 222 103 22 222 103 22 223 102 24 223 102 24 223 102 24
223 102 24 222 100 23 219 97 20 216 92 15 213 89 13 211 88 14
212 90 15 212 90 15 212 90 15 213 89 15 213 89 15 213 89 15 213 89 15
213 91 16 213 91 16 213 91 16 213 91 16 213 91 16 213 91 16 214 92 17
213 91 16 213 91 16 213 91 16 213 91 16 213 91 16 212 90 15 212 90 15
212 90 13 212 90 13 213 89 13 213 89 13 213 89 13 213 89 13 214 97 19
214 97 19 214 97 19 214 97 19 214 97 19 214 97 19 213 98 19 214 97 19
215 96 15 211 94 13 228 116 33 224 114 30 222 115 30 222 115 30
222 115 30 222 115 30 223 116 32 223 116 32 223 116 32 225 115 32
210 98 15 212 97 15 213 97 15 215 96 15 216 95 17 216 95 17 216 95 17
216 95 17 215 90 16 221 94 21 208 79 7 213 84 11 208 79 7 208 79 7
207 80 7 207 80 7 208 79 9 208 79 9 208 78 11 208 78 11 211 79 12
211 79 12 212 80 13 212 80 13 212 80 13 212 80 13 212 80 13 209 81 13
205 82 10 198 82 7 234 129 50 228 130 49 225 132 47 225 132 47
227 131 47 228 131 45 227 132 45 225 132 45 226 134 44 226 134 44
228 135 46 229 134 46 230 135 47 229 136 47 226 138 45 224 139 45
222 140 45 222 140 45 223 138 44 229 137 45 213 111 25 219 112 27
219 112 27 220 110 29 220 110 31 220 110 31 220 110 33 220 110 33
220 109 35 225 107 35 204 74 6 209 71 8 207 70 7 207 69 9 207 69 9
207 69 11 209 68 11 209 68 13 209 68 13 209 68 13 207 68 13 206 67 12
203 67 11 202 66 9 204 65 9 204 65 11 204 65 11 204 65 11 204 65 11
204 65 9 204 65 7 204 65 7 204 65 7 205 64 7 207 64 7 207 64 7
205 65 5 204 66 3 203 68 2 200 71 0 213 91 14 209 92 13 214 95 14
214 95 14 215 94 14 215 94 14 215 94 14 214 95 14 216 97 17 217 98 18
218 99 19 219 101 20 222 103 22 222 103 22 222 102 24 222 102 24
222 102 24 220 103 24 217 103 23 214 99 20 215 94 16 212 90 13
208 88 12 210 90 15 212 90 15 212 90 15 213 89 15 213 89 15 213 89 15
213 89 15 213 91 16 213 91 16 213 91 16 213 91 16 213 91 16 213 91 16
214 92 17 214 92 17 213 91 16 213 91 16 213 91 16 213 91 16 212 90 15
212 90 15 212 90 13 213 89 13 213 89 13 213 89 13 213 89 13 213 89 13
213 98 19 213 98 19 213 98 19 213 98 19 213 98 19 213 98 19 213 99 17
214 98 17 220 99 19 216 97 17 229 120 34 224 120 32 216 115 26
218 114 26 220 113 26 220 113 26 222 113 27 222 113 27 222 113 27
224 113 27 210 98 15 210 98 15 212 97 15 212 97 15 213 97 15
212 97 15 210 98 15 210 98 17 214 97 19 211 89 12 207 80 5 205 76 1
208 79 7 212 83 10 210 83 10 210 83 10 212 82 12 212 82 12 213 83 13
213 83 15 212 82 14 212 81 16 212 81 16 212 81 16 213 81 16 213 81 16
212 82 14 210 83 14 206 83 13 204 86 14 229 119 42 227 124 45
226 128 47 224 128 47 224 129 45 223 130 45 221 131 43 221 131 43
224 133 45 225 134 46 228 138 48 231 139 49 233 141 51 232 142 51
232 142 51 232 142 51 232 142 51 232 142 51 226 134 44 231 133 46
210 111 23 214 112 26 216 111 28 217 110 28 217 110 30 217 109 32
219 108 34 219 108 36 219 108 36 224 105 36 203 72 7 207 69 9
207 69 9 207 69 11 207 69 11 207 69 11 209 68 13 209 68 13 209 67 15
209 67 15 207 68 15 206 67 14 203 66 13 203 66 13 205 66 13 205 65 15
205 65 15 205 65 15 205 66 13 204 65 9 205 66 9 204 65 7 204 66 5
205 65 5 207 64 5 207 64 5 205 65 5 204 66 3 206 69 2 201 72 0
206 91 12 205 94 11 214 95 14 217 93 12 217 93 14 217 93 14 217 93 14
215 94 14 218 96 17 217 98 18 218 99 19 218 101 20 220 104 22
219 104 22 219 104 24 219 104 24 219 104 24 215 106 24 208 108 23
205 102 19 212 95 16 211 89 12 208 88 12 210 90 15 210 90 15
212 90 15 213 89 15 213 89 15 213 89 15 213 89 15 213 91 16 213 91 16
214 92 17 214 92 17 214 92 17 214 92 17 214 92 17 214 92 17 214 92 17
213 91 16 213 91 14 212 90 13 215 90 14 215 90 14 215 90 14 215 90 14
216 90 14 216 90 14 216 90 14 216 90 14 215 101 21 215 101 21
215 101 21 215 101 21 215 101 21 215 101 21 215 101 19 217 100 19
215 94 14 211 92 12 225 116 30 218 116 27 214 114 25 214 114 25
215 114 25 217 113 25 220 113 26 220 113 26 220 113 26 220 113 26
205 98 13 205 98 13 205 98 13 205 98 13 206 97 13 205 98 13 201 99 13
201 99 13 203 96 14 208 96 15 205 83 6 208 81 6 207 80 7 207 80 7
207 80 7 207 80 7 208 79 9 208 79 9 210 80 10 210 79 12 210 79 14
210 79 14 211 80 15 211 80 15 212 79 15 212 79 15 212 79 15 211 81 13
207 79 11 207 84 14 233 115 41 238 125 49 229 121 44 226 123 44
224 124 41 223 125 41 221 126 39 221 126 39 223 128 42 224 129 43
228 133 44 231 133 46 233 136 48 233 136 48 233 136 48 235 135 48
235 135 48 235 135 48 233 131 44 236 131 46 213 109 23 217 110 26
219 109 28 221 108 30 221 108 32 222 106 34 222 106 36 224 105 36
224 105 38 227 103 38 202 68 6 205 66 9 205 66 9 205 66 9 205 66 9
205 66 9 207 65 11 207 65 11 207 65 13 207 65 13 205 66 13 205 66 13
202 65 11 202 65 11 204 64 13 204 64 13 204 64 13 204 64 13 205 66 13
204 65 9 206 68 10 206 68 10 207 69 9 208 67 8 209 66 8 208 65 6
205 67 4 205 68 2 210 73 5 197 71 0 207 98 14 198 94 8 207 95 10
210 94 10 210 93 12 208 94 12 208 94 12 207 95 12 209 97 14 208 99 15
208 101 17 208 103 18 210 105 20 208 106 20 208 106 22 208 106 22
208 106 22 205 107 22 204 113 26 207 112 26 207 92 13 212 90 13
210 90 15 209 91 15 210 90 15 212 90 15 213 89 15 213 89 15 213 89 15
213 89 15 213 91 16 213 91 16 214 92 17 214 92 17 214 92 17 214 92 17
214 92 17 214 92 17 214 92 17 214 92 17 216 95 17 218 96 19 212 90 13
212 90 13 212 90 13 212 90 13 212 90 13 213 89 13 213 89 13 213 89 13
218 106 26 218 106 26 218 106 26 218 106 26 218 106 26 218 106 26
218 106 23 220 106 23 232 111 28 228 109 26 239 133 46 232 133 42
231 137 44 231 137 44 235 136 44 235 136 44 234 138 45 233 139 45
234 140 46 234 139 48 234 139 48 234 139 48 235 140 49 237 140 49
237 139 51 235 140 51 232 142 51 232 142 51 236 141 55 239 136 52
209 97 16 211 92 14 220 96 20 220 96 20 220 96 20 222 95 22 222 95 22
222 95 22 222 95 24 222 94 26 206 76 10 206 76 10 206 76 10 206 76 10
208 74 12 208 74 12 208 75 10 212 76 13 210 75 9 203 70 4 207 79 9
206 81 10 204 84 11 202 87 12 202 89 11 200 90 11 199 91 9 199 91 9
201 94 12 202 95 13 206 99 14 208 99 15 211 101 18 211 101 18
211 101 18 212 101 18 212 101 18 212 101 18 215 101 19 218 101 20
196 79 0 200 81 0 201 80 2 203 78 4 203 78 6 204 77 8 204 76 10
206 76 10 206 75 12 206 75 12 199 63 4 200 62 4 200 61 6 200 61 6
200 62 4 200 62 4 202 61 6 202 61 6 202 60 8 202 60 8 200 61 8
200 61 8 198 61 7 198 61 7 199 59 9 199 59 9 199 59 9 199 59 9
199 60 7 199 60 5 211 72 14 211 73 12 211 73 12 212 72 10 213 70 9
211 71 9 208 73 9 208 73 7 211 74 4 206 79 3 243 136 51 238 141 51
240 145 54 240 145 54 240 145 54 238 146 54 238 146 54 236 147 54
239 149 56 238 151 58 238 153 59 237 155 60 240 157 62 238 158 64
238 158 64 238 158 64 238 158 64 238 158 64 235 152 62 237 142 56
209 95 15 219 97 20 210 90 15 209 91 15 210 90 15 212 90 15 213 89 15
213 89 15 213 89 15 213 89 15 213 91 16 214 92 17 214 92 17 214 92 17
215 93 18 215 93 18 215 93 18 215 93 18 211 92 16 215 95 19
219 100 22 221 104 26 223 106 27 223 106 27 221 107 25 221 107 25
221 107 25 223 106 25 223 106 25 223 106 25 221 108 28 221 108 28
221 108 28 221 108 28 222 110 29 222 110 29 222 110 27 223 109 27
225 107 24 221 105 21 233 129 39 224 130 37 227 138 43 227 138 43
230 136 43 230 136 43 228 139 44 227 140 44 227 140 44 227 140 44
228 141 47 228 141 47 228 141 47 229 140 47 229 139 49 228 140 49
225 142 49 225 142 49 227 139 50 237 142 56 205 100 17 217 103 23
215 95 17 218 94 17 218 94 17 218 94 17 220 93 19 220 93 19 220 92 21
220 92 21 204 74 6 204 73 8 204 73 8 204 73 8 205 72 10 205 72 10
207 72 8 209 71 8 207 70 5 209 71 6 220 85 17 213 81 12 208 81 10
206 81 10 205 83 8 203 83 8 202 85 6 200 85 6 202 88 8 203 89 9
209 92 13 210 93 14 212 95 16 212 96 14 214 95 14 214 95 14 214 95 14
215 94 14 222 98 19 223 99 20 202 76 0 206 77 2 208 76 4 208 76 6
209 74 8 209 74 10 211 73 10 211 73 12 211 73 12 211 73 12 198 59 2
198 59 2 198 59 4 198 59 4 198 59 2 198 59 4 200 58 4 200 58 6
200 58 6 200 58 6 198 59 6 198 59 6 195 58 4 195 58 6 197 57 6
197 57 6 197 57 6 197 57 6 197 58 4 197 58 2 213 75 17 213 75 15
213 75 13 212 74 11 214 73 11 211 73 10 208 75 8 208 76 6 212 77 7
202 78 1 246 142 56 232 140 48 233 145 52 231 146 52 231 146 52
229 147 52 229 147 52 228 148 52 230 150 54 230 152 55 229 154 56
229 156 58 231 158 60 229 159 60 229 159 62 229 159 62 229 159 62
231 158 62 241 160 69 248 153 66 207 92 13 208 87 9 210 90 15
209 91 15 210 90 15 212 90 15 213 89 15 213 89 15 213 89 15 213 89 15
213 91 16 214 92 17 214 92 17 214 92 17 215 93 18 215 93 18 215 93 18
215 93 18 211 92 16 216 96 21 221 104 26 226 109 30 221 106 27
219 107 27 218 108 25 218 108 25 218 108 25 218 108 25 218 108 25
218 108 25 220 110 29 220 110 29 220 110 29 220 110 29 220 110 29
220 110 29 220 111 27 222 110 27 226 112 27 222 110 25 233 134 45
225 135 42 224 139 45 224 139 45 229 137 45 229 137 45 227 140 44
225 141 44 225 141 44 225 141 44 226 141 47 226 141 47 226 141 47
226 141 47 228 140 49 226 141 49 223 143 49 223 143 49 227 142 52
231 138 51 208 106 22 214 101 21 217 98 20 219 97 20 219 97 20
220 96 20 219 95 21 219 95 21 219 95 21 221 93 23 203 72 5 203 72 7
203 72 7 203 72 7 204 71 9 204 71 9 206 70 7 206 68 6 211 68 5
215 73 9 218 79 12 218 81 13 213 81 12 212 82 12 210 83 10 209 84 10
206 84 9 204 85 9 207 87 11 208 88 12 213 91 16 214 92 17 216 94 19
216 95 17 218 94 15 218 94 15 218 94 15 220 93 15 226 97 20 227 98 21
207 75 1 210 77 3 212 75 5 212 75 7 214 74 9 214 73 11 214 73 13
214 73 13 214 73 15 214 73 15 197 56 0 197 56 0 197 56 1 197 56 1
197 58 2 197 58 2 198 57 4 198 57 4 200 57 8 200 57 8 198 58 8
198 58 8 197 57 6 197 57 6 197 57 8 197 57 8 197 57 6 197 57 6
197 58 4 197 58 2 211 73 12 211 73 10 211 73 10 211 73 8 212 74 11
209 74 10 206 76 8 204 77 6 205 76 3 201 80 2 241 139 53 236 147 54
235 148 54 235 148 54 235 148 54 233 148 54 233 148 54 232 149 54
234 152 56 234 154 58 233 155 59 233 157 60 235 160 62 233 161 62
233 160 64 233 160 64 233 160 64 235 159 64 239 159 67 247 151 65
206 91 12 209 85 8 207 90 14 207 90 14 209 89 14 211 88 14 213 89 15
213 89 15 215 90 16 215 90 16 214 92 17 214 92 17 215 93 18 215 93 18
216 94 19 216 94 19 216 94 19 216 94 19 211 92 16 216 96 21
223 104 26 224 107 28 219 109 28 217 110 28 217 110 26 217 110 26
217 110 26 217 110 26 217 110 26 217 110 26 219 109 28 219 109 28
219 109 28 219 109 28 220 110 29 220 110 29 220 111 27 220 111 27
224 113 27 219 112 25 230 136 45 222 137 42 221 141 45 222 140 45
226 138 45 227 137 45 225 141 44 225 141 44 225 141 44 225 141 44
226 141 47 226 141 47 226 141 47 226 141 47 228 140 49 226 141 49
223 143 49 223 143 49 227 142 52 231 138 51 208 106 22 214 101 21
217 98 20 219 97 20 219 97 20 219 97 20 219 95 21 219 95 21 219 95 21
221 93 23 204 74 6 204 73 8 204 73 8 204 73 8 205 72 10 205 72 10
207 72 8 207 70 7 210 70 6 215 73 9 218 79 12 218 81 13 213 81 12
210 83 12 209 84 10 207 85 10 204 85 9 204 85 9 207 87 11 208 88 12
214 92 17 214 92 17 216 94 19 216 94 19 218 94 17 218 94 15 218 94 15
220 93 15 226 97 20 227 98 21 207 75 1 210 76 5 212 75 7 212 75 9
214 73 11 214 73 11 214 73 13 214 73 13 214 73 15 214 73 15 197 56 0
197 56 0 197 56 1 197 56 1 197 58 2 197 58 4 198 57 4 198 56 6
200 57 8 200 57 8 198 58 8 198 58 8 198 58 8 198 58 8 198 58 10
198 58 10 198 58 8 198 58 8 198 59 6 198 59 2 210 72 11 210 72 9
210 72 7 210 72 7 209 74 10 206 76 10 204 77 8 203 78 6 201 74 1
198 81 2 238 140 53 235 148 54 233 148 54 233 148 54 233 148 54
233 148 54 232 149 54 232 149 54 232 152 56 232 154 58 232 156 59
233 157 60 233 161 62 233 161 62 232 161 64 232 161 64 232 161 64
233 160 64 239 159 67 247 151 65 207 90 12 209 85 8 207 90 14
207 90 14 211 88 14 211 88 14 213 89 15 213 89 15 215 90 16 215 90 16
214 92 17 214 92 17 215 93 18 215 93 18 216 94 19 216 94 19 216 94 19
216 94 19 212 93 17 216 96 21 223 104 26 224 107 28 219 109 28
217 110 28 217 110 26 217 110 26 217 110 26 217 110 26 217 110 26
217 110 26 219 109 28 219 109 28 219 109 28 219 109 28 220 110 29
220 110 29 220 111 27 220 111 27 221 112 26 215 114 25 227 137 45
221 139 44 219 142 45 219 142 45 224 139 45 226 138 45 227 140 44
227 140 44 227 140 44 227 140 44 228 141 47 228 141 47 228 141 47
229 140 47 229 139 49 228 140 49 225 142 49 225 142 49 229 141 52
233 137 51 210 105 22 215 101 21 217 98 20 219 97 20 219 97 20
219 97 20 219 95 21 219 95 21 219 95 21 221 93 23 204 74 6 204 73 8
204 73 8 204 73 8 205 72 10 205 72 10 207 72 8 206 70 7 209 71 6
212 75 9 215 80 12 215 82 13 210 83 12 207 85 12 206 86 10 204 87 10
201 86 9 201 86 9 203 89 11 203 89 11 211 94 17 212 95 18 213 96 19
213 96 19 215 95 17 215 96 15 215 96 15 216 95 15 223 99 20
224 100 21 203 77 1 207 78 5 209 77 7 209 76 9 210 75 11 210 75 11
212 74 13 212 74 13 212 73 15 212 73 15 196 57 0 196 57 0 196 57 1
196 56 3 197 58 4 197 58 4 198 56 6 198 56 6 200 57 10 200 57 10
198 58 10 198 58 10 198 58 10 198 58 10 198 58 10 198 58 10 198 58 8
198 58 8 198 59 6 198 59 2 210 72 11 210 72 9 210 72 7 208 73 7
208 75 10 204 76 10 203 78 8 203 78 6 199 75 1 197 82 2 235 142 53
232 149 54 230 150 54 228 151 54 228 151 54 228 151 54 228 151 54
227 152 54 228 153 55 228 155 56 229 159 60 229 161 61 230 162 62
229 163 62 229 163 64 227 163 64 227 163 64 230 162 64 238 159 67
247 151 65 207 90 12 209 85 8 209 89 14 209 89 14 211 88 14 212 88 14
213 89 15 213 89 15 215 90 16 215 90 16 214 92 17 214 92 17 215 93 18
215 93 18 216 94 19 216 94 19 216 94 19 216 94 19 212 93 17 216 96 21
221 104 26 224 107 28 222 108 28 221 108 28 219 110 26 219 110 26
219 110 26 219 110 26 219 110 26 219 110 26 219 109 28 219 109 28
219 109 28 219 109 28 220 110 29 220 110 29 220 111 27 220 111 27
220 113 26 215 114 25 227 137 45 221 139 44 219 142 45 221 141 45
224 139 45 227 137 45 228 139 44 228 139 44 228 139 44 228 139 44
228 141 47 228 141 47 228 141 47 228 141 47 229 139 49 228 140 49
226 141 49 226 141 49 231 140 52 234 137 51 213 103 22 217 100 21
217 98 20 219 97 20 219 97 20 219 97 20 219 95 21 219 95 21 219 95 21
219 94 23 204 74 6 204 73 8 204 73 8 204 73 8 205 72 8 205 72 8
205 72 8 206 70 7 207 72 6 209 76 9 213 81 12 213 83 13 209 84 12
207 85 12 206 86 10 204 87 10 201 86 9 201 86 9 203 89 11 203 89 11
212 95 18 212 95 18 213 96 19 213 96 19 215 95 17 215 96 15 213 97 15
215 96 15 221 99 22 224 100 23 203 76 3 207 78 5 207 77 7 207 77 9
209 76 11 209 76 11 210 75 13 210 75 13 210 75 13 210 74 15 196 57 1
196 56 3 196 56 3 196 56 5 197 57 6 197 57 6 198 56 6 198 56 6
200 57 10 200 57 10 198 58 10 198 58 10 198 58 10 198 58 10 198 58 10
198 58 10 198 58 8 198 59 6 198 59 4 198 59 2 210 72 11 210 72 9
210 72 7 208 73 7 206 76 10 203 77 10 203 78 8 203 78 6 199 75 1
197 82 2 233 143 53 228 151 54 228 151 54 228 151 54 228 151 54
227 152 54 227 152 54 225 152 54 226 154 55 226 156 56 228 160 60
229 161 61 229 163 62 229 163 62 227 163 64 227 163 64 227 163 64
230 162 64 238 159 67 247 151 65 207 90 12 209 85 8 209 89 14
209 89 14 212 88 14 212 88 14 213 89 15 213 89 15 215 90 16 215 90 16
214 92 17 214 92 17 215 93 18 215 93 18 216 94 19 216 94 19 216 94 19
216 94 19 214 92 17 216 97 19 221 104 26 222 108 28 222 108 28
222 108 28 221 109 26 221 109 26 221 109 26 221 109 26 221 109 26
221 109 26 217 110 26 217 110 26 217 110 26 217 110 26 219 112 27
219 112 27 219 112 27 219 112 27 219 112 27 214 112 26 231 137 46
226 138 45 225 141 44 225 141 44 227 140 44 228 139 44 230 138 44
230 138 44 228 139 44 227 140 44 226 142 45 225 143 45 225 143 45
225 142 47 225 142 47 226 141 47 228 141 47 228 140 49 229 141 50
234 137 49 216 102 20 220 99 19 219 97 20 219 97 20 219 97 20
219 97 20 218 96 19 218 96 19 218 95 21 219 94 23 204 74 6 205 72 8
205 72 8 205 72 8 204 73 8 204 74 6 204 74 6 205 73 6 204 72 5
207 77 9 212 82 14 213 83 15 210 83 12 209 84 12 207 85 12 207 85 12
207 85 12 207 85 12 206 85 12 207 87 13 214 94 18 215 95 19 216 96 21
218 95 21 219 95 19 218 96 17 216 97 19 216 97 19 216 94 19 221 93 23
208 76 6 209 74 8 208 75 8 208 75 10 208 75 10 208 75 10 209 74 10
209 74 10 209 74 10 209 73 14 197 58 4 197 57 8 197 57 8 197 57 8
198 56 8 198 56 8 198 56 8 198 56 8 200 57 10 200 57 10 200 57 10
200 57 10 198 58 10 198 58 10 200 57 10 200 57 10 198 58 8 198 59 6
198 59 4 198 59 2 210 72 9 210 72 7 210 72 7 208 73 7 204 77 8
203 78 8 203 78 8 204 77 6 201 74 1 197 82 2 233 143 53 228 151 54
228 151 54 230 150 54 230 150 54 228 151 54 228 151 54 228 151 54
228 153 55 226 154 55 232 159 61 231 160 61 232 161 62 230 162 62
230 162 64 230 162 64 230 162 64 233 160 64 239 159 67 247 151 65
207 90 12 210 84 8 211 88 14 211 88 14 214 87 14 214 87 14 213 89 15
213 89 15 215 90 16 215 90 16 215 90 16 216 91 17 217 92 18 217 92 18
215 93 20 215 93 20 217 92 18 217 92 18 216 95 17 215 95 17
221 107 25 221 107 25 222 108 28 222 108 28 222 108 28 222 108 28
222 108 28 222 108 28 222 108 28 222 108 28 217 110 26 217 110 26
217 110 26 217 110 26 219 112 27 219 112 27 219 112 27 219 112 27
219 112 27 216 111 26 233 136 46 229 137 45 228 139 44 227 140 44
228 139 44 230 138 44 231 137 44 231 137 44 230 138 44 227 140 44
226 142 45 225 143 45 223 143 45 221 144 45 221 144 47 223 143 47
226 141 47 228 141 47 229 141 50 233 138 49 216 102 20 222 98 19
219 97 20 219 97 20 219 97 20 219 97 20 218 96 19 218 96 19 218 95 21
219 94 23 204 74 6 205 72 8 205 72 8 205 72 8 204 74 6 204 74 6
204 74 6 204 74 6 203 72 5 207 77 9 212 82 14 213 83 15 210 83 12
210 83 12 209 84 12 209 84 12 209 84 12 209 84 12 207 85 12 208 86 13
216 94 19 216 94 19 218 95 21 219 95 21 221 94 19 219 95 17 218 96 19
218 95 21 218 93 21 221 93 23 209 74 8 211 73 8 209 74 10 208 75 10
208 75 10 208 75 10 209 74 10 209 74 10 209 74 10 209 73 14 197 57 6
197 57 8 197 57 8 197 57 8 198 56 8 198 56 8 198 56 8 198 56 8
200 57 10 200 57 10 200 57 10 200 57 10 198 58 10 198 58 10 200 57 10
200 57 10 198 58 8 198 59 6 198 59 4 198 60 0 210 72 9 210 72 7
210 72 7 207 74 7 203 78 8 201 78 8 204 77 8 206 76 6 203 73 1
198 81 2 231 144 53 227 152 54 228 151 54 230 150 54 230 150 54
230 150 54 230 150 54 230 150 54 230 152 55 228 153 55 234 159 61
232 159 61 233 161 62 233 161 62 233 160 64 233 160 64 233 160 64
235 159 64 239 159 67 247 151 65 207 90 12 210 84 8 211 88 14
211 88 14 214 87 14 215 86 14 215 88 15 213 89 15 215 90 16 215 90 16
215 90 16 216 91 17 217 92 18 217 92 18 215 93 20 217 92 20 218 91 20
218 91 18 218 93 19 215 95 17 221 107 25 219 108 25 222 108 28
222 108 28 222 108 28 222 108 28 222 108 28 222 108 28 222 108 28
222 108 28 217 110 26 217 110 26 217 110 26 217 110 26 220 113 28
220 113 28 220 113 28 220 113 28 217 110 26 217 112 27 233 136 46
230 138 46 228 139 44 227 140 44 228 139 44 230 138 44 230 136 43
230 136 43 229 137 43 226 139 43 226 142 45 225 143 45 223 143 45
221 144 45 220 145 47 221 144 47 225 142 47 226 141 47 226 143 50
231 139 49 215 103 20 221 100 20 218 99 21 218 99 21 220 98 21
220 98 21 219 97 20 219 97 20 219 97 22 220 95 24 204 74 6 205 72 8
205 72 8 205 72 8 204 74 6 204 74 6 204 74 6 204 74 6 204 74 6
208 78 11 213 83 15 214 84 16 211 84 13 211 84 13 210 85 13 210 85 13
210 85 13 210 85 13 208 86 13 208 86 13 216 94 19 218 95 21 218 95 21
219 95 21 221 94 19 219 95 17 218 96 19 218 95 21 218 93 21 221 93 23
209 74 8 211 73 8 209 74 10 208 75 10 208 74 12 208 74 12 209 73 12
209 73 12 209 73 12 209 73 14 197 58 2 197 58 4 197 58 4 197 57 6
198 56 6 198 56 6 198 56 6 198 56 6 200 57 8 200 57 8 200 57 8
200 57 8 198 58 8 198 58 8 200 57 8 200 57 8 199 59 9 199 60 7
199 60 5 199 61 1 211 73 10 211 73 8 211 73 8 208 75 8 204 79 9
202 80 9 206 78 9 207 77 7 205 74 2 199 82 3 233 145 54 228 153 55
230 152 55 231 151 55 231 151 55 231 151 55 231 151 55 231 151 55
230 152 55 230 152 55 237 159 62 235 160 62 235 160 62 235 160 62
235 159 64 235 159 64 235 159 64 235 159 64 239 159 67 247 151 65
207 90 12 210 84 8 212 88 14 212 88 14 215 86 14 215 86 14 215 88 15
213 89 15 215 90 16 215 90 16 215 90 16 215 90 16 216 91 17 216 91 19
217 92 22 217 92 22 218 91 20 218 91 20 218 93 19 216 95 17
223 106 27 221 106 27 222 108 28 222 108 28 222 108 28 222 108 28
222 108 28 222 108 28 222 108 28 222 108 28 217 110 26 217 110 26
217 110 26 217 110 26 220 113 28 220 113 28 220 113 28 220 113 28
217 110 26 217 112 27 232 135 45 230 138 46 228 139 46 228 139 44
230 138 44 230 138 44 229 135 42 229 135 42 228 136 42 224 137 42
226 142 45 225 143 45 223 143 45 220 145 45 218 145 47 220 145 47
223 143 47 225 142 47 224 144 50 228 140 49 212 105 20 218 101 20
218 99 21 218 99 21 220 98 21 220 98 21 219 97 20 219 97 20 219 97 22
220 95 24 204 74 6 205 72 8 205 72 8 205 72 8 204 74 6 204 74 6
204 74 6 204 74 6 204 74 6 208 78 11 213 83 15 214 84 16 211 84 13
211 84 13 210 85 13 210 85 13 210 85 13 210 85 13 208 86 13 208 86 13
218 95 21 218 95 21 218 95 21 219 95 21 221 94 19 219 95 17 218 96 19
218 95 21 218 93 21 221 93 23 209 74 8 211 73 8 209 74 10 208 75 10
208 74 12 208 74 12 209 73 12 209 73 12 209 73 14 209 73 14 197 58 2
197 58 2 197 58 2 197 58 4 198 57 4 198 57 4 198 57 4 198 56 6
200 57 8 200 57 8 200 57 8 200 57 8 198 58 8 198 58 8 200 57 8
200 57 8 200 61 10 200 61 8 200 62 4 200 62 2 212 74 11 212 75 9
212 75 9 209 76 9 204 79 9 202 80 9 206 78 9 207 77 7 207 75 3
200 83 5 234 146 55 229 154 56 231 153 56 232 152 56 232 152 56
232 152 56 232 152 56 232 152 56 231 153 56 231 153 56 237 159 62
237 159 62 237 159 62 237 159 62 237 159 64 237 159 64 237 159 64
237 159 64 241 158 67 247 151 65 209 90 12 210 83 10 212 88 14
212 88 14 215 86 14 217 85 14 215 88 15 213 89 15 215 90 16 215 90 16
215 90 16 215 90 16 216 91 17 216 91 19 217 91 24 218 90 24 220 90 22
220 90 20 220 92 21 218 93 19 224 104 29 221 106 27 222 108 28
222 108 28 222 108 28 222 108 28 222 108 28 222 108 28 222 108 28
222 108 28 222 117 32 222 117 32 222 117 32 220 116 30 219 115 29
218 114 28 218 114 28 218 114 28 223 116 32 218 114 28 231 133 46
225 133 43 224 134 41 224 134 41 225 133 41 225 133 41 228 133 42
228 133 42 226 134 42 223 136 42 239 154 60 237 155 60 236 156 60
233 157 60 229 159 60 229 159 60 234 157 60 234 157 60 230 155 60
240 155 63 210 105 20 217 103 21 218 101 22 219 100 22 219 100 22
219 100 22 218 99 21 218 99 21 218 99 21 220 98 23 210 79 12
211 78 14 211 78 14 211 78 14 210 79 12 210 79 12 210 79 12 210 79 12
205 75 7 210 79 12 214 84 16 215 85 18 213 85 14 213 85 14 211 86 14
211 86 14 211 86 14 211 86 14 209 87 14 209 87 14 212 89 17 212 89 17
212 89 17 213 89 15 215 88 13 213 90 11 212 90 13 212 90 15 212 87 16
215 88 17 209 74 8 212 75 9 210 75 11 209 76 11 209 76 11 209 76 11
210 75 13 210 75 13 210 75 13 210 74 15 205 66 9 205 66 9 205 66 9
205 66 11 207 65 11 207 65 11 207 65 11 207 65 13 205 64 11 205 64 11
205 64 11 205 64 11 205 64 11 205 64 11 205 64 11 205 64 11 203 63 10
203 64 8 203 64 6 203 65 4 214 77 12 214 77 10 214 77 12 210 77 11
205 79 13 204 80 13 207 79 11 208 79 9 209 77 5 203 86 7 236 148 57
232 156 59 233 155 59 235 155 59 235 155 59 235 155 59 235 155 59
235 155 59 235 155 59 235 155 59 225 145 49 225 145 49 225 145 49
225 145 49 225 145 51 225 145 51 225 145 51 227 144 51 228 145 55
235 138 52 196 76 1 199 70 0 199 74 3 199 74 3 204 72 3 204 72 3
204 74 4 202 75 4 203 76 5 203 76 5 203 76 5 203 76 5 204 77 6
204 77 8 206 77 13 207 76 13 209 76 11 209 76 9 205 75 7 204 77 6
223 101 28 221 104 28 219 104 24 219 104 24 219 104 24 219 104 24
219 104 24 219 104 24 219 104 24 219 104 24 222 117 32 222 117 32
222 117 32 220 116 30 219 115 29 218 114 28 218 114 28 218 114 28
223 116 32 218 114 28 230 132 44 225 133 43 224 134 41 224 134 41
225 133 41 225 133 41 227 132 41 227 132 41 225 133 41 222 135 41
239 154 60 237 155 60 236 156 60 233 157 60 228 160 60 228 160 60
231 158 60 233 157 60 229 156 60 239 156 63 208 106 20 216 104 21
218 101 22 219 100 22 219 100 22 219 100 22 218 99 21 218 99 21
218 99 21 220 98 23 210 79 12 211 78 14 211 78 14 211 78 14 210 79 12
210 79 12 210 79 12 210 79 12 205 75 7 210 79 12 214 84 16 215 85 18
213 85 14 213 85 14 211 86 14 211 86 14 211 86 14 211 86 14 209 87 14
209 87 14 212 89 17 212 89 17 212 89 17 213 89 15 215 88 13 213 90 11
212 90 13 212 90 15 212 87 16 215 88 17 209 74 8 212 75 9 210 75 11
209 76 11 209 76 11 209 76 11 210 75 13 210 75 13 210 75 13 210 75 13
205 66 9 205 66 9 205 66 9 205 66 9 207 66 9 207 65 11 207 65 11
207 65 11 205 64 9 205 64 9 205 64 9 205 64 9 205 64 9 205 64 9
205 64 9 205 64 9 204 65 9 204 65 7 204 66 5 204 66 3 216 78 13
216 79 11 216 78 13 211 79 12 206 81 14 204 80 13 205 80 11 208 79 9
208 79 7 202 88 8 237 150 58 233 157 60 234 157 60 236 156 60
236 156 60 236 156 60 236 156 60 236 156 60 236 156 60 237 155 60
227 145 49 227 145 49 227 145 49 229 144 49 229 143 51 229 143 51
229 143 51 229 143 51 230 144 55 235 138 52 198 76 1 199 70 0
199 74 3 199 74 3 204 72 3 204 72 3 204 74 4 202 75 4 203 76 5
203 76 5 203 76 5 203 76 5 204 77 6 204 77 8 207 76 13 209 75 15
210 75 13 210 75 11 207 74 9 204 77 8 223 100 30 223 103 30
220 103 26 219 104 24 219 104 24 219 104 24 219 104 24 219 104 24
219 104 24 219 104 24 222 117 32 222 117 32 222 117 32 220 116 30
220 116 30 219 115 29 219 115 29 219 115 29 223 116 32 219 115 29
230 132 44 225 133 43 224 134 41 224 134 41 225 133 41 225 133 41
226 131 40 226 131 40 224 132 40 221 134 40 239 154 60 237 155 60
236 156 60 231 158 60 226 161 60 226 161 60 229 159 60 229 159 60
227 156 60 237 157 63 207 107 20 215 106 22 217 103 23 219 102 23
219 102 23 219 102 23 218 101 22 218 101 22 218 101 22 221 99 24
210 79 12 211 78 14 211 78 14 211 78 14 210 79 12 210 79 12 210 79 12
210 79 12 207 77 9 211 81 13 215 85 18 217 86 19 214 86 16 214 86 16
212 87 16 212 87 16 212 87 16 212 87 16 211 88 16 211 88 16 212 89 17
212 89 17 213 88 17 213 89 15 215 88 13 213 90 11 212 90 13 212 90 15
212 87 16 215 88 17 209 74 8 212 75 9 210 75 11 209 76 11 209 76 11
209 76 11 210 75 11 210 75 11 210 75 11 210 75 13 205 67 6 205 67 6
205 67 6 205 67 6 207 66 6 207 66 9 207 66 9 207 66 9 205 64 7
205 64 7 205 64 7 205 64 7 205 64 7 205 64 7 205 64 7 205 64 7
205 66 9 203 67 9 203 68 6 203 68 4 215 80 14 215 80 12 215 80 14
212 80 13 206 83 15 203 82 14 205 82 12 206 81 10 208 81 8 202 90 9
237 151 60 232 159 61 235 158 61 237 157 61 237 157 61 237 157 61
239 156 61 239 156 61 239 156 61 239 156 61 229 144 49 229 144 49
229 144 49 230 143 49 230 143 51 230 143 51 230 143 51 230 143 51
231 143 55 237 137 52 198 76 1 201 69 0 201 74 3 201 73 5 204 72 5
204 72 5 204 74 6 202 74 6 203 76 5 203 76 5 203 76 5 203 76 5
204 77 6 204 77 8 207 76 15 209 75 15 210 74 15 210 75 13 207 74 9
206 76 10 225 100 30 223 103 30 220 103 26 219 104 24 219 104 24
219 104 24 219 104 24 219 104 24 219 104 24 219 104 24 223 116 32
223 116 32 223 116 32 222 115 30 222 115 30 221 114 29 221 114 29
219 115 29 222 117 32 218 116 29 230 132 44 225 133 43 224 134 41
224 134 41 224 134 41 225 133 41 224 132 40 224 132 40 222 133 40
221 134 40 239 154 60 237 155 60 236 156 60 233 157 60 228 160 60
226 161 60 228 160 60 229 159 60 229 156 60 239 156 63 207 107 20
217 105 22 217 103 23 219 102 23 219 102 23 219 102 23 218 101 22
218 101 22 218 101 22 219 100 24 208 80 12 211 79 12 211 79 12
210 79 12 210 79 12 210 79 12 210 79 12 210 79 12 207 77 9 211 81 13
215 85 18 217 86 19 214 86 16 214 86 16 214 86 16 212 87 16 212 87 16
212 87 16 211 88 16 211 88 16 212 89 17 213 88 17 213 88 17 213 88 17
215 88 15 213 89 13 212 90 15 212 90 15 212 87 16 215 88 17 208 75 8
210 75 9 209 76 11 209 76 11 209 76 11 209 76 11 210 75 11 210 75 11
210 75 11 210 75 11 205 67 6 205 67 6 205 67 6 205 67 6 205 67 6
207 66 6 207 66 6 207 66 6 205 65 5 205 65 5 205 65 5 205 65 5
205 65 5 205 65 5 205 65 5 204 65 7 203 67 9 203 67 9 203 68 6
203 68 4 215 80 14 215 80 14 215 80 14 211 81 13 206 83 15 203 82 14
203 83 12 205 82 10 205 83 8 200 91 9 237 151 60 232 159 61
234 159 61 235 158 61 235 158 61 235 158 61 237 157 61 237 157 61
237 157 61 237 157 61 227 143 48 227 143 48 229 142 48 229 142 48
232 142 51 232 142 51 232 142 51 232 142 51 233 142 55 237 137 52
199 75 1 201 69 0 201 73 5 201 73 5 204 72 5 204 72 5 204 74 6
202 74 6 203 76 7 203 76 5 203 76 5 203 76 5 204 77 6 206 76 8
207 76 13 209 75 15 210 74 15 210 75 13 207 74 9 206 76 8 225 100 30
223 103 30 220 103 26 219 104 24 219 104 24 219 104 24 219 104 24
219 104 24 219 104 24 219 104 24 224 114 30 224 114 30 224 114 30
224 114 30 224 114 30 224 114 30 224 114 30 222 115 30 221 119 33
217 118 30 231 133 46 226 134 44 225 135 44 225 135 44 225 135 44
225 135 44 224 134 41 224 134 41 224 134 41 222 135 41 240 155 61
239 156 61 237 157 61 234 159 61 231 160 63 229 161 63 231 160 63
232 159 63 235 154 61 245 155 64 213 106 21 220 106 23 219 104 24
219 104 24 219 104 24 219 104 24 217 103 25 217 103 25 217 103 25
221 101 25 208 83 11 211 81 11 211 81 11 209 82 11 209 82 11
209 82 11 209 82 11 208 81 10 208 79 9 211 81 11 214 84 14 215 86 16
215 86 16 215 86 16 214 86 16 212 87 16 212 87 16 211 88 16 211 88 16
211 88 16 213 88 17 215 88 17 215 88 17 215 88 17 213 88 17 213 88 17
213 88 17 213 88 17 212 87 18 213 88 19 204 77 8 207 77 9 209 76 9
209 76 9 209 76 9 209 76 9 209 76 11 209 76 11 209 76 11 210 75 11
203 68 4 203 68 4 203 68 4 203 68 4 203 68 6 205 67 6 205 67 6
205 67 6 205 67 6 205 67 6 205 67 6 205 67 6 205 67 4 205 67 4
205 67 4 203 68 6 203 68 6 203 68 6 203 68 6 203 68 4 213 81 16
213 81 16 213 81 16 212 81 16 206 83 15 204 83 15 203 85 13 203 85 11
204 85 9 200 93 10 238 153 61 233 161 62 233 161 62 233 161 62
233 161 62 233 161 62 233 161 62 233 161 62 233 161 62 237 159 62
226 143 48 229 142 48 229 142 48 229 142 48 229 142 48 229 142 48
229 142 48 231 141 50 232 142 51 237 135 51 198 74 0 201 67 0
201 71 4 203 72 7 204 71 7 204 71 7 204 73 8 204 73 8 204 74 6
204 74 6 205 75 7 205 75 7 205 75 7 205 75 7 206 75 12 206 75 12
208 75 10 208 75 8 204 74 6 203 76 5 222 100 27 220 103 26 219 104 24
219 104 24 219 104 24 219 104 24 219 104 24 219 104 24 219 104 24
219 104 24 222 115 30 222 115 30 222 115 30 222 115 30 222 115 30
222 115 30 222 115 30 222 115 30 221 119 33 217 118 30 231 133 46
228 133 44 226 134 44 226 134 44 225 135 44 225 135 44 224 134 41
224 134 41 224 134 41 222 135 41 239 156 61 237 157 61 235 158 61
234 159 61 232 159 63 231 160 63 231 160 63 232 159 63 236 153 61
246 154 64 213 106 21 220 106 23 219 104 24 219 104 24 219 104 24
219 104 24 217 103 25 219 102 25 219 102 25 219 102 25 206 83 11
208 83 11 208 83 11 208 83 11 208 82 13 209 81 13 209 81 13 208 80 12
207 79 11 209 81 13 213 85 16 214 86 18 214 86 18 214 86 18 212 87 18
212 87 18 212 87 16 212 87 16 212 87 16 212 87 16 215 88 17 215 88 17
215 88 17 215 88 17 213 88 19 213 88 19 213 88 19 213 88 19 212 87 18
213 88 19 203 78 8 206 78 9 207 77 9 209 76 9 209 76 9 209 76 9
209 76 11 209 76 11 209 76 11 209 76 11 202 69 4 203 68 4 203 68 4
203 68 6 203 68 6 203 68 6 203 68 6 203 67 9 205 66 9 205 67 6
205 67 6 205 67 6 205 67 6 203 68 4 203 68 4 203 68 4 203 68 6
203 68 6 203 68 4 203 68 4 213 81 16 213 81 16 213 81 16 212 81 16
208 82 15 204 83 15 203 85 13 201 86 11 203 85 9 200 93 10 238 153 61
233 161 62 232 161 62 232 161 62 232 161 62 232 161 62 232 161 62
232 161 62 232 161 62 235 160 62 226 141 47 229 140 47 229 140 47
229 140 47 231 141 48 231 141 48 231 141 48 231 141 48 233 141 51
239 134 51 200 73 0 201 67 0 201 71 6 203 72 9 204 71 9 204 71 9
204 73 10 204 73 8 204 74 6 204 74 6 205 75 7 205 75 7 205 75 7
205 74 9 204 76 12 206 75 12 208 75 10 208 75 8 204 74 4 202 77 5
221 101 25 220 103 26 219 104 24 219 104 24 219 104 24 219 104 24
219 104 24 219 104 24 219 104 24 219 104 24 220 116 30 220 116 30
220 116 30 220 116 30 220 116 30 220 116 30 220 116 30 220 116 30
223 118 33 219 117 30 234 132 46 231 131 44 230 132 44 228 133 44
228 133 44 226 134 44 224 134 41 224 134 41 222 135 41 220 136 41
237 157 61 235 158 61 234 159 61 232 159 61 232 159 63 231 160 63
231 160 63 232 159 63 233 155 61 243 155 64 209 107 21 217 107 23
219 104 24 220 103 24 220 103 24 220 103 24 219 102 23 221 101 23
221 101 23 221 101 25 204 84 13 206 83 15 206 83 15 206 83 15
206 83 15 208 82 15 208 82 15 205 81 14 205 81 14 206 83 15 209 86 18
211 87 20 211 87 20 211 87 20 211 87 20 212 86 20 214 86 16 215 86 14
215 86 14 215 86 14 217 87 15 217 87 15 215 88 15 215 88 17 213 88 19
213 88 19 213 88 19 213 88 19 212 87 18 213 88 19 203 78 8 206 78 9
207 77 9 209 76 9 209 76 11 209 76 11 209 76 11 209 76 11 209 75 13
209 75 13 202 68 6 202 68 6 202 68 6 202 68 9 202 68 9 202 68 9
202 68 9 203 67 11 207 65 11 207 66 9 207 66 9 207 66 9 207 66 9
205 67 6 205 67 6 205 67 6 203 68 6 203 68 6 202 69 4 202 69 4
212 79 17 212 79 17 212 81 16 212 81 16 208 82 15 206 83 15 203 85 13
201 86 11 203 85 9 200 93 10 240 152 61 235 160 62 232 161 62
230 162 62 230 162 62 230 162 62 230 162 62 230 162 62 230 162 62
235 160 62 226 141 47 231 139 47 231 139 47 231 139 47 232 140 50
232 140 50 232 140 50 232 140 50 233 141 51 239 134 51 200 73 0
201 66 0 203 70 8 203 71 11 204 70 11 204 70 11 204 73 10 204 73 8
204 74 6 204 74 6 205 75 7 205 75 7 203 76 7 203 75 9 204 76 12
206 75 12 208 75 10 208 75 8 204 74 4 202 77 5 221 101 25 220 103 26
219 104 24 219 104 24 219 104 24 219 104 24 219 104 24 219 104 24
219 104 24 219 104 24 220 116 30 220 116 30 220 116 30 220 116 30
220 116 30 220 116 30 220 116 30 220 116 30 223 118 33 220 116 30
236 131 46 233 131 44 231 131 44 230 132 44 228 133 44 226 134 44
224 134 43 222 135 41 220 136 41 219 136 41 237 157 61 234 159 61
232 159 61 232 159 61 234 158 63 232 159 63 231 160 63 231 160 63
232 156 61 241 156 64 205 110 21 213 109 23 219 104 24 222 102 24
222 102 24 222 102 24 221 101 23 221 101 23 221 101 23 222 100 25
206 83 13 206 83 15 206 83 15 206 83 15 208 82 15 208 81 17 208 81 17
206 80 16 205 81 16 206 82 17 209 86 20 211 87 22 211 87 22 211 87 22
211 87 22 211 87 20 214 86 16 215 86 14 215 86 14 215 86 14 217 87 15
217 87 15 215 88 15 216 89 16 213 88 17 213 88 19 213 88 19 213 88 19
212 87 18 213 88 19 203 78 8 206 78 9 207 77 9 209 76 9 209 76 11
209 76 11 209 76 11 209 76 11 209 75 13 209 75 13 202 68 6 202 68 6
202 68 6 202 68 9 202 68 9 202 68 9 202 68 9 203 67 11 207 65 11
207 66 9 207 66 9 207 66 9 207 66 9 205 67 6 205 67 6 205 67 6
203 68 6 203 68 6 202 69 4 202 69 4 210 77 15 211 78 16 211 80 15
211 80 15 208 80 14 206 81 14 204 84 13 203 85 11 207 87 11 200 91 9
241 151 61 237 159 62 232 161 62 230 162 62 230 162 62 230 162 62
230 162 62 230 162 62 230 162 62 235 160 62 226 141 47 229 140 47
229 140 47 229 140 47 231 141 50 231 141 50 231 141 50 232 140 50
235 140 51 241 133 51 200 72 2 205 70 4 204 71 9 204 72 12 204 70 11
204 70 11 205 72 12 204 73 10 204 73 8 204 74 6 204 74 6 204 74 6
202 74 6 202 74 6 204 76 10 206 76 10 208 75 8 208 75 8 204 74 4
202 77 5 221 101 25 220 103 26 219 104 24 219 104 24 219 104 24
219 104 24 219 104 24 219 104 24 219 104 24 219 104 24 224 117 35
224 117 35 224 117 35 224 117 35 224 117 35 224 117 35 224 117 35
224 117 35 226 121 38 222 117 34 233 130 46 227 124 41 226 128 43
224 129 43 224 129 43 223 130 43 220 130 40 219 131 40 217 132 40
215 133 40 235 157 63 234 158 63 232 159 63 232 159 63 235 157 63
235 157 63 232 159 63 231 160 63 229 156 60 239 159 65 200 110 20
211 112 25 216 102 22 221 99 22 221 99 22 221 99 22 222 100 25
222 100 25 222 100 25 224 99 25 210 83 12 212 82 14 212 82 14
212 82 14 210 83 14 210 82 16 210 82 16 210 82 16 208 80 14 204 78 11
215 89 22 212 86 20 213 88 21 213 88 21 213 88 21 213 88 19 213 89 15
213 89 13 213 89 13 213 89 13 215 88 13 215 88 13 218 89 14 217 91 15
215 90 18 213 88 19 213 88 19 213 88 19 211 86 16 212 87 18 202 76 7
204 77 8 206 76 8 208 75 8 208 75 8 208 75 8 209 74 10 208 73 9
208 73 9 207 72 8 206 70 7 205 69 6 205 69 6 203 68 6 205 67 6
205 67 6 205 67 6 205 66 9 205 66 9 205 67 6 205 67 6 204 66 5
204 66 5 201 66 2 201 66 2 201 66 2 201 66 2 200 67 2 202 69 4
203 70 6 207 77 11 207 77 11 211 78 16 211 78 16 211 78 16 210 79 14
206 81 12 205 82 10 211 86 12 201 87 7 255 161 72 239 159 65
235 162 63 231 163 63 231 163 65 231 163 65 233 162 65 233 162 65
233 162 65 236 161 65 224 144 50 226 143 50 226 143 50 226 143 50
229 143 51 229 143 51 229 143 51 230 143 51 237 142 56 243 133 54
203 73 3 210 72 9 207 73 13 204 72 14 204 70 13 206 69 13 205 68 10
203 70 8 204 71 7 204 71 7 204 73 8 204 73 8 205 75 7 205 75 7
204 76 10 206 76 10 208 75 8 208 76 6 206 76 6 203 78 4 221 101 25
219 102 23 221 104 26 221 104 26 221 104 26 221 104 26 221 104 26
221 104 26 221 104 26 221 104 26 226 114 34 226 114 34 226 114 34
226 114 34 226 114 34 226 114 34 226 114 34 226 114 34 224 112 31
225 113 32 233 123 42 234 126 44 234 129 46 233 130 46 233 130 46
231 131 46 228 131 43 228 131 43 227 132 43 225 133 43 243 155 64
241 156 64 240 157 64 241 156 64 246 154 64 246 154 64 241 156 64
240 157 64 242 159 67 244 157 65 209 114 26 213 109 23 219 102 23
222 100 23 222 100 23 222 100 23 223 101 26 223 101 26 223 101 26
225 100 26 208 83 9 208 83 9 208 83 9 208 83 9 208 83 9 206 83 11
206 83 11 206 83 11 206 83 11 202 82 9 212 92 19 210 90 17 210 92 18
210 92 18 210 92 18 210 92 16 208 94 12 208 94 12 208 94 12 211 92 12
213 90 11 216 90 12 220 91 14 221 92 17 218 91 20 215 89 20 213 88 19
213 88 19 213 88 19 215 89 20 204 79 9 207 79 11 207 77 9 209 76 9
209 76 9 209 76 9 210 75 9 210 75 9 210 75 9 210 75 9 201 68 1
201 68 1 201 68 1 201 68 1 202 67 3 202 67 3 202 67 3 202 67 3
201 68 3 201 68 3 201 68 3 200 67 2 200 67 0 198 66 0 198 66 0
198 66 0 197 67 0 197 67 0 199 69 1 200 70 4 205 74 9 206 76 10
210 77 15 210 77 15 212 76 15 212 76 15 210 79 14 208 80 12 211 81 11
206 86 10 252 152 67 245 158 67 244 159 65 242 160 65 242 159 67
242 159 67 242 159 67 244 158 67 244 158 67 244 158 67 227 139 48
228 138 48 228 138 48 228 138 48 231 139 49 231 139 49 231 139 49
233 138 49 241 144 58 239 129 50 203 73 3 209 71 8 205 72 12
204 70 13 205 68 12 202 66 9 202 66 7 203 67 9 203 70 8 204 71 7
205 74 9 206 76 10 207 77 9 207 77 9 206 78 11 207 77 11 209 76 9
209 77 7 208 79 7 204 79 5 218 99 21 217 100 21 219 102 23 219 102 23
219 102 23 219 102 23 219 102 23 219 102 23 219 102 23 219 102 23
214 94 16 214 94 16 214 94 16 214 94 16 214 94 16 214 94 16 214 94 16
215 94 16 222 95 20 221 94 19 210 86 9 207 85 8 208 88 10 208 88 10
206 89 10 206 89 10 205 89 7 205 89 7 205 89 7 203 89 7 199 90 6
198 91 6 196 91 6 198 91 6 204 87 6 204 87 6 199 90 6 196 91 6
199 95 10 206 99 14 201 87 5 208 89 8 209 88 10 211 87 10 211 87 10
211 87 10 212 88 12 212 88 12 212 88 12 211 89 10 231 114 33
228 116 33 228 116 33 228 116 33 228 116 33 226 117 33 226 117 33
226 117 33 228 121 36 224 117 33 234 130 44 231 126 41 232 128 42
232 128 42 230 128 42 229 130 40 227 130 40 227 130 40 230 129 40
235 126 40 211 93 10 217 93 12 220 94 13 221 93 15 220 92 21
217 92 22 215 89 20 213 88 19 216 90 21 217 92 22 206 81 12 209 81 13
210 79 12 211 79 12 211 79 10 211 79 10 211 79 10 211 79 10 211 79 10
210 80 10 224 99 27 221 101 27 221 101 25 222 100 25 222 100 25
222 100 25 222 100 25 222 100 25 224 99 25 224 99 25 224 99 25
223 98 24 224 97 24 223 96 23 223 96 25 223 96 25 223 96 25 223 96 25
223 96 25 225 95 27 207 77 9 207 77 11 210 77 15 212 76 15 212 74 13
212 74 13 210 77 13 210 77 11 211 79 10 198 76 1 211 108 24
199 102 14 206 99 12 207 98 12 207 98 14 207 98 14 207 98 14
207 98 14 207 98 14 205 96 12 204 94 11 203 93 10 203 93 10 203 93 10
204 94 13 204 94 13 204 94 13 202 95 13 198 95 12 203 93 14 192 64 0
209 70 10 203 69 12 201 66 11 201 65 8 201 65 8 201 65 6 201 65 6
200 66 4 200 67 2 212 81 16 212 81 16 210 83 14 210 83 14 208 80 14
210 79 14 211 79 12 211 79 10 212 83 10 205 81 7 217 98 20 213 96 17
216 99 20 216 99 20 216 99 20 216 99 20 216 99 20 216 99 20 216 99 20
216 99 20 216 92 15 216 92 15 216 92 15 216 92 15 216 92 15 216 92 15
216 92 15 217 91 15 216 84 10 220 89 15 209 77 3 212 83 8 213 86 10
213 86 10 211 87 10 211 87 10 211 85 9 211 85 9 211 85 9 209 85 8
207 85 8 204 85 7 203 86 7 206 84 7 211 82 7 211 82 7 208 83 7
204 85 7 212 93 15 211 92 14 211 87 10 211 85 9 210 86 9 211 87 10
211 87 10 211 87 10 212 88 12 212 88 12 212 88 10 209 90 10
224 115 28 220 116 28 220 116 28 220 117 26 220 117 26 220 117 26
219 117 26 219 117 26 223 124 32 220 121 29 231 132 40 226 130 37
227 131 38 226 132 38 224 132 38 224 132 38 222 133 40 224 132 40
227 130 40 232 128 40 211 95 11 218 95 13 220 94 13 220 93 15
218 93 21 218 93 23 217 92 22 215 89 20 218 93 23 219 94 25 209 83 14
211 84 15 212 82 14 212 82 14 212 82 12 212 82 12 212 82 12 212 82 12
212 83 10 210 83 10 218 99 23 215 100 23 215 101 21 215 101 21
217 100 21 217 100 21 217 100 21 217 100 19 218 99 19 218 99 19
218 99 21 217 98 20 219 97 20 218 96 19 218 96 19 218 96 19 218 96 19
219 95 21 219 95 21 221 93 23 207 77 7 207 77 9 210 77 13 212 76 15
212 74 13 212 74 13 212 76 13 212 77 11 208 74 5 202 77 3 207 100 17
206 102 17 214 98 14 219 96 14 219 95 17 219 95 17 219 95 17
219 95 17 218 96 17 218 96 17 208 87 7 208 87 7 208 87 7 208 87 7
209 88 10 209 88 10 209 88 10 206 89 10 205 95 14 215 100 23 194 64 0
203 65 4 201 65 8 200 65 10 201 65 8 201 65 8 201 65 6 201 65 6
200 66 4 200 67 2 215 85 20 215 85 20 214 86 18 214 86 18 210 82 16
212 82 14 213 81 12 213 81 12 213 84 11 208 83 9 216 97 19 213 96 17
214 97 19 214 97 19 214 97 19 214 97 19 214 97 19 214 97 19 214 97 19
214 97 19 215 94 16 215 94 16 215 94 16 215 94 16 217 93 16 217 93 16
217 93 16 217 93 16 218 92 16 216 90 14 214 87 12 211 85 9 211 85 9
213 86 10 213 86 10 213 86 10 211 86 12 211 86 12 211 86 12 211 86 12
210 85 11 208 86 11 208 86 11 210 85 11 214 85 12 214 85 12 213 86 12
213 86 12 212 88 14 212 88 14 214 87 14 214 87 14 213 89 15 213 89 15
213 89 15 213 89 15 215 90 14 215 90 14 215 91 12 211 92 12
225 116 30 220 119 28 220 119 28 220 119 28 220 119 28 220 119 28
220 119 28 220 119 28 219 117 26 218 116 25 232 133 42 230 133 40
227 132 41 225 133 41 224 134 41 224 134 41 227 132 41 228 132 41
228 132 41 232 130 41 209 95 13 215 94 14 217 93 14 217 93 16
217 92 18 217 92 20 217 92 20 217 92 20 217 92 20 218 93 21 208 83 11
209 84 12 210 83 12 210 83 12 210 83 12 210 83 12 210 83 12 210 83 12
209 84 12 207 85 12 218 99 23 217 99 23 217 99 23 217 99 23 217 99 23
217 99 23 215 101 21 217 100 21 217 100 21 217 100 21 217 100 19
216 99 18 216 97 17 216 97 17 216 97 17 216 97 17 216 97 17 218 96 17
219 95 19 221 94 21 207 77 7 209 76 9 209 76 11 209 76 11 209 75 13
210 75 13 210 75 11 210 75 9 209 77 7 204 79 5 214 99 20 214 102 19
216 97 17 218 96 17 218 96 17 218 96 17 219 95 19 219 95 19 219 95 19
219 95 19 211 87 10 211 87 10 211 87 10 211 87 10 212 88 12 212 88 12
212 88 12 212 88 12 209 88 10 213 89 15 197 64 0 200 62 4 201 65 8
200 65 10 201 65 8 203 64 8 201 65 8 201 65 6 200 66 4 200 67 2
213 83 17 213 83 15 211 84 15 211 84 15 211 84 15 213 83 15 215 82 13
215 82 13 213 84 11 210 85 11 216 97 19 213 96 17 214 97 19 214 97 19
214 97 19 214 97 19 214 97 19 214 97 19 214 97 19 214 97 19 215 94 16
215 94 16 215 94 16 215 94 16 217 93 16 217 93 16 217 93 16 217 93 16
217 93 16 215 90 14 212 88 12 210 86 9 211 85 9 213 86 10 213 86 10
213 86 12 211 86 14 211 86 14 211 86 14 211 86 14 210 85 13 210 85 13
210 85 13 211 84 13 214 84 14 214 84 14 214 84 14 214 84 14 214 87 14
214 87 14 214 87 14 214 87 14 213 89 15 213 89 15 213 89 15 213 89 15
215 90 14 215 90 14 215 91 12 211 92 12 223 117 30 220 119 28
220 119 28 220 119 26 220 119 28 220 119 28 220 119 28 220 119 28
219 117 26 218 116 25 232 133 42 230 133 40 227 132 41 224 134 41
222 135 41 224 134 41 228 132 41 230 131 41 228 132 41 232 130 43
209 95 13 215 94 14 217 93 14 217 93 16 217 92 18 217 92 20 217 92 20
217 92 20 217 92 20 218 93 21 208 83 11 209 84 12 210 83 12 210 83 12
209 84 12 209 84 12 209 84 12 209 84 12 207 85 12 207 85 12 218 99 23
218 99 23 217 99 23 217 99 23 217 99 23 217 99 23 215 101 21
215 101 21 217 100 21 217 100 21 217 100 19 216 99 18 214 98 17
214 98 17 214 98 14 214 98 14 216 97 14 218 96 17 219 95 19 221 94 21
207 77 7 209 76 9 209 76 11 209 76 11 207 76 13 209 75 13 210 75 11
210 75 9 209 77 7 206 79 5 217 98 20 217 100 19 216 97 17 218 96 17
218 96 17 218 96 17 219 95 19 219 95 19 219 95 19 219 95 19 211 87 10
211 87 10 211 87 10 211 87 10 214 87 12 214 87 12 214 87 12 214 87 12
213 86 10 217 87 15 199 63 0 199 63 4 201 64 10 201 64 10 203 64 8
203 64 8 201 65 8 201 65 8 200 66 6 200 66 4 213 83 17 213 83 15
211 84 15 211 84 15 211 84 15 213 83 15 215 82 13 215 82 13 213 84 11
211 86 12 215 95 17 214 97 19 214 97 19 214 97 19 214 97 19 214 97 19
214 97 19 214 97 19 214 97 19 214 97 19 215 94 16 215 94 16 215 94 16
215 94 16 217 93 16 217 93 16 217 93 16 217 93 16 217 93 16 215 90 14
212 88 12 210 86 9 211 85 9 213 86 10 213 86 10 213 86 12 211 86 14
211 86 14 211 86 14 211 86 14 210 85 13 210 85 13 210 85 13 211 84 13
214 84 14 214 84 14 214 84 14 214 84 14 214 87 14 214 87 14 214 87 14
214 87 14 213 89 15 213 89 15 213 89 15 213 89 15 213 91 14 213 91 14
213 92 12 210 93 12 223 117 30 220 118 30 220 119 28 220 119 28
220 119 28 220 119 28 220 119 28 220 119 28 219 117 26 218 116 25
232 133 42 230 133 40 227 132 41 224 134 41 222 135 41 224 134 41
228 131 43 230 130 43 228 131 43 232 130 43 211 94 15 217 93 16
215 94 16 215 94 16 217 92 18 217 92 20 217 92 20 217 92 20 217 92 20
218 93 21 208 83 11 209 84 12 210 83 12 210 83 12 209 84 12 209 84 12
209 84 12 209 84 12 207 85 12 207 85 12 218 99 23 218 99 23 217 99 23
217 99 23 217 99 23 217 99 23 215 101 21 215 101 21 217 100 21
217 100 21 216 99 18 214 98 17 214 98 17 214 98 17 214 98 14
214 98 14 216 97 14 218 96 17 219 95 19 221 94 21 207 77 7 209 76 9
209 76 11 209 76 11 206 75 12 208 74 12 209 74 10 209 74 8 209 77 7
206 79 5 217 98 20 217 100 19 216 97 17 218 96 17 218 96 17 218 96 17
219 95 19 219 95 19 219 95 19 219 95 19 211 87 10 211 87 10 211 87 10
211 87 10 214 87 14 214 87 14 214 87 14 214 87 14 213 86 10 217 87 15
197 64 0 199 62 6 201 64 10 201 64 10 203 64 8 203 64 8 201 65 8
201 65 8 200 66 6 200 66 4 213 83 17 213 83 15 211 84 15 210 85 15
211 84 15 213 83 15 215 82 13 215 82 13 213 84 11 211 86 12 215 95 17
214 97 19 214 97 19 214 97 19 214 97 19 214 97 19 214 97 19 214 97 19
214 97 19 214 97 19 215 94 16 215 94 16 215 94 16 215 94 16 217 93 16
217 93 16 217 93 16 217 93 16 217 93 16 215 90 14 212 88 12 210 86 9
211 85 9 213 86 10 213 86 10 213 86 12 211 86 14 211 86 14 211 86 14
211 86 14 210 85 13 210 85 13 210 85 13 211 84 13 214 84 14 214 84 14
214 84 14 214 84 14 214 87 14 214 87 14 214 87 14 214 87 14 213 89 15
213 89 15 213 89 15 213 89 15 213 91 16 213 91 14 213 91 14 210 93 12
223 117 30 220 118 30 220 119 28 220 119 28 220 119 28 220 119 28
220 119 28 220 119 28 219 117 26 218 116 25 232 133 42 230 133 42
227 132 41 224 134 41 222 135 41 222 135 41 227 132 43 228 131 43
227 132 43 232 130 43 211 94 15 217 93 16 215 94 16 215 93 18
217 92 20 217 92 20 217 92 20 217 92 20 217 92 20 218 93 21 208 83 11
209 84 12 210 83 12 210 83 12 209 84 12 209 84 12 209 84 12 209 84 12
207 85 12 207 85 12 218 99 23 218 99 23 217 99 23 217 99 23 217 99 23
217 99 23 215 101 21 215 101 21 217 100 21 217 100 21 216 99 18
214 98 17 214 98 17 214 98 17 214 98 14 214 98 14 216 97 14 218 96 17
219 95 19 221 94 21 207 77 7 209 76 9 209 76 11 209 76 11 206 75 12
208 74 12 209 74 10 209 74 8 209 77 7 206 79 5 217 98 20 217 100 21
216 97 19 218 96 19 218 96 19 218 96 19 219 95 19 219 95 19 219 95 19
219 95 19 211 87 10 211 87 10 211 87 10 211 87 10 214 87 14 214 87 14
214 87 14 214 87 14 213 86 10 217 87 17 197 64 2 199 62 6 201 64 10
201 64 12 203 63 10 203 64 8 203 64 8 201 65 8 201 65 6 200 66 4
213 83 17 213 83 15 211 84 15 210 85 15 211 84 15 213 83 15 215 82 13
215 82 13 213 84 11 211 86 12 214 94 16 214 97 19 214 97 19 214 97 19
214 97 19 214 97 19 214 97 19 214 97 19 214 97 19 214 97 19 215 93 18
215 93 18 215 93 18 215 93 18 217 92 18 217 92 18 217 92 18 217 92 18
217 92 18 215 90 16 212 88 14 210 85 11 211 85 11 213 86 12 213 86 12
213 86 12 211 86 14 211 86 14 211 86 14 211 86 14 211 86 14 211 86 14
211 86 14 213 85 14 214 84 14 214 84 14 214 84 14 214 84 14 214 87 14
214 87 14 214 87 14 214 87 14 213 88 17 213 88 17 213 88 17 213 88 17
213 91 16 213 91 16 213 91 14 210 93 12 223 117 30 220 118 30
220 119 28 220 119 28 220 119 28 220 119 28 220 119 28 220 119 28
217 118 28 216 117 27 232 133 44 230 133 42 227 132 43 224 134 43
222 135 41 222 135 41 227 132 43 228 131 43 227 132 43 232 130 43
211 94 15 217 93 16 215 93 18 215 93 18 217 92 20 217 92 20 217 92 20
217 92 20 217 92 20 218 93 21 208 83 11 209 84 12 210 83 12 210 83 12
209 84 12 209 84 12 209 84 12 209 84 12 207 85 12 207 85 12 218 99 23
218 99 23 217 99 23 217 99 23 217 99 23 217 99 23 215 101 21
215 101 21 217 100 21 217 100 21 216 99 18 214 98 17 214 98 17
214 98 17 214 98 14 214 98 14 216 97 14 218 96 17 219 95 19 221 94 21
207 77 7 209 76 9 210 75 11 209 76 11 206 75 12 208 74 12 209 74 10
209 74 8 209 77 7 206 79 5 217 97 22 217 99 23 218 95 21 219 95 21
219 95 21 219 95 21 219 95 21 219 95 21 219 95 21 219 95 21 211 86 12
211 86 12 211 86 12 211 86 12 214 87 14 214 87 14 214 87 14 214 87 14
213 86 12 217 87 17 197 64 2 199 62 6 201 64 10 201 64 12 203 63 10
204 63 8 203 64 8 203 64 8 201 65 6 200 66 4 212 81 16 212 82 14
210 83 12 209 84 12 211 84 13 213 83 13 215 82 13 215 82 13 213 84 11
211 86 12 214 94 16 214 98 17 216 97 19 216 97 19 216 97 19 216 97 19
216 97 19 216 97 19 216 97 19 216 97 19 215 93 18 215 93 18 215 93 18
215 93 18 217 92 18 217 92 18 217 92 18 217 92 18 217 92 18 215 90 16
212 88 14 210 85 11 211 85 11 213 86 12 213 86 12 213 86 12 211 86 14
211 86 14 211 86 14 211 86 14 211 86 14 211 86 14 211 86 14 213 85 14
214 84 14 214 84 14 214 84 14 214 84 14 214 87 14 214 87 14 214 87 14
214 87 14 213 88 17 213 88 17 213 88 17 213 88 17 213 91 16 213 91 16
213 91 14 210 93 14 223 116 32 220 118 30 220 119 28 220 119 28
220 119 28 220 119 28 220 119 28 220 119 28 217 118 28 216 117 27
232 133 44 230 133 42 225 133 43 224 134 43 222 135 41 222 135 41
227 132 43 227 132 43 227 132 43 232 130 43 211 94 15 217 93 16
215 93 18 215 93 18 217 92 20 217 92 20 217 92 20 217 92 20 217 92 20
218 93 21 208 83 11 209 84 12 210 83 12 210 83 12 209 84 12 209 84 12
209 84 12 209 84 12 207 85 12 207 85 12 218 99 23 218 99 23 217 99 23
217 99 23 217 99 23 217 99 23 215 101 21 215 101 21 217 100 21
217 100 21 216 99 18 214 98 17 214 98 17 214 98 17 214 98 14
214 98 14 216 97 14 218 96 17 219 95 19 221 94 19 207 78 5 209 77 7
210 75 9 210 75 11 208 74 12 208 74 12 209 74 10 209 74 8 209 77 7
206 78 7 217 97 22 217 99 23 218 95 21 219 95 21 219 95 21 219 95 21
219 95 21 219 95 21 219 95 21 219 95 21 211 86 12 211 86 12 211 86 12
211 86 12 214 87 14 214 87 14 214 87 14 214 87 14 213 86 12 217 87 17
197 64 2 199 62 6 201 64 10 203 63 12 204 63 10 204 63 8 203 64 8
203 64 8 201 65 6 201 65 4 213 81 16 212 82 14 210 83 12 210 83 12
213 83 13 213 83 13 215 82 13 215 82 13 213 84 11 211 87 10 214 95 14
214 98 17 216 97 19 216 97 19 216 97 19 216 97 19 216 97 19 216 97 19
216 97 19 216 97 19 215 94 16 215 94 16 215 94 16 215 94 16 217 92 18
217 92 18 217 92 18 217 92 18 217 92 18 215 90 16 212 90 15 210 85 11
211 85 11 213 86 12 211 86 12 211 86 12 211 86 14 211 86 14 211 86 14
211 86 14 211 86 14 211 86 14 211 86 14 213 85 14 214 84 14 214 84 14
214 84 14 214 84 14 214 87 14 214 87 14 214 87 14 214 87 14 213 88 17
213 88 17 213 88 17 213 88 17 213 91 16 213 91 16 213 91 14 210 93 14
222 117 32 218 119 30 218 119 28 218 119 28 218 119 28 218 119 28
218 119 28 218 119 28 217 118 28 214 118 27 232 135 45 229 135 44
226 134 44 225 135 44 223 136 42 223 136 42 226 134 42 228 133 42
226 134 44 231 131 44 211 94 15 217 93 16 215 93 18 215 93 18
217 92 20 217 92 20 217 92 20 217 92 20 217 92 20 218 93 21 208 83 11
209 84 12 210 83 12 210 83 12 209 84 12 209 84 12 209 84 12 209 84 12
207 85 12 207 85 12 218 99 23 218 99 23 217 99 23 215 100 23
215 100 23 215 100 23 215 101 21 215 101 21 217 100 21 217 100 21
216 99 18 214 98 17 214 98 17 214 98 17 214 98 14 214 98 14 216 97 14
218 96 17 219 95 19 221 94 19 207 78 5 209 77 7 210 75 9 210 75 11
208 74 12 208 74 12 209 74 10 209 74 8 209 77 7 206 79 5 217 97 22
217 99 23 218 95 21 219 95 21 219 95 21 219 95 21 219 95 21 219 95 21
219 95 21 219 95 21 211 86 12 211 86 12 211 86 12 211 86 12 214 86 16
214 86 16 214 86 16 214 86 16 213 86 12 217 87 17 198 65 3 200 63 7
203 63 10 203 63 12 204 63 10 204 63 8 203 64 8 203 64 8 201 65 6
201 65 4 215 82 17 213 83 15 211 84 13 211 84 13 213 83 13 213 83 13
215 82 13 215 82 13 214 85 12 212 88 12 214 95 14 214 98 17 216 97 17
216 97 17 216 97 17 216 97 17 216 97 17 216 97 17 216 97 17 216 97 17
214 94 16 214 94 16 214 94 16 214 94 16 215 93 18 215 93 18 215 93 18
215 93 18 214 94 18 211 92 16 212 90 15 208 86 11 210 85 11 213 86 12
211 86 12 211 86 12 211 86 14 211 86 14 211 86 14 211 86 14 211 86 14
211 86 14 211 86 14 211 86 14 213 85 14 214 84 14 214 84 14 213 85 14
214 87 14 214 87 14 214 87 14 214 87 14 212 87 16 212 87 16 212 87 16
212 87 16 212 90 15 212 90 15 212 90 13 209 92 13 220 118 32
217 120 30 217 120 30 217 120 28 217 120 28 217 120 28 217 120 28
217 120 28 216 119 28 214 118 27 231 137 46 228 135 44 226 136 46
226 136 46 224 137 44 224 137 44 228 135 44 228 135 44 226 136 46
231 133 46 209 95 15 217 92 18 215 93 18 217 92 20 217 92 20
217 92 20 217 92 20 217 92 20 217 92 20 218 93 21 208 83 11 210 83 12
210 83 12 210 83 12 210 83 12 210 83 12 210 83 12 210 83 12 209 84 12
207 85 12 218 99 23 217 99 23 215 100 23 215 100 23 215 100 23
215 100 23 214 101 21 214 101 21 215 101 21 215 101 21 214 100 18
213 99 17 213 99 17 213 99 17 213 99 14 213 99 14 214 98 14 214 98 17
216 97 17 218 96 19 204 79 5 206 79 5 206 78 7 206 78 9 203 78 8
203 78 8 204 77 8 204 77 6 204 79 5 202 80 5 217 97 22 218 99 23
218 95 21 219 95 21 219 95 21 219 95 21 219 95 21 219 95 21 219 95 21
221 93 23 213 85 14 213 85 14 213 85 14 213 85 14 215 85 18 215 85 18
215 85 18 215 85 18 214 84 14 218 86 19 200 64 5 202 63 7 203 63 10
203 63 10 204 63 8 204 63 8 203 64 8 203 64 6 201 65 4 201 65 4
215 82 17 213 83 15 211 84 13 211 84 13 213 83 13 213 83 13 213 83 13
213 83 13 213 86 12 212 88 12 212 96 14 213 99 14 213 99 17 214 98 17
214 98 17 214 98 17 214 98 17 214 98 17 214 98 17 214 98 17
221 106 27 221 106 27 221 106 27 221 106 27 221 106 27 221 106 27
221 106 27 221 106 27 219 107 27 219 107 27 210 91 13 214 92 15
216 91 17 216 91 17 216 91 17 214 92 17 216 91 19 216 91 19 216 91 19
216 91 19 213 88 17 213 88 17 213 88 17 213 88 17 212 87 16 214 86 16
214 86 16 212 87 16 212 87 16 212 87 16 211 86 14 211 86 14 212 87 16
212 87 16 211 86 14 211 86 14 212 88 14 212 88 14 212 88 12 207 90 12
232 130 43 227 132 43 227 132 41 227 132 41 227 132 41 227 132 41
227 132 41 227 132 41 227 132 41 223 129 38 233 138 47 229 137 45
227 137 47 227 137 47 226 138 47 226 138 47 227 137 45 227 137 45
227 137 45 232 135 47 200 85 6 206 84 9 208 83 11 208 83 11 209 81 13
209 81 13 209 81 13 209 81 13 209 81 13 209 81 13 209 81 13 209 81 13
208 78 11 208 78 11 208 79 9 208 79 9 208 79 9 208 79 9 208 79 7
205 81 7 224 106 30 221 108 30 221 108 28 221 108 28 221 108 28
221 108 28 221 108 28 221 109 26 219 110 26 219 110 26 220 111 27
220 111 27 220 111 27 220 111 27 221 112 28 221 112 28 221 112 28
221 112 28 223 111 28 223 111 30 223 111 30 224 110 30 224 110 30
224 110 28 223 109 27 223 109 27 222 110 27 222 110 29 226 111 33
225 108 31 206 86 10 204 81 7 206 82 8 206 82 8 206 82 8 206 82 8
208 81 10 208 81 10 208 81 10 210 79 12 198 65 1 200 64 3 200 64 3
200 64 3 201 65 4 201 65 4 201 65 4 201 65 4 203 65 4 203 65 4
202 63 5 202 63 7 204 63 8 204 63 8 204 63 8 204 63 6 204 63 6
203 64 6 201 65 4 201 65 4 215 82 17 213 83 15 211 84 13 211 85 11
214 85 12 214 85 12 213 85 14 211 86 14 213 86 12 211 89 12
225 113 30 223 117 30 223 116 32 225 115 32 225 115 32 225 115 32
225 115 32 225 115 32 225 115 32 225 115 32 219 107 27 219 107 27
219 107 27 219 107 27 219 107 27 219 107 27 219 107 27 218 108 27
216 109 27 218 108 27 209 92 13 214 92 15 216 91 17 216 91 17
214 92 17 214 92 17 216 91 19 216 91 19 216 91 19 216 91 19 213 88 17
213 88 17 213 88 17 213 88 17 212 87 16 212 87 16 212 87 16 212 87 16
212 87 16 212 87 16 211 86 14 211 86 14 211 86 14 211 86 14 210 85 13
210 85 13 211 86 12 211 86 12 211 87 10 206 89 10 232 130 43
227 132 43 227 132 41 227 132 41 225 133 41 225 133 41 225 133 41
225 133 41 227 132 41 223 129 38 232 140 48 229 137 45 228 138 48
228 138 48 227 139 48 227 139 48 228 139 46 228 139 46 227 139 46
231 137 48 198 86 6 206 84 9 208 83 11 208 83 11 209 81 13 209 81 13
209 81 13 209 81 13 209 81 13 209 81 13 209 81 13 211 81 13 210 77 11
210 77 11 210 78 9 210 78 9 210 78 9 210 78 9 210 78 7 207 80 7
222 107 30 219 109 30 221 108 28 221 108 28 221 108 28 221 108 28
221 109 26 219 110 26 217 110 26 217 110 26 219 112 27 219 112 27
219 112 27 219 112 27 220 113 28 220 113 28 220 113 28 220 113 28
220 113 28 220 113 28 220 112 30 220 113 28 220 113 26 220 113 26
220 112 23 220 112 23 219 112 25 219 112 27 222 113 31 223 108 31
207 85 10 205 81 7 206 82 8 206 82 8 206 82 8 206 82 8 208 81 10
208 81 10 208 81 10 210 79 12 200 64 3 202 63 5 202 63 5 202 63 5
203 64 6 203 64 6 203 64 6 203 64 6 204 63 6 204 63 6 202 63 5
202 63 5 204 63 8 204 63 8 204 63 6 204 63 6 204 63 6 204 63 6
203 65 4 201 65 4 215 82 17 213 83 15 211 84 13 211 85 11 213 86 12
213 86 12 211 86 14 211 86 14 213 86 12 209 90 12 222 115 30
220 118 30 222 117 32 222 117 32 222 117 32 222 117 32 222 117 32
222 117 32 222 117 32 222 117 32 219 108 25 219 108 25 219 108 25
219 108 25 219 107 27 219 107 27 219 107 27 218 108 27 216 109 27
218 108 27 210 93 14 214 92 15 216 91 17 216 91 17 214 92 17
214 92 17 216 91 19 216 91 19 216 91 19 216 91 19 213 88 17 213 88 17
213 88 17 213 88 17 212 87 16 212 87 16 212 87 16 212 87 16 212 87 16
212 87 16 211 86 14 211 86 14 211 86 12 211 86 12 210 85 11 210 85 11
211 86 12 211 86 12 211 87 10 206 89 10 230 130 43 225 133 43
225 133 41 225 133 41 225 133 41 224 134 41 224 134 41 225 133 41
225 133 41 222 130 38 233 141 49 228 139 46 229 139 49 228 140 49
228 140 49 228 140 49 228 141 47 228 141 45 228 141 47 233 138 49
198 86 6 206 84 9 208 83 11 208 82 13 209 81 13 209 81 13 209 81 13
209 81 13 209 81 13 209 81 13 209 81 13 211 81 13 210 77 11 210 77 11
210 78 9 210 78 9 210 78 9 210 78 9 210 78 7 207 80 7 222 107 30
219 109 30 219 109 28 219 109 28 219 109 28 219 109 28 219 110 26
219 110 26 217 110 26 217 110 26 219 112 27 219 112 27 219 112 27
219 112 27 220 113 28 220 113 28 220 113 28 220 113 28 220 113 28
220 113 28 220 113 28 220 113 28 220 113 26 220 113 26 220 112 23
220 112 23 219 112 25 219 112 27 222 113 31 223 109 29 207 85 10
205 81 7 206 82 8 206 82 8 206 82 8 206 82 8 208 81 10 208 81 10
208 81 10 210 79 12 200 64 3 202 63 5 202 63 5 202 63 5 203 64 6
203 64 6 203 64 6 203 64 6 204 63 6 204 63 6 204 63 6 204 63 6
204 63 6 204 63 6 204 63 6 204 63 6 204 63 6 204 63 6 203 65 4
201 65 4 216 83 18 214 84 16 213 85 14 213 86 12 213 86 12 213 86 12
211 86 14 211 86 14 214 87 14 210 91 13 222 115 28 220 118 30
222 117 30 222 117 30 222 117 30 222 117 30 222 117 30 222 117 30
222 117 30 222 117 30 219 108 25 219 108 25 219 108 25 219 108 25
219 107 27 219 107 27 219 107 27 218 108 27 216 109 27 218 108 27
210 93 14 214 92 15 216 91 17 216 91 17 214 92 17 214 92 17 216 91 19
216 91 19 216 91 19 216 91 19 213 88 17 213 88 17 213 88 17 213 88 17
212 87 16 212 87 16 212 87 16 212 87 16 212 87 16 212 87 16 211 86 14
211 86 14 211 86 12 211 86 12 210 85 11 210 85 11 211 86 12 211 86 12
211 87 10 206 89 10 230 130 43 225 133 43 225 133 41 225 133 41
224 134 41 224 134 41 224 134 41 224 134 41 225 133 41 222 129 40
232 142 51 228 138 48 228 140 49 228 140 49 228 140 49 228 140 49
228 141 47 228 141 47 226 141 47 233 138 49 198 86 8 206 83 11
208 82 13 208 82 13 209 81 13 209 81 13 209 81 13 209 81 13 209 81 13
209 81 13 209 81 13 211 81 13 210 77 11 210 77 11 210 78 9 210 78 9
210 78 9 210 78 9 210 78 7 207 80 7 222 107 30 219 109 30 219 109 28
219 109 28 219 109 28 219 109 28 219 110 26 219 110 26 217 110 26
217 110 26 219 112 27 219 112 27 219 112 27 219 112 27 220 113 28
220 113 28 220 113 28 220 113 28 220 113 28 220 113 28 220 113 28
220 113 28 220 113 26 220 113 26 220 112 23 220 112 23 219 112 25
219 112 27 222 113 31 223 109 29 207 85 10 205 81 7 206 82 8 206 82 8
206 82 8 208 81 8 208 81 10 208 81 10 208 81 10 210 79 12 200 64 3
202 63 5 202 63 5 202 63 5 203 64 6 203 64 6 203 64 6 203 64 6
204 63 6 204 63 6 204 63 6 204 63 6 204 63 6 204 63 6 204 63 6
204 63 6 204 63 6 204 63 6 203 65 4 201 65 4 216 83 18 214 84 16
213 85 14 213 86 12 213 86 12 213 86 12 211 86 14 211 86 14 214 86 16
210 91 13 222 115 28 218 119 28 220 118 30 222 117 30 222 117 30
222 117 30 222 117 30 222 117 30 222 117 30 222 117 30 219 108 25
219 108 25 219 108 25 219 108 25 219 107 27 219 107 27 219 107 27
218 108 27 216 109 25 218 108 25 210 93 12 214 92 15 216 92 15
216 92 15 214 92 15 214 92 17 216 91 17 216 91 17 216 91 17 216 91 17
212 88 14 212 88 14 212 88 14 212 88 14 212 88 14 212 88 14 212 88 14
212 88 14 212 88 14 212 88 14 211 86 12 211 86 12 211 86 14 211 86 14
210 85 13 210 85 13 211 86 12 211 86 12 211 87 10 206 89 10
230 130 43 225 133 43 225 133 41 225 133 41 224 134 41 224 134 41
224 134 41 224 134 41 224 134 43 220 130 42 232 141 53 228 138 50
228 140 51 228 140 51 228 140 49 228 140 49 226 141 47 226 141 47
226 141 49 233 137 51 198 86 8 206 83 11 208 82 15 208 82 15
209 81 13 209 81 13 209 81 13 209 81 13 209 81 13 209 81 13 209 81 13
211 81 13 211 79 12 211 79 12 211 79 10 211 79 10 211 79 10 211 79 10
211 79 8 208 81 8 223 108 31 220 110 31 220 110 29 220 110 29
220 110 29 220 110 29 220 111 27 220 111 27 219 112 27 219 112 27
219 112 27 219 112 27 220 113 28 220 113 28 220 113 28 220 113 28
220 113 28 220 113 28 220 113 28 220 113 28 220 113 28 220 113 28
218 114 26 220 113 26 220 112 23 220 112 23 219 112 25 219 112 27
222 113 31 223 109 29 207 85 10 205 80 9 208 81 10 208 81 10
208 81 10 208 81 10 210 80 10 210 80 10 210 79 12 211 78 14 200 64 3
202 63 5 202 63 5 202 63 5 203 64 6 203 64 6 203 64 6 203 64 6
203 64 6 203 64 6 203 64 6 203 64 6 203 64 6 203 64 6 203 64 6
203 64 6 204 63 6 204 63 6 203 65 4 201 65 4 216 83 18 214 84 16
213 85 14 213 86 12 213 86 12 213 86 12 211 86 14 211 86 16 214 86 16
210 90 15 220 116 28 218 119 28 220 118 30 222 117 30 222 117 30
222 117 30 222 117 30 222 117 30 222 117 30 222 117 30 219 108 25
219 108 25 219 108 25 219 108 25 219 107 27 219 107 27 219 107 27
218 108 27 216 109 25 218 108 25 210 93 12 214 93 13 216 92 15
216 92 15 214 92 15 214 92 15 216 91 17 216 91 17 216 91 17 216 91 17
212 88 14 212 88 14 212 88 14 212 88 14 212 88 14 212 88 14 212 88 14
212 88 14 212 88 14 212 88 14 211 86 12 211 86 12 211 86 14 211 86 14
210 85 13 210 85 13 211 86 12 211 86 12 211 87 10 206 89 10
230 130 43 225 133 43 225 133 41 225 133 41 224 134 41 224 134 41
224 134 41 224 134 43 224 133 45 220 130 42 232 141 53 228 138 50
228 139 53 228 139 53 228 140 51 228 140 49 226 141 47 226 141 47
226 141 49 233 137 51 198 86 8 206 83 13 208 82 15 208 81 17
209 81 15 209 81 13 209 81 13 209 81 13 209 81 13 209 81 13 209 81 13
211 81 13 211 79 12 211 79 12 211 79 10 211 79 10 211 79 10 211 79 10
211 79 8 208 81 8 223 108 31 220 110 31 220 110 29 220 110 29
220 110 29 220 110 29 220 111 27 220 111 27 219 112 27 219 112 27
219 112 27 219 112 27 220 113 28 220 113 28 220 113 28 220 113 28
220 113 28 220 113 28 220 113 28 220 113 28 220 113 28 220 113 28
218 114 26 220 113 26 220 112 23 220 112 23 219 112 25 219 112 27
222 113 31 223 108 31 207 85 12 205 80 9 208 81 10 208 81 10
208 81 10 208 81 10 210 80 10 210 80 10 210 79 12 211 78 14 200 64 3
202 63 5 202 63 5 202 63 5 203 64 6 203 64 6 203 64 6 203 64 6
203 64 6 203 64 6 203 64 6 203 64 6 203 64 6 203 64 6 203 64 6
203 64 6 204 63 6 204 63 6 203 65 4 203 65 4 217 82 18 216 83 16
214 84 14 213 86 12 213 86 12 211 86 14 209 87 16 211 86 16 214 86 16
210 90 15 220 116 28 218 119 28 220 118 30 222 117 30 222 117 30
222 117 30 222 117 30 222 117 30 222 117 30 222 117 30 219 108 25
219 108 25 219 108 25 219 108 25 219 107 27 219 107 27 219 107 27
218 108 27 216 109 25 218 108 25 210 93 12 214 93 13 216 92 15
216 92 15 214 92 15 214 92 15 216 91 17 216 91 17 216 91 17 216 91 17
212 88 14 212 88 14 212 88 14 212 88 14 212 88 14 212 88 14 212 88 14
212 88 14 212 88 14 212 88 14 211 86 12 211 86 12 211 86 12 211 86 12
210 85 11 210 85 11 211 86 12 211 86 12 213 86 10 208 88 10
230 130 43 224 134 43 225 133 41 225 133 41 224 134 41 224 134 41
224 134 41 224 134 43 224 133 45 220 130 42 232 141 53 228 138 50
228 139 53 228 139 53 228 140 51 228 140 49 226 141 47 226 141 47
226 141 49 233 137 51 198 86 8 206 83 13 208 82 15 208 81 17
209 81 15 209 81 13 209 81 13 209 81 13 209 81 13 209 81 13 209 81 13
211 81 13 211 79 12 211 79 12 211 79 10 211 79 10 211 79 10 211 79 10
211 79 8 208 81 8 223 108 31 220 110 31 220 110 29 220 110 29
220 110 29 220 110 29 220 111 27 220 111 27 219 112 27 219 112 27
219 112 27 219 112 27 220 113 28 220 113 28 220 113 28 220 113 28
220 113 28 220 113 28 220 113 28 220 113 28 220 113 28 220 113 28
218 114 26 220 113 26 220 112 23 220 112 23 219 112 25 219 112 27
222 113 31 223 108 31 207 85 12 205 80 9 208 81 10 208 81 10
208 81 10 208 81 10 210 80 10 210 80 10 210 79 12 211 78 14 200 64 3
202 63 5 202 63 5 202 63 5 203 64 6 203 64 6 203 64 6 203 64 6
203 64 6 203 64 6 203 64 6 203 64 6 203 64 6 203 64 6 203 64 6
203 64 6 204 63 6 204 63 6 203 65 4 203 65 4 217 82 18 216 83 16
214 84 14 213 86 12 211 86 12 211 86 14 209 87 16 211 86 16 214 86 16
210 90 15 219 117 28 217 120 28 220 118 30 222 117 30 222 117 30
222 117 30 222 117 30 222 117 30 222 117 30 222 117 30 218 108 25
218 108 25 218 108 25 218 108 25 218 108 27 218 108 27 218 108 27
218 108 27 216 109 25 218 108 25 210 93 12 214 93 13 216 92 15
216 92 15 214 92 15 214 92 15 216 91 17 217 90 17 217 90 17 217 90 17
214 87 14 214 87 14 214 87 14 214 87 14 214 87 14 214 87 14 214 87 14
214 87 14 214 87 14 214 87 14 213 86 12 213 86 12 213 86 12 213 86 12
211 85 11 211 85 11 213 86 12 213 86 12 214 85 10 208 88 10
232 130 43 225 133 43 225 133 41 225 133 41 225 133 41 225 133 43
225 133 43 225 133 43 225 132 45 222 129 42 233 141 53 228 138 50
229 139 53 229 139 53 229 139 51 228 140 49 228 141 47 228 141 47
228 140 49 234 137 51 198 86 8 204 84 13 206 82 17 208 81 17
209 81 15 209 81 13 209 81 13 209 81 13 209 81 13 209 81 13 209 81 13
211 81 13 211 79 12 213 78 12 213 78 12 213 78 12 213 78 12 213 78 12
213 78 10 208 81 10 223 108 31 220 110 31 220 110 29 220 110 29
220 110 29 220 110 29 220 111 27 220 111 27 219 112 27 219 112 27
219 112 27 219 112 27 220 113 28 220 113 28 220 113 28 220 113 28
220 113 28 220 113 28 220 113 28 220 113 28 219 112 27 219 112 27
217 113 25 217 113 25 217 111 22 219 110 22 217 111 24 217 110 26
222 113 31 223 108 31 207 85 12 205 80 9 208 81 10 208 81 10
208 81 10 208 81 10 210 80 10 210 80 10 210 79 12 211 78 14 200 64 3
202 63 5 200 62 4 200 62 4 202 63 5 202 63 5 202 63 5 202 63 5
203 64 6 203 64 6 203 64 6 203 64 6 203 64 6 203 64 6 203 64 6
203 64 6 204 63 6 204 63 6 203 65 4 203 65 4 217 82 18 216 83 16
214 84 14 213 86 12 211 86 12 211 86 14 209 87 16 211 86 16 214 86 16
208 88 12 219 117 28 217 120 28 222 117 30 223 117 30 223 117 30
223 117 30 223 117 30 223 117 30 223 117 30 223 117 30 219 112 27
219 112 27 219 112 27 219 112 27 219 112 27 219 112 27 219 112 27
219 112 27 222 113 29 222 108 26 209 88 8 210 84 6 221 93 15
221 93 15 220 93 15 220 93 17 220 93 17 221 92 17 221 92 17 220 91 16
219 90 15 218 89 14 218 89 14 218 89 14 218 89 14 218 89 14 218 89 14
217 88 13 215 86 12 214 85 10 213 84 9 213 84 9 213 84 11 213 84 11
212 83 10 212 83 10 213 84 9 213 84 9 213 84 9 207 87 9 232 128 42
226 131 42 226 131 42 226 131 42 226 131 42 226 130 44 227 132 45
227 132 45 228 133 46 228 133 46 230 135 49 229 136 49 230 137 52
231 138 53 232 139 52 231 141 50 231 141 48 232 140 48 234 139 50
237 137 52 194 84 7 198 82 11 199 80 13 202 79 13 209 81 15 211 81 13
211 81 13 211 81 13 212 82 14 210 79 12 206 76 8 205 75 7 212 76 13
213 75 13 213 75 13 213 75 13 213 75 13 213 75 13 213 75 13 208 78 11
223 105 29 218 108 27 218 108 27 218 108 27 218 108 27 218 108 27
218 108 27 218 108 27 217 110 28 216 111 28 216 111 28 216 111 28
217 112 29 217 112 29 219 111 29 219 111 29 220 111 27 220 111 27
220 111 27 217 110 26 219 112 27 216 111 26 216 112 24 216 112 24
217 111 22 219 110 22 217 111 24 217 110 26 222 113 31 223 108 31
207 85 12 205 80 9 208 81 10 210 80 10 210 80 10 210 80 10 210 79 12
210 79 12 210 79 12 211 78 14 199 63 2 199 63 2 199 63 4 199 63 4
200 63 7 200 63 7 200 63 7 200 63 7 203 64 6 203 64 6 203 64 6
203 64 6 201 65 6 201 65 6 203 64 6 203 64 6 204 63 6 204 63 6
203 65 4 203 65 4 217 82 18 216 83 16 214 84 14 213 86 12 211 86 12
211 86 14 211 86 16 211 86 16 215 88 17 206 86 10 222 120 34
213 113 24 223 117 28 225 116 28 225 116 30 225 116 30 225 116 30
225 116 30 225 116 30 225 116 30 216 116 29 216 116 29 216 116 29
216 116 29 216 116 29 216 116 29 216 116 29 216 116 29 222 117 32
221 112 28 209 92 11 209 88 8 217 93 14 217 93 14 217 93 14 217 93 14
217 93 16 217 93 16 217 93 16 217 91 15 216 90 14 215 88 13 215 88 13
215 88 13 215 88 13 215 88 13 215 88 13 214 87 12 213 86 10 211 85 9
210 84 8 210 84 8 210 83 10 210 83 10 209 82 9 209 82 9 210 84 8
209 85 8 209 85 8 204 87 8 231 124 40 228 126 40 228 126 40
228 126 40 228 126 42 228 126 42 229 127 43 229 127 43 229 127 43
231 126 43 234 129 46 236 131 48 236 133 52 237 135 53 240 137 53
240 137 53 238 138 51 240 138 49 241 137 51 245 135 53 202 87 12
204 85 16 207 83 18 209 82 20 211 80 17 212 79 15 212 79 15 212 79 15
212 79 15 211 78 14 210 77 13 210 77 13 214 78 17 216 77 17 216 77 17
216 77 17 216 77 17 216 77 17 216 77 17 212 79 15 226 107 31
222 110 29 222 110 29 222 110 29 222 110 29 222 110 29 222 110 29
222 110 29 221 112 30 220 112 30 220 112 30 220 112 30 221 114 31
221 114 31 222 113 31 222 113 31 224 112 29 224 112 29 222 113 29
221 112 28 220 113 28 217 112 27 215 114 25 217 113 25 220 114 24
221 113 24 220 113 26 220 113 28 222 113 31 223 108 31 207 85 12
207 79 9 210 80 10 210 80 10 210 80 10 210 80 10 210 79 12 210 79 12
210 79 12 211 78 14 201 65 4 201 65 4 201 65 6 201 65 6 202 66 9
202 66 9 202 66 9 202 66 9 203 64 6 203 64 6 203 64 6 203 64 6
201 65 6 201 65 6 203 64 6 203 64 6 204 63 6 204 63 6 203 65 4
203 65 4 217 82 18 216 83 16 214 84 14 213 86 12 211 86 12 211 86 14
211 86 16 213 85 16 217 87 17 204 85 9 227 125 39 219 122 32
220 119 28 223 117 28 223 117 30 223 117 30 223 117 30 223 117 30
223 117 30 223 117 30 235 147 56 235 147 56 235 147 56 235 147 56
235 147 56 235 147 56 235 147 56 235 147 56 240 148 58 240 143 55
227 123 37 228 119 35 231 119 36 231 119 36 231 119 36 231 119 36
231 119 38 231 119 38 231 119 38 231 117 37 230 116 36 229 115 35
229 115 35 229 115 35 229 115 35 229 115 35 229 115 35 228 113 34
227 112 32 226 111 31 224 110 30 224 110 30 224 110 30 224 110 30
223 109 29 223 109 29 224 110 30 224 110 30 224 110 30 224 110 30
209 97 14 209 97 14 210 96 14 212 96 14 212 95 16 212 95 16 212 93 15
212 93 15 212 93 15 214 92 15 212 90 13 211 89 12 208 86 11 207 85 10
204 85 7 204 85 7 203 86 5 201 87 3 203 86 5 206 84 7 194 67 0
196 65 0 199 63 2 199 63 4 200 64 5 200 64 5 200 64 5 200 64 5
200 64 5 201 65 6 202 66 7 203 67 9 205 67 6 205 67 6 205 67 6
205 67 6 205 67 6 205 67 6 205 67 6 202 69 4 218 95 21 214 97 19
214 97 19 214 97 19 214 97 19 214 97 19 214 97 19 214 97 19 214 99 20
214 99 20 214 99 20 214 99 20 215 101 21 215 101 21 215 101 21
215 101 21 215 101 19 214 102 19 212 103 19 212 103 19 222 115 30
220 116 30 219 117 28 220 116 28 223 117 28 225 116 28 223 117 30
223 116 32 224 114 32 224 110 32 208 86 13 209 82 11 211 81 11
211 81 11 211 81 11 211 81 11 211 81 13 211 81 13 210 79 12 211 78 14
209 73 12 208 72 11 207 71 12 207 71 12 208 72 15 208 72 15 208 72 15
208 72 15 207 69 11 205 66 9 203 64 6 203 64 6 202 66 7 202 66 7
204 65 7 204 65 7 205 64 7 205 64 7 204 66 5 204 66 5 217 82 18
216 83 16 214 84 14 213 86 12 211 86 12 209 87 14 211 86 16 213 85 16
215 86 16 207 87 11 235 133 47 226 134 42 236 144 50 237 143 50
237 143 52 237 143 52 237 143 52 237 143 52 237 143 52 237 143 52
231 153 58 231 153 58 231 153 58 231 153 58 231 153 58 231 153 58
231 153 58 232 152 58 236 153 61 238 148 57 225 128 40 226 124 37
225 121 35 225 121 35 223 121 35 223 121 35 223 121 37 223 121 37
225 120 37 224 119 36 223 118 35 222 117 34 222 117 34 222 117 34
222 117 34 222 117 34 222 117 34 220 115 32 219 114 31 218 113 30
217 112 29 217 112 29 217 112 29 217 112 29 216 111 28 216 111 28
219 111 29 219 111 29 219 111 29 222 110 29 210 93 12 213 92 12
213 92 12 215 90 14 215 90 14 216 90 14 215 88 13 215 88 13 215 88 13
217 88 13 215 86 12 214 85 12 214 85 12 213 84 11 211 85 11 211 85 9
210 86 7 210 86 7 211 85 7 213 84 9 203 69 0 207 66 4 208 65 9
208 64 11 202 63 7 202 62 9 202 62 9 202 62 9 200 61 8 203 63 10
206 67 14 209 70 14 206 68 10 206 68 8 206 68 8 206 68 8 206 68 8
206 68 8 206 68 8 203 70 6 220 96 22 219 97 20 219 97 20 219 97 20
219 97 20 219 97 20 219 97 20 217 98 20 218 99 21 218 99 21 218 99 21
218 99 21 219 100 22 218 101 22 218 101 22 218 101 22 216 102 20
216 102 20 215 103 20 213 104 20 223 116 32 222 117 32 220 118 30
222 117 30 224 118 29 226 117 29 224 118 31 224 117 33 224 114 32
224 110 32 207 85 12 209 82 11 211 81 11 211 81 11 211 81 11
211 81 11 211 81 13 211 81 13 211 81 13 211 78 14 210 75 13 209 73 12
208 72 13 208 72 13 209 73 16 209 73 16 209 73 16 209 73 16 210 71 13
207 69 11 206 68 10 204 65 7 202 66 7 203 67 9 205 66 9 205 66 9
207 66 9 207 66 9 205 67 6 205 67 6 216 81 17 215 82 15 213 83 13
210 85 11 209 87 12 209 87 14 211 86 16 213 85 16 214 84 14 208 88 12
239 136 50 233 143 51 233 146 50 231 146 50 231 146 52 231 146 52
231 146 52 231 146 52 231 146 52 231 146 52 228 154 58 228 154 58
228 154 58 228 154 58 228 154 58 228 154 58 228 154 58 229 154 58
233 155 59 234 150 55 222 130 38 223 126 35 222 123 33 222 123 33
220 123 33 220 123 35 220 123 35 220 123 35 222 122 35 221 121 34
220 120 33 218 119 32 218 119 32 218 119 32 218 119 32 218 119 32
218 119 32 217 118 30 216 116 29 215 115 28 214 114 27 214 114 27
214 114 29 214 114 29 213 112 28 213 112 28 214 114 27 214 114 27
214 114 27 219 112 27 213 91 14 216 90 14 216 90 14 216 90 14
216 89 16 216 89 16 216 89 16 216 89 16 215 88 15 213 89 15 213 89 15
213 89 15 212 87 16 212 87 16 211 88 14 211 89 12 211 87 10 213 86 10
214 85 10 217 83 12 204 65 0 208 62 4 209 61 6 209 60 8 206 62 10
204 62 12 204 62 12 204 62 12 203 61 11 204 62 12 208 66 16 207 68 15
207 69 11 206 68 8 206 68 8 206 68 8 206 68 8 206 68 8 206 68 8
205 69 6 221 94 21 219 95 19 219 95 19 219 95 19 219 95 19 219 95 19
219 95 19 218 96 19 219 97 20 219 97 20 219 97 20 219 97 20 220 98 21
218 99 21 218 99 21 217 100 21 215 101 19 215 101 19 214 102 19
212 103 19 223 116 32 222 117 32 220 118 30 220 118 30 224 118 31
226 117 31 224 118 31 224 117 33 224 114 32 230 115 38 207 85 12
210 83 12 212 82 12 212 82 12 212 82 12 212 82 12 213 81 14 213 81 14
213 81 16 212 79 15 207 71 10 207 71 10 208 72 13 208 72 13 209 73 16
209 73 16 209 73 16 209 73 16 208 72 13 206 70 11 205 68 10 202 66 7
202 66 7 202 66 7 202 66 7 204 65 7 207 66 9 207 66 9 205 67 6
205 67 6 215 80 16 213 81 14 212 82 12 209 84 10 208 86 11 208 86 13
210 85 15 211 84 15 213 83 13 208 86 11 238 138 51 230 143 49
232 150 52 230 150 52 230 150 54 230 150 54 229 149 53 229 149 53
229 149 53 229 149 53 228 154 58 228 154 58 228 154 58 228 154 58
228 154 58 228 154 58 228 154 58 229 154 58 233 155 59 234 150 55
222 130 38 223 126 35 222 123 33 222 123 33 220 123 33 220 123 33
220 123 35 220 123 35 222 122 35 221 121 34 220 120 33 218 119 32
218 119 32 218 119 32 218 119 32 218 119 32 218 119 32 217 118 30
216 116 29 215 115 28 214 114 27 214 114 27 214 114 29 214 114 29
213 112 28 213 112 28 214 114 27 214 114 27 215 113 27 219 112 27
213 91 14 216 90 14 216 90 14 216 90 14 216 89 16 216 89 16 216 89 16
215 90 16 213 89 15 213 89 15 212 90 15 212 90 15 211 88 16 211 88 16
211 88 14 211 88 14 209 88 10 211 87 10 214 85 12 217 83 14 204 65 0
208 62 4 209 61 6 209 60 8 206 62 10 204 62 12 204 62 12 204 62 12
203 61 11 204 62 12 208 66 16 209 67 15 207 69 11 206 68 8 206 68 8
206 68 8 206 68 8 206 68 8 206 68 8 205 69 6 221 94 21 219 95 19
219 95 19 219 95 19 219 95 19 219 95 19 219 95 19 218 96 19 219 97 20
219 97 20 219 97 20 219 97 20 220 98 21 218 99 21 218 99 21
217 100 21 215 101 19 215 101 19 214 102 19 212 103 19 223 116 32
222 117 32 220 118 30 220 118 30 224 118 31 226 117 31 224 118 31
224 117 33 224 114 32 230 116 36 206 84 9 209 84 12 210 83 12
212 82 12 212 82 12 212 82 12 212 82 14 213 81 14 213 81 16 212 79 15
207 71 10 207 71 10 207 71 12 207 71 12 208 72 15 208 72 15 208 72 15
208 72 15 207 71 12 205 68 10 203 67 9 201 65 6 200 66 6 201 67 7
202 66 7 204 65 7 207 66 9 207 66 9 205 67 6 203 68 6 212 79 15
211 81 13 210 83 12 209 84 10 207 85 10 207 85 12 210 85 15 213 83 15
215 82 13 208 86 11 237 137 50 230 143 49 232 150 52 230 150 52
230 150 54 230 150 54 229 149 53 229 149 53 229 149 53 229 149 53
232 152 56 232 152 56 232 152 56 232 152 56 232 152 56 232 152 56
232 152 56 232 152 56 236 154 59 238 148 55 225 128 38 226 124 35
225 121 33 225 121 33 223 122 33 223 122 33 223 121 35 223 121 35
225 121 35 224 119 34 223 118 33 222 117 32 222 117 32 222 117 32
222 117 32 222 117 32 222 117 32 220 116 30 219 115 29 218 114 28
217 112 27 217 112 27 217 112 27 217 112 27 216 111 26 216 111 26
219 112 27 219 112 27 220 111 27 222 110 27 210 93 14 211 92 14
211 92 14 213 91 14 213 91 16 215 90 16 215 90 16 213 91 16 212 90 15
212 90 15 212 90 15 212 90 15 212 87 16 212 87 16 211 88 14 211 88 14
208 88 12 208 88 12 211 86 12 213 85 14 200 67 0 203 65 4 206 63 6
206 62 8 206 62 8 206 62 10 206 62 10 206 62 10 205 61 9 206 62 10
209 65 14 209 68 13 207 69 11 206 68 8 206 68 8 206 68 8 206 68 8
206 68 8 206 68 8 203 70 6 219 95 21 218 96 19 218 96 19 218 96 19
218 96 19 218 96 19 218 96 19 216 97 19 217 98 20 217 98 20 217 98 20
217 98 20 218 99 21 217 100 21 217 100 21 217 100 21 215 101 19
215 101 19 214 102 19 212 103 19 223 116 32 222 117 32 220 118 30
220 118 30 224 118 31 226 117 31 224 118 31 224 117 33 224 114 32
230 116 36 206 84 9 210 85 11 210 83 12 210 83 12 210 83 12 210 83 12
210 83 14 212 82 14 212 81 16 212 81 16 205 72 10 207 71 10 207 71 12
207 71 12 208 72 15 208 72 15 208 72 15 208 72 15 207 71 12 205 68 10
203 67 9 201 65 6 201 65 6 202 66 7 202 66 7 204 65 7 207 66 9
207 66 9 205 67 6 203 68 6 212 79 15 211 81 13 210 83 12 209 84 10
207 85 10 207 85 12 210 85 15 213 83 15 216 84 14 209 87 12
238 138 51 233 143 51 235 148 52 233 149 52 233 148 54 233 148 54
232 147 53 232 147 53 232 147 53 232 147 53 234 152 56 234 152 56
234 152 56 234 152 56 234 152 56 234 152 56 234 152 56 234 152 56
236 154 59 236 149 55 223 129 38 226 124 35 225 121 33 227 120 33
227 120 33 225 121 33 223 121 35 223 121 35 223 121 35 224 119 34
224 117 33 223 116 32 223 116 32 225 115 32 225 115 32 225 115 32
225 115 32 224 114 30 222 113 29 221 112 28 220 111 27 220 111 27
220 111 27 220 111 27 219 110 26 219 110 26 220 111 27 222 110 27
223 109 27 225 108 27 210 93 14 210 93 14 210 93 14 211 92 14
213 91 16 213 91 16 213 91 16 213 91 16 212 90 15 212 90 15 212 90 15
212 89 17 211 88 16 209 87 14 209 87 14 208 88 12 208 88 12 208 88 12
209 87 12 211 86 14 198 67 2 200 66 4 201 65 6 203 64 6 204 63 8
206 62 8 206 62 8 206 62 8 205 61 7 206 62 8 209 66 12 209 68 13
207 69 11 206 68 10 206 68 10 206 68 10 206 68 10 206 68 10 206 68 10
203 70 6 219 95 21 216 97 19 216 97 19 216 97 19 216 97 19 216 97 19
216 97 19 216 97 19 216 99 20 216 99 20 216 99 20 216 99 20
217 100 21 217 100 21 217 100 21 217 100 19 215 101 19 215 101 19
214 102 19 212 103 19 223 116 32 222 117 32 220 118 30 220 118 30
223 119 31 223 119 31 221 119 31 223 118 33 222 115 30 229 117 36
206 84 9 210 85 11 210 83 12 210 83 12 210 83 12 210 83 12 210 83 14
210 83 14 210 82 16 212 81 16 207 71 10 209 70 10 209 70 12 209 70 12
210 71 15 210 71 15 210 71 15 208 72 15 207 71 12 205 68 10 203 67 9
201 65 6 201 65 6 202 66 7 202 66 7 202 66 7 205 66 9 205 66 9
203 68 6 202 68 6 211 80 15 209 81 13 209 84 12 207 85 10 206 86 10
207 85 12 210 85 15 213 83 15 216 84 14 209 87 12 238 138 51
233 143 51 235 148 52 233 149 52 233 148 54 233 148 54 232 147 53
232 147 53 232 147 53 232 147 53 236 151 54 236 151 54 236 151 54
236 151 54 236 151 56 236 151 56 236 151 56 232 152 56 232 157 57
230 152 53 219 132 36 223 126 33 225 121 33 227 120 33 228 119 33
227 120 33 220 123 35 219 124 35 220 123 35 221 121 34 223 118 33
223 116 32 225 115 32 226 115 32 226 115 32 226 115 32 226 115 32
225 113 30 224 112 29 223 111 28 222 110 27 222 110 27 222 110 27
222 110 27 221 109 26 221 109 26 223 109 29 223 109 29 225 108 29
225 108 29 211 92 14 211 92 14 211 92 14 213 91 14 215 90 16
215 90 16 215 90 16 215 90 16 213 90 18 213 90 18 211 91 18 209 89 16
208 87 16 208 87 16 208 88 14 208 88 14 208 88 14 209 87 14 209 87 14
211 86 16 196 68 2 196 68 4 196 67 6 200 66 6 203 64 8 204 63 8
204 63 8 204 63 8 204 63 8 205 64 9 208 66 12 207 68 13 207 68 13
206 67 12 206 67 12 206 67 12 206 67 12 206 67 12 206 67 12 203 70 8
218 95 21 214 98 17 214 98 17 214 98 17 214 98 17 214 98 17 214 98 17
214 98 17 216 99 18 216 99 18 216 99 18 216 99 18 217 100 19
217 100 19 217 100 19 217 100 19 217 100 19 215 101 19 214 102 19
212 103 19 223 116 32 222 117 32 220 118 32 218 119 32 218 121 31
218 121 31 216 121 33 220 120 33 220 116 30 229 117 36 206 84 7
211 85 11 209 84 12 209 84 12 209 84 12 209 84 12 209 83 14 209 83 14
209 83 14 212 81 16 207 72 8 210 70 10 210 70 10 210 69 12 211 70 13
211 70 13 211 70 13 210 71 13 209 70 12 206 68 10 205 66 9 203 64 6
201 65 6 202 66 7 202 66 9 202 66 9 203 67 11 203 67 9 203 68 6
202 68 6 211 80 15 209 81 13 208 83 11 206 84 9 206 86 10 207 85 12
210 83 14 212 82 14 216 84 14 209 87 12 238 138 51 231 144 51
232 148 51 230 148 51 230 148 53 230 148 53 230 148 53 230 148 53
230 148 53 230 148 53 236 151 54 236 151 54 236 151 54 236 151 54
236 151 56 236 151 56 234 152 56 232 152 56 230 158 57 226 154 53
215 133 36 219 128 33 222 123 33 225 121 33 227 120 33 225 121 33
219 124 35 217 125 35 219 124 35 221 121 34 223 118 33 223 116 32
226 115 32 226 115 32 226 115 32 225 115 32 225 115 32 224 114 30
222 113 29 221 112 28 220 111 27 220 111 27 220 111 27 220 111 27
219 110 26 219 110 26 222 110 29 223 109 29 223 109 29 223 109 29
211 92 14 213 91 14 213 91 14 215 90 14 215 90 16 216 89 16 215 90 16
215 90 16 213 90 18 213 90 18 213 90 18 211 88 16 209 87 16 208 85 15
208 86 13 208 86 13 209 87 14 211 86 14 211 86 14 211 86 16 195 69 2
196 68 4 196 67 6 198 67 6 201 65 8 203 64 8 203 64 8 203 64 8
203 64 8 204 65 9 206 67 12 207 68 13 207 68 13 206 67 12 206 67 12
206 67 12 206 67 12 206 67 12 206 67 12 203 70 8 218 95 21 214 97 19
214 97 19 214 97 19 214 97 19 214 97 19 214 97 19 214 98 17 216 99 18
216 99 16 216 99 16 216 99 16 217 101 17 217 101 17 217 101 17
217 101 17 217 100 19 217 100 19 215 101 19 214 102 19 225 115 32
223 116 32 222 117 32 220 118 32 218 121 31 216 122 31 216 121 33
218 121 33 220 116 30 229 117 34 206 84 7 211 85 9 209 84 10
209 84 12 209 84 12 209 84 12 209 83 14 209 83 14 209 83 14 210 83 14
209 71 8 210 70 8 210 70 8 210 70 10 211 71 11 211 70 13 211 70 13
211 70 13 209 70 12 206 68 10 205 66 9 201 65 6 201 65 6 202 66 7
202 66 9 202 66 9 203 67 11 203 67 9 202 68 6 200 70 4 209 81 13
208 82 13 206 83 11 206 84 9 206 86 10 207 85 12 210 83 14 213 81 14
217 83 14 211 86 12 240 138 51 231 144 51 230 148 51 230 148 51
230 148 53 230 148 53 230 148 53 230 148 53 230 148 53 230 148 53
236 152 52 236 152 52 236 152 52 236 151 54 234 150 53 233 151 53
231 152 53 230 152 53 230 156 56 228 153 53 215 133 36 218 129 33
220 123 33 222 123 33 222 123 33 220 123 33 219 124 35 219 124 35
222 122 35 222 120 34 224 117 33 226 115 32 226 115 32 226 115 32
225 115 32 223 116 32 222 117 32 220 116 30 219 115 29 218 114 28
217 112 27 217 112 27 217 112 27 217 112 27 216 111 26 216 111 26
217 112 29 219 111 29 219 111 29 220 110 29 211 92 14 215 90 14
215 90 14 215 90 14 215 90 16 215 90 16 215 90 16 215 90 16 215 90 18
213 88 17 213 88 17 211 86 14 210 85 15 209 83 14 209 84 12 209 84 12
210 85 15 211 84 15 211 84 15 211 84 15 197 69 3 199 68 5 198 67 4
198 67 6 201 65 8 203 64 8 203 64 8 203 64 8 203 64 8 204 65 9
206 67 12 207 68 13 207 68 13 206 67 12 206 67 12 206 67 12 206 67 12
206 67 12 206 67 12 203 70 8 219 94 23 216 96 21 216 96 21 216 96 21
216 96 21 216 96 21 216 96 21 216 97 19 217 98 18 217 98 18 217 98 18
217 98 18 218 99 19 218 99 19 218 99 19 218 99 19 218 99 19
217 100 19 217 100 19 215 101 19 226 115 32 225 115 32 223 116 32
222 117 32 221 119 31 220 120 31 218 121 33 220 120 33 222 115 32
230 116 36 206 84 7 211 85 9 209 84 10 207 85 10 207 85 10 207 85 12
207 84 14 207 84 14 207 84 14 210 83 14 209 71 6 212 70 6 210 70 6
210 70 8 211 71 9 211 71 11 210 72 11 210 72 11 209 70 10 205 69 8
203 68 6 200 66 4 200 66 4 201 67 7 201 67 7 201 67 7 202 68 9
202 68 9 202 68 6 200 70 4 209 81 13 208 82 13 206 83 11 204 85 9
207 85 10 209 84 12 210 83 14 213 81 14 217 83 14 211 86 12
241 139 53 234 144 52 232 148 51 232 148 51 232 147 53 232 147 53
232 147 53 232 147 53 232 147 53 232 147 53 234 150 51 234 150 51
234 150 51 233 149 50 233 149 52 232 150 52 230 150 52 228 151 52
228 153 53 228 151 52 215 133 36 216 129 33 217 125 33 217 125 33
215 126 33 214 127 33 214 126 35 214 126 35 217 125 35 218 123 34
220 120 33 222 117 32 222 117 32 222 117 32 222 117 32 220 118 32
218 119 32 217 118 30 216 116 29 215 115 28 214 114 27 214 114 27
214 114 27 214 114 27 213 113 26 213 113 26 214 114 29 214 114 29
214 114 29 219 111 29 210 91 13 215 88 13 215 88 13 215 88 15
213 89 15 213 89 15 213 89 15 213 89 15 215 90 18 212 87 16 211 86 14
209 84 12 209 81 13 208 80 12 208 81 10 208 80 12 211 81 13 211 81 13
211 81 13 211 80 15 201 67 5 201 67 5 200 66 4 200 66 6 201 65 8
203 64 8 203 64 8 203 64 8 203 64 8 204 65 9 206 67 12 207 68 13
207 68 13 206 67 12 206 67 12 206 67 12 206 67 12 206 67 12 206 67 12
203 69 10 219 94 25 218 95 23 218 95 23 218 95 23 218 95 23 218 95 23
218 95 23 218 95 21 219 97 20 219 97 20 219 97 20 219 97 18 220 99 19
220 99 19 220 99 19 220 99 19 220 99 19 220 99 19 218 99 19
217 100 19 228 114 32 226 115 32 225 115 32 223 116 32 224 118 31
223 119 31 221 119 33 223 118 33 222 115 32 230 116 36 206 84 7
210 86 9 209 84 10 207 85 10 207 85 10 207 85 10 207 85 12 207 84 14
207 84 14 209 83 14 204 74 6 205 73 6 205 73 6 205 73 6 207 74 7
207 74 7 207 74 7 205 74 9 204 73 8 201 71 6 200 70 4 198 67 2
198 67 2 199 68 5 199 68 5 199 68 5 202 68 9 202 68 6 200 70 4
200 70 4 209 81 13 208 82 13 206 83 11 204 85 9 207 85 10 209 84 12
210 83 14 213 81 14 216 82 13 209 84 10 241 139 53 236 144 52
235 146 51 234 147 51 234 146 53 234 146 53 234 146 53 234 146 53
234 146 53 234 146 53 233 149 50 233 149 50 233 149 50 232 148 49
232 148 51 229 147 50 228 148 50 226 149 50 226 151 51 228 151 52
234 154 56 240 156 59 241 157 62 241 157 62 238 158 62 235 160 62
233 161 62 233 161 62 233 161 62 237 159 62 227 145 49 229 144 49
232 142 49 233 141 49 233 141 51 235 140 51 233 141 51 232 140 50
231 139 49 230 137 48 230 137 48 230 137 48 230 138 46 230 138 46
230 138 46 230 137 48 230 137 48 230 137 48 230 137 48 236 134 50
207 90 12 212 88 14 212 88 14 212 88 14 214 86 16 214 86 16 214 86 16
214 86 16 214 86 16 213 85 14 209 82 11 207 79 9 207 77 9 208 78 11
208 78 11 210 77 11 211 78 14 211 78 14 210 77 13 210 75 11 203 68 6
202 66 5 202 66 5 202 66 7 202 63 7 202 63 7 202 63 7 202 63 7
202 63 7 203 64 8 205 66 11 206 67 12 206 67 12 205 66 11 205 66 11
205 66 11 205 66 11 205 66 11 205 66 11 203 67 9 209 81 15 208 82 13
208 82 13 208 82 13 208 82 13 208 82 13 208 82 13 208 83 11 209 84 10
209 84 10 209 84 10 209 85 8 210 86 9 210 86 9 210 86 9 210 86 9
210 86 9 210 86 9 210 86 9 208 87 9 216 99 18 214 100 18 214 100 18
212 101 18 211 99 17 211 99 17 210 100 17 208 101 17 211 101 20
214 99 20 217 98 20 220 96 20 219 95 21 219 95 21 218 95 21 218 95 21
218 95 23 218 95 23 218 95 23 216 96 23 228 111 37 227 111 37
227 111 37 227 111 37 230 112 38 230 112 38 230 112 38 231 111 38
231 111 40 230 109 39 211 91 20 212 89 19 209 87 16 211 86 16
211 85 18 213 84 18 215 84 22 217 84 22 214 84 18 213 83 17 210 83 14
208 82 13 205 82 10 203 83 8 206 83 11 208 83 11 209 81 13 212 80 13
215 80 12 206 82 6 227 125 39 218 126 34 216 124 30 216 124 30
216 124 32 216 124 32 216 124 32 216 124 32 216 124 32 216 124 32
232 148 49 232 148 49 232 148 49 231 147 48 231 146 50 230 145 49
228 146 49 227 147 49 225 148 49 227 150 51 234 154 56 239 157 59
238 158 62 237 159 62 232 161 62 230 162 62 229 163 62 229 163 62
230 162 62 232 161 62 222 147 49 225 145 49 227 145 49 229 144 49
230 143 51 230 143 51 230 143 51 229 141 50 228 140 49 227 139 48
227 139 48 227 139 48 227 139 46 228 139 46 228 139 46 227 139 46
227 139 48 227 139 48 227 139 48 233 135 50 205 90 12 211 86 12
211 86 12 211 86 12 213 85 14 213 85 14 213 85 14 214 86 16 213 85 14
211 84 13 206 78 7 206 76 8 207 74 7 208 75 8 208 75 8 209 74 8
210 75 11 212 74 11 211 73 10 210 72 9 204 66 5 205 65 5 205 65 5
204 65 7 202 63 7 202 63 7 202 63 7 202 63 7 202 63 7 203 64 8
205 66 11 206 67 12 206 67 12 205 66 11 205 66 11 205 66 11 205 66 11
205 66 11 205 66 11 203 67 9 209 81 15 208 82 13 208 82 13 208 82 13
208 82 13 208 82 13 208 82 13 208 82 13 209 84 12 209 84 10 209 84 10
209 84 10 210 85 11 210 86 9 210 86 9 211 85 9 211 85 9 211 85 9
211 85 9 210 86 9 217 98 18 216 99 18 216 99 18 216 99 18 216 97 17
214 98 17 213 99 17 211 99 17 212 100 20 214 99 20 217 98 20
219 97 20 219 95 21 219 95 21 218 95 21 218 95 21 218 95 23 218 95 23
218 95 23 214 97 21 224 113 35 222 114 35 222 114 35 224 113 35
225 115 36 225 115 36 226 114 36 226 114 36 228 113 36 227 111 37
210 92 18 209 91 17 206 89 14 208 88 14 209 87 14 211 86 16 215 84 22
217 84 22 214 84 18 213 83 17 210 83 14 208 82 13 205 82 10 205 83 8
208 83 11 209 82 11 211 81 13 212 80 13 214 79 11 204 80 3 227 125 39
218 126 34 218 123 30 219 123 30 219 122 32 219 122 32 219 122 32
219 122 32 219 122 32 219 122 32 231 147 48 231 147 48 231 147 48
230 146 47 230 145 49 229 144 47 227 145 47 225 146 47 224 147 47
227 150 51 234 154 56 237 157 59 237 159 62 233 161 62 229 163 62
227 164 62 229 163 62 230 162 62 232 161 62 235 160 62 225 145 49
229 144 49 230 143 49 230 143 49 230 143 51 229 143 51 229 143 51
227 142 50 226 141 49 226 141 49 226 141 49 226 141 49 225 140 46
227 139 46 227 139 46 225 140 46 225 140 48 225 140 48 225 140 48
231 136 50 203 91 12 209 87 12 211 86 12 211 86 12 211 86 14
211 86 14 213 85 14 214 86 16 213 83 15 213 83 15 206 76 8 207 74 7
205 72 8 207 74 9 208 73 9 210 72 9 210 72 9 211 71 9 211 71 9
210 70 8 207 66 6 207 64 5 206 63 4 204 63 6 202 63 7 202 63 7
202 63 7 202 63 7 202 63 7 203 64 8 205 66 11 206 67 12 206 67 12
205 66 11 205 66 11 205 66 11 205 66 11 205 66 11 205 66 11 203 67 9
211 80 17 209 81 15 209 81 15 209 81 15 209 81 15 209 81 15 209 81 15
209 81 13 210 83 12 210 83 12 210 83 12 210 83 12 211 85 11 211 85 11
211 85 11 213 84 11 213 84 9 213 84 9 211 85 9 210 86 9 219 97 18
217 98 18 216 99 18 217 98 18 218 96 17 218 96 17 214 98 17 213 99 17
214 99 20 216 99 20 217 98 20 219 97 20 218 95 21 218 95 21 218 95 21
218 95 21 218 95 23 218 95 23 216 96 21 214 97 19 225 113 32
224 114 32 224 114 32 224 114 32 225 115 34 225 115 34 226 114 34
226 114 34 225 113 32 226 111 33 207 92 15 206 91 14 205 90 12
206 89 12 206 89 12 209 87 16 215 84 22 217 83 24 214 84 18 214 84 16
210 83 14 208 82 13 205 82 10 205 83 8 208 83 11 209 82 11 211 81 13
212 80 13 213 78 10 204 80 3 226 124 37 220 125 34 219 123 30
221 122 30 221 121 32 221 121 32 221 121 32 221 121 32 221 121 32
221 121 32 231 147 48 231 147 48 231 147 48 230 146 47 230 145 49
227 145 47 225 146 47 225 146 47 224 147 47 227 150 51 234 154 56
235 158 59 235 160 62 233 161 62 230 162 62 229 163 62 229 163 62
232 161 62 233 161 62 237 159 62 227 145 49 229 144 49 230 143 49
230 143 49 229 143 51 229 143 51 227 144 51 226 143 50 225 142 49
225 142 49 225 142 49 225 142 49 225 140 46 225 140 46 225 140 46
225 140 46 225 140 48 225 140 48 225 140 48 231 137 48 203 91 10
209 87 12 211 86 12 211 86 12 211 86 14 211 86 14 213 85 14 214 86 16
213 83 15 213 83 15 207 74 7 207 74 7 205 72 8 208 73 9 210 72 9
210 72 9 211 71 9 211 71 11 213 70 11 212 69 10 207 64 5 207 64 5
206 63 4 206 63 6 203 62 5 202 63 7 202 63 7 202 63 7 202 63 7
203 64 8 205 66 11 206 67 12 206 67 12 205 66 11 205 66 11 205 66 11
205 66 11 205 66 11 205 66 11 203 67 9 211 80 17 209 81 15 209 81 15
209 81 15 209 81 15 209 81 15 209 81 15 209 81 13 210 83 12 210 83 12
210 83 12 210 83 12 211 85 11 211 85 11 213 84 11 213 84 11 213 84 11
213 84 11 211 85 11 210 85 11 219 97 20 219 97 20 217 98 20 217 98 20
219 95 17 219 95 17 216 97 17 214 98 17 216 99 20 216 99 20 217 98 20
219 97 20 218 95 21 218 95 21 218 95 21 218 95 21 218 95 23 218 95 21
218 96 19 214 97 19 225 113 30 225 113 30 225 113 30 224 114 30
225 115 32 225 115 32 225 115 32 225 115 32 224 114 32 224 112 31
207 92 13 207 90 12 206 89 10 206 89 10 206 89 12 209 87 14 214 86 20
215 84 22 214 84 18 214 84 16 212 82 14 209 82 11 206 81 10 206 81 10
208 83 11 208 83 11 209 81 13 211 81 11 211 79 8 204 80 3 227 123 37
221 125 34 221 122 30 222 121 32 222 121 32 222 121 32 222 121 32
222 121 32 222 121 32 222 121 32 228 146 49 228 146 49 228 146 49
228 146 49 227 145 47 227 145 47 225 146 47 225 146 47 225 146 47
229 149 51 232 155 56 235 158 59 237 159 60 235 160 60 233 161 60
232 162 60 232 162 60 233 161 60 235 160 60 238 159 60 227 145 49
229 144 49 230 143 49 230 143 49 229 144 49 227 145 49 227 145 49
227 145 49 226 143 48 225 142 47 226 141 47 226 141 47 226 141 47
226 141 47 228 141 47 228 141 47 228 141 47 228 141 47 229 139 49
234 137 49 206 91 12 211 89 12 212 88 14 212 88 14 212 87 16
212 87 18 214 86 18 214 86 18 213 83 15 213 83 15 205 73 6 205 73 6
207 74 9 208 73 9 210 72 9 210 72 9 211 71 11 211 70 13 212 68 12
212 68 12 207 64 7 206 63 6 206 63 6 206 63 6 203 62 5 202 63 5
202 63 5 202 63 5 202 63 5 203 64 6 205 66 9 206 68 10 206 68 10
205 66 9 205 66 9 205 66 9 205 66 9 205 66 9 205 66 9 203 67 9
211 80 15 209 81 13 209 81 13 209 81 13 209 81 13 209 81 13 209 81 13
209 81 13 209 82 11 209 82 11 209 82 11 209 82 11 210 83 12 210 83 12
210 83 12 210 83 12 212 82 12 212 82 12 210 83 12 209 84 12 218 95 23
218 95 23 216 96 23 216 96 21 218 96 19 218 96 19 216 97 19 216 97 19
217 98 20 217 98 20 219 97 20 219 97 20 218 95 21 218 95 21 219 95 21
219 95 21 219 95 21 219 95 21 218 96 19 214 97 19 225 113 30
224 114 30 224 115 28 222 115 28 223 116 32 223 116 32 223 116 32
223 116 32 222 115 30 222 113 29 207 93 11 209 90 10 211 89 12
211 89 12 209 90 12 211 88 14 214 86 16 215 85 18 215 85 18 214 84 16
211 81 11 212 80 11 214 79 11 212 80 11 209 82 11 208 83 11 209 82 11
211 81 11 210 78 7 207 80 5 231 119 36 226 124 35 223 122 33
222 123 33 222 122 35 222 122 35 222 122 35 222 122 35 222 122 35
222 122 35 227 147 49 227 147 49 227 147 49 227 147 49 225 146 47
225 146 47 225 146 47 225 146 47 225 146 47 229 149 51 232 155 56
235 158 59 237 159 60 237 159 60 237 159 60 235 160 60 233 161 60
233 161 60 235 160 60 237 159 60 225 145 49 227 145 49 229 144 49
229 144 49 229 144 49 227 145 49 227 145 49 227 145 49 226 143 48
226 141 47 226 141 47 226 141 47 226 141 47 228 141 47 228 141 47
229 140 47 229 140 47 229 140 47 231 139 49 236 136 49 207 90 12
212 88 12 214 87 14 214 87 14 214 86 16 214 86 18 215 85 18 215 85 18
215 82 15 215 82 15 206 71 5 207 72 6 208 73 9 208 73 9 210 72 9
211 71 9 211 70 13 211 70 15 212 68 14 212 68 14 206 62 8 206 62 8
206 62 8 206 62 8 203 62 7 203 62 7 203 62 7 203 62 7 203 62 7
204 63 8 207 65 11 208 67 10 206 68 10 205 66 9 205 66 9 205 66 9
205 66 9 205 66 9 205 66 9 203 68 6 211 80 15 209 81 13 209 81 13
209 81 13 209 81 13 209 81 13 209 81 13 209 81 13 209 82 11 209 82 11
209 82 11 209 82 11 210 83 12 210 83 12 210 83 12 210 83 12 212 82 14
212 82 14 210 83 14 209 83 14 218 95 25 218 95 25 216 95 25 216 96 23
216 96 21 216 97 19 216 97 19 216 97 19 219 97 20 219 97 20 219 97 20
219 97 20 218 95 21 218 95 21 219 95 21 219 95 21 219 95 21 219 95 21
218 96 19 216 97 19 225 113 30 224 114 30 224 114 30 224 115 28
225 115 32 225 115 32 225 115 32 223 116 32 222 115 30 222 113 29
209 92 11 211 89 12 212 88 12 212 88 12 211 89 12 211 89 12 212 88 14
214 87 14 214 86 16 214 84 16 212 80 11 214 79 11 216 78 13 214 79 13
209 82 11 208 83 11 209 82 11 211 81 11 210 78 7 207 80 5 233 118 36
227 123 35 222 123 33 220 123 33 220 123 35 220 123 35 220 123 35
220 123 35 220 123 35 220 123 35 221 148 47 221 148 47 221 148 47
221 148 47 222 147 47 222 147 47 222 147 47 224 147 47 224 147 47
227 150 51 234 154 56 237 157 59 238 159 60 238 159 60 237 159 60
235 160 60 232 162 60 232 162 60 232 162 60 233 161 60 222 147 49
225 145 49 227 145 49 229 144 49 229 144 49 229 144 49 229 144 49
229 144 49 227 143 48 229 142 48 229 142 48 229 142 48 228 141 47
229 140 47 229 140 47 229 140 47 231 139 47 231 139 47 231 139 49
237 135 49 209 90 12 215 86 12 215 86 14 215 86 14 215 86 16
217 85 16 217 85 16 219 84 16 215 80 14 219 82 16 207 70 5 209 71 6
210 72 7 211 71 7 211 71 7 211 71 9 210 69 12 210 68 16 210 68 16
210 68 16 204 63 10 203 61 9 203 61 9 205 61 9 205 61 9 205 61 9
205 61 9 205 61 9 205 61 9 206 62 10 208 64 13 209 66 12 208 67 10
205 66 9 205 66 9 205 66 9 205 66 9 205 66 9 205 66 9 203 68 6
211 80 15 209 81 13 209 81 13 209 81 13 209 81 13 209 81 13 209 81 13
209 81 13 209 82 11 209 82 11 209 82 11 209 82 11 210 83 12 210 83 12
210 83 12 210 83 12 212 82 14 212 82 14 210 83 14 209 83 14 218 95 25
218 95 25 216 95 25 216 96 23 216 96 21 216 97 19 216 97 19 216 97 19
217 98 20 217 98 20 217 98 20 217 98 20 218 95 21 218 95 21 218 95 21
218 95 21 218 95 21 218 95 21 218 96 19 216 97 19 227 112 32
225 113 32 225 113 30 225 113 30 226 115 32 226 115 32 226 115 32
225 115 32 222 113 31 223 111 30 211 89 12 213 86 10 215 86 14
215 86 14 212 88 14 212 88 14 212 88 14 212 88 14 212 87 16 214 86 16
211 81 11 214 79 11 216 78 13 214 79 13 209 82 11 208 83 11 209 82 11
211 81 11 210 78 7 208 81 6 231 117 35 227 123 35 220 123 33
219 124 33 219 124 35 219 124 35 219 124 35 219 124 35 219 124 35
219 124 35 221 148 47 221 148 47 221 148 47 221 148 47 222 147 47
222 147 47 222 147 47 222 147 47 222 147 47 227 150 51 232 155 56
235 158 59 238 159 60 237 159 60 237 159 60 235 160 60 232 162 60
230 163 60 232 162 60 233 161 60 222 147 49 225 145 49 227 145 49
229 144 49 230 143 49 230 143 49 230 143 49 230 143 49 231 141 48
231 141 48 231 141 48 231 141 48 228 139 46 229 140 47 229 140 47
229 140 47 231 139 47 231 139 47 231 139 49 237 135 49 209 90 12
215 86 12 215 86 14 215 86 14 215 86 16 217 85 16 217 85 16 219 84 16
215 80 12 219 82 16 206 69 4 209 71 6 210 72 7 211 71 7 211 71 7
211 71 9 210 69 12 209 69 16 209 69 16 209 69 16 202 62 9 202 62 9
202 62 9 203 61 9 205 61 9 206 60 9 206 60 9 206 60 9 206 60 9
208 61 10 210 63 13 209 66 12 208 67 10 205 66 9 205 66 9 205 66 9
205 66 9 205 66 9 205 66 9 203 68 6 211 80 15 209 81 13 209 81 13
209 81 13 209 81 13 209 81 13 209 81 13 209 81 13 209 82 11 209 82 11
209 82 11 209 82 11 210 83 12 210 83 12 210 83 12 210 83 12 212 82 14
212 82 14 210 83 14 209 83 14 218 95 25 218 95 25 216 95 25 216 96 23
216 96 21 216 97 19 216 97 19 216 97 19 217 98 20 217 98 20 217 98 20
217 98 20 216 96 21 218 95 21 218 95 21 218 95 21 218 95 21 218 95 21
218 96 19 216 97 19 227 112 32 225 113 32 225 113 30 225 113 30
226 115 32 226 115 32 226 115 32 225 115 32 222 113 31 223 111 30
211 89 12 213 86 10 215 86 14 215 86 14 212 88 14 211 88 14 211 88 14
211 88 14 211 88 16 212 87 16 211 81 11 212 80 11 214 79 13 212 80 13
209 82 11 208 83 11 209 82 11 211 81 11 210 78 7 209 83 7 231 117 35
227 123 35 220 123 33 219 124 35 219 124 35 219 124 35 219 124 35
219 124 35 219 124 35 219 124 35 223 145 48 223 145 48 223 145 48
223 145 48 223 145 48 223 145 48 221 146 48 221 146 48 225 149 52
226 154 55 231 158 60 233 161 62 233 161 60 232 160 59 232 160 59
232 160 59 231 160 61 231 160 61 232 159 61 234 159 61 223 143 47
226 141 47 228 141 45 229 140 45 231 139 47 231 139 47 231 139 47
231 139 47 239 147 55 236 144 52 231 139 47 228 135 44 230 138 44
230 138 44 230 138 44 230 138 44 230 138 46 230 138 46 230 138 46
235 135 48 207 90 12 212 88 12 214 87 14 214 87 14 214 86 16
214 86 16 215 86 16 215 86 16 216 84 14 218 86 17 207 72 4 209 75 6
208 74 5 208 74 5 210 73 5 210 72 7 209 73 12 209 73 16 209 73 16
209 73 16 200 63 7 200 63 7 200 63 7 200 63 7 203 62 7 205 61 7
205 61 7 205 61 7 201 57 4 204 60 6 207 63 9 208 67 10 206 68 10
205 66 9 205 66 9 205 66 9 205 66 9 205 66 9 205 66 9 203 68 6
210 79 14 208 80 12 208 80 12 208 80 12 208 80 12 208 80 12 208 80 12
208 80 12 208 81 10 208 81 10 208 81 10 208 81 10 209 82 11 209 82 11
209 82 11 209 82 11 211 81 13 211 81 13 209 81 13 208 82 13 216 93 23
216 93 23 215 94 23 215 95 21 215 95 19 215 95 17 215 95 17 215 95 17
216 97 19 218 99 21 216 97 19 217 98 20 217 97 22 217 97 22 217 97 22
217 97 22 217 97 22 217 97 22 217 98 20 216 99 20 226 114 34
225 115 34 225 115 32 225 115 32 226 117 33 226 117 33 226 117 33
224 117 33 222 115 32 222 113 31 209 92 13 211 89 12 215 88 15
215 88 15 212 90 15 210 90 15 209 91 15 209 91 15 210 90 17 212 89 17
208 81 10 210 80 10 210 79 12 210 79 12 208 80 12 208 80 12 208 81 10
210 80 10 212 81 9 211 85 9 230 116 34 227 123 37 223 123 36
221 124 36 221 124 38 221 124 38 221 124 38 221 124 38 221 124 38
221 124 38 227 139 46 227 139 46 227 139 46 227 139 46 227 139 46
225 140 46 225 140 46 225 142 47 230 148 53 234 154 58 238 158 62
241 160 65 241 161 63 239 160 61 239 160 61 238 161 61 238 160 63
238 160 63 239 159 63 241 159 63 229 142 48 231 141 48 232 141 46
234 140 46 235 139 48 235 139 48 235 139 48 235 140 49 237 143 52
237 143 52 235 140 49 233 138 47 230 136 43 228 136 42 228 136 42
228 136 42 228 135 44 228 135 44 228 135 44 232 133 46 201 92 10
206 89 10 206 89 12 208 88 12 208 88 12 208 88 14 209 87 14 209 87 12
210 85 11 212 88 14 201 74 1 203 76 3 202 75 2 202 75 2 204 74 2
204 74 4 205 74 9 205 74 11 205 74 11 205 74 11 196 65 2 196 65 2
196 65 2 197 64 2 199 63 2 200 62 2 200 62 2 200 62 2 203 65 4
204 66 5 205 67 6 206 68 8 206 68 10 205 66 9 205 66 9 205 66 9
205 66 9 205 66 9 205 66 9 203 68 6 210 79 14 208 80 12 208 80 12
208 80 12 208 80 12 208 80 12 208 80 12 208 80 12 208 81 10 208 81 10
208 81 10 208 81 10 209 82 11 209 82 11 209 82 11 209 82 11 211 81 13
211 81 13 209 81 13 208 82 13 219 96 26 219 96 26 217 97 26 217 97 24
217 97 22 217 98 20 217 98 20 217 98 20 218 99 21 216 97 19 217 98 20
216 97 19 214 97 21 214 97 21 214 97 21 214 97 21 214 97 21 214 97 21
214 97 19 211 99 19 222 115 32 220 115 32 220 116 30 220 116 30
222 117 32 222 117 32 222 117 32 220 118 32 220 117 34 220 115 32
207 94 14 209 92 13 213 91 16 213 91 16 210 92 16 208 93 16 208 93 16
208 93 16 210 92 18 211 91 18 208 83 11 209 82 11 211 81 13 211 81 13
209 81 13 209 81 13 209 82 11 209 82 11 212 83 10 210 86 9 225 113 30
223 116 32 226 122 36 226 122 36 226 121 38 226 121 38 226 121 38
226 121 38 226 121 38 226 121 38 209 110 20 209 110 20 209 110 20
209 110 20 209 110 20 209 110 20 209 110 20 207 107 18 203 104 14
203 106 16 207 111 20 210 113 23 211 112 21 210 111 19 209 112 19
207 113 19 204 114 21 204 114 21 204 114 21 207 113 21 218 121 31
220 120 31 221 120 29 221 120 29 221 119 31 220 120 31 220 121 29
217 120 28 217 120 28 219 123 30 221 125 32 224 127 35 224 130 37
226 132 38 226 132 38 226 132 38 227 132 41 227 132 41 227 132 41
228 131 43 215 113 29 217 112 29 219 111 29 219 111 29 220 110 29
220 110 31 222 109 31 222 110 29 222 108 28 224 110 30 213 96 17
216 99 20 214 97 19 214 97 19 216 97 19 218 96 19 219 97 22 219 96 24
220 95 24 220 95 24 211 86 14 211 86 14 211 86 14 213 85 14 214 84 16
214 84 16 214 84 16 214 84 16 208 78 11 207 77 9 206 76 8 207 74 9
208 72 11 209 70 12 209 70 12 209 70 12 209 70 12 209 70 12 209 70 12
207 71 10 210 79 14 208 80 12 208 80 12 208 80 12 208 80 12 208 80 12
208 80 12 208 80 12 208 81 10 208 81 10 208 81 10 208 81 10 209 82 11
209 82 11 209 82 11 209 82 11 211 81 13 211 81 13 209 81 13 208 82 13
211 88 18 211 88 18 209 88 18 209 89 16 209 89 14 209 90 12 209 90 12
209 90 12 204 87 8 205 88 9 225 108 29 226 109 30 226 109 30
224 110 30 224 110 30 224 110 30 224 110 30 224 110 30 224 110 30
221 112 28 229 129 42 227 130 42 227 130 42 227 130 42 228 131 43
228 131 43 228 131 43 227 132 43 230 135 47 231 133 46 217 112 27
219 109 28 223 109 29 223 109 29 220 110 31 220 110 31 222 109 31
223 108 31 223 108 31 225 108 31 207 85 12 210 83 12 210 83 14
210 83 14 210 83 14 210 83 14 210 83 12 210 83 12 213 84 11 209 85 8
221 109 26 216 109 25 214 105 21 216 104 21 216 104 23 216 104 23
216 104 23 216 104 23 216 104 23 216 104 23 212 105 18 212 105 18
212 105 18 212 105 18 212 105 18 213 104 18 213 104 18 212 103 17
211 102 16 213 104 18 218 109 23 220 111 25 220 111 25 219 110 24
217 111 24 216 112 24 213 113 24 213 113 24 213 113 24 214 112 24
224 120 32 225 119 32 225 119 30 225 119 30 224 120 32 222 121 32
221 122 30 218 119 28 216 119 26 219 123 30 224 127 35 226 130 37
226 132 38 224 130 37 224 130 37 224 130 37 224 130 39 224 130 39
224 130 39 226 129 41 211 114 26 213 112 28 214 112 28 216 111 28
216 111 28 216 111 28 217 110 28 217 110 28 218 108 27 222 110 29
209 97 16 213 98 19 212 97 15 213 97 15 215 96 15 215 96 15 216 97 19
216 97 19 216 97 19 218 96 19 208 87 9 208 86 11 210 85 11 210 85 11
211 84 13 211 84 13 211 84 13 211 84 13 210 83 12 208 81 10 206 78 7
205 75 7 208 72 11 209 70 12 209 70 12 209 70 12 209 70 12 209 70 12
209 70 12 207 71 10 210 79 14 210 79 12 210 79 12 210 79 12 210 79 12
210 79 12 210 79 12 210 79 12 210 79 12 210 79 12 210 79 12 210 79 12
211 81 13 211 81 13 211 81 13 211 81 13 211 81 13 211 81 13 209 81 13
208 82 13 215 89 20 213 90 20 213 90 20 211 91 18 211 92 16 211 92 16
213 91 16 211 92 14 208 88 10 204 87 8 227 110 31 222 108 28
222 108 28 222 108 28 222 108 28 221 108 28 221 108 28 221 108 28
221 109 26 217 110 26 225 128 40 222 129 40 222 129 40 222 129 40
223 130 41 223 130 41 223 130 41 223 130 41 227 137 47 229 134 46
215 113 27 217 110 26 220 110 29 220 110 29 219 111 29 219 111 29
220 110 29 220 110 29 222 110 29 223 108 31 208 86 11 210 85 13
211 84 15 211 84 15 211 84 15 211 84 15 211 84 13 211 85 11 213 84 11
208 83 7 217 105 24 213 104 20 219 104 22 219 104 22 219 104 24
219 104 24 219 104 24 219 104 24 219 104 24 219 104 24 212 103 19
212 103 19 212 103 19 212 103 19 213 104 20 215 103 20 215 103 20
214 102 19 212 101 18 215 103 20 219 108 25 222 110 27 222 110 27
221 109 26 219 110 26 219 110 24 217 111 24 217 111 24 219 112 25
219 112 25 220 113 26 221 114 27 223 117 30 223 117 30 222 118 28
220 119 28 220 121 29 220 121 29 221 121 32 218 119 30 231 134 44
227 130 40 227 130 40 227 130 40 226 131 40 226 131 40 224 130 39
224 130 39 226 129 41 226 129 41 214 114 27 215 113 27 217 112 29
219 111 29 219 111 29 219 111 29 219 111 29 219 111 29 219 110 26
223 111 28 212 97 15 216 99 18 216 97 17 218 96 17 219 95 17
218 96 17 216 99 20 216 98 22 217 97 22 219 97 22 207 85 10 209 84 12
210 83 12 210 83 12 212 82 12 212 82 14 212 82 14 212 82 14 212 82 14
213 83 15 203 72 5 203 72 7 207 71 10 207 71 12 207 71 12 207 71 12
207 71 12 207 71 12 207 71 12 207 71 10 210 77 13 210 77 11 210 77 11
210 77 11 210 77 11 210 77 11 210 77 11 210 77 11 210 77 11 210 77 13
210 77 13 210 77 13 211 78 14 211 78 14 211 78 14 211 79 12 211 79 12
210 79 12 210 79 12 208 80 12 213 88 19 213 88 19 212 89 19 212 89 19
210 90 17 212 89 17 213 88 17 213 89 15 209 88 10 209 90 12
223 109 27 223 111 28 222 110 27 222 110 27 222 110 27 220 111 27
220 111 27 220 111 27 220 111 27 217 112 27 227 132 43 224 134 43
224 134 41 224 134 41 225 135 42 225 135 42 225 135 42 225 135 42
224 132 42 227 132 43 216 114 28 221 114 29 222 113 29 222 113 29
221 114 27 221 114 27 219 115 27 219 115 27 219 115 29 222 113 31
209 87 12 213 85 14 213 85 14 213 85 14 211 86 14 211 86 14 213 85 14
213 86 12 213 86 12 207 85 10 220 105 26 216 104 23 219 104 24
220 103 24 220 103 24 220 103 24 220 103 24 220 103 24 220 103 24
220 103 24 214 102 19 214 102 19 214 102 19 214 102 19 215 103 20
215 103 20 215 103 20 214 102 19 212 101 18 215 103 20 219 108 25
222 110 27 222 110 27 221 109 26 221 109 26 221 109 26 219 110 24
219 110 24 220 111 25 220 111 25 221 112 26 222 113 27 223 117 30
223 117 30 222 118 28 222 118 28 221 120 29 220 121 29 221 121 32
218 119 30 231 134 44 227 130 40 227 130 40 227 130 40 226 131 40
226 131 40 226 131 40 226 131 40 227 130 42 229 129 42 215 113 27
217 112 27 219 111 29 219 111 29 219 111 29 219 111 29 219 111 29
220 110 29 221 109 26 224 110 28 213 97 15 217 98 18 218 96 17
219 95 17 221 95 17 219 95 19 216 98 22 216 98 22 217 97 22 219 97 22
209 84 12 210 83 12 212 82 12 212 82 12 212 82 14 212 82 14 212 82 14
212 82 14 212 82 14 213 83 15 203 72 5 204 71 7 207 71 10 207 71 12
207 71 12 207 71 12 207 71 12 207 71 12 207 71 12 207 71 10 210 77 13
210 77 11 210 77 11 210 77 11 210 77 11 210 77 11 210 77 11 210 77 11
210 77 13 210 77 13 210 77 13 210 77 13 211 78 14 211 78 14 211 78 14
211 78 14 211 79 12 211 79 12 210 79 12 210 79 12 215 87 19 213 88 19
212 89 19 212 89 19 210 90 19 212 89 19 213 88 17 215 88 17 211 86 12
209 90 12 222 110 27 221 112 28 220 111 27 220 111 27 220 111 27
220 111 27 220 111 27 220 111 27 220 111 27 217 112 27 227 132 43
224 134 43 224 134 41 224 134 41 225 135 42 225 135 42 225 135 42
225 135 42 224 132 42 228 131 43 218 114 28 222 113 29 224 112 29
224 113 27 222 114 25 221 115 25 219 116 25 218 116 27 218 116 29
222 113 31 209 87 12 213 86 12 213 85 14 213 85 14 211 86 14
211 86 14 213 86 12 213 86 12 213 86 12 207 85 10 220 105 26
216 104 23 219 104 24 220 103 24 220 103 24 220 103 24 220 103 24
220 103 24 220 103 24 220 103 24 214 102 19 214 102 19 214 102 19
214 102 19 215 103 20 215 103 20 215 103 20 214 102 19 212 101 18
215 103 20 219 108 25 222 110 27 222 110 27 221 109 26 221 109 26
221 109 26 219 110 24 219 110 24 220 111 25 220 111 25 221 112 26
222 113 27 223 117 30 223 117 30 222 118 28 222 118 28 221 120 27
220 121 29 221 122 30 218 119 28 231 134 42 227 131 38 227 130 40
227 130 40 226 131 40 226 131 40 226 131 40 226 131 40 227 130 42
229 129 42 215 113 27 217 112 27 219 112 27 219 112 27 219 112 27
219 112 27 219 112 27 220 111 27 221 109 26 224 110 28 213 97 15
217 98 18 218 96 19 219 95 19 221 94 19 219 95 19 216 98 22 216 98 22
217 97 22 219 97 22 209 84 12 210 83 12 212 82 12 212 82 12 212 82 14
212 82 14 212 82 14 212 82 14 212 82 14 213 83 15 203 72 5 204 71 7
207 71 10 207 71 12 207 71 12 207 71 12 207 71 12 207 71 12 207 71 12
207 71 10 210 77 13 210 77 11 210 77 11 210 77 11 210 77 11 210 77 11
210 77 11 210 77 11 210 77 13 210 77 13 210 77 13 210 77 13 211 78 14
211 78 14 211 78 14 211 78 14 211 79 12 211 79 12 210 79 12 210 79 12
215 87 19 213 88 19 212 89 19 212 89 19 210 90 19 212 89 19 213 88 17
215 88 17 211 86 12 209 90 12 222 110 27 221 112 28 220 111 25
220 111 25 220 111 25 220 111 25 220 111 25 220 111 25 220 111 25
217 113 25 227 132 41 224 134 41 224 134 41 224 134 41 225 135 42
225 135 42 225 135 42 225 135 42 224 132 40 228 132 41 218 114 26
222 113 27 224 113 27 224 113 27 222 114 25 221 115 25 219 116 25
218 116 27 218 116 29 222 113 31 209 87 12 214 85 12 213 85 14
213 85 14 211 86 14 211 86 14 213 86 12 213 86 12 211 86 12 207 85 10
220 105 26 216 104 23 219 104 24 220 103 24 220 103 24 220 103 24
220 103 24 220 103 24 220 103 24 220 103 24 214 102 19 214 102 19
214 102 19 214 102 19 215 103 20 215 103 20 215 103 20 214 102 19
212 101 18 215 103 20 219 108 25 222 110 27 222 110 27 221 109 26
221 109 26 221 109 26 219 110 26 219 110 24 220 111 25 220 111 25
221 112 26 222 113 27 223 117 30 223 117 30 222 118 28 222 118 28
221 120 27 220 121 27 221 122 30 218 119 28 231 134 42 227 131 38
227 130 40 227 130 40 226 131 40 226 131 40 226 131 40 226 131 40
227 130 42 229 129 42 215 113 27 217 112 27 219 112 27 219 112 27
219 112 27 219 112 27 219 112 27 220 111 27 221 109 26 224 110 28
213 97 15 217 98 18 218 96 19 219 95 19 221 94 19 219 95 19 216 98 22
216 98 22 217 97 22 219 97 22 209 84 12 210 83 12 212 82 12 212 82 12
212 82 14 212 82 14 212 82 14 212 82 14 212 82 14 213 83 15 203 72 5
204 71 7 207 71 10 207 71 12 207 71 12 207 71 12 207 71 12 207 71 12
207 71 12 207 71 10 210 77 13 210 77 11 210 77 11 210 77 11 210 77 11
210 77 11 210 77 11 210 77 11 210 77 13 210 77 13 210 77 13 210 77 13
211 78 14 211 78 14 211 78 14 211 78 14 211 79 12 211 79 12 210 79 12
210 79 12 215 87 19 213 88 19 212 89 19 212 89 19 210 90 19 212 89 19
213 88 17 215 88 17 211 86 12 209 90 12 222 110 27 221 112 28
220 111 25 220 111 25 220 111 25 220 111 25 220 111 25 220 111 25
220 111 25 217 113 25 227 132 41 224 134 41 224 134 41 224 134 41
225 135 42 225 135 42 225 135 42 225 135 42 224 132 40 228 132 41
218 114 26 222 113 27 224 113 27 224 113 27 222 114 25 221 115 25
219 116 25 218 116 27 218 116 29 222 113 31 209 87 12 214 85 12
213 85 14 213 85 14 211 86 14 211 86 14 213 86 12 213 86 12 211 86 12
207 85 10 220 105 26 216 104 23 219 104 24 220 103 24 220 103 24
220 103 24 220 103 24 220 103 24 220 103 24 220 103 24 214 101 21
214 101 21 214 101 21 214 101 21 215 103 22 215 103 22 215 103 22
214 101 21 212 100 20 215 103 22 219 107 27 222 110 29 222 110 29
221 108 28 221 108 28 221 108 28 219 110 26 219 110 26 220 111 27
220 111 27 221 112 28 222 113 29 222 115 28 222 115 28 222 118 28
222 118 28 220 119 26 218 120 26 220 121 29 217 118 26 230 133 40
226 130 37 227 130 40 227 130 40 226 131 40 226 131 40 226 131 42
226 131 42 227 130 42 229 129 42 215 113 27 217 112 27 219 112 27
219 112 27 219 112 27 219 112 27 219 112 27 220 111 27 221 109 26
224 110 28 213 97 15 217 98 18 219 97 20 220 96 20 222 95 20
220 96 20 216 98 22 216 98 22 217 97 22 219 97 22 209 84 12 210 83 12
212 82 12 212 82 12 212 82 14 212 82 14 212 82 14 212 82 14 212 82 14
213 83 15 203 72 5 204 71 7 207 71 10 207 71 12 207 71 12 207 71 12
207 71 12 207 71 12 207 71 12 207 71 10 210 77 13 210 77 11 210 77 11
210 77 11 210 77 11 210 77 11 210 77 11 210 77 11 210 77 13 210 77 13
210 77 13 210 77 13 211 78 14 211 78 14 211 78 14 211 78 14 211 79 12
211 79 12 210 79 12 210 79 12 214 86 18 212 87 18 211 88 18 211 88 18
209 88 18 211 88 18 212 87 16 214 86 16 210 85 11 208 88 10
221 109 26 220 111 27 220 111 25 220 111 25 220 111 25 220 111 25
220 111 25 220 111 25 220 111 25 217 113 25 227 132 41 224 134 41
224 134 41 224 134 41 225 135 42 225 135 42 225 135 42 225 135 42
224 132 40 228 132 41 218 114 26 222 113 27 224 113 27 224 113 27
222 114 25 221 115 25 219 116 25 218 116 27 218 116 29 222 113 31
209 87 12 214 85 12 213 85 14 213 85 14 211 86 14 211 86 14 213 86 12
213 86 12 211 86 12 207 85 10 220 105 28 216 103 25 219 104 26
220 103 26 220 103 26 220 103 26 220 103 26 220 103 26 220 103 26
220 103 26 214 101 21 214 101 21 214 101 21 214 101 21 215 103 22
215 103 22 215 103 22 214 101 21 212 100 20 215 103 22 219 107 27
222 110 29 222 110 29 221 108 28 221 108 28 221 108 28 219 110 26
219 110 26 220 111 27 220 111 27 221 112 28 222 113 29 222 115 28
222 115 28 222 118 28 222 118 28 220 119 26 218 120 26 220 121 29
217 118 26 230 133 40 226 130 37 227 130 40 227 130 40 226 131 40
226 131 40 226 131 42 226 131 42 227 130 42 229 129 42 215 113 27
217 112 27 219 112 27 219 112 27 219 112 27 219 112 27 219 112 27
220 111 27 221 109 26 224 110 28 213 97 15 217 98 18 219 97 20
220 96 20 222 95 20 220 96 20 216 98 22 216 98 22 217 97 22 219 97 22
209 84 12 210 83 12 212 82 12 212 82 12 212 82 14 212 82 14 212 82 14
212 82 14 212 82 14 213 83 15 203 72 5 204 71 7 207 71 10 207 71 12
207 71 12 207 71 12 207 71 12 207 71 12 207 71 12 207 71 10 210 77 13
210 77 11 210 77 11 210 77 11 210 77 11 210 77 11 210 77 11 210 77 11
210 77 13 210 77 13 210 77 13 210 77 13 211 78 14 211 78 14 211 78 14
211 78 14 211 79 12 211 79 12 210 79 12 210 79 12 214 86 18 212 87 18
211 88 18 211 88 18 209 88 18 211 88 18 212 87 16 214 86 16 210 85 11
208 88 10 221 109 26 220 111 27 220 111 25 220 111 25 220 111 25
220 111 25 220 111 25 220 111 25 220 111 25 217 113 25 227 132 41
224 134 41 224 134 41 224 134 41 225 135 42 225 135 42 225 135 42
225 135 42 224 132 40 228 132 41 218 114 26 222 113 27 224 113 27
224 113 27 222 114 25 221 115 25 219 116 25 218 116 27 218 116 29
222 113 31 209 87 12 214 85 12 213 85 14 213 85 14 211 86 14
213 85 14 214 85 12 214 85 12 213 86 12 207 85 10 220 105 28
216 103 25 219 104 26 220 103 26 220 103 26 220 103 26 220 103 26
220 103 26 220 103 26 220 103 26 214 101 21 214 101 21 214 101 21
214 101 21 215 103 22 215 103 22 215 103 22 214 101 21 212 100 20
215 103 22 219 107 27 222 110 29 222 110 29 221 108 28 221 108 28
221 108 28 219 110 26 219 110 26 220 111 27 220 111 27 221 112 28
222 113 29 222 115 28 222 115 28 222 118 28 222 118 28 220 119 26
218 120 26 220 121 29 217 118 26 230 133 40 226 130 37 227 130 40
227 130 40 226 131 40 226 131 40 226 131 42 226 131 42 227 130 42
229 129 42 215 113 27 217 112 27 219 112 27 219 112 27 219 112 27
219 112 27 219 112 27 220 111 27 221 109 26 224 110 28 213 97 15
217 98 18 219 97 20 220 96 20 222 95 20 220 96 20 216 98 22 216 98 22
217 97 22 219 97 22 209 84 12 210 83 12 212 82 12 212 82 12 212 82 14
212 82 14 212 82 14 212 82 14 212 82 14 213 83 15 203 72 5 204 71 7
207 71 10 207 71 12 207 71 12 207 71 12 207 71 12 207 71 12 207 71 12
207 71 10 210 77 13 210 77 11 210 77 11 210 77 11 210 77 11 210 77 11
210 77 11 210 77 11 210 77 13 210 77 13 210 77 13 210 77 13 211 78 14
211 78 14 211 78 14 211 78 14 211 79 12 211 79 12 210 79 12 210 79 12
214 86 18 212 87 18 211 88 18 211 88 18 209 88 18 211 88 18 212 87 16
214 86 16 210 85 11 208 88 10 221 109 26 220 111 27 220 111 25
220 111 25 220 111 25 220 111 25 220 111 25 220 111 25 220 111 25
217 113 25 227 132 41 224 134 41 224 134 41 224 134 41 225 135 42
225 135 42 225 135 42 225 135 42 224 132 40 228 132 41 218 114 26
222 113 27 224 113 27 224 113 27 222 114 25 221 115 25 219 116 25
218 116 27 218 116 29 222 113 31 209 87 12 214 85 12 213 85 14
213 85 14 211 86 14 213 85 14 214 85 12 214 85 12 213 86 12 207 85 10
220 105 28 216 103 25 219 104 26 220 103 26 220 103 26 220 103 26
220 103 26 220 103 26 220 103 26 220 103 26 214 101 21 214 101 21
214 101 21 214 101 21 215 103 22 215 103 22 215 103 22 214 101 21
212 100 20 215 103 22 219 107 27 222 110 29 222 110 29 221 108 28
221 108 28 221 108 28 219 110 26 219 110 26 220 111 27 220 111 27
221 112 28 222 113 29 222 115 28 222 115 28 222 118 28 222 118 28
220 119 26 218 120 26 220 121 29 217 118 26 230 133 40 226 130 37
227 130 40 227 130 40 226 131 40 226 131 40 226 131 42 226 131 42
227 130 42 229 129 42 215 113 27 217 112 27 219 112 27 219 112 27
219 112 27 219 112 27 219 112 27 220 111 27 221 109 26 224 110 28
213 97 15 217 98 18 219 97 20 220 96 20 222 95 20 220 96 20 216 98 22
216 98 22 217 97 22 219 97 22 209 84 12 210 83 12 212 82 12 212 82 12
212 82 14 212 82 14 212 82 14 212 82 14 212 82 14 213 83 15 203 72 5
204 71 7 207 71 10 207 71 12 207 71 12 207 71 12 207 71 12 207 71 12
207 71 12 207 71 10 210 77 13 210 77 11 210 77 11 210 77 11 210 77 11
210 77 11 210 77 11 210 77 11 210 77 13 210 77 13 210 77 13 210 77 13
211 78 14 211 78 14 211 78 14 211 78 14 211 79 12 211 79 12 210 79 12
210 79 12 214 86 18 212 87 18 211 88 18 211 88 18 209 88 18 211 88 18
212 87 16 214 86 16 210 85 11 208 88 10 221 109 26 220 111 27
220 111 25 220 111 25 220 111 25 220 111 25 220 111 25 220 111 25
220 111 25 217 113 25 227 132 41 224 134 41 224 134 41 224 134 41
225 135 42 225 135 42 225 135 42 225 135 42 224 132 40 228 132 41
218 114 26 222 113 27 224 113 27 224 113 27 222 114 25 221 115 25
219 116 25 218 116 27 218 116 29 222 113 31 209 87 12 214 85 12
213 85 14 213 85 14 211 86 14 213 85 14 214 85 12 214 85 12 213 86 12
207 85 10 220 105 28 216 103 25 219 104 26 220 103 26 220 103 26
220 103 26 220 103 26 220 103 26 220 103 26 220 103 26
