P3
160 160
255
209 76 9 209 76 9 209 76 9 209 76 9 209 76 11 209 76 11 209 76 11
210 77 13 210 77 15 208 74 12 203 70 8 200 66 4 201 65 6 201 65 6
201 65 6 201 65 6 203 64 6 203 64 6 203 64 6 203 64 6 204 63 6
204 63 6 204 63 6 204 63 6 204 63 6 204 63 6 204 63 6 203 62 5
202 63 5 204 65 7 209 70 12 211 72 14 209 70 10 209 70 10 209 70 10
209 70 10 207 71 10 207 71 10 207 71 10 207 71 10 207 71 10 207 71 10
207 71 10 207 71 10 207 71 12 207 71 12 207 71 12 207 71 12 209 70 12
207 69 11 205 66 9 203 64 6 203 64 8 203 64 8 203 64 8 203 64 8
203 64 8 203 64 8 201 65 6 201 65 6 210 77 15 208 78 13 207 79 11
207 79 11 207 79 11 207 79 11 207 79 11 206 78 9 207 79 11 209 81 13
213 85 14 216 89 18 218 91 18 218 91 18 218 92 16 218 92 16 218 92 16
218 92 16 218 92 16 215 94 16 221 108 28 217 110 28 219 111 29
219 111 29 219 111 29 219 111 29 220 113 28 221 112 28 222 110 25
217 111 24 230 133 40 224 134 39 224 139 45 224 139 45 227 137 45
229 137 45 230 135 47 229 136 47 227 137 47 230 135 47 214 107 24
217 105 24 215 106 24 217 105 24 222 102 24 223 102 24 223 102 24
223 102 24 224 99 25 225 100 26 206 82 8 208 83 9 208 83 11 208 83 11
208 83 11 209 82 11 211 81 13 211 81 13 211 81 13 211 81 13 206 76 8
206 76 8 206 76 8 206 76 8 208 75 8 208 75 8 208 75 10 209 74 10
212 74 13 205 79 15 237 135 60 232 141 57 233 141 53 232 142 51
227 145 49 225 146 47 227 145 47 225 146 47 224 146 49 221 148 49
236 168 68 234 169 68 233 170 68 233 170 68 234 169 68 238 167 68
239 166 68 238 167 68 238 174 73 236 168 68 219 129 37 220 120 31
220 123 33 219 124 33 219 124 33 219 124 33 219 124 33 219 124 33
219 124 33 219 124 33 209 76 9 209 76 9 209 76 9 209 76 9 209 76 11
209 76 11 209 76 11 210 77 13 210 77 15 208 74 12 203 70 8 200 66 4
201 65 6 201 65 6 201 65 6 201 65 6 203 64 6 203 64 6 203 64 6
203 64 6 204 63 6 204 63 6 204 63 6 204 63 6 204 63 6 204 63 6
204 63 6 203 62 5 202 63 5 204 65 7 209 70 12 211 72 14 209 70 10
209 70 10 209 70 10 209 70 10 207 71 10 207 71 10 207 71 10 207 71 10
207 71 10 207 71 10 207 71 10 207 71 10 207 71 12 207 71 12 207 71 12
207 71 12 209 70 12 207 69 11 205 66 9 203 64 6 203 64 8 203 64 8
203 64 8 203 64 8 203 64 8 203 64 8 201 65 6 201 65 6 210 77 15
208 78 13 207 79 11 207 79 11 207 79 11 207 79 11 207 79 11 206 78 9
207 79 11 209 81 13 213 85 14 216 89 18 218 91 18 218 91 18 218 92 16
218 92 16 218 92 16 218 92 16 218 92 16 215 94 16 221 108 28
217 110 28 219 111 29 219 111 29 219 111 29 219 111 29 220 113 28
221 112 28 222 110 25 217 111 24 230 133 40 224 134 39 224 139 45
224 139 45 227 137 45 229 137 45 230 135 47 229 136 47 227 137 47
230 135 47 214 107 24 217 105 24 215 106 24 217 105 24 222 102 24
223 102 24 223 102 24 223 102 24 224 99 25 225 100 26 206 82 8
208 83 9 208 83 11 208 83 11 208 83 11 209 82 11 211 81 13 211 81 13
211 81 13 211 81 13 206 76 8 206 76 8 206 76 8 206 76 8 208 75 8
208 75 8 208 75 10 209 74 10 212 74 13 205 79 15 237 135 60
232 141 57 233 141 53 232 142 51 227 145 49 225 146 47 227 145 47
225 146 47 224 146 49 221 148 49 236 168 68 234 169 68 233 170 68
233 170 68 234 169 68 238 167 68 239 166 68 238 167 68 238 174 73
236 168 68 219 129 37 220 120 31 220 123 33 219 124 33 219 124 33
219 124 33 219 124 33 219 124 33 219 124 33 219 124 33 209 76 9
209 76 9 209 76 9 209 76 9 209 76 11 209 76 11 209 76 11 210 77 13
210 77 15 208 74 12 203 70 8 200 66 4 201 65 6 201 65 6 201 65 6
201 65 6 203 64 6 203 64 6 203 64 6 203 64 6 204 63 6 204 63 6
204 63 6 204 63 6 204 63 6 204 63 6 204 63 6 203 62 5 202 63 5
204 65 7 209 70 12 211 72 14 209 70 10 209 70 10 209 70 10 209 70 10
207 71 10 207 71 10 207 71 10 207 71 10 207 71 10 207 71 10 207 71 10
207 71 10 207 71 12 207 71 12 207 71 12 207 71 12 209 70 12 207 69 11
205 66 9 203 64 6 203 64 8 203 64 8 203 64 8 203 64 8 203 64 8
203 64 8 201 65 6 201 65 6 210 77 15 208 78 13 207 79 11 207 79 11
207 79 11 207 79 11 207 79 11 206 78 9 207 79 11 209 81 13 214 86 16
216 89 18 218 91 18 218 91 18 218 92 16 218 92 16 218 92 16 218 92 16
218 92 16 215 94 16 221 108 28 217 110 28 219 111 29 219 111 29
219 111 29 219 111 29 220 113 28 221 112 28 223 112 26 219 112 25
231 134 42 225 136 40 224 139 45 224 139 45 227 137 45 229 137 45
230 135 47 229 136 47 227 137 47 230 135 47 214 107 24 217 105 24
215 106 24 217 105 24 222 102 24 223 102 24 223 102 24 223 102 24
224 99 25 225 100 26 206 82 8 208 83 9 208 83 11 208 83 11 208 83 11
209 82 11 211 81 13 211 81 13 211 81 13 211 81 13 206 76 8 206 76 8
206 76 8 206 76 8 208 75 8 208 75 8 208 75 10 209 74 10 212 74 13
205 79 15 237 135 60 232 141 57 233 141 53 232 142 51 227 145 49
225 146 47 227 145 47 225 146 47 224 146 49 221 148 49 236 168 68
234 169 68 233 170 68 233 170 68 234 169 68 238 167 68 239 166 68
238 167 68 238 174 73 236 168 68 219 129 37 220 120 31 220 123 33
219 124 33 219 124 33 219 124 33 219 124 33 219 124 33 219 124 33
219 124 33 209 76 9 209 76 9 209 76 9 209 76 11 209 76 11 209 76 11
209 76 11 210 77 13 210 77 15 208 74 12 203 70 8 200 66 4 201 65 6
201 65 6 201 65 6 201 65 6 203 64 6 203 64 6 203 64 6 203 64 6
204 63 6 204 63 6 204 63 6 204 63 6 204 63 6 204 63 6 204 63 6
203 62 5 202 63 5 204 65 7 209 70 12 211 72 14 209 70 10 209 70 10
209 70 10 209 70 10 207 71 10 207 71 10 207 71 10 207 71 10 207 71 10
207 71 10 207 71 10 207 71 10 207 71 12 207 71 12 207 71 12 207 71 12
209 70 12 207 69 11 205 66 9 203 64 6 203 64 8 203 64 8 203 64 8
203 64 8 203 64 8 203 64 8 201 65 6 201 65 6 210 77 15 208 78 13
207 79 11 207 79 11 207 79 11 207 79 11 207 79 11 206 78 9 207 79 11
209 81 13 214 86 16 216 89 18 218 91 18 218 91 18 218 92 16 218 92 16
218 92 16 218 92 16 218 92 16 215 94 16 221 108 28 217 110 28
219 111 29 219 111 29 219 111 29 219 111 29 220 113 28 221 112 28
223 112 26 219 112 25 231 134 42 225 136 40 224 139 45 224 139 45
227 137 45 229 137 45 230 135 47 229 136 47 227 137 47 230 135 47
214 107 24 217 105 24 215 106 24 217 105 24 222 102 24 223 102 24
223 102 24 223 102 24 224 99 25 225 100 26 206 82 8 208 83 9
208 83 11 209 82 11 209 82 11 209 82 11 211 81 13 211 81 13 211 81 13
211 81 13 206 76 8 206 76 8 206 76 8 206 76 8 208 75 8 208 75 10
208 75 10 209 74 10 212 74 13 205 79 15 237 135 60 232 141 57
233 141 53 232 142 51 227 145 49 225 146 47 227 145 47 225 145 49
224 146 49 221 148 49 236 168 68 234 169 68 233 170 68 233 170 68
234 169 68 238 167 68 239 166 68 238 167 68 238 174 73 236 168 68
219 129 37 220 120 31 220 123 33 219 124 33 219 124 33 219 124 33
219 124 33 219 124 33 219 124 33 219 124 33 210 75 11 210 75 11
210 75 11 210 75 11 210 75 13 210 75 13 210 75 13 212 76 15 210 77 15
208 74 12 203 70 8 200 66 4 201 65 6 201 65 6 201 65 6 201 65 6
203 64 6 203 64 6 203 64 6 203 64 6 204 63 6 204 63 6 204 63 6
204 63 6 204 63 6 204 63 6 204 63 6 203 62 5 202 63 5 204 65 7
209 70 12 211 72 14 209 70 10 209 70 10 209 70 10 209 70 10 207 71 10
207 71 10 207 71 10 207 71 10 207 71 10 207 71 10 207 71 10 207 71 10
207 71 12 207 71 12 207 71 12 207 71 12 209 70 12 207 69 11 205 66 9
203 64 6 203 64 8 203 64 8 203 64 8 203 64 8 203 64 8 203 64 8
201 65 6 201 65 6 210 77 15 208 78 13 207 79 11 207 79 11 207 79 11
207 79 11 208 78 11 208 78 11 208 78 11 212 82 14 214 86 16 217 90 19
218 91 18 218 91 18 218 92 16 218 92 16 218 92 16 218 92 16 218 92 16
215 94 16 221 108 28 217 110 28 217 110 28 217 110 28 219 111 29
219 111 29 219 112 27 220 111 27 223 112 26 219 112 25 231 134 42
225 136 40 224 137 44 224 137 44 226 136 44 228 135 44 229 134 46
228 135 46 226 136 46 229 134 46 213 105 23 216 104 23 214 105 23
216 104 23 222 102 24 223 102 24 223 102 24 223 102 24 222 100 25
223 101 26 206 82 8 208 83 9 209 82 11 211 81 11 211 81 11 211 81 11
211 81 13 211 80 15 211 80 15 211 80 15 208 75 10 208 75 10 208 75 10
208 75 10 208 75 10 208 75 10 208 74 12 209 73 12 212 74 13 205 79 15
237 135 60 232 141 57 233 140 55 232 142 51 227 145 49 225 145 49
227 145 49 225 145 49 224 146 51 221 147 51 236 168 70 234 168 70
233 169 70 233 169 70 234 168 70 238 167 70 239 166 70 238 167 70
238 174 75 236 168 70 219 129 39 220 120 33 220 123 35 219 124 35
219 124 35 219 124 35 219 124 35 219 124 35 219 124 35 219 124 35
210 75 11 210 75 11 210 75 11 210 75 11 210 75 13 210 75 13 210 75 13
212 76 15 210 77 15 208 74 12 203 70 8 200 66 4 201 65 6 201 65 6
201 65 6 201 65 6 203 64 6 203 64 6 203 64 6 203 64 6 204 63 6
204 63 6 204 63 6 204 63 6 204 63 6 204 63 6 204 63 6 203 62 5
202 63 5 204 65 7 209 70 12 211 72 14 209 70 10 209 70 10 209 70 10
209 70 10 207 71 10 207 71 10 207 71 10 207 71 10 207 71 10 207 71 10
207 71 10 207 71 10 207 71 12 207 71 12 207 71 12 207 71 12 209 70 12
207 69 11 205 66 9 203 64 6 203 64 8 203 64 8 203 64 8 203 64 8
203 64 8 203 64 8 201 65 6 201 65 6 210 77 15 208 78 13 207 79 11
207 79 11 207 79 11 207 79 11 208 78 11 208 78 11 208 78 11 212 82 14
214 86 16 217 90 19 218 91 18 218 91 18 218 92 16 218 92 16 218 92 16
218 92 16 218 92 16 215 94 16 221 108 28 217 110 28 217 110 28
217 110 28 219 111 29 219 111 29 219 112 27 220 111 27 223 112 26
219 112 25 231 134 42 225 136 40 224 137 44 224 137 44 226 136 44
228 135 44 229 134 46 228 135 46 226 136 46 229 134 46 213 105 23
216 104 23 214 105 23 214 105 23 220 103 24 223 102 24 223 102 24
223 102 24 222 100 25 223 101 26 206 82 8 209 82 9 211 81 11
211 81 11 211 81 11 211 81 13 211 80 15 211 80 15 211 80 15 211 80 15
208 75 10 208 75 10 208 75 10 208 75 10 208 75 10 208 75 10 208 74 12
209 73 12 212 74 13 205 79 13 237 136 58 232 141 57 233 140 55
232 141 53 227 144 51 225 145 49 227 145 49 225 145 49 224 146 51
221 147 51 236 168 70 234 168 70 233 169 70 233 169 70 234 168 70
238 167 70 239 166 70 238 167 70 238 174 75 236 168 70 219 129 39
220 120 33 220 123 35 219 124 35 219 124 35 219 124 35 219 124 35
219 124 35 219 124 35 219 124 35 210 75 13 210 75 13 210 75 13
210 75 13 210 75 13 210 75 13 210 75 13 212 76 15 210 77 15 208 74 12
203 70 8 200 66 4 201 65 4 201 65 4 201 65 4 201 65 4 203 64 6
203 64 6 203 64 6 203 64 6 204 63 8 204 63 8 203 64 8 203 64 8
204 63 6 204 63 6 204 63 6 203 62 5 202 63 5 204 65 7 209 70 12
211 72 14 209 70 10 209 70 10 209 70 10 209 70 10 207 71 10 207 71 10
207 71 10 207 71 10 207 71 10 207 71 10 207 71 10 207 71 10 207 71 12
207 71 12 207 71 12 207 71 12 207 71 12 206 70 11 203 67 9 201 65 6
203 64 6 203 64 6 203 64 8 203 64 8 203 64 8 203 64 8 201 65 6
201 65 6 210 77 15 208 78 13 207 79 11 207 79 11 207 79 9 207 79 9
208 79 9 210 78 9 208 79 9 212 82 12 215 88 17 217 90 17 218 91 18
218 91 18 218 92 16 218 92 16 218 92 16 218 92 16 218 92 16 215 94 16
221 109 26 217 110 26 217 110 26 217 110 26 219 112 27 219 112 27
219 112 27 220 111 25 224 113 27 220 113 26 232 135 43 226 137 42
224 137 44 224 137 44 226 136 44 228 135 44 229 134 46 228 135 46
226 136 46 229 134 46 213 105 23 216 104 23 214 105 23 214 105 23
219 104 24 222 102 24 223 102 24 223 102 24 221 101 25 222 102 26
205 83 8 209 82 9 211 81 11 211 81 11 211 81 11 211 81 13 211 80 15
211 80 15 211 80 15 211 80 15 208 75 10 208 75 10 208 75 10 208 75 10
208 75 10 208 75 10 208 74 12 209 73 12 212 74 11 205 79 13
237 136 58 232 141 57 233 140 55 232 141 53 227 144 51 225 145 49
227 145 49 225 145 49 224 146 51 221 147 51 236 168 70 234 168 70
233 169 70 233 169 70 234 168 70 238 167 70 239 166 70 238 167 70
238 174 75 236 168 70 219 129 39 220 120 33 220 123 35 219 124 35
219 124 35 219 124 35 219 124 35 219 124 35 219 124 35 219 124 35
210 74 15 210 74 15 210 74 15 210 75 13 210 75 13 210 75 13 210 75 13
212 76 15 210 77 15 208 74 12 202 68 6 198 65 3 200 64 3 200 64 3
200 64 3 200 64 3 202 63 5 202 63 5 202 63 5 203 64 6 203 64 8
203 64 8 203 64 8 203 64 8 203 64 8 203 64 6 204 63 6 203 62 5
202 63 5 204 65 7 209 70 12 211 72 14 209 70 10 209 70 10 209 70 10
209 70 10 207 71 10 207 71 10 207 71 10 207 71 10 207 71 10 207 71 10
207 71 10 207 71 10 207 71 12 207 71 12 207 71 12 207 71 12 207 71 12
206 70 11 203 67 9 201 65 6 203 64 6 203 64 6 203 64 8 203 64 8
203 64 8 203 64 8 201 65 6 201 65 6 210 77 15 208 78 13 207 79 11
207 79 11 207 79 9 208 79 9 210 78 9 210 78 9 208 79 9 210 83 12
213 89 15 216 91 17 217 92 18 217 92 18 217 93 16 217 93 16 217 93 16
217 93 16 217 93 16 214 94 16 221 109 26 219 110 26 219 110 26
219 110 26 220 111 27 220 111 27 220 111 25 219 112 25 221 114 27
218 114 26 231 134 42 229 137 43 226 136 44 226 136 44 228 135 44
228 135 44 229 134 46 228 135 46 226 136 46 229 134 46 213 105 23
216 104 23 214 105 23 214 105 23 219 104 24 220 103 24 220 103 24
220 103 24 219 102 25 222 102 26 205 83 8 209 82 9 211 81 11
211 81 13 211 81 13 211 81 13 211 80 15 211 80 15 211 80 15 211 80 15
208 75 10 208 75 10 208 75 10 208 75 10 208 75 10 208 75 10 208 75 10
208 75 10 207 77 11 201 80 11 237 136 58 232 141 57 233 140 55
232 141 53 229 143 51 227 145 49 227 145 49 227 144 51 224 146 51
222 147 51 238 167 70 234 168 70 233 169 70 233 169 70 234 168 70
236 168 70 238 167 70 238 167 70 239 173 75 238 167 70 217 130 39
218 121 33 219 124 35 219 124 35 219 124 35 219 124 35 219 124 35
219 124 35 219 124 35 219 124 35 209 70 14 209 70 14 209 70 14
209 70 12 209 70 12 209 70 12 207 71 12 209 73 14 212 76 15 209 73 12
202 69 4 198 65 1 198 65 3 198 65 3 200 64 3 200 64 3 202 63 5
203 62 5 202 63 5 200 62 4 200 64 5 200 64 5 198 65 5 198 64 7
200 63 7 200 63 7 202 63 7 200 61 6 202 63 7 206 67 12 212 73 15
216 77 19 210 71 13 210 71 13 210 72 11 210 72 11 210 72 11 210 72 11
208 73 9 208 73 9 205 72 10 205 72 10 205 72 10 205 72 10 207 71 10
207 71 10 207 71 10 207 71 10 209 73 12 207 71 10 203 68 6 201 65 4
203 64 6 203 64 6 203 64 6 203 64 6 203 64 6 203 64 6 201 65 6
201 65 6 210 77 15 208 78 13 207 79 11 207 79 9 208 79 9 208 79 9
210 78 7 210 78 7 215 86 14 208 83 9 216 98 22 211 94 17 214 94 16
215 94 16 215 94 16 215 94 16 214 95 14 214 95 14 214 95 14 212 96 14
222 108 26 221 109 26 221 109 26 221 109 26 222 110 25 222 110 25
222 110 25 219 112 25 212 110 19 216 119 26 226 132 38 229 137 43
226 136 44 226 136 44 228 135 44 229 135 44 229 134 46 228 135 46
226 136 46 229 134 46 213 105 23 216 104 23 214 105 23 214 105 23
217 105 24 217 105 24 215 106 24 215 106 24 216 104 23 220 103 24
206 82 6 209 82 9 210 79 12 210 79 14 210 79 14 210 79 14 211 78 14
211 78 14 211 78 14 211 78 14 208 75 10 208 75 10 208 75 10 208 75 10
209 74 8 209 74 8 209 74 8 206 76 8 199 78 7 193 82 8 239 135 58
234 138 56 232 139 54 231 140 52 227 142 50 227 142 50 227 142 50
226 143 50 224 143 52 223 144 52 240 167 73 237 168 73 234 170 73
234 170 73 234 170 73 236 169 73 237 168 73 239 168 73 238 164 71
240 162 70 217 131 42 218 125 38 221 126 39 221 126 39 223 125 39
223 125 39 223 125 39 223 125 39 223 125 39 223 125 39 213 74 19
213 74 19 213 74 19 213 74 19 213 74 19 213 75 17 212 75 17 212 75 17
209 73 12 207 71 10 203 70 6 202 69 4 202 68 6 202 68 6 203 68 6
203 68 6 205 67 6 207 66 9 205 66 9 202 66 7 200 66 6 197 66 3
195 67 3 195 66 5 195 66 5 197 65 5 197 65 5 200 66 4 201 67 5
203 70 8 207 73 11 207 73 11 205 72 10 204 71 9 204 71 7 204 71 7
206 70 7 206 70 7 204 71 7 204 71 7 205 72 10 204 73 10 204 73 10
204 73 10 205 72 10 207 71 10 207 71 10 207 71 10 207 71 10 206 70 9
205 69 8 203 68 6 204 65 7 204 65 7 204 65 7 204 65 7 204 65 7
204 65 7 202 66 7 202 66 7 210 77 15 208 78 13 207 79 11 207 79 9
208 79 9 210 78 9 212 77 7 212 77 7 209 77 5 202 77 3 212 97 19
206 96 17 209 97 16 210 96 16 210 96 16 210 96 16 209 97 14 209 97 14
209 97 14 209 97 14 219 110 26 219 110 26 219 110 26 219 110 26
219 112 25 219 112 25 219 112 25 217 113 25 216 119 26 219 125 31
226 132 38 230 136 43 228 135 44 228 135 44 229 135 44 229 135 44
229 134 46 228 135 46 226 136 46 229 134 46 213 105 23 216 104 23
214 105 23 214 105 23 217 105 24 217 105 24 212 107 24 212 107 24
216 104 23 220 103 24 206 82 6 209 82 9 208 78 13 208 77 15 208 77 15
208 77 15 210 77 13 210 77 13 210 77 13 210 77 13 205 72 8 205 72 8
205 72 8 205 72 8 207 72 6 207 72 6 207 72 6 204 74 6 195 75 4
199 83 11 240 127 52 244 136 59 241 138 57 239 139 55 238 140 53
238 140 53 238 140 53 236 141 53 235 142 55 233 142 55 247 162 72
244 163 72 242 164 72 241 165 72 241 165 72 241 165 72 242 164 72
246 162 72 245 157 69 250 157 70 228 131 45 230 130 45 226 121 38
228 121 38 228 121 38 228 121 38 228 121 38 228 121 38 228 121 38
228 121 38 197 58 4 197 58 4 197 58 4 197 58 4 197 58 2 197 58 2
195 59 0 196 60 2 201 65 4 205 69 8 205 72 8 208 75 10 208 75 10
208 75 10 209 74 10 209 74 10 211 73 10 211 73 12 211 73 12 208 74 12
235 104 41 232 106 39 230 107 39 230 107 39 229 108 37 229 108 37
229 109 35 228 108 34 228 106 33 226 103 31 223 101 28 221 99 26
223 98 26 223 98 26 223 98 26 223 98 26 224 97 28 224 97 28 224 97 28
224 96 30 202 74 8 202 74 8 202 74 8 204 73 8 205 72 10 205 72 10
205 72 10 204 71 9 205 69 8 205 69 8 206 70 9 207 71 10 207 69 9
207 69 9 207 69 11 207 69 11 207 69 11 207 69 11 206 70 11 206 70 11
211 78 16 210 79 14 208 80 12 208 81 10 208 79 7 210 78 7 212 77 7
212 78 5 218 87 13 215 90 14 229 115 35 224 117 35 224 119 36
222 120 36 222 120 36 222 120 36 222 120 34 221 121 34 221 121 34
221 121 34 232 133 44 232 133 44 232 133 44 232 133 44 232 135 45
232 135 43 232 135 43 231 134 42 226 132 38 226 132 38 228 134 40
229 135 42 228 135 44 228 135 44 229 135 44 229 135 44 229 134 46
228 135 46 226 136 46 229 134 46 213 105 23 216 104 23 214 105 23
214 105 23 217 105 24 215 106 24 212 107 24 212 107 24 215 106 24
220 103 24 206 82 6 211 81 9 206 76 10 206 75 12 206 75 12 206 75 12
208 75 10 208 75 10 208 75 10 208 75 10 203 70 6 203 70 6 203 70 6
203 70 6 205 70 4 205 70 4 206 68 6 205 70 4 206 71 5 203 71 2
212 80 11 210 80 10 206 82 8 203 84 6 203 84 6 203 84 6 203 84 6
202 85 6 202 85 6 200 85 6 210 100 19 206 102 19 203 103 19
202 104 19 202 104 19 202 104 19 205 102 19 206 102 19 206 96 15
213 98 19 197 78 0 201 80 2 209 83 7 211 82 7 211 82 7 211 82 7
211 82 7 211 82 7 211 82 7 211 82 7 202 62 9 202 62 9 202 62 9
202 62 9 202 63 7 202 63 7 202 63 5 199 63 4 199 63 2 200 64 3
208 75 10 210 77 13 211 78 14 211 78 14 213 77 14 213 77 14 213 77 14
213 77 14 211 78 14 211 81 13 232 107 37 230 107 37 229 109 35
227 109 35 226 111 33 224 112 31 224 112 31 226 111 29 224 110 28
221 107 25 216 102 20 213 96 17 216 99 20 216 99 20 216 99 20
217 97 22 219 96 24 219 96 24 219 96 24 220 95 26 202 74 8 202 74 8
202 74 8 204 73 8 205 72 10 205 72 10 205 72 10 205 72 10 201 65 4
203 68 6 207 71 10 209 73 12 209 70 10 209 70 10 209 70 12 209 70 12
209 70 12 209 70 12 207 71 12 207 71 12 211 78 16 210 79 14 208 80 12
208 81 10 208 79 7 210 78 7 212 77 7 212 78 5 210 79 5 209 85 8
227 112 32 223 118 35 221 121 36 218 122 36 218 122 36 218 122 36
218 123 34 216 123 34 216 123 34 216 123 34 228 135 44 228 135 44
228 135 44 228 135 44 227 138 43 227 138 43 227 138 43 229 137 43
230 138 44 230 136 43 229 135 42 228 134 40 228 135 44 228 135 44
229 135 44 229 135 44 229 134 46 228 135 46 226 136 46 229 134 46
213 105 23 216 104 23 214 105 23 214 105 23 217 105 24 215 106 24
212 107 24 212 107 24 215 106 24 220 103 24 204 80 3 211 81 11
204 73 8 205 72 10 205 72 10 205 72 10 205 72 10 205 72 10 205 72 10
205 72 10 202 68 6 202 69 4 202 69 4 202 69 4 203 68 4 203 68 4
205 67 4 204 66 3 207 67 2 210 71 4 212 73 6 217 80 12 216 84 12
211 85 11 211 85 9 211 85 9 211 85 9 213 84 9 215 86 12 215 88 13
214 92 15 212 95 16 211 99 19 210 100 19 208 101 19 210 100 19
211 99 19 214 97 19 213 91 14 220 96 20 208 79 5 216 84 10 214 80 7
216 79 7 216 79 7 216 79 7 216 79 7 216 79 7 216 79 7 216 79 7
200 58 6 200 58 6 200 58 6 200 58 6 200 58 4 200 58 4 198 59 4
198 59 2 196 61 0 195 60 0 210 77 13 208 75 10 211 79 12 211 79 12
211 79 12 211 79 12 212 80 13 212 80 13 211 81 13 206 81 10
229 107 32 226 109 30 224 110 30 223 111 30 221 112 28 221 112 28
221 112 28 221 112 26 223 112 26 219 108 23 215 103 18 214 102 19
214 100 18 214 100 18 214 100 18 214 99 20 216 99 20 216 99 20
216 98 22 217 97 24 202 74 8 204 73 10 204 73 10 204 73 10 205 72 10
205 72 10 205 72 10 205 72 10 207 71 10 207 71 10 207 71 10 207 71 10
206 70 9 206 70 9 206 70 11 206 70 11 207 69 11 207 69 11 206 70 11
206 70 11 211 78 16 210 79 14 208 80 12 208 81 10 210 80 10 211 79 10
213 79 8 213 79 8 211 80 6 210 86 9 228 113 34 224 119 36 219 124 35
217 125 35 217 125 35 217 125 35 215 125 35 215 125 35 215 125 35
217 127 36 220 132 39 224 137 44 224 137 44 223 136 42 223 136 40
222 135 39 222 135 39 224 134 39 225 136 40 226 135 40 226 135 40
226 135 40 229 135 44 229 135 44 229 135 44 229 135 44 229 134 46
228 135 46 226 136 46 229 134 46 213 105 23 216 104 23 214 105 23
214 105 23 217 105 26 215 105 26 212 107 26 212 107 26 215 105 26
219 102 25 204 78 4 204 72 3 205 72 10 207 71 12 207 71 12 207 71 12
207 71 12 207 71 12 207 71 12 207 71 12 202 66 7 202 66 5 202 66 5
202 66 5 202 66 5 202 67 3 202 67 3 201 66 2 204 66 1 206 71 5
207 74 5 208 79 9 205 80 9 204 81 9 204 81 7 204 81 7 205 81 7
207 80 7 209 82 9 209 84 10 208 88 12 206 91 14 205 95 16 203 96 16
203 96 16 205 95 16 207 94 16 208 93 16 210 90 15 212 88 14 209 82 9
208 79 7 210 78 7 211 79 8 210 80 8 210 80 8 210 80 8 210 80 8
210 80 8 210 80 8 200 58 6 200 58 6 200 58 6 200 58 6 200 58 4
200 58 4 198 59 4 198 59 4 198 59 2 193 57 0 210 77 15 207 74 9
210 77 11 210 78 9 210 78 9 210 78 9 210 80 10 210 80 10 206 81 10
205 83 8 226 109 30 224 110 28 223 111 28 221 112 28 221 112 26
221 112 26 221 112 26 221 112 26 223 112 26 219 108 23 215 103 18
214 102 17 214 100 16 214 100 16 214 100 18 214 100 18 216 99 18
216 99 18 216 99 18 217 97 22 202 74 8 204 73 10 204 73 10 205 72 10
205 72 10 205 72 10 205 72 10 205 72 10 207 71 10 207 71 10 207 71 10
207 71 10 206 70 9 206 70 9 206 70 11 206 70 11 207 69 11 207 69 11
206 70 11 206 70 11 211 78 16 210 79 14 208 80 12 208 81 10 210 80 10
211 79 10 213 79 8 213 79 8 211 80 6 211 85 9 229 115 35 224 119 36
220 123 35 217 125 35 217 125 35 217 125 35 215 125 35 215 125 35
215 125 35 217 127 36 220 132 39 224 137 44 224 137 44 223 136 42
223 136 40 222 135 39 222 135 39 224 134 39 225 136 40 225 136 40
226 135 40 226 135 40 229 135 44 229 135 44 229 135 44 229 135 44
229 134 46 228 135 46 226 136 46 229 134 46 213 105 23 216 104 23
214 105 23 213 105 23 215 105 26 215 105 26 212 107 26 212 107 26
215 105 26 219 102 25 203 76 3 204 72 3 207 71 10 207 71 12 207 71 12
207 71 12 207 71 12 207 71 12 207 71 12 207 71 12 202 66 7 202 66 7
202 66 5 202 66 5 202 66 5 202 66 5 202 67 3 201 66 2 201 66 0
203 68 2 205 75 5 207 79 9 204 81 11 202 82 11 202 82 9 204 81 7
205 81 7 207 80 7 209 82 9 209 84 10 208 88 12 207 90 14 207 94 16
205 95 16 205 95 16 207 94 16 208 93 16 210 92 16 212 90 15 214 87 14
211 81 9 208 79 7 208 79 7 210 80 8 210 80 8 210 80 8 210 80 8
210 80 8 210 80 8 210 80 8 200 58 6 200 58 6 200 58 6 200 58 6
200 58 4 200 58 4 198 59 4 198 59 4 198 59 2 195 56 0 212 76 15
207 74 9 208 78 11 208 78 11 210 78 9 208 79 9 207 80 7 205 81 7
204 81 7 202 83 5 224 110 28 223 111 28 223 111 28 221 112 28
221 112 28 223 111 28 224 110 28 224 110 28 226 110 26 223 106 23
218 101 20 217 100 19 216 99 18 216 99 18 216 99 18 217 98 18
219 98 16 219 98 16 219 98 16 220 96 20 204 73 8 205 72 12 205 72 12
205 72 12 207 71 12 207 71 12 207 71 12 207 71 12 207 71 10 207 71 10
207 71 10 207 71 10 206 70 9 206 70 9 206 70 11 206 70 11 207 69 11
207 69 11 207 71 12 207 71 12 211 78 16 211 80 15 209 81 13 209 82 11
210 80 10 211 79 10 213 79 8 213 79 8 212 81 7 210 84 8 229 115 35
224 119 36 222 122 35 220 123 35 220 123 35 220 123 35 219 124 35
219 124 35 219 124 35 220 125 36 223 131 39 228 135 44 228 135 44
226 134 42 225 136 40 224 134 39 224 134 39 225 134 39 226 135 40
226 135 40 226 135 40 226 135 40 228 135 44 228 135 44 228 135 44
228 135 44 228 135 46 228 135 46 226 136 46 229 134 46 213 105 23
216 104 23 214 105 23 213 105 23 215 105 26 215 105 26 212 107 26
214 106 26 218 106 28 219 102 25 203 76 3 204 72 3 207 71 10
207 71 12 207 71 12 207 71 12 207 71 12 207 71 12 207 71 12 207 71 12
202 66 7 202 66 7 202 66 5 202 66 5 202 66 5 202 66 5 204 66 5
203 65 2 203 65 0 203 68 2 207 74 5 208 79 9 205 80 11 204 81 11
204 81 9 205 81 7 208 79 7 210 78 7 213 79 8 212 81 9 214 87 14
212 90 15 211 92 16 210 92 16 210 93 14 210 93 14 211 92 14 215 90 14
217 87 15 217 85 14 214 80 9 212 77 7 212 77 7 211 79 8 211 79 8
211 79 8 211 79 8 211 79 8 211 79 8 211 79 8 200 58 6 200 58 6
200 58 6 200 58 6 200 58 4 200 58 4 198 59 4 200 58 4 201 57 4
196 55 0 212 75 17 205 74 11 208 78 13 208 78 11 208 79 9 208 79 7
207 80 7 205 81 5 205 81 5 202 83 3 224 110 28 221 112 28 221 112 28
223 111 28 223 111 28 224 110 28 224 110 28 226 109 28 226 110 26
224 106 23 219 101 20 217 100 19 216 99 18 216 99 18 216 99 18
217 98 18 217 99 16 219 98 16 219 98 16 220 96 20 204 73 8 205 72 12
205 72 12 205 72 12 207 71 12 207 71 12 207 71 12 207 71 12 207 71 10
207 71 10 207 71 10 207 71 10 206 70 9 206 70 9 206 70 11 206 70 11
207 69 11 207 69 11 207 71 12 207 71 12 211 78 16 211 80 15 209 81 13
209 82 11 210 80 10 210 80 10 211 79 10 213 79 8 212 81 9 210 84 8
229 117 36 224 119 36 223 121 35 222 122 35 222 122 35 222 122 35
222 122 35 220 123 35 220 123 35 221 124 36 224 130 39 229 135 44
229 135 44 228 133 42 226 135 40 225 134 39 225 134 39 225 134 39
226 135 40 226 135 40 226 135 40 226 134 42 228 135 44 228 135 44
228 135 44 228 135 44 228 135 46 228 135 46 228 135 46 231 133 46
213 105 23 214 105 23 214 105 23 214 105 23 215 105 26 215 105 26
214 106 26 215 105 26 220 105 28 221 101 25 203 76 3 204 72 3
207 71 10 207 71 12 207 71 12 207 71 12 207 71 12 207 71 12 207 71 12
207 71 12 202 66 7 202 66 7 202 66 5 202 66 5 202 66 5 202 66 5
204 66 5 203 65 4 203 65 2 203 68 2 208 73 7 210 77 11 208 78 11
207 79 11 207 79 9 207 80 7 210 78 7 212 77 7 213 79 8 212 81 9
215 86 14 213 89 15 213 91 16 213 91 16 213 91 14 213 91 14 215 90 14
216 90 14 217 87 15 219 84 14 214 80 9 212 77 7 212 77 7 211 79 8
211 79 8 211 79 8 211 79 8 211 79 8 211 79 8 211 79 8 198 59 4
198 59 4 198 59 4 198 59 4 198 59 4 198 59 4 198 59 6 200 58 6
203 56 6 198 54 2 212 75 21 205 73 15 204 78 13 204 78 11 207 77 7
207 78 5 206 79 3 206 79 1 209 78 1 206 79 1 223 111 28 220 113 28
223 112 26 224 111 26 224 110 28 224 110 28 224 110 28 224 110 28
224 111 26 223 106 23 218 102 18 215 101 17 214 100 18 214 100 18
214 100 18 214 100 18 214 100 18 214 100 18 214 100 18 217 97 22
204 73 8 207 71 12 207 71 12 207 71 12 207 71 12 207 71 12 207 71 12
207 71 12 205 72 10 205 72 10 205 72 10 205 72 10 205 72 10 205 72 10
207 71 12 207 71 12 207 71 12 207 71 12 207 71 12 208 72 13 211 78 16
210 79 14 209 81 15 209 81 13 209 81 13 211 81 13 212 80 11 212 80 11
214 80 9 210 84 8 229 117 36 224 119 34 225 121 35 223 121 35
223 121 35 223 121 35 222 123 33 222 123 33 220 123 33 221 125 34
226 129 39 231 134 44 229 135 44 229 135 44 226 134 42 226 134 42
225 135 42 225 135 42 226 134 42 226 134 42 226 134 42 226 134 42
228 135 46 228 135 46 228 135 46 228 135 46 229 134 46 229 134 46
229 134 46 232 133 46 213 105 23 214 104 25 214 104 25 214 104 25
215 105 26 215 105 26 215 105 26 217 105 26 221 104 30 222 100 27
203 76 5 204 72 5 207 71 10 209 70 12 209 70 12 209 70 12 209 70 12
209 70 12 207 71 12 207 71 12 204 65 7 204 65 7 202 66 7 202 66 7
202 66 7 202 66 7 202 66 5 202 66 5 201 66 2 203 68 4 208 73 9
210 75 9 210 77 11 210 77 11 208 78 11 208 79 9 208 79 9 208 79 9
210 80 8 210 80 8 215 88 15 215 88 15 215 90 16 215 90 16 215 90 14
215 90 14 215 90 14 215 90 14 215 88 15 215 86 14 211 81 9 208 79 7
210 80 8 210 80 8 210 80 8 210 80 8 210 80 10 210 80 10 210 80 10
210 80 10 198 59 4 198 59 4 198 59 4 198 59 4 198 59 4 198 59 4
198 59 6 200 58 6 204 55 8 199 52 4 210 75 21 203 74 15 202 79 13
202 79 11 206 78 7 207 78 3 207 79 1 209 78 1 212 77 0 207 79 0
224 110 28 220 113 28 223 112 26 224 111 26 224 110 28 224 110 28
224 110 28 224 110 28 224 111 26 221 107 23 216 103 18 215 101 17
214 100 18 212 101 18 212 101 18 212 101 18 212 101 18 212 101 18
212 101 18 216 98 22 204 73 8 207 71 10 207 71 10 207 71 12 207 71 12
207 71 12 207 71 12 207 71 12 205 72 10 205 72 10 205 72 10 205 72 10
205 72 10 205 72 10 207 71 12 207 71 12 207 71 12 207 71 12 207 71 12
208 72 13 211 78 16 210 79 14 209 81 15 209 81 15 209 81 13 209 81 13
211 81 11 212 80 11 214 80 9 210 83 10 230 118 37 224 119 34
225 121 35 225 121 35 223 121 35 223 121 35 222 123 33 222 123 33
220 123 33 221 125 34 226 129 39 231 134 44 229 135 44 229 135 44
226 134 42 226 134 42 225 135 42 225 135 42 226 134 42 226 134 42
226 134 42 226 134 42 228 135 46 228 135 46 228 135 46 229 134 46
229 134 46 231 133 46 231 133 46 234 131 48 213 105 25 216 103 25
216 103 25 216 103 25 217 105 26 217 105 26 217 105 26 219 104 26
223 103 30 224 99 27 203 76 5 204 72 5 207 71 10 209 70 12 209 70 12
209 70 12 209 70 12 209 70 12 207 71 12 207 71 12 204 65 7 204 65 7
202 66 7 202 66 7 202 66 7 202 66 7 202 66 5 202 66 5 201 66 2
203 68 4 208 73 9 210 75 11 212 77 11 212 77 11 210 77 11 210 77 11
210 77 11 208 79 9 210 80 10 210 80 10 217 87 17 217 87 17 218 88 18
216 89 16 216 89 16 216 89 16 216 89 16 216 89 16 215 88 15 215 86 16
211 81 11 208 79 9 210 80 10 210 80 10 210 80 10 210 80 10 210 80 10
211 79 12 211 79 12 211 79 12 200 61 6 200 61 6 200 61 6 200 61 6
200 61 6 200 61 6 200 61 6 202 60 8 204 57 9 200 56 6 208 76 21
200 76 13 201 80 11 201 80 9 204 79 5 206 79 3 206 77 0 209 76 0
212 75 0 208 77 0 224 110 28 221 112 28 224 111 26 226 110 26
226 110 26 226 110 26 226 110 26 226 110 26 226 110 26 223 106 23
218 102 18 217 101 17 214 100 18 214 100 18 214 100 18 214 100 18
214 99 20 214 99 20 214 99 20 217 97 22 204 74 6 207 72 8 207 72 8
207 71 10 205 72 10 205 72 10 205 72 10 205 72 10 205 72 10 205 72 10
205 72 10 205 72 10 205 72 10 205 72 10 207 71 12 207 71 12 207 71 12
207 71 12 208 72 13 209 73 14 210 77 15 210 79 14 209 81 15 209 81 15
209 81 13 209 81 13 211 81 11 212 80 11 215 81 10 209 82 9 230 118 37
224 119 34 225 121 35 225 121 35 223 121 35 223 121 35 222 123 33
222 123 33 220 123 33 221 125 34 226 129 39 231 134 44 229 135 44
229 135 44 226 134 42 226 134 42 226 134 42 226 134 42 226 134 42
226 134 42 228 133 42 228 133 42 229 134 46 229 134 46 229 134 46
229 134 46 231 133 46 232 133 46 234 132 46 236 131 48 214 104 25
217 103 25 217 103 25 217 103 25 219 104 26 219 104 26 219 104 26
220 103 26 225 102 30 225 98 27 205 75 5 204 72 5 207 71 10 209 70 12
209 70 12 209 70 12 209 70 12 209 70 12 207 71 12 207 71 12 204 65 7
204 65 7 202 66 7 202 66 7 202 66 5 202 66 5 202 66 5 202 66 5
201 65 4 203 68 6 208 72 11 210 75 11 212 77 11 212 77 11 212 76 13
212 76 13 210 77 11 210 77 11 210 77 11 210 77 11 219 87 20 219 87 20
219 87 20 218 88 18 218 88 18 218 88 18 218 88 18 218 88 18 217 87 17
217 84 18 212 80 13 210 77 11 211 79 12 211 79 12 211 79 12 211 79 12
211 79 12 213 77 14 213 77 14 213 77 14 202 63 7 202 63 7 202 63 7
202 63 7 202 63 7 202 63 7 202 63 7 203 62 7 204 59 8 200 58 6
207 77 19 197 78 11 198 82 9 198 83 5 201 82 3 202 81 1 201 80 0
203 80 0 206 78 0 201 80 0 218 114 28 215 115 28 218 114 26
220 113 26 220 113 26 220 113 26 220 113 26 220 113 26 220 113 26
216 110 23 212 105 18 210 104 17 208 103 18 208 103 18 208 103 18
208 103 18 208 103 20 208 103 20 208 102 22 212 100 22 201 76 4
205 73 6 205 73 6 205 72 8 204 73 8 204 73 8 204 73 8 204 73 10
204 73 10 205 72 10 205 72 10 204 71 9 205 72 10 205 72 10 207 71 12
206 70 11 206 70 11 206 70 11 207 71 12 208 72 13 208 74 12 207 77 11
210 79 14 208 80 14 207 79 11 207 79 11 211 81 13 212 80 11 215 81 10
209 82 9 230 118 37 224 119 34 225 121 35 225 121 35 223 121 35
223 121 35 222 123 33 222 123 33 220 123 33 221 125 34 226 129 39
231 134 44 229 135 44 229 135 44 226 134 42 226 134 42 226 134 42
226 134 42 228 133 42 228 133 42 230 133 42 230 133 42 231 133 46
231 133 46 231 133 46 231 133 46 232 133 46 234 132 46 236 131 46
239 129 48 217 103 25 219 102 25 221 101 25 221 101 25 220 103 26
220 103 26 222 102 26 223 101 28 228 100 30 227 97 29 207 74 7
203 68 4 209 70 10 209 70 12 209 70 12 209 70 12 209 70 12 209 70 12
209 70 12 207 71 12 204 65 7 204 65 7 201 65 6 201 65 6 202 66 7
202 66 5 202 66 5 202 66 5 201 65 4 203 68 6 208 72 11 210 75 11
210 75 11 210 75 9 210 75 11 210 75 11 210 75 11 210 75 11 210 75 11
210 75 11 221 86 22 221 86 22 221 86 22 219 87 20 219 87 20 219 87 20
219 87 20 219 87 20 218 86 19 219 83 20 214 79 15 212 76 13 213 77 14
213 77 14 213 77 14 213 77 14 214 76 16 214 76 16 214 76 16 214 76 16
203 64 6 203 64 6 203 64 6 203 64 6 203 64 6 203 64 6 203 64 6
203 64 6 204 63 8 199 63 4 240 116 51 234 118 46 229 119 40
229 120 36 233 119 34 231 120 34 225 123 32 225 123 32 228 121 34
223 124 34 241 157 62 237 159 62 240 157 62 241 157 62 241 157 62
241 157 62 241 157 62 241 157 62 241 157 62 238 153 59 233 148 54
233 148 54 233 148 56 233 150 57 233 150 57 233 150 57 233 150 59
233 150 59 233 150 59 241 146 59 215 100 23 222 97 23 222 97 25
222 97 25 223 95 27 223 95 27 223 95 27 223 95 29 225 97 31 226 95 30
203 72 7 203 72 7 203 72 9 204 71 9 204 70 11 206 70 11 206 69 13
206 67 12 207 69 11 207 71 12 207 73 11 208 75 10 207 77 11 207 77 11
206 78 11 206 78 11 206 76 8 208 76 6 210 76 5 204 78 4 228 115 35
219 115 29 220 116 28 220 116 28 219 117 30 219 117 30 217 118 30
217 118 30 216 118 30 216 118 30 227 130 42 231 133 46 229 134 46
229 134 46 228 135 46 228 135 46 229 135 44 229 135 44 231 134 44
231 132 42 209 108 19 208 107 18 209 107 21 209 107 21 209 107 21
209 107 21 211 107 21 213 106 21 214 105 23 217 103 23 198 81 4
201 79 4 203 78 4 203 78 4 202 80 7 202 80 7 204 79 7 206 78 7
205 74 9 212 76 13 199 61 0 205 65 5 201 60 3 201 60 3 201 60 3
201 60 3 201 59 5 201 59 5 200 61 6 200 61 6 200 61 6 200 61 6
203 64 8 203 64 8 203 64 8 203 64 6 203 64 6 203 65 4 200 64 3
202 67 3 207 72 8 209 74 10 209 74 10 209 74 10 209 74 10 209 74 10
209 74 10 211 73 12 211 73 12 211 73 12 203 65 4 203 65 4 203 65 4
201 66 2 201 66 2 201 66 2 201 66 2 201 66 2 202 67 3 203 65 4
198 60 0 196 58 0 197 59 0 197 59 0 197 59 0 198 57 0 198 57 0
198 57 0 198 57 0 198 57 0 204 65 7 204 65 7 204 65 7 204 65 7
204 65 7 204 65 7 204 65 7 204 65 7 204 65 7 198 65 3 238 118 47
232 119 44 228 121 38 228 121 34 231 120 32 228 122 32 220 126 32
218 127 32 221 125 34 217 127 34 235 160 62 230 162 62 233 161 62
235 160 62 235 160 62 235 160 62 235 160 62 235 160 62 235 160 62
232 156 59 227 152 54 227 152 54 227 151 56 226 153 57 226 153 57
226 153 57 226 153 59 226 153 59 226 153 59 234 149 59 212 102 21
220 98 21 220 98 23 220 98 23 222 97 25 222 97 25 222 96 27 222 96 27
224 99 29 224 97 28 203 72 7 201 71 6 203 72 9 203 72 9 204 70 11
205 68 10 206 67 12 205 66 11 206 68 10 207 69 11 207 71 10 207 74 9
206 76 10 206 76 10 204 76 10 204 76 10 206 76 8 206 76 8 209 77 7
204 78 4 226 114 34 219 115 29 220 116 28 220 116 28 219 117 30
219 117 30 217 118 30 217 118 30 216 118 30 216 118 30 227 130 42
231 133 46 229 134 46 229 134 46 228 135 46 228 135 46 228 135 44
229 135 44 232 133 44 233 131 42 211 107 19 212 105 18 213 106 21
213 106 21 213 106 21 213 106 21 213 106 21 214 105 21 217 103 23
219 102 23 201 79 4 203 78 4 204 78 4 204 78 4 206 78 7 206 78 7
206 78 7 207 77 9 208 73 9 213 75 15 201 60 1 206 63 4 201 60 3
201 60 3 201 60 3 201 60 3 201 59 5 201 59 5 200 61 6 200 61 6
200 61 6 200 61 6 202 63 7 202 63 7 203 64 8 203 64 8 203 64 6
203 64 6 200 64 3 202 67 3 207 72 8 209 74 10 208 73 9 208 72 11
208 72 11 210 72 11 210 72 11 210 72 11 210 72 11 210 72 11 203 65 4
203 64 6 203 64 6 203 65 4 203 65 4 203 65 4 203 65 4 203 65 4
204 66 5 203 64 6 198 59 2 197 56 0 198 57 0 198 57 0 198 57 0
200 56 2 200 56 2 200 56 2 200 56 2 200 56 2 206 68 10 206 68 10
206 68 10 206 68 10 206 68 10 206 68 10 206 68 10 206 68 10 205 67 6
199 69 3 237 119 45 231 120 41 226 122 36 226 122 32 229 121 32
228 122 30 221 125 32 220 126 32 223 124 34 218 126 34 235 160 62
232 161 62 235 160 62 237 159 62 237 159 62 237 159 62 237 159 62
237 159 62 237 159 62 233 155 59 228 151 54 228 151 54 227 152 54
228 153 55 228 153 55 228 152 57 228 152 57 228 152 57 228 152 57
234 149 57 212 103 19 218 99 21 220 98 21 220 98 23 220 98 23
220 97 25 222 97 25 222 97 25 224 99 27 223 97 28 201 73 5 201 71 6
204 71 9 204 71 9 204 70 11 205 68 10 206 67 12 205 66 11 206 68 10
207 69 11 207 71 10 207 74 9 206 76 10 206 76 10 204 76 10 204 76 10
204 77 8 206 76 8 209 77 7 204 78 4 226 114 34 219 115 29 220 116 28
220 116 28 219 117 30 219 117 30 217 118 30 217 118 30 216 118 30
216 118 30 227 130 42 231 133 46 229 134 46 229 134 46 228 135 46
228 135 46 228 135 44 229 135 44 234 132 44 236 129 42 213 106 19
213 104 18 214 105 21 214 105 21 214 105 21 214 105 21 214 105 21
216 104 21 217 103 23 221 101 23 203 78 4 204 78 4 204 78 4 206 77 4
207 77 7 207 77 9 207 77 9 209 76 9 210 72 9 215 74 15 202 59 1
206 63 4 201 60 3 201 60 3 201 60 3 201 60 3 201 59 5 201 59 5
200 61 6 200 61 6 202 63 7 202 63 7 202 63 7 202 63 7 203 64 6
203 64 6 203 64 6 203 64 6 202 63 3 204 66 5 209 70 10 211 73 12
210 72 11 210 71 13 210 71 13 210 71 13 211 70 13 211 70 13 211 70 13
211 70 13 204 63 6 204 63 8 204 63 8 204 63 6 204 63 6 204 63 6
204 63 6 204 63 6 205 64 7 204 63 8 200 58 4 197 56 1 200 56 2
200 56 2 200 56 2 200 56 2 202 55 4 202 55 4 202 55 4 202 55 4
206 68 10 206 68 10 206 68 10 206 68 10 206 68 10 206 68 10 206 68 10
206 68 10 203 68 6 199 69 1 237 119 45 229 122 39 225 123 34
225 123 32 228 122 30 226 123 30 221 125 32 220 126 32 223 124 34
218 126 34 233 161 62 230 162 62 232 161 62 233 161 62 235 160 62
237 159 62 237 159 62 237 159 62 237 159 62 233 155 59 228 151 54
228 151 54 227 152 54 228 153 55 228 153 55 228 153 55 228 153 55
230 152 57 230 152 57 236 148 57 212 103 19 220 99 19 220 98 21
220 98 21 220 98 21 220 98 23 222 97 23 222 97 23 222 100 27
221 99 26 201 73 5 203 70 6 204 71 9 204 70 11 204 70 11 205 68 10
206 67 12 205 66 11 206 68 10 207 69 11 207 71 10 207 74 9 208 75 10
206 76 10 206 76 10 206 76 10 206 76 8 208 75 8 209 77 7 204 78 4
226 114 34 219 115 29 220 116 28 220 116 28 220 116 30 220 116 30
219 117 30 219 117 30 217 118 30 217 118 30 227 130 42 229 134 46
228 135 46 228 135 46 228 135 46 226 136 46 226 136 44 228 135 44
234 132 44 236 129 42 214 105 19 215 103 18 216 104 21 216 104 21
216 104 21 216 104 21 216 104 21 216 104 23 217 103 23 221 101 25
203 78 4 204 78 4 206 77 4 206 76 6 207 77 9 209 76 9 209 76 9
210 75 11 210 72 11 215 74 15 201 60 1 204 64 4 201 60 3 201 60 3
201 60 3 201 60 3 201 59 5 201 59 5 200 61 6 200 61 6 202 63 7
202 63 7 202 63 7 202 63 7 203 64 6 203 64 6 203 64 6 203 64 6
202 63 5 204 66 5 209 70 10 211 73 12 211 70 13 211 70 13 210 71 13
210 71 13 211 70 13 211 70 13 211 70 13 211 70 13 204 63 8 204 63 8
204 63 8 204 63 8 204 63 6 204 63 6 204 63 6 204 63 8 205 64 9
204 63 8 200 58 4 197 56 1 200 56 2 200 56 2 200 56 2 200 56 4
202 55 4 202 55 4 202 55 4 202 55 4 206 68 10 206 68 10 206 68 10
206 68 10 206 68 10 206 68 10 206 68 10 206 68 10 203 68 6 199 69 1
237 119 45 229 122 39 225 123 34 225 123 32 228 122 30 226 123 30
221 125 32 220 126 32 221 125 34 215 128 34 230 162 62 225 165 62
227 164 62 229 163 62 233 161 62 235 160 62 235 160 62 235 160 62
237 159 60 233 156 57 228 151 52 227 150 51 228 151 54 228 151 54
228 151 54 228 151 54 230 152 55 231 151 55 231 151 55 238 148 55
214 102 17 222 98 19 222 98 19 222 98 19 222 98 19 222 97 21
222 97 21 220 98 21 221 101 25 219 99 26 201 73 5 203 70 6 206 70 9
206 70 11 204 70 13 206 69 13 206 67 12 208 66 12 209 68 11 209 70 12
208 72 11 209 74 10 209 76 11 209 76 11 207 77 11 209 76 11 210 75 9
210 75 9 212 77 9 206 79 5 228 115 35 222 115 30 222 115 30
222 115 30 222 115 30 222 115 30 222 115 30 222 115 30 222 115 30
219 117 30 226 131 42 226 136 46 226 136 46 226 136 46 226 136 46
224 137 46 224 137 46 226 136 46 229 134 46 231 131 44 214 105 21
216 102 20 221 102 21 221 102 21 217 103 23 216 104 23 216 104 23
216 103 25 217 103 25 219 102 25 201 79 6 204 77 6 206 76 6 206 76 8
209 76 9 209 76 11 210 75 11 210 75 11 210 72 11 213 75 15 199 61 1
204 64 4 201 60 3 201 60 3 201 60 3 201 60 3 201 59 5 201 59 5
201 59 5 201 59 5 203 62 7 203 62 7 203 64 8 203 64 8 204 63 8
204 63 8 204 63 8 204 63 8 202 63 7 204 65 7 209 70 12 211 72 14
210 69 12 210 69 12 210 69 12 210 69 12 211 70 15 211 70 15 210 71 15
210 71 15 204 65 9 204 65 9 204 65 9 204 65 9 204 65 9 204 65 9
204 65 9 204 65 9 207 65 13 205 64 11 201 59 7 198 57 4 198 57 4
198 57 4 198 57 4 200 56 4 200 56 6 200 56 6 200 56 6 200 56 6
206 68 10 206 68 10 206 68 10 206 68 10 206 68 10 206 68 10 206 68 10
206 68 10 203 68 6 199 69 3 237 119 45 229 122 39 225 123 34
225 123 32 228 122 32 228 122 32 223 124 32 221 125 32 223 124 34
217 127 34 230 162 62 224 165 62 225 165 62 227 164 62 233 161 62
235 160 62 235 160 62 235 160 62 237 159 60 233 156 57 228 151 52
227 150 51 228 151 54 228 151 54 228 151 54 228 151 54 231 152 53
231 152 53 231 152 53 239 148 53 215 101 17 222 98 17 222 98 19
222 98 19 222 98 19 222 98 19 222 98 19 220 98 21 219 102 23
219 100 24 201 74 3 205 69 6 207 69 9 207 69 11 206 69 13 206 69 13
206 67 12 208 66 12 209 68 11 210 69 12 210 72 11 209 74 10 209 76 11
209 76 11 207 77 11 209 76 11 212 75 9 212 75 9 212 77 9 206 79 5
229 115 35 222 115 30 222 115 30 222 115 30 222 115 30 222 115 30
222 115 30 222 115 30 222 115 30 220 116 30 226 131 42 226 136 46
226 136 46 226 136 46 226 136 46 226 136 46 226 136 46 226 136 46
226 136 46 230 132 46 213 105 23 216 102 22 221 101 23 221 101 23
217 103 23 216 103 25 216 103 25 216 103 25 217 103 25 219 102 25
201 79 6 204 77 8 206 76 8 208 75 8 209 76 11 209 76 11 210 75 11
210 75 11 210 72 11 213 75 15 199 61 1 203 65 4 201 60 3 201 60 3
201 60 3 201 60 3 201 59 5 201 59 5 201 59 5 201 59 5 203 62 7
203 62 7 203 64 8 203 64 8 204 63 8 204 63 8 204 63 8 204 63 8
202 63 7 204 65 9 209 70 12 211 72 14 210 69 12 210 69 12 210 69 12
210 69 12 211 70 13 210 71 15 210 71 15 210 71 15 204 65 9 204 65 9
204 65 9 204 65 9 204 65 9 204 65 9 204 65 9 204 65 9 207 65 13
205 64 11 201 59 7 198 57 4 198 57 4 198 57 4 198 57 4 198 57 4
200 56 6 200 56 6 200 56 6 200 56 6 206 68 10 206 68 10 206 68 10
206 68 10 206 68 10 206 68 10 206 68 10 206 68 10 205 67 6 199 69 3
237 118 47 231 120 41 226 122 36 226 122 34 229 120 34 229 121 32
225 123 32 225 123 32 225 123 34 218 126 34 233 161 62 227 164 62
227 164 62 230 162 62 233 161 62 237 159 62 237 159 62 237 159 62
237 159 60 233 156 57 228 151 52 227 150 51 228 151 52 228 151 52
228 151 52 228 151 52 231 152 53 231 152 53 231 152 53 239 148 53
215 101 17 222 98 17 222 98 19 222 98 19 222 97 21 222 97 21
222 97 21 220 98 21 217 103 23 218 101 24 201 74 3 205 69 6 209 68 9
209 68 11 206 70 11 206 70 11 208 66 12 209 66 12 209 68 11 210 69 12
210 72 11 209 74 10 209 76 11 209 76 11 207 77 11 209 76 11 212 75 9
212 75 9 212 77 9 206 79 5 229 115 35 222 115 32 220 115 32
220 115 32 220 116 30 220 116 30 220 116 30 220 116 30 220 116 30
219 117 30 229 129 42 231 133 46 231 133 46 231 133 46 231 133 46
231 133 46 231 133 48 229 134 48 226 136 48 226 133 48 211 106 25
215 102 24 219 102 25 219 102 25 216 103 25 214 104 27 216 103 27
216 103 27 217 103 25 221 101 27 203 78 8 204 76 10 206 76 10
208 75 10 210 75 11 210 75 11 210 75 11 210 75 11 210 72 11 213 75 15
199 61 1 203 65 4 199 61 3 199 61 3 199 61 3 199 61 3 201 59 5
201 59 5 201 59 5 201 59 5 204 63 8 204 63 8 203 64 8 203 64 8
203 64 6 203 64 6 203 64 6 203 64 6 202 63 5 204 65 7 209 70 12
211 72 14 209 70 10 209 70 10 209 70 10 209 70 10 210 72 11 208 72 13
208 72 13 208 72 13 202 66 7 202 66 7 202 66 7 202 66 7 202 66 7
202 66 7 202 66 7 204 65 9 207 65 13 205 64 11 201 59 7 198 57 4
198 57 4 198 57 4 198 57 4 198 57 4 200 56 6 200 56 6 200 56 6
200 56 6 206 68 10 206 68 10 206 68 10 206 68 10 206 68 10 206 68 10
206 68 10 206 68 10 204 66 5 203 70 6 238 118 47 231 120 41
226 122 36 226 122 34 229 120 34 229 120 34 228 122 32 226 122 32
228 121 34 221 125 34 235 160 62 229 163 62 230 162 62 232 161 62
235 160 62 237 159 62 237 159 62 237 159 62 237 159 60 233 156 57
228 151 52 227 150 51 228 151 52 228 151 52 228 151 52 230 150 52
231 152 53 231 152 53 231 152 53 239 148 53 212 101 16 219 98 16
219 97 18 219 97 18 219 97 20 219 97 20 219 97 20 217 98 20
215 101 21 216 98 22 199 71 0 202 67 3 209 68 9 209 68 11 206 70 11
206 69 13 208 66 12 209 66 12 209 68 11 210 69 12 210 72 11 208 73 9
208 75 10 208 75 10 207 77 11 209 76 11 212 75 9 212 75 9 212 77 9
206 79 5 229 115 35 222 115 32 220 115 32 219 116 32 219 116 32
219 116 32 219 116 32 219 116 32 219 116 32 219 116 32 229 129 44
232 132 48 232 132 48 232 132 48 232 132 48 232 132 48 232 132 48
229 133 50 226 135 50 226 133 48 209 107 25 215 102 26 219 101 27
219 101 29 216 103 29 214 104 27 216 103 27 219 101 27 221 101 27
222 100 27 204 76 10 206 76 10 208 75 10 209 74 10 210 75 11
210 75 11 210 75 11 210 75 13 210 72 11 212 74 13 202 63 3 203 64 6
200 62 4 199 61 3 199 61 3 201 59 5 201 59 5 201 59 5 201 59 5
201 59 5 203 62 7 203 62 7 202 63 7 202 63 7 202 63 5 202 63 5
202 63 5 202 63 5 202 63 5 204 65 7 209 70 12 211 73 12 209 70 10
207 71 10 207 71 10 207 71 10 208 72 11 207 73 11 207 73 11 207 73 11
201 67 5 202 66 7 202 66 7 202 66 7 202 66 7 202 66 7 202 66 7
202 66 7 205 66 11 205 64 11 200 58 6 200 58 6 198 57 4 198 57 4
198 57 4 198 57 4 200 56 6 200 56 6 200 56 6 200 56 6 206 68 10
206 68 10 206 68 10 206 68 10 206 68 10 206 68 10 206 68 10 206 68 10
204 66 5 205 72 8 236 115 44 238 127 48 222 117 32 222 117 30
228 116 31 228 116 31 226 117 29 226 117 29 229 117 32 222 121 32
236 156 60 229 159 60 231 158 60 233 157 60 234 157 60 234 157 60
234 157 60 234 157 60 236 156 58 232 153 54 228 148 50 228 148 50
229 149 53 230 150 54 230 150 54 230 150 54 233 150 55 233 150 55
233 150 55 239 147 55 211 102 16 217 99 16 217 98 18 217 98 18
217 98 20 217 98 20 217 98 20 216 99 20 214 100 18 214 97 19 199 69 0
203 65 2 208 67 10 208 66 12 205 68 12 205 68 12 208 66 14 209 66 12
209 68 11 209 68 11 209 70 10 208 73 9 208 75 10 208 75 10 206 76 10
208 75 10 209 74 8 211 73 8 209 75 6 207 80 7 224 110 30 224 117 35
221 114 31 219 114 31 219 114 31 219 114 33 219 114 33 219 114 33
218 115 33 218 115 33 227 126 44 230 130 47 228 130 47 228 130 47
228 130 47 228 130 47 228 130 47 227 131 47 228 137 54 229 133 52
211 105 27 216 101 28 217 97 26 217 96 28 214 98 28 212 99 26
216 97 26 219 96 26 220 95 26 222 94 26 207 77 11 210 75 13 212 74 13
212 74 13 211 73 12 211 73 12 211 73 12 211 73 12 209 70 12 209 70 12
203 64 6 203 64 6 202 61 6 202 61 6 202 61 6 201 59 5 202 58 7
202 58 7 202 58 7 201 59 5 203 62 7 202 63 5 203 62 5 203 62 5
202 63 5 202 63 5 202 63 3 202 63 3 201 65 4 196 61 0 208 72 11
205 69 6 205 69 6 203 70 6 203 70 6 203 70 6 204 71 7 203 72 7
203 72 7 203 72 7 201 71 6 203 70 8 203 70 8 203 70 8 203 70 8
203 70 8 205 68 10 205 68 10 199 63 4 205 66 11 197 58 2 201 59 7
200 58 6 201 57 8 201 57 8 201 57 8 201 57 6 201 57 6 201 57 6
201 57 6 206 68 10 206 68 10 206 68 10 206 68 10 206 68 10 206 68 10
206 68 10 206 68 10 204 66 5 207 74 9 230 109 39 229 119 40
225 121 35 225 121 33 231 120 34 233 119 34 233 119 32 233 119 32
235 119 35 229 122 35 243 158 63 236 161 63 238 160 63 238 160 63
238 160 63 238 160 63 238 160 63 238 160 63 239 160 61 236 156 58
231 152 53 230 150 52 228 148 52 228 148 52 228 148 52 228 148 52
230 148 53 230 148 53 230 148 53 235 146 53 212 105 18 216 103 18
216 102 20 216 102 20 216 102 22 216 102 22 216 102 22 216 102 22
214 102 19 216 99 20 200 70 0 204 66 3 208 67 10 208 66 12 205 68 12
205 68 12 208 66 14 209 65 14 209 68 13 209 68 11 209 70 10 207 72 8
207 74 9 207 74 9 206 76 10 208 75 10 209 74 8 211 73 8 207 72 4
208 81 10 222 107 30 226 116 35 226 114 34 226 114 34 225 115 36
225 115 36 225 115 36 225 115 36 225 115 36 224 117 37 229 121 41
234 126 46 232 127 46 232 127 46 232 126 48 232 126 48 232 127 46
230 127 48 228 130 49 230 129 51 217 104 30 222 101 32 223 97 30
223 97 30 219 99 30 218 99 30 221 98 30 223 97 28 224 97 28 226 95 30
207 71 10 209 70 10 210 70 10 210 70 10 207 69 9 207 69 9 207 69 9
207 69 9 205 66 9 203 64 6 200 62 4 200 62 4 202 61 6 201 59 5
201 59 5 201 59 5 202 58 7 202 58 7 202 58 7 202 58 7 204 63 8
203 64 6 204 63 6 204 63 6 203 64 6 203 64 6 203 65 4 203 65 4
196 61 0 194 59 0 209 74 10 205 73 6 205 73 6 204 74 6 204 74 6
202 74 6 203 76 7 203 76 7 203 76 7 203 75 9 197 69 3 197 69 3
199 69 3 199 68 5 201 67 5 202 66 7 202 66 7 202 66 7 205 68 10
209 70 14 197 58 2 201 59 7 201 57 6 201 57 8 201 57 8 201 57 8
201 57 6 201 57 6 201 57 6 201 57 6 207 69 11 207 69 11 207 69 11
207 69 11 207 69 11 207 69 11 207 69 11 207 69 11 206 68 8 204 71 7
223 102 32 218 108 29 206 102 17 206 102 14 212 101 18 214 100 16
216 100 14 217 99 14 218 100 17 212 103 17 227 137 45 221 141 45
221 141 45 221 141 45 221 141 45 221 141 45 221 141 45 221 141 45
221 141 43 217 138 39 213 133 35 211 132 33 223 143 47 223 143 47
223 143 47 223 143 47 226 143 48 226 143 48 226 143 48 231 141 48
215 110 23 219 108 23 219 108 25 219 108 25 219 107 27 219 107 27
219 107 27 219 107 27 218 106 23 220 104 22 205 75 5 209 71 8
208 67 10 208 66 12 205 68 10 205 68 12 208 66 14 209 65 14 209 68 13
209 68 11 209 70 10 208 73 9 208 75 10 208 75 10 206 76 10 208 75 10
209 74 8 211 73 8 209 75 6 203 76 5 198 83 5 196 84 5 199 82 5
202 82 7 202 82 7 202 82 7 204 81 7 204 81 7 204 81 7 204 81 7
207 85 10 211 88 14 211 88 14 211 88 14 211 88 16 211 88 16 211 88 16
207 90 16 196 88 13 201 90 18 192 71 2 200 72 6 201 67 5 201 67 5
197 69 5 196 70 5 196 70 3 197 69 3 199 69 3 200 67 2 202 63 3
202 61 2 204 61 2 202 61 2 202 63 3 202 63 3 202 63 3 202 63 3
200 62 4 200 62 4 199 61 3 199 61 3 201 59 5 201 59 5 201 59 5
201 59 5 202 58 7 202 58 7 202 58 7 202 58 7 207 65 11 205 66 9
205 66 9 205 66 9 205 66 9 205 66 9 203 67 9 203 68 6 206 70 7
207 72 6 223 90 23 221 91 21 221 91 21 220 92 21 220 92 21 218 93 21
219 94 23 219 94 23 219 94 23 219 94 25 208 82 13 208 82 13 208 82 13
209 81 15 212 79 17 214 78 19 216 77 21 216 77 21 214 75 20 214 75 22
200 58 6 200 58 6 201 57 6 201 57 6 201 57 6 201 57 6 201 57 6
201 57 6 201 57 6 201 57 6 207 69 11 207 69 11 207 69 11 207 69 11
207 69 11 207 69 11 207 69 11 207 69 11 207 69 9 203 72 7 217 97 26
211 99 21 213 104 20 213 104 18 216 104 21 219 103 21 219 103 19
221 102 17 222 103 20 217 106 20 231 141 48 226 143 48 226 143 48
226 143 48 224 144 48 224 144 48 224 144 48 224 144 48 224 145 46
222 140 43 218 136 38 216 136 38 221 141 45 221 141 45 221 141 45
222 140 45 223 141 46 223 141 46 223 141 46 228 139 46 215 114 25
220 111 25 220 111 27 220 111 27 220 110 29 220 110 29 220 110 29
220 111 27 221 109 24 223 106 25 206 76 6 209 71 8 208 67 10
208 66 12 205 68 10 205 68 10 208 66 12 209 66 12 209 68 11 207 69 11
207 71 10 208 73 9 208 75 10 208 75 10 206 76 10 208 75 10 209 74 8
209 74 8 208 75 8 204 77 6 206 86 10 197 80 3 205 83 8 206 82 8
206 82 8 206 82 8 208 81 8 208 81 8 208 81 8 208 81 8 208 81 8
213 84 11 213 84 11 213 83 13 213 83 13 213 83 13 213 83 13 211 84 15
197 78 9 203 84 15 195 67 1 204 71 7 205 67 6 205 67 6 203 68 6
202 68 6 200 69 6 200 69 6 201 67 5 201 65 4 202 61 2 202 59 1
201 58 0 200 59 0 201 60 1 199 61 1 199 61 1 199 61 3 199 61 3
201 59 5 201 59 5 201 59 5 201 59 5 201 59 5 201 59 5 201 59 5
202 58 7 202 58 7 202 58 7 202 58 7 208 66 12 206 68 10 206 68 10
206 68 10 206 68 10 206 68 10 205 68 10 205 68 10 203 68 4 205 70 4
223 90 23 224 94 24 222 95 22 220 96 22 220 96 22 219 97 22 220 98 23
220 98 23 220 97 25 220 97 25 204 81 9 204 81 9 204 81 9 205 80 11
210 77 15 212 75 17 212 75 17 212 75 17 217 81 22 218 79 23 201 59 7
198 57 4 201 57 6 201 57 6 201 57 6 201 57 6 201 57 6 201 57 6
201 57 6 201 57 6 206 70 9 206 70 9 206 70 9 206 70 9 206 70 9
206 70 9 206 70 9 206 70 9 208 72 11 203 72 7 219 99 26 215 100 23
218 101 20 218 101 20 218 101 20 218 101 20 215 101 17 215 101 17
218 100 17 212 103 17 229 137 45 222 140 45 226 138 45 224 139 45
222 140 45 221 141 45 221 141 45 221 141 45 223 141 46 225 140 46
225 140 46 223 141 46 222 140 45 222 140 45 222 140 45 222 140 45
225 140 46 225 140 46 225 140 46 228 139 46 216 114 28 220 113 28
220 113 28 220 113 28 220 113 28 220 113 28 220 113 28 221 112 28
223 112 26 223 106 25 205 75 5 206 68 8 207 65 11 207 65 11 203 67 9
203 67 9 206 67 12 208 66 12 209 68 11 209 70 12 208 72 11 207 74 9
208 75 8 206 76 8 209 76 11 209 76 11 210 75 11 210 75 11 209 76 9
207 77 7 206 79 5 204 79 5 207 80 7 207 80 7 207 80 7 207 80 7
208 81 10 208 81 10 208 81 10 208 81 10 209 82 11 209 82 11 209 82 11
209 82 11 209 81 13 209 81 13 209 81 13 209 81 15 207 79 13 206 76 10
203 70 6 203 68 4 205 67 6 205 67 6 205 67 6 203 68 6 203 68 6
203 67 9 203 67 9 205 66 9 201 60 3 201 60 3 201 60 3 201 60 3
201 60 3 201 60 3 199 61 3 199 61 3 200 58 4 201 57 6 201 57 6
200 58 4 200 58 4 200 58 4 200 58 4 200 58 4 201 57 6 201 57 6
201 57 6 201 57 6 208 66 12 206 68 10 205 68 10 205 68 10 205 68 10
205 68 10 206 67 12 206 68 10 203 68 6 207 72 8 225 93 26 226 96 26
223 96 23 222 97 21 220 98 21 218 99 21 218 99 21 218 99 23 218 99 23
218 99 23 202 82 7 202 82 7 202 82 7 205 80 9 208 78 13 210 77 13
208 78 11 208 78 11 211 78 14 213 77 16 200 58 4 201 57 6 201 57 4
201 57 4 201 57 4 201 57 4 203 56 6 203 56 6 203 56 6 203 56 6
206 70 9 206 70 9 206 70 9 206 70 9 206 70 9 206 70 9 206 70 9
206 70 9 208 72 11 204 73 8 219 99 26 217 99 23 219 100 22 221 100 20
219 101 20 218 101 20 215 101 17 215 101 17 217 101 17 212 103 17
229 137 45 224 139 45 226 138 45 226 138 45 222 140 45 221 141 45
221 141 45 222 140 45 225 140 46 225 140 46 225 140 46 225 140 46
223 141 46 223 141 46 223 141 46 223 141 46 226 141 47 226 141 47
226 141 47 229 140 47 216 114 28 220 113 28 220 113 28 220 113 28
220 113 28 220 113 28 220 113 28 221 112 28 224 113 27 223 106 25
204 74 4 204 66 5 207 65 11 207 65 11 203 67 9 203 68 6 206 68 10
208 66 12 207 69 11 209 70 12 208 72 11 207 74 9 206 76 8 206 76 8
209 76 11 209 76 11 210 75 11 210 75 11 209 76 9 209 76 9 207 77 7
207 78 5 208 79 7 208 79 7 207 80 7 207 80 7 208 81 10 208 81 10
208 81 10 208 81 10 208 83 11 208 83 11 208 83 11 208 83 11 208 82 13
208 82 13 208 82 15 209 81 15 210 77 13 209 74 10 205 69 6 203 68 4
205 67 6 205 67 6 205 67 6 205 67 6 205 66 9 205 66 9 205 66 9
205 66 9 201 60 3 201 60 3 201 60 3 201 60 3 201 60 3 201 60 3
199 61 3 201 59 5 201 57 6 201 57 6 201 57 6 201 57 6 200 58 4
200 58 4 200 58 4 200 58 4 201 57 6 201 57 6 201 57 6 201 57 6
208 66 12 206 68 10 205 68 10 205 68 10 205 68 10 205 68 10 206 67 12
206 68 10 205 69 8 207 72 8 225 92 28 226 96 26 222 97 23 220 98 21
218 99 19 218 99 19 217 100 21 217 100 21 218 99 23 218 99 23
202 82 7 202 82 7 202 82 7 204 81 9 208 78 11 208 78 11 207 79 9
207 79 9 210 79 12 213 77 14 200 58 4 201 57 6 201 57 4 201 57 4
201 57 4 201 57 4 203 56 6 203 56 6 203 56 6 203 56 6 207 71 10
207 71 10 207 71 10 207 71 10 207 71 10 207 71 10 207 71 10 207 71 10
208 72 11 204 73 8 219 99 26 217 99 23 219 100 22 221 100 20
219 100 22 218 101 20 215 101 17 215 101 17 217 101 17 212 103 17
229 137 45 224 139 45 226 138 45 226 138 45 224 139 45 222 140 45
222 140 45 222 140 45 225 140 46 225 140 46 225 140 46 225 140 46
223 141 46 223 141 46 223 141 46 223 141 46 226 141 47 226 141 47
226 141 47 229 140 47 216 114 28 220 113 28 220 113 28 220 113 28
220 113 28 220 113 28 220 113 28 221 112 28 224 113 27 224 107 26
204 74 4 205 67 6 207 65 11 207 65 11 203 68 6 203 68 6 206 68 10
208 66 12 207 69 11 209 70 12 208 72 11 208 75 10 207 77 9 207 77 9
209 76 11 209 76 11 210 75 11 210 75 11 209 76 9 209 76 9 207 77 7
207 77 7 208 79 9 208 79 9 207 80 7 207 80 7 208 81 10 208 81 10
208 81 10 208 81 10 208 83 11 208 83 11 208 83 11 208 83 11 208 82 13
208 82 13 208 82 15 209 81 15 210 77 13 209 74 10 205 69 6 203 68 4
205 67 6 205 67 6 205 67 6 205 67 6 205 66 9 205 66 9 205 66 9
205 66 9 201 60 3 201 60 3 201 60 3 201 60 3 201 60 3 201 60 3
199 61 3 201 59 5 201 57 6 201 57 6 201 57 6 201 57 6 200 58 4
200 58 4 200 58 4 200 58 4 201 57 6 201 57 6 201 57 6 201 57 6
208 66 12 206 68 10 205 69 8 205 69 8 205 69 8 205 68 10 206 68 10
206 68 10 206 68 10 207 71 10 225 92 28 226 96 28 222 97 23 220 98 21
218 99 19 217 100 19 217 100 21 217 100 21 218 99 23 218 98 25
202 82 9 202 82 9 202 82 9 204 81 9 207 79 11 208 78 11 207 79 9
207 79 9 210 79 12 211 78 14 200 58 4 201 57 6 203 57 4 203 57 4
203 57 4 203 57 4 203 56 6 203 56 6 203 56 6 203 56 6 207 71 10
207 71 10 207 71 10 207 71 10 207 71 10 207 71 10 207 71 10 207 71 10
208 72 11 204 73 8 219 99 26 217 99 23 219 100 22 221 100 20
219 100 22 218 101 22 215 101 19 215 101 17 217 101 17 212 103 17
229 137 45 224 139 45 226 138 45 226 138 45 224 139 45 222 140 45
222 140 45 222 140 45 225 140 46 225 140 46 225 140 46 225 140 46
225 140 46 225 140 48 225 140 48 225 140 48 226 141 49 226 141 49
226 141 49 229 139 49 216 114 28 220 113 28 220 113 28 220 113 28
220 113 28 220 113 28 220 113 28 221 112 28 223 112 24 225 108 27
201 72 2 205 67 6 207 65 11 207 65 11 203 68 6 203 68 6 206 68 10
208 66 12 207 69 11 207 71 12 207 73 11 207 74 9 206 76 8 206 76 8
209 76 11 209 76 11 210 75 11 210 75 11 209 76 9 209 76 9 207 77 7
207 77 7 208 79 9 208 79 9 207 80 7 207 79 9 208 81 10 208 81 10
208 81 10 208 81 10 208 83 11 208 83 11 208 83 11 208 82 13 208 82 13
208 82 13 208 82 15 209 81 15 210 77 13 209 74 10 205 69 6 203 68 4
205 67 6 205 67 6 205 67 6 205 67 6 205 66 9 205 66 9 205 66 9
205 66 9 201 60 3 201 60 3 201 60 3 201 60 3 201 60 3 201 60 3
199 61 3 201 59 5 201 57 6 201 57 6 201 57 6 201 57 6 200 58 4
200 58 4 200 58 4 201 57 6 201 57 6 201 57 6 201 57 6 201 57 6
206 68 10 206 68 10 205 69 8 205 69 8 205 69 8 205 69 8 206 68 10
206 68 10 206 68 10 209 70 10 227 91 28 226 96 28 222 97 23 220 98 21
218 99 19 217 100 19 217 100 21 217 99 23 218 98 25 218 98 25
202 82 9 202 82 9 202 82 9 204 81 9 207 79 11 208 78 11 207 79 9
207 79 9 210 79 12 211 78 14 200 58 4 201 57 6 203 57 4 203 57 4
203 57 4 203 57 4 203 56 6 203 56 6 203 56 6 203 56 6 207 71 10
207 71 10 207 71 10 207 71 10 207 71 10 207 71 10 207 71 10 207 71 10
208 72 11 204 73 8 219 99 26 217 99 23 219 100 22 221 99 22
219 100 22 218 101 22 216 102 20 216 102 20 219 101 20 215 103 20
230 137 48 225 140 48 227 139 48 227 139 48 225 140 48 223 141 48
223 141 48 223 141 48 225 140 48 225 140 48 225 140 48 225 140 48
225 140 48 227 139 50 227 139 50 227 139 50 228 140 51 228 140 51
228 140 51 231 138 51 216 114 30 220 112 30 220 112 30 220 112 30
220 112 30 220 112 30 220 112 30 221 112 28 223 112 24 226 110 26
200 70 2 205 66 9 208 66 12 208 66 12 206 68 8 205 69 8 206 68 10
206 67 12 207 69 11 206 70 11 205 72 10 205 74 9 206 76 8 206 76 8
206 76 10 208 75 10 208 75 10 208 75 10 209 76 11 209 76 9 207 77 7
207 77 7 208 79 9 208 79 9 207 79 9 207 79 9 208 80 12 208 80 12
208 80 12 208 80 12 208 82 13 208 82 13 208 82 13 208 82 13 208 82 15
208 82 15 208 82 15 209 81 15 210 77 13 209 74 10 205 69 6 203 68 4
205 67 6 205 67 6 205 67 6 205 67 6 205 66 9 205 66 9 205 66 9
205 66 9 201 59 5 201 59 5 201 59 5 201 59 5 201 59 5 201 59 5
201 59 5 201 59 5 201 57 6 201 57 6 201 57 6 201 57 6 201 57 6
201 57 6 201 57 6 201 57 6 203 56 8 203 56 8 203 56 8 201 57 6
206 68 10 205 69 8 205 69 8 205 69 8 205 69 8 205 69 8 206 68 10
206 68 10 206 68 8 209 70 10 227 91 28 226 96 28 222 97 23 220 98 21
218 99 19 217 100 19 217 100 21 217 99 23 218 98 25 218 98 25
204 81 9 204 81 9 204 81 9 205 80 9 207 79 11 208 78 11 207 79 9
207 79 9 210 79 12 211 78 14 200 58 4 201 57 6 203 57 4 203 57 4
203 57 4 203 57 4 203 57 4 203 57 4 203 57 4 203 57 4 207 71 10
207 71 10 207 71 10 207 71 10 207 71 10 207 71 10 207 71 10 207 71 10
208 72 11 204 73 8 219 99 26 217 99 23 219 100 22 221 99 22
219 100 22 218 101 22 216 102 20 216 102 20 219 101 20 215 103 20
230 137 48 225 140 48 227 139 48 227 139 48 225 140 48 223 141 48
223 141 48 223 141 48 225 140 48 225 140 48 225 140 48 225 140 48
227 139 50 227 139 50 227 139 50 227 139 50 228 140 51 228 140 51
228 140 51 231 138 51 216 114 30 220 112 30 220 112 30 220 112 30
220 112 30 220 112 30 220 112 30 221 112 28 222 111 23 227 111 27
199 69 1 205 66 9 208 66 12 208 66 12 206 68 8 205 69 8 206 68 10
206 67 12 206 70 11 206 70 11 205 72 10 204 73 8 205 75 7 205 75 7
206 76 10 206 76 10 208 75 10 208 75 10 209 76 11 209 76 9 207 77 7
207 77 7 208 79 9 208 79 9 207 79 9 207 79 9 208 80 12 208 80 12
208 80 12 208 80 12 208 82 13 208 82 13 208 82 13 208 82 13 208 82 15
208 82 15 208 82 15 209 81 15 210 77 13 209 74 10 205 69 6 203 68 4
205 67 6 205 67 6 205 67 6 205 67 6 205 66 9 205 66 9 205 66 9
205 66 9 201 59 5 201 59 5 201 59 5 201 59 5 201 59 5 201 59 5
201 59 5 201 59 5 201 57 6 201 57 6 201 57 6 201 57 6 201 57 6
201 57 6 201 57 6 201 57 6 203 56 8 203 56 8 203 56 8 201 57 6
206 68 10 205 69 8 205 69 8 205 69 8 205 69 8 205 69 8 206 68 10
206 68 10 206 68 8 207 72 8 225 92 28 226 96 28 222 97 23 220 98 21
218 99 19 217 100 19 217 100 21 217 100 21 218 99 23 218 98 25
204 81 9 204 81 9 204 81 9 205 80 9 207 79 11 208 78 11 207 79 9
207 79 9 210 79 12 211 78 14 200 58 4 201 57 6 203 57 4 203 57 4
203 57 4 203 57 4 203 57 4 203 57 4 203 57 4 203 57 4 207 72 8
207 72 8 207 72 8 207 72 8 207 72 8 207 72 8 207 71 10 207 71 10
208 72 11 204 73 8 219 99 26 217 99 23 219 100 22 221 99 22
219 100 24 218 101 22 216 102 20 216 102 20 219 101 20 215 103 20
230 137 48 225 140 48 227 139 48 227 139 48 225 140 48 225 140 48
225 140 48 225 140 48 225 140 48 225 140 48 225 140 48 225 140 48
227 139 50 227 139 50 227 139 50 227 139 50 228 140 51 228 140 51
228 140 51 231 138 51 216 114 30 220 112 30 220 112 30 220 112 30
220 112 30 220 112 30 220 112 30 221 112 28 222 111 21 228 112 28
200 70 2 206 68 10 208 66 12 208 66 12 206 68 8 205 69 8 206 68 10
206 67 12 206 70 11 206 70 11 205 72 10 204 73 8 205 75 7 205 75 7
206 76 8 206 76 8 206 76 8 206 76 8 209 76 9 209 76 9 207 77 7
207 77 7 208 79 9 208 79 9 207 80 7 207 79 9 208 81 10 208 81 10
208 81 10 208 81 10 209 83 14 209 83 14 209 83 14 209 83 14 209 83 16
209 83 16 209 83 16 210 82 16 210 77 13 209 74 10 205 69 6 203 68 4
205 67 6 205 67 6 205 67 6 205 67 6 205 66 9 205 66 9 205 66 9
205 66 9 201 59 5 202 61 6 202 61 6 202 61 6 202 61 6 202 61 6
202 61 6 202 61 6 201 57 6 201 57 6 201 57 6 201 57 6 201 57 6
201 57 6 201 57 6 201 57 6 201 57 6 201 57 6 201 57 6 200 58 4
206 68 10 205 69 8 205 69 8 205 69 8 205 69 8 205 69 8 206 68 10
206 68 10 206 70 9 209 74 10 225 93 26 226 96 26 222 97 23 220 98 21
218 99 19 217 100 19 217 100 21 217 100 21 218 99 23 218 99 23
204 81 7 205 83 8 205 83 8 206 81 10 207 79 11 208 78 11 207 79 9
207 79 9 210 79 12 211 78 14 200 58 4 201 57 6 203 57 4 203 57 4
203 57 4 203 57 4 203 57 4 203 57 4 203 57 4 203 57 4 205 72 8
205 72 8 205 72 8 205 72 8 205 72 8 205 72 8 205 72 8 205 72 8
207 74 9 202 74 6 219 99 26 217 99 23 219 100 22 221 99 22 219 100 24
219 100 24 218 101 22 218 101 20 219 101 20 216 102 20 233 136 48
228 138 48 230 137 48 231 137 48 230 137 48 228 138 48 228 138 48
230 137 48 230 137 48 230 137 48 230 137 48 231 137 48 231 136 50
231 136 50 231 136 50 231 136 50 233 137 51 234 137 51 234 137 51
236 136 51 220 112 30 223 111 30 223 111 30 223 111 30 224 110 30
224 110 30 224 110 32 224 110 30 225 108 27 232 110 32 200 70 2
205 66 9 205 64 9 205 64 9 205 66 9 203 68 6 205 66 9 205 66 11
205 68 10 205 68 10 205 72 10 204 73 8 205 75 7 205 75 7 206 76 8
206 76 8 206 76 8 206 76 8 207 77 9 206 78 9 206 78 7 206 78 7
207 79 9 205 80 9 205 81 7 205 81 7 206 81 10 206 81 10 206 81 10
206 81 10 209 83 14 209 83 14 209 83 14 209 83 14 209 83 16 209 83 16
209 83 16 210 82 16 210 77 13 209 74 10 203 68 4 203 68 4 205 67 6
205 67 6 205 67 6 205 67 6 205 66 9 205 66 9 205 66 9 204 65 7
201 59 5 202 61 6 202 61 6 202 61 6 202 61 6 202 61 6 202 61 6
202 61 6 201 57 6 201 57 6 201 57 6 201 57 6 201 57 6 201 57 6
201 57 6 201 57 6 201 57 6 201 57 6 201 57 6 200 58 4 205 69 8
203 70 6 203 70 6 203 70 6 203 70 6 203 70 6 205 69 8 205 69 6
207 72 8 207 77 9 219 96 24 218 101 24 215 101 21 214 101 21
210 103 19 210 103 19 212 102 21 212 102 21 212 102 23 215 100 23
202 82 7 206 84 9 205 83 8 206 82 8 208 81 10 208 81 10 205 81 7
205 81 7 208 81 10 211 78 14 200 59 2 201 57 4 201 57 4 201 57 4
201 57 4 201 57 4 201 57 4 201 57 4 201 57 4 201 57 4 211 80 15
211 80 15 211 80 15 211 80 15 211 80 15 211 80 15 209 81 13 209 81 13
209 81 13 209 84 12 213 91 16 214 94 18 216 95 17 216 95 17 216 94 19
216 94 19 215 95 17 215 96 15 216 95 15 213 97 15 217 110 26
214 112 26 216 111 26 216 111 26 214 112 26 213 113 26 214 112 26
216 111 26 219 111 29 220 112 30 206 96 15 209 97 16 208 96 15
208 96 15 208 96 15 208 96 15 209 96 18 210 96 18 210 96 18 212 95 18
202 82 7 204 81 7 205 81 7 205 81 7 207 80 7 207 80 7 207 79 9
207 79 11 208 78 11 206 76 10 202 68 6 204 65 7 204 63 8 204 63 10
204 65 9 202 66 7 204 65 9 204 65 9 203 67 9 203 67 9 217 84 22
215 85 20 214 84 16 214 84 16 213 85 16 213 85 16 211 84 15 211 84 15
210 85 15 207 84 14 219 99 26 219 99 26 221 101 27 221 101 27
221 101 25 221 101 25 221 99 24 221 99 24 221 99 24 221 99 26
207 85 12 207 85 12 207 85 12 207 84 14 210 85 15 210 85 15 210 85 15
211 84 15 216 83 16 219 84 18 203 68 2 205 69 6 204 66 5 204 66 5
204 66 5 204 66 5 204 66 5 204 66 5 204 66 5 204 65 7 204 63 6
202 61 4 202 61 4 202 61 4 202 61 6 202 61 6 202 61 6 202 61 6
203 62 7 203 62 7 203 62 7 203 62 7 203 62 7 203 62 7 203 62 7
203 62 7 205 61 9 205 61 9 205 61 9 203 62 7 213 81 16 212 82 14
212 82 14 212 82 14 212 82 12 212 82 12 212 82 12 212 82 12 207 74 5
204 81 9 241 138 59 239 146 61 240 144 58 238 146 56 235 147 56
235 147 56 238 146 56 240 144 58 240 144 58 244 142 58 212 95 16
210 86 9 208 87 9 210 86 9 214 87 14 214 87 12 212 88 10 212 88 10
215 88 13 218 86 17 205 67 6 207 66 9 207 66 9 207 66 9 207 66 9
207 66 9 207 66 9 207 66 9 207 66 9 207 66 9 209 81 15 209 81 15
209 81 15 209 81 15 209 81 15 209 81 13 208 83 11 208 83 11 208 83 11
209 84 12 213 91 16 215 93 18 216 95 17 216 95 17 216 94 19 216 94 19
216 95 17 216 95 15 216 95 15 215 96 15 221 109 26 219 110 26
219 110 26 219 110 26 217 110 26 217 110 26 219 110 26 221 109 26
223 109 29 226 109 30 212 93 15 214 94 16 212 93 15 212 93 15
212 93 15 212 93 15 215 93 18 215 93 18 217 92 18 217 92 18 207 80 7
207 80 7 208 79 7 210 78 7 212 77 7 212 77 9 212 77 11 212 76 13
212 76 15 209 73 14 203 67 9 201 65 8 202 62 9 202 62 9 201 65 8
201 65 8 203 64 8 203 64 8 202 66 7 202 66 7 217 84 22 215 85 20
214 84 16 214 84 16 213 85 16 213 85 16 211 84 15 210 85 15 208 85 15
204 86 14 216 101 26 216 101 26 217 102 27 217 102 27 219 102 25
219 102 25 219 100 24 219 100 24 219 100 24 219 100 24 207 85 12
207 85 12 207 85 12 207 85 12 210 85 15 210 85 15 210 85 15 211 84 15
216 83 16 219 84 18 202 67 1 205 69 6 204 66 5 204 66 5 204 66 5
204 66 5 204 66 5 204 66 5 204 66 5 203 65 4 204 63 6 202 61 4
202 61 4 202 61 4 202 61 6 202 61 6 202 61 6 202 61 6 203 62 7
203 62 7 203 62 7 203 62 7 203 62 7 203 62 7 203 62 7 203 62 7
205 61 9 205 61 9 205 61 9 202 63 5 212 82 14 210 83 12 210 83 12
210 83 12 210 83 10 210 83 10 210 83 10 210 83 10 206 76 6 203 83 10
235 141 57 233 150 59 233 148 56 232 149 56 227 151 56 228 150 56
233 148 56 235 147 56 233 148 58 240 144 58 210 96 16 211 87 10
209 88 10 211 87 10 214 87 12 214 87 12 212 88 10 212 88 10 215 88 13
217 87 15 205 67 4 207 66 6 205 66 9 205 66 9 205 66 9 205 66 9
205 66 9 205 66 9 205 66 9 205 66 9 209 81 13 209 81 13 209 81 13
209 81 13 209 81 13 209 81 13 208 83 11 208 83 11 208 83 11 209 84 12
213 91 16 215 93 18 216 95 17 216 95 17 216 94 19 216 94 19 216 95 17
216 95 15 216 95 15 215 96 15 221 109 26 219 110 26 219 110 26
219 110 26 217 110 26 217 110 26 219 110 26 221 109 26 223 109 29
226 109 30 212 93 15 214 94 16 212 93 15 212 93 15 212 93 15
212 93 15 215 93 18 215 93 18 217 92 18 217 92 18 207 79 9 207 79 9
208 79 9 210 78 9 212 77 9 212 77 9 212 77 11 212 76 13 212 76 15
209 73 14 205 68 10 201 65 8 202 62 9 202 62 9 201 64 10 201 64 10
203 64 8 203 64 8 202 66 7 202 66 7 217 84 22 215 85 20 214 84 16
214 84 16 213 85 14 213 85 14 210 85 13 210 85 13 208 86 13 204 86 12
216 101 26 215 102 24 217 103 25 217 103 25 219 102 25 219 102 23
219 100 24 219 100 24 219 100 24 219 100 24 208 86 11 208 86 11
208 86 11 208 86 13 211 86 16 211 86 16 211 86 16 213 85 16 216 83 16
219 84 18 202 67 1 205 69 6 204 66 5 204 66 5 204 66 5 204 66 5
204 66 5 204 66 5 204 66 5 203 65 4 204 63 6 203 62 5 203 62 5
203 62 5 203 62 7 203 62 7 203 62 7 203 62 7 203 62 7 203 62 7
203 62 7 203 62 7 203 62 7 203 62 7 203 62 7 203 62 7 203 62 7
203 62 7 203 62 7 202 63 5 212 82 14 210 83 12 210 83 12 210 83 12
210 83 10 210 83 10 210 83 10 210 83 10 207 78 5 204 87 10 235 141 57
233 150 59 233 148 56 232 149 56 227 151 56 228 150 56 233 148 56
235 147 56 233 148 56 240 145 56 210 96 16 212 88 12 211 89 12
212 88 12 214 87 12 214 87 12 212 88 10 212 88 10 215 88 13 217 87 15
205 67 4 207 66 6 205 66 9 205 66 9 205 66 9 205 66 9 205 66 9
205 66 9 205 66 9 205 66 9 209 81 13 209 81 13 209 81 13 209 81 13
209 81 13 209 81 13 208 83 11 208 83 11 208 83 11 209 84 12 213 91 16
215 93 18 216 95 17 216 95 17 216 94 19 216 94 19 216 95 17 216 95 17
216 95 17 215 96 15 221 109 26 219 110 26 219 110 26 219 110 26
217 110 26 217 110 26 219 110 26 221 108 28 223 109 29 226 109 30
212 93 15 214 94 16 212 93 15 212 93 15 212 93 15 212 93 17 215 93 18
215 93 18 217 92 18 217 92 20 207 79 9 208 79 9 208 79 9 210 78 9
212 77 9 212 77 11 212 77 11 212 76 13 212 76 15 209 73 14 205 68 10
201 65 6 202 63 7 202 62 9 201 64 10 201 64 10 203 64 8 203 64 8
202 66 7 202 66 7 217 84 22 215 85 20 214 84 16 214 84 16 213 85 14
213 85 14 210 85 13 210 85 13 208 86 13 204 86 12 216 101 24
215 102 24 217 103 25 217 103 25 219 102 23 219 102 23 219 100 24
219 100 24 219 100 24 219 100 24 208 86 11 208 86 11 208 86 11
210 85 13 211 86 16 211 86 16 211 86 16 213 85 16 216 83 16 219 84 18
202 67 1 205 69 6 204 66 5 204 66 5 204 66 5 204 66 5 204 66 5
204 66 5 204 66 5 203 65 4 204 63 6 203 62 5 203 62 5 203 62 5
203 62 7 203 62 7 203 62 7 203 62 7 203 62 7 203 62 7 203 62 7
203 62 7 203 62 7 203 62 7 203 62 7 203 62 7 203 62 7 203 62 7
203 62 7 202 63 5 212 82 14 210 83 12 210 83 12 210 83 12 210 83 10
210 83 10 210 83 10 210 83 10 207 78 5 204 87 10 235 142 55
233 150 59 233 148 56 232 149 56 227 151 56 228 150 56 233 148 56
235 147 56 233 148 56 240 145 56 210 96 16 212 88 12 212 88 12
212 88 12 214 87 12 214 87 12 212 88 10 212 88 10 215 88 13 217 87 15
205 67 4 207 66 6 205 66 9 205 66 9 205 66 9 205 66 9 205 66 9
205 66 9 205 66 9 205 66 9 209 81 13 209 81 13 209 81 13 209 81 13
209 81 13 209 81 13 208 83 11 208 83 11 208 83 11 209 84 12 213 91 16
215 93 18 216 94 19 216 94 19 216 94 19 216 94 19 216 94 19 216 94 19
218 93 19 215 95 17 222 110 29 220 110 29 220 110 29 220 110 29
219 111 29 219 111 29 220 110 29 222 110 29 224 110 32 227 110 33
214 94 18 215 95 19 214 94 18 214 94 18 214 94 18 214 94 18 216 94 21
216 94 21 218 93 21 218 93 21 208 80 12 210 79 12 211 79 12 211 79 12
213 78 12 213 78 12 213 77 14 213 77 16 213 77 18 210 74 15 206 70 11
202 66 7 203 64 8 203 64 8 203 64 8 203 64 8 204 65 9 204 65 9
202 66 7 202 66 7 217 84 22 215 85 20 215 85 18 215 85 18 213 85 14
211 86 14 211 86 12 211 86 12 209 87 12 205 88 11 217 103 25
216 103 25 217 103 25 217 103 25 217 103 23 219 102 23 218 101 24
218 101 24 218 101 24 219 100 24 208 86 11 210 85 11 210 85 13
210 85 13 213 85 16 213 85 16 213 85 16 214 84 16 217 82 18 220 82 20
204 66 3 206 68 6 205 67 6 205 67 6 205 67 6 205 67 6 204 66 5
204 66 5 204 66 5 203 65 4 204 63 6 203 62 5 203 62 5 203 62 5
203 62 7 203 62 7 202 63 7 202 63 7 202 63 7 202 63 7 202 63 7
202 63 7 203 62 7 203 62 7 203 62 7 203 62 7 203 62 5 203 62 5
203 62 5 202 63 3 212 82 14 210 83 12 210 83 12 210 83 12 210 83 10
210 83 10 210 83 10 210 83 10 207 78 3 204 87 8 235 142 55 233 150 59
233 148 56 232 149 56 227 151 56 228 150 56 233 148 56 235 147 56
233 148 56 240 145 56 212 95 16 214 87 12 212 88 14 212 88 14
214 87 12 214 87 12 212 88 10 212 88 10 215 88 13 218 86 15 203 68 4
205 67 6 205 66 9 205 66 9 205 67 6 205 67 6 205 67 6 205 67 6
205 67 6 205 67 6 209 81 13 209 81 13 209 81 13 209 81 13 209 81 13
209 81 13 208 83 11 208 83 11 208 83 11 209 84 12 213 91 16 215 93 18
216 94 19 216 94 19 216 94 19 216 94 19 216 94 19 216 94 19 218 93 19
216 94 19 223 109 29 220 110 29 220 110 29 220 110 29 219 111 29
219 111 29 220 110 29 222 110 29 224 110 32 227 110 33 214 94 18
215 95 19 214 94 18 214 94 18 214 94 18 214 94 18 216 94 21 216 94 21
218 93 21 220 92 21 210 79 12 210 79 12 211 79 12 211 79 12 213 78 12
213 77 14 213 77 16 213 77 16 213 77 18 210 74 15 206 70 11 202 66 7
203 64 8 203 64 8 203 64 8 203 64 8 204 65 9 204 65 9 202 66 7
202 66 7 217 84 22 215 85 20 215 85 18 215 85 18 213 85 14 211 86 14
211 86 12 211 86 12 209 87 12 205 88 11 217 103 25 216 103 25
217 103 25 217 103 25 217 103 23 217 103 23 218 101 24 218 101 24
218 101 24 219 100 24 208 86 11 210 85 11 210 85 13 210 85 13
213 85 16 213 85 16 213 85 16 214 84 16 217 82 18 220 82 20 204 66 3
205 67 4 205 67 6 205 67 6 205 67 6 205 67 6 204 66 5 204 66 5
204 66 5 203 65 4 204 63 6 203 62 5 203 62 5 203 62 5 203 62 7
203 62 7 202 63 7 202 63 7 202 63 7 202 63 7 202 63 7 202 63 7
203 62 7 203 62 7 203 62 7 203 62 7 203 62 5 203 62 5 203 62 5
202 63 3 212 82 14 210 83 12 210 83 12 210 83 12 210 83 10 210 83 10
210 83 10 210 83 10 206 79 3 202 88 8 235 142 55 233 150 59
233 148 56 232 149 56 227 151 56 228 150 56 233 148 56 235 147 56
233 148 56 240 145 56 212 95 16 214 87 14 212 88 14 214 87 14
215 86 12 215 86 12 214 88 10 214 88 10 217 88 13 218 86 15 203 68 4
205 67 6 205 66 9 205 66 9 205 67 6 205 67 6 205 67 6 205 67 6
205 67 6 205 67 6 209 81 13 209 81 13 209 81 13 209 81 13 209 81 13
209 81 13 208 83 11 208 83 11 208 83 11 209 84 12 213 91 16 215 93 18
216 94 19 216 94 19 216 94 19 216 94 19 216 94 19 216 94 19 218 93 19
216 94 19 223 109 29 222 110 29 220 110 29 220 110 29 219 111 29
219 111 29 220 110 29 222 110 29 224 110 32 227 110 33 214 94 18
215 95 19 214 94 18 214 94 18 214 94 18 214 94 18 216 94 21 216 94 21
218 93 21 220 92 21 210 79 12 210 79 14 211 78 14 211 78 14 213 77 14
213 77 14 213 77 16 213 77 16 213 77 18 210 74 15 206 70 11 202 66 7
203 64 8 203 64 8 203 64 8 203 64 8 204 65 9 204 65 9 202 66 7
202 66 7 217 84 22 215 85 20 215 85 18 215 85 18 213 85 14 211 86 14
211 86 12 211 86 12 209 87 12 205 88 11 216 103 25 216 103 25
217 103 25 217 103 25 217 103 23 217 103 23 218 101 24 218 101 24
218 101 24 219 100 24 208 86 11 210 85 11 210 85 13 210 85 13
213 85 16 213 85 16 213 85 16 214 84 16 217 82 18 220 82 20 204 66 3
205 67 4 205 67 6 205 67 6 205 67 6 205 67 6 204 66 5 204 66 5
204 66 5 203 65 4 204 63 6 203 62 5 203 62 5 203 62 5 203 62 7
203 62 7 202 63 7 202 63 7 202 63 7 202 63 7 202 63 7 202 63 7
203 62 7 203 62 7 203 62 7 203 62 7 203 62 5 203 62 5 203 62 5
202 63 3 212 82 14 210 83 12 210 83 12 210 83 12 210 83 10 210 83 10
210 83 10 210 83 10 204 80 3 201 89 8 233 142 55 233 150 59
233 148 56 232 149 56 227 151 56 228 150 56 233 148 56 235 147 56
233 148 56 240 145 56 212 95 16 214 87 14 212 87 16 214 87 14
215 86 12 215 86 12 214 88 10 214 88 10 217 88 13 218 86 15 203 68 4
205 67 6 205 66 9 205 66 9 205 67 6 205 67 6 205 67 6 205 67 6
205 67 6 205 67 6 208 80 12 208 80 12 208 80 12 208 80 12 208 80 12
208 80 12 206 81 10 208 83 11 208 83 11 209 84 12 213 91 16 215 93 18
216 94 19 216 94 19 216 94 19 216 94 19 216 94 19 216 94 19 218 93 19
216 94 19 225 108 29 222 110 29 222 110 29 220 110 29 219 111 29
219 111 29 220 110 29 222 110 29 223 111 30 226 111 31 212 95 16
215 95 17 214 94 16 214 94 16 214 94 16 214 94 18 216 94 19 216 94 19
218 93 19 218 93 21 210 79 12 210 79 14 211 78 14 211 78 14 213 77 14
213 77 14 213 77 16 213 77 16 213 77 18 210 74 15 207 71 12 203 67 9
203 64 8 203 64 8 203 64 8 203 64 8 204 65 9 204 65 9 202 66 7
202 66 7 216 82 20 214 84 18 214 84 16 213 85 16 211 86 14 211 86 14
211 86 12 211 86 12 209 87 12 205 88 11 216 103 25 214 104 25
216 103 25 217 103 25 217 103 23 217 103 23 218 101 24 218 101 24
218 101 24 219 100 24 208 86 11 210 85 11 210 85 13 210 85 13
213 85 16 213 85 16 213 85 16 214 84 18 217 82 18 220 82 20 205 67 4
204 66 5 205 67 6 205 67 6 205 67 6 205 67 6 204 66 5 204 66 5
204 66 5 203 65 4 204 63 6 203 62 5 203 62 5 203 62 5 203 62 7
203 62 7 202 63 7 202 63 7 202 63 7 202 63 7 202 63 7 202 63 7
203 62 7 203 62 7 203 62 7 203 62 7 203 62 5 203 62 5 203 62 5
202 63 3 212 82 14 210 83 12 210 83 12 210 83 12 210 83 10 210 83 10
210 83 10 209 84 10 204 82 5 198 86 6 235 142 55 234 149 59
233 148 56 232 149 56 228 150 56 228 150 56 233 148 56 235 147 56
235 147 56 240 144 58 209 96 18 211 88 16 211 88 16 212 87 16
214 86 16 215 86 14 214 87 12 214 87 12 217 87 15 218 86 17 203 68 4
205 67 6 205 66 9 205 66 9 205 67 6 205 67 6 205 67 6 205 67 6
205 67 6 205 67 6 206 81 10 206 81 10 206 81 10 206 81 10 206 81 10
206 81 10 206 81 10 206 81 10 206 81 10 209 84 12 216 91 19 218 93 21
218 95 23 218 95 23 218 95 23 218 95 23 216 94 19 216 94 19 216 94 19
216 94 19 226 109 32 224 110 32 224 110 30 223 111 30 223 111 28
221 112 28 223 111 28 223 111 28 224 112 29 227 113 30 212 97 15
214 98 17 212 96 14 212 96 14 214 95 14 214 95 14 214 94 16 215 94 16
215 94 16 217 92 18 211 81 13 212 79 15 212 79 15 212 79 15 214 79 15
214 79 15 214 78 17 214 78 17 216 77 17 211 73 12 209 70 10 205 66 9
204 65 7 204 65 7 204 65 9 204 65 9 204 65 7 204 65 7 202 66 7
202 66 7 213 80 18 212 81 16 210 83 14 210 83 12 209 84 12 207 85 10
209 84 10 209 84 10 208 86 11 204 87 10 215 103 22 213 103 22
212 100 20 212 100 20 214 99 22 214 99 22 214 99 22 214 99 22
214 99 24 216 98 24 210 85 13 211 84 13 211 84 13 211 84 13 213 85 16
213 85 16 213 84 18 214 84 18 223 87 26 219 81 20 206 68 8 204 66 5
205 64 7 205 64 7 205 64 7 205 64 7 205 64 7 205 64 7 205 64 7
205 64 7 204 63 6 204 63 6 203 64 6 203 64 6 203 64 8 203 64 8
203 64 8 203 64 8 202 63 5 202 63 5 202 63 5 202 63 5 202 61 4
202 61 4 202 61 4 202 61 4 202 61 4 202 61 4 202 61 4 200 62 2
212 82 14 210 83 12 210 83 12 210 83 12 210 83 10 210 83 10 209 84 10
207 85 10 204 85 7 197 85 5 250 150 65 239 146 59 237 150 58
236 150 58 234 152 56 234 152 56 236 151 56 237 150 58 239 149 58
244 146 60 204 99 18 207 94 18 208 92 20 211 90 22 216 88 22
218 87 22 216 88 22 216 88 22 217 86 21 213 80 18 210 75 13 207 69 9
205 69 8 205 69 8 205 69 8 205 69 8 206 68 8 206 68 8 206 68 8
206 68 8 209 84 12 209 84 12 209 84 12 209 84 12 209 84 12 209 84 12
209 84 12 209 84 12 209 84 12 210 85 13 215 90 18 216 91 19 215 93 20
215 93 20 215 93 20 215 93 20 215 93 18 215 93 18 215 93 18 215 93 18
225 106 30 225 106 30 224 106 30 224 106 30 224 107 28 224 107 28
224 107 28 224 107 28 225 108 29 226 109 30 212 93 15 214 94 16
215 94 16 215 94 16 215 94 16 217 93 16 217 93 16 217 92 18 217 92 18
218 91 18 210 79 12 211 78 14 211 78 14 211 78 14 213 77 14 213 77 14
213 77 16 212 76 15 211 73 12 207 69 9 204 66 5 204 66 5 204 65 7
204 65 7 204 65 9 204 65 9 204 65 7 204 65 7 202 66 7 202 66 7
215 81 19 213 83 17 211 84 15 211 84 13 211 86 12 209 87 12 211 86 12
211 86 12 211 88 14 206 89 12 217 105 24 215 106 24 215 103 22
215 103 22 216 101 24 216 101 24 216 101 24 216 101 24 216 101 26
218 100 26 211 86 14 213 85 14 213 85 14 213 85 14 214 86 18
214 86 18 214 86 20 215 85 20 219 83 22 216 77 17 206 68 8 203 65 4
205 64 7 205 64 7 205 64 7 205 64 7 205 64 7 205 64 7 205 64 7
205 64 7 204 63 6 204 63 6 203 64 6 203 64 6 203 64 8 203 64 8
203 64 8 203 64 8 202 63 5 202 63 5 202 63 5 202 63 5 203 62 5
203 62 5 203 62 5 203 62 5 203 62 5 203 62 5 203 62 5 202 63 3
212 82 14 210 83 12 210 83 12 210 83 12 210 83 10 210 83 10 209 84 10
207 85 10 203 84 6 202 88 8 251 144 62 250 148 64 240 143 55
237 144 55 235 146 53 235 146 53 235 146 53 238 144 55 242 142 57
245 140 59 207 97 20 208 94 21 211 92 23 214 90 25 217 88 27
219 88 27 217 88 27 219 88 27 220 87 27 215 79 20 207 69 9 200 62 2
205 69 8 205 69 8 205 69 8 205 69 8 206 68 8 206 68 8 206 68 8
206 68 8 212 87 16 212 87 16 212 87 16 212 87 16 212 87 16 212 87 16
212 87 16 213 88 17 213 88 17 211 86 14 212 87 16 211 86 14 212 87 16
212 87 16 212 87 16 212 87 16 212 88 14 212 88 14 212 88 14 212 88 14
201 76 4 201 76 4 201 76 4 201 76 4 201 75 6 201 75 6 201 75 6
202 74 6 203 75 9 206 76 10 191 60 0 192 62 0 196 65 0 196 65 0
196 65 0 197 65 0 197 65 0 197 64 0 197 64 0 197 64 0 202 69 4
202 68 6 202 68 6 202 68 6 203 68 6 203 68 6 203 68 6 203 68 6
204 66 5 204 66 5 203 65 4 203 65 4 204 65 7 204 65 7 204 65 9
204 65 9 204 65 7 204 65 7 202 66 7 202 66 7 219 86 24 218 87 22
216 88 20 216 89 18 216 91 17 214 92 17 216 91 17 216 91 17 215 93 18
211 94 17 220 110 29 220 110 29 219 107 27 219 107 27 221 106 29
221 106 29 221 106 29 221 106 29 221 106 31 223 105 31 197 72 0
199 71 0 199 71 0 199 71 0 200 72 4 200 72 4 200 72 6 201 71 6
210 75 13 211 73 12 205 67 6 204 66 5 205 64 7 205 64 7 205 64 7
205 64 7 205 64 7 205 64 7 205 64 7 205 64 7 204 63 6 204 63 6
203 64 6 203 64 6 203 64 8 203 64 8 203 64 8 203 64 8 203 64 6
203 64 6 204 65 7 204 65 7 205 64 7 205 64 7 207 66 9 207 66 9
207 66 9 207 66 9 207 66 9 205 67 6 212 82 14 210 83 12 210 83 12
210 83 12 210 83 10 210 83 10 210 83 10 210 83 10 211 87 10 202 81 3
219 102 23 212 97 17 213 104 20 210 105 20 208 107 18 208 107 18
208 107 18 212 105 20 215 103 22 218 101 24 193 71 0 195 69 0
198 67 2 198 67 4 198 67 6 198 67 6 198 67 6 198 67 6 202 68 9
206 70 11 211 73 12 212 74 13 205 69 8 205 69 8 205 69 8 205 69 8
206 68 8 206 68 8 206 68 8 206 68 8 215 90 18 215 90 18 215 90 18
215 90 18 215 90 18 215 90 18 215 90 18 216 91 19 216 91 19 213 88 17
211 86 14 209 84 12 208 83 11 209 84 12 209 84 12 209 84 12 210 85 11
211 85 11 211 85 11 211 84 13 199 71 0 200 70 2 200 70 2 200 70 2
202 68 6 202 68 9 202 68 9 202 68 9 205 68 12 207 68 13 192 53 0
193 54 0 199 61 3 199 61 3 199 61 3 199 61 3 201 60 3 201 60 3
202 61 4 200 62 2 200 64 3 198 65 3 200 66 4 200 66 4 201 65 4
201 65 4 201 65 4 201 65 4 203 65 4 203 65 4 203 65 4 203 65 4
204 65 7 204 65 7 204 65 9 204 65 9 204 65 7 204 65 7 202 66 7
202 66 7 222 88 26 220 90 24 220 92 23 220 92 21 218 93 19 216 94 19
219 95 21 219 95 21 219 97 22 214 97 21 224 114 32 224 114 32
223 111 30 223 111 30 224 110 32 224 110 32 224 110 32 224 110 32
224 109 34 226 108 34 199 74 3 203 73 3 203 73 3 203 73 3 204 74 6
204 74 6 204 73 8 204 73 8 206 70 9 206 68 8 204 66 5 204 66 5
205 64 7 204 63 6 204 63 6 204 63 6 204 63 6 204 63 6 204 63 6
204 63 6 204 63 6 204 63 6 203 64 6 203 64 6 203 64 8 203 64 8
203 64 8 203 64 8 203 64 6 203 64 6 204 65 7 204 65 7 207 66 9
207 66 9 208 67 10 208 67 10 208 67 10 208 67 10 208 67 10 206 68 8
212 82 14 210 83 12 210 83 12 210 83 12 210 83 10 210 83 10 212 83 10
212 83 10 212 83 8 210 84 8 222 97 21 221 99 22 214 97 19 213 99 17
211 99 17 210 101 14 211 100 14 213 99 17 216 97 19 219 95 21
199 69 0 202 67 3 204 66 5 204 66 5 201 67 7 199 68 7 200 69 9
200 69 9 203 69 10 205 68 10 205 69 8 205 67 6 205 69 8 205 69 8
205 69 8 205 69 8 206 68 8 206 68 8 206 68 8 206 68 8 215 90 18
215 90 18 215 90 18 215 90 18 215 90 18 215 90 18 215 90 18 216 91 19
216 91 19 213 88 17 211 86 14 209 84 12 211 84 13 213 85 14 213 85 14
213 85 14 211 84 13 213 83 13 213 83 13 213 83 13 201 69 0 201 69 0
201 69 0 202 67 3 203 67 11 203 66 15 205 65 15 205 65 15 208 66 14
205 64 11 198 57 4 203 61 9 202 58 7 202 58 7 202 58 7 202 58 7
202 59 5 202 59 5 202 59 5 201 60 3 204 65 7 202 66 7 202 66 5
202 66 5 202 66 5 202 66 5 202 66 7 202 66 7 204 66 5 204 66 5
204 66 3 204 66 5 205 67 6 205 66 9 205 66 9 205 66 9 205 66 9
205 66 9 203 67 9 203 67 9 222 88 26 220 90 24 218 91 22 218 91 20
217 92 18 215 93 18 217 93 16 217 93 16 216 95 17 212 95 16
221 112 30 221 112 30 223 111 30 223 111 30 223 110 32 223 110 32
223 110 32 223 110 32 223 110 34 226 108 34 201 74 3 204 72 3
204 72 5 204 72 5 205 73 6 205 73 6 205 72 8 205 72 8 207 69 9
208 67 10 205 64 7 204 63 6 204 63 6 204 63 6 204 63 6 204 63 6
204 63 6 204 63 6 204 63 6 204 63 6 204 63 8 204 63 8 203 64 8
203 64 8 203 64 8 203 64 8 201 65 8 201 65 8 203 64 6 203 64 6
204 65 7 204 65 7 204 65 7 204 65 7 205 66 9 205 66 9 207 66 6
207 66 6 207 66 6 205 67 4 212 82 14 210 83 12 210 83 12 210 83 12
210 83 10 210 83 10 212 83 10 213 82 10 213 82 10 216 84 12 225 95 23
224 97 24 218 96 19 216 97 19 214 98 17 213 99 17 214 98 17 216 97 17
219 95 19 222 93 21 202 68 0 205 65 3 207 64 5 207 64 7 204 65 7
201 67 7 199 68 7 199 68 7 202 68 9 203 67 9 203 68 6 203 68 6
205 69 8 205 69 8 205 69 8 205 69 8 206 68 8 206 68 8 206 68 8
206 68 8 215 90 18 215 90 18 215 90 18 215 90 18 215 90 18 215 90 18
215 90 18 216 91 19 216 91 19 213 88 17 211 86 14 209 84 12 211 84 13
213 85 14 213 85 14 213 85 14 214 84 14 214 84 14 214 84 16 216 83 16
202 68 0 202 68 0 202 68 0 202 67 3 205 66 11 205 65 15 205 65 15
207 64 15 208 66 14 205 64 11 198 57 4 203 61 9 202 58 7 202 58 7
202 58 7 202 58 7 202 59 5 202 59 5 202 59 5 201 60 3 204 65 7
202 66 7 202 66 5 202 66 5 202 66 5 202 66 5 202 66 7 202 66 7
204 66 5 204 66 5 204 66 5 204 66 5 205 67 6 205 66 9 205 66 9
205 66 9 205 66 9 205 66 9 203 67 9 202 68 6 219 88 23 219 89 21
217 90 19 216 91 19 215 93 18 215 93 18 217 93 16 217 93 16 216 95 17
212 95 16 221 112 30 221 112 30 223 111 30 223 111 30 223 110 32
223 110 32 223 110 32 223 110 32 223 110 34 226 108 34 201 74 3
204 72 3 204 72 5 204 72 5 205 73 6 205 73 6 205 72 8 207 71 10
207 69 11 208 67 10 205 64 7 204 63 6 204 63 6 203 62 5 203 62 5
203 62 5 203 62 5 203 62 5 203 62 5 203 62 5 204 63 8 204 63 8
203 64 8 203 64 8 203 64 8 203 64 8 201 65 8 201 65 8 203 64 6
203 64 6 204 65 7 204 65 7 204 65 7 204 65 7 205 66 9 205 66 9
207 66 6 207 66 6 207 66 6 205 67 4 212 82 14 210 83 12 210 83 12
210 83 12 210 83 10 210 83 10 212 83 10 213 82 10 213 82 10 215 83 11
225 95 23 224 97 24 218 96 19 216 97 19 214 98 17 213 99 17 214 98 17
216 97 19 219 95 21 222 93 23 202 67 1 205 65 3 207 64 7 207 64 7
204 65 7 202 66 7 201 67 7 201 67 7 203 67 9 203 67 9 203 68 6
203 68 6 205 69 8 205 69 8 205 69 8 205 69 8 206 68 8 206 68 8
206 68 8 206 68 8 213 90 18 213 90 18 213 90 18 213 90 18 213 90 18
213 90 18 213 90 18 214 92 19 214 92 17 212 90 15 211 86 12 209 84 10
211 85 11 213 86 12 214 85 12 214 85 12 214 84 14 214 84 14 216 83 16
216 83 16 202 67 1 202 67 1 204 66 1 204 66 1 203 68 6 203 67 9
203 67 9 203 67 9 206 67 12 204 65 9 197 58 2 202 63 7 199 61 3
199 61 3 199 61 3 199 61 3 201 60 3 201 60 3 201 60 3 199 61 3
202 66 7 202 66 7 202 66 7 202 66 7 202 66 7 202 66 7 202 66 7
202 66 7 204 65 7 204 65 7 204 66 5 204 66 5 205 66 9 205 66 9
205 66 11 205 66 11 205 66 9 205 66 9 203 68 6 202 68 6 219 88 23
217 90 21 217 90 19 216 91 19 215 93 18 215 94 16 217 93 16 217 93 16
216 95 17 212 95 16 221 112 30 221 112 30 223 111 30 223 111 30
223 110 32 223 110 32 223 110 32 223 110 32 223 110 34 226 108 34
201 74 3 204 72 3 204 72 5 204 72 5 205 73 6 205 73 6 205 72 8
207 71 10 207 69 11 208 67 10 205 64 7 204 63 6 204 63 6 203 62 5
203 62 5 203 62 5 203 62 5 203 62 5 203 62 5 203 62 5 203 64 8
203 64 8 203 64 8 203 64 8 203 64 8 203 64 8 201 65 8 201 65 8
204 65 7 204 65 7 204 65 7 204 65 7 205 66 9 205 66 9 205 66 9
205 66 9 205 67 6 205 67 6 205 67 6 203 68 4 212 82 14 210 83 12
210 83 12 210 83 12 210 83 10 210 83 10 210 83 10 212 83 10 212 83 10
211 85 11 222 97 23 219 100 24 214 97 19 213 98 19 211 99 17
210 100 17 211 99 17 213 98 19 214 97 21 218 95 23 197 69 3 201 67 5
204 65 9 204 65 9 202 66 7 202 66 7 201 67 7 201 67 7 203 67 9
203 67 9 203 68 6 203 68 6 205 69 8 205 69 8 205 69 8 205 69 8
206 68 8 206 68 8 206 68 8 206 68 8 213 90 18 213 90 18 213 90 18
213 90 18 213 90 18 213 90 18 213 90 18 214 92 19 214 92 17 212 90 15
211 86 12 209 84 10 211 85 11 213 86 12 214 85 12 214 84 14 214 84 14
214 84 14 216 83 16 216 83 16 202 67 1 202 67 1 204 66 1 204 66 3
205 67 4 203 68 6 203 68 6 203 67 9 206 68 10 204 65 7 197 58 0
202 63 5 199 61 3 199 61 1 199 61 1 199 61 1 199 61 1 199 61 1
199 61 1 199 61 1 202 66 7 202 66 7 202 66 7 202 66 7 202 66 7
202 66 7 202 66 7 202 66 7 204 65 7 204 65 7 204 65 7 204 65 7
205 66 9 205 66 11 205 66 11 205 66 11 205 66 9 203 67 9 202 68 6
200 70 4 217 90 21 217 90 21 216 91 19 216 91 17 215 94 16 215 94 16
217 93 16 217 93 16 216 95 17 212 95 16 223 111 30 221 112 30
223 111 30 223 111 30 223 110 32 223 110 32 223 110 32 223 110 32
223 110 34 226 108 34 201 74 3 204 72 3 204 72 5 204 72 5 205 73 6
205 73 6 205 72 8 207 71 10 207 69 11 208 67 10 205 64 7 204 63 6
204 63 6 203 62 5 203 62 5 203 62 5 203 62 5 203 62 5 203 62 5
203 62 5 203 64 8 203 64 8 203 64 8 203 64 8 203 64 8 203 64 8
201 65 8 201 65 8 204 65 7 204 65 7 204 65 7 204 65 7 205 66 9
205 66 9 205 66 9 205 66 9 205 67 6 205 67 6 205 67 6 203 68 4
212 82 14 210 83 12 210 83 12 210 83 12 210 83 10 210 83 10 210 83 10
210 83 10 210 83 10 210 85 11 220 98 23 219 100 24 214 97 19
213 98 19 211 99 19 211 99 17 211 99 17 213 98 19 216 96 21 218 95 23
197 69 3 201 67 7 204 65 11 204 65 11 202 66 9 202 66 7 202 66 7
202 66 7 203 67 9 203 67 9 203 68 6 203 68 6 205 69 8 205 69 8
205 69 8 205 69 8 206 68 8 206 68 8 206 68 8 206 68 8 211 91 18
211 91 18 211 91 18 211 91 18 213 90 18 213 90 18 213 90 18 213 90 18
213 91 16 212 90 15 211 86 14 210 85 13 211 86 14 213 85 14 213 85 14
213 85 16 214 84 16 214 84 16 216 83 16 216 83 16 202 67 3 202 67 3
204 66 3 204 66 5 205 66 9 207 66 9 207 66 9 207 65 11 208 66 12
205 64 9 198 57 2 203 62 7 201 60 3 201 60 3 201 60 3 201 60 3
201 60 3 201 60 3 199 61 3 199 61 3 204 65 7 204 65 7 202 66 7
202 66 7 204 65 7 204 65 7 204 65 9 204 65 9 204 65 9 204 65 9
204 65 9 204 65 9 205 66 11 205 66 11 205 66 11 205 66 11 203 67 9
202 68 6 202 68 6 200 70 4 217 90 21 216 91 19 216 91 19 216 91 17
217 93 16 217 93 16 217 93 16 217 93 16 216 95 17 212 95 16
223 111 30 223 111 30 223 111 30 223 111 30 223 110 32 223 110 32
223 110 32 223 110 32 223 110 34 226 108 34 201 74 3 204 72 3
204 72 5 204 72 5 207 72 6 207 72 6 207 72 8 207 71 10 207 69 11
206 68 10 204 65 7 204 65 7 203 64 8 203 64 8 203 64 8 203 64 8
202 63 7 202 63 7 202 63 7 202 63 7 203 64 8 203 64 8 201 65 8
201 65 8 201 65 8 201 65 8 201 65 8 201 65 8 202 66 7 202 66 7
202 66 7 202 66 7 203 67 9 203 67 9 203 67 9 203 67 9 205 67 6
205 67 6 205 67 6 203 68 4 212 82 14 210 83 12 210 83 12 210 83 12
210 83 12 210 83 12 210 83 12 210 83 12 210 83 10 211 85 11 222 97 23
223 98 24 219 95 21 218 95 21 218 96 19 216 97 19 216 97 19 218 96 19
219 95 21 222 92 25 202 66 5 205 64 9 207 63 11 207 63 11 204 65 9
202 66 7 202 66 7 204 65 7 205 66 9 205 66 9 205 66 9 205 66 9
206 68 10 206 68 10 206 68 8 206 68 8 206 68 8 206 68 8 206 68 8
206 68 8 211 91 18 211 91 18 211 91 18 213 90 18 213 90 18 213 90 18
213 90 18 213 90 18 213 90 18 212 89 17 211 86 14 210 85 13 211 86 14
213 85 16 213 85 16 214 84 16 214 84 16 214 84 16 216 83 16 216 83 16
202 67 3 202 66 5 204 66 5 204 65 7 207 66 9 207 65 11 208 64 11
208 64 11 209 66 12 207 63 9 200 56 2 205 61 7 201 60 3 201 60 3
201 60 3 201 60 3 201 60 3 201 60 3 199 61 3 199 61 3 204 65 7
204 65 7 202 66 7 202 66 7 204 65 7 204 65 7 204 65 9 204 65 9
204 65 9 204 65 9 204 65 9 204 65 9 205 66 13 205 66 13 205 66 11
203 67 9 202 68 6 202 68 6 200 70 4 199 71 2 216 91 19 216 91 19
216 91 17 216 91 17 217 93 16 217 93 16 217 93 16 217 93 16 216 95 17
212 95 16 224 110 30 223 111 30 223 111 30 223 111 30 223 110 32
223 110 32 223 110 32 223 110 32 223 110 34 226 108 34 201 74 3
204 72 3 204 72 5 204 72 5 207 72 6 207 72 6 207 72 8 207 71 10
207 69 11 206 68 10 204 65 7 204 65 7 203 64 8 203 64 8 203 64 8
203 64 8 202 63 7 202 63 7 202 63 7 202 63 7 203 64 8 203 64 8
201 65 8 201 65 8 201 65 8 201 65 8 201 65 8 201 65 8 202 66 7
202 66 7 202 66 7 202 66 7 203 67 9 203 67 9 203 67 9 203 67 9
205 67 6 205 67 6 205 67 6 203 68 4 212 82 14 210 83 12 210 83 12
210 83 12 210 83 12 210 83 12 210 83 12 210 83 12 210 83 10 211 85 11
223 96 23 224 97 24 221 94 21 221 94 21 219 95 19 219 95 19 219 95 19
221 94 21 222 93 23 224 91 25 204 66 5 207 63 9 209 62 11 209 62 11
204 65 9 202 66 7 204 65 7 204 65 7 205 66 9 205 66 9 205 66 9
205 66 9 206 68 10 206 68 10 206 68 8 206 68 8 206 68 8 206 68 8
206 68 8 206 68 8 213 90 18 213 90 18 213 90 18 213 90 18 215 90 18
215 90 18 215 90 18 215 90 18 215 90 18 213 88 19 211 86 16 210 85 15
213 85 16 214 84 18 214 84 18 214 84 18 216 83 18 216 83 18 216 83 16
216 83 18 202 66 5 204 65 7 204 65 7 204 65 7 205 64 7 205 64 7
205 64 7 205 64 7 208 64 11 207 63 9 201 57 4 205 61 7 201 60 3
201 60 3 201 60 3 201 60 3 201 60 3 201 60 3 199 61 3 199 61 3
205 66 9 205 66 9 203 67 9 203 67 9 203 67 9 203 67 9 203 67 9
203 67 9 203 67 11 203 67 11 202 66 7 202 66 9 203 67 11 203 67 11
203 67 11 203 67 9 202 68 6 200 69 6 200 70 4 199 71 2 216 91 19
214 92 17 214 92 17 214 92 15 217 93 16 217 93 16 217 93 16 217 93 16
216 95 17 212 95 16 224 110 30 224 110 30 223 111 30 223 111 30
223 110 32 223 110 32 223 110 32 223 110 32 223 110 34 226 108 34
201 74 3 204 72 3 204 72 5 204 72 5 207 72 6 207 72 6 207 72 8
207 71 10 207 69 11 206 68 10 204 65 7 204 65 7 203 64 8 203 64 8
203 64 8 203 64 8 202 63 7 202 63 7 202 63 7 202 63 7 201 65 8
201 65 8 201 65 8 201 65 8 201 65 8 201 65 8 201 65 8 201 65 8
202 66 7 202 66 7 203 67 9 202 66 7 203 67 9 203 67 9 203 67 9
203 67 9 203 68 6 203 68 6 203 68 6 202 69 4 213 83 15 211 84 13
211 84 13 211 84 13 211 84 13 211 84 13 211 84 13 211 84 13 211 85 11
213 86 12 223 96 23 224 97 24 221 94 21 221 94 21 219 95 19 219 95 19
219 95 19 221 94 21 222 93 23 224 91 25 204 65 7 207 63 9 209 62 11
209 62 11 204 65 9 202 66 7 204 65 7 204 65 7 205 66 9 205 66 9
205 66 9 205 66 9 206 68 10 206 68 10 206 68 8 206 68 8 206 68 8
206 68 8 206 68 8 206 68 8 215 90 18 215 90 18 215 90 18 215 90 18
215 90 18 216 89 18 216 89 18 216 88 20 216 88 20 215 87 21 213 84 18
211 83 17 214 84 18 216 82 20 216 82 20 216 83 18 216 83 18 216 83 18
216 83 18 217 82 18 203 65 4 203 64 6 203 64 6 203 64 6 204 63 6
204 63 6 204 63 6 204 63 6 207 63 9 206 62 8 201 57 4 205 61 7
201 60 3 201 60 3 201 60 3 201 60 3 201 60 3 201 60 3 199 61 3
199 61 3 205 66 9 205 66 9 203 67 9 203 67 9 203 67 9 203 67 9
203 67 9 203 67 9 203 67 9 203 67 9 202 66 7 201 67 7 202 68 9
202 68 9 202 68 9 202 68 6 200 69 6 200 70 4 199 71 2 197 72 0
214 92 17 213 91 16 214 92 15 214 92 15 216 92 15 216 92 15 217 93 16
217 93 16 216 95 17 214 94 16 226 109 30 224 110 30 223 111 30
223 111 30 223 110 32 223 110 32 223 110 32 223 110 32 223 110 34
226 108 34 201 74 3 204 72 3 204 72 5 206 71 5 207 72 6 207 72 6
207 72 8 207 71 10 206 68 10 205 66 9 203 64 6 203 64 6 203 64 8
203 64 8 203 64 8 203 64 8 202 63 7 202 63 7 202 63 7 202 63 7
201 65 8 201 65 8 201 65 8 201 65 8 201 65 8 201 65 8 201 65 8
201 65 8 202 66 7 202 66 7 203 67 9 202 66 7 203 67 9 203 67 9
203 67 9 203 67 9 203 68 6 203 68 6 203 68 6 202 69 4 213 83 15
211 84 13 211 84 13 211 84 13 211 84 13 211 84 13 211 84 13 211 84 13
211 85 11 213 86 12 223 96 23 224 97 24 221 94 21 221 94 21 219 95 21
219 95 21 219 95 21 221 94 21 222 93 23 224 91 25 202 63 5 205 61 7
208 61 10 208 61 10 202 63 7 200 64 5 204 65 7 204 65 7 205 66 9
205 66 9 204 65 7 204 65 7 205 66 9 205 66 9 205 67 6 205 67 6
205 67 6 205 67 6 205 67 6 205 67 6 206 78 9 206 78 9 206 78 9
206 78 9 206 78 9 207 77 9 207 77 9 207 77 9 206 75 12 204 73 10
201 70 8 202 68 6 201 67 5 202 66 7 202 66 7 202 66 5 202 66 5
202 66 5 202 66 5 201 65 4 203 64 6 202 63 5 202 63 5 202 63 5
203 62 5 203 62 5 203 62 5 203 62 5 206 62 8 205 61 7 202 59 5
204 60 6 201 60 3 201 60 3 201 60 3 201 60 3 201 60 3 201 60 3
199 61 3 199 61 3 205 66 9 205 66 9 203 67 9 203 67 9 202 68 9
202 68 9 202 68 9 202 68 9 203 70 8 202 68 6 222 89 24 219 88 23
220 89 26 220 89 26 220 89 26 220 90 24 220 90 24 220 90 24 218 91 22
216 91 19 213 91 16 213 91 16 212 90 13 212 90 13 213 89 13 215 88 13
212 88 12 212 88 12 212 90 13 209 90 12 221 104 26 220 105 26
216 104 23 216 104 23 216 103 25 216 103 25 216 103 25 216 103 25
216 103 27 219 101 27 198 68 0 201 67 0 201 66 0 201 66 0 204 66 3
204 66 3 204 66 3 204 66 5 206 68 10 205 66 9 203 64 6 203 64 6
203 64 8 203 64 8 202 63 7 202 63 7 202 63 7 202 63 7 202 63 7
202 63 7 202 62 9 202 62 9 203 63 10 203 63 10 201 65 8 201 65 8
201 65 8 201 65 8 201 65 6 202 66 7 203 67 9 207 71 12 207 71 12
207 71 12 207 71 12 207 71 12 207 71 10 207 71 10 207 71 10 205 72 8
213 83 15 211 84 15 211 84 13 211 84 13 211 84 13 211 84 13 211 84 13
214 86 16 213 85 14 213 85 14 209 82 11 206 78 7 206 78 7 206 78 7
204 79 7 204 79 7 204 79 7 206 78 7 207 77 7 209 76 11 200 62 2
204 60 6 205 59 8 205 59 8 202 61 6 200 62 4 199 61 3 199 61 3
200 62 4 200 62 4 203 64 6 203 64 6 204 65 7 204 65 7 205 66 9
205 66 9 204 65 7 204 65 7 204 65 7 204 65 7 207 77 9 207 77 9
207 77 9 207 77 9 207 77 9 209 76 9 209 76 9 209 76 11 208 74 12
205 72 12 203 69 10 203 67 9 202 66 7 202 66 7 202 66 7 202 66 7
202 66 5 202 66 5 202 66 5 201 65 4 202 63 5 200 62 4 200 62 4
200 62 4 202 61 4 202 61 4 202 61 4 202 61 4 205 61 7 204 60 6
202 59 5 204 60 6 201 60 3 201 60 3 201 60 3 201 60 3 201 60 3
201 60 3 199 61 3 199 61 3 205 66 9 205 66 9 203 67 9 203 67 9
202 68 9 202 68 9 202 68 9 202 68 6 201 71 6 200 70 2 220 90 22
217 90 21 218 91 22 218 91 22 218 91 22 218 90 24 218 90 24 218 91 22
217 92 20 216 91 19 213 91 16 212 90 15 212 90 13 213 89 13 214 87 12
214 87 12 212 88 12 212 88 12 212 90 13 209 90 12 221 104 26
220 105 26 216 104 23 216 104 23 216 103 25 216 103 25 216 103 25
216 103 25 216 103 27 219 101 27 198 68 0 201 67 0 201 66 0 201 66 0
204 66 3 204 66 3 204 66 3 204 66 5 205 66 9 204 65 7 202 63 5
202 63 5 203 64 8 203 64 8 202 63 7 202 63 7 202 63 7 202 63 7
202 63 7 202 63 7 202 62 9 202 62 9 203 63 10 203 63 10 201 65 8
201 65 8 201 65 8 201 65 8 201 65 6 202 66 7 203 67 9 207 71 12
207 71 12 207 71 12 207 71 12 207 71 12 207 71 10 207 71 10 207 71 10
205 72 10 213 83 17 211 84 15 211 84 13 211 84 13 211 84 13 211 84 13
211 84 13 214 86 16 214 86 16 213 85 14 209 82 11 206 78 7 206 78 7
206 78 7 204 79 7 204 79 7 204 79 7 206 78 7 207 77 9 209 76 11
199 61 1 202 59 5 204 57 7 204 57 7 201 59 5 199 61 3 199 61 3
199 61 3 200 62 4 200 62 4 202 63 5 202 63 5 203 64 6 203 64 6
204 65 7 204 65 7 203 64 6 203 64 6 203 64 6 203 64 6 209 76 9
209 76 9 209 76 9 209 76 9 209 76 9 210 75 9 210 75 9 210 75 11
209 73 14 207 70 14 205 68 12 203 67 11 204 65 7 204 65 7 204 65 7
204 65 7 202 66 7 202 66 7 202 66 7 201 65 6 200 62 4 200 62 4
200 62 4 200 62 4 201 60 3 201 60 3 201 60 3 201 60 3 204 60 6
204 60 6 204 60 6 204 60 6 201 60 3 201 60 3 201 60 3 201 60 3
201 60 3 201 60 3 199 61 3 199 61 3 208 66 12 206 67 12 205 68 12
205 68 12 205 68 12 205 68 12 203 69 10 203 70 8 203 72 5 200 72 2
218 91 20 216 91 19 217 92 20 217 92 20 217 92 20 217 92 22 217 92 22
217 92 20 217 92 20 216 91 19 213 91 16 212 90 15 212 90 13 213 89 13
214 87 12 214 87 12 212 88 12 212 88 12 212 90 13 209 90 12
221 104 26 220 105 26 216 104 23 216 104 23 216 103 25 216 103 25
216 103 25 216 103 25 216 103 27 219 101 27 199 69 0 202 68 0
202 67 1 202 67 1 204 66 3 204 66 3 204 66 3 204 66 5 205 66 9
204 65 7 202 63 5 202 63 5 203 64 8 203 64 8 202 63 7 202 63 7
202 63 7 202 63 7 202 63 7 202 63 7 202 62 9 202 62 9 203 63 10
203 63 10 203 64 8 203 64 8 203 64 8 203 64 8 203 64 8 204 65 9
205 68 12 207 70 14 207 71 12 207 71 12 207 71 12 207 71 12 207 71 10
207 71 10 207 71 10 205 72 10 214 84 18 213 85 16 213 85 16 213 85 16
213 85 16 213 85 16 213 85 16 214 86 18 216 89 18 214 86 16 209 82 11
206 78 7 206 78 7 206 78 7 204 79 7 204 79 7 206 78 7 207 77 7
209 76 9 210 75 11 199 61 1 202 59 5 204 57 7 204 57 7 201 59 5
199 60 5 199 60 5 199 60 5 200 61 6 200 61 6 202 63 7 202 63 7
203 64 6 203 64 6 204 65 7 204 65 7 203 64 6 203 64 6 203 64 6
203 64 6 209 76 9 209 76 9 209 76 9 209 76 9 210 75 9 210 75 9
210 75 9 210 75 11 209 73 14 207 70 14 205 68 12 203 67 9 204 65 7
204 65 7 204 65 7 204 65 7 202 66 7 202 66 7 202 66 7 203 64 6
200 62 4 200 62 4 200 62 4 200 62 4 201 60 3 201 60 3 201 60 3
201 60 3 204 60 6 204 60 6 204 60 6 204 60 6 201 60 3 201 60 3
201 60 3 201 60 3 201 60 3 201 60 3 199 61 3 199 61 3 208 66 12
208 66 12 206 67 12 205 68 12 205 68 12 205 68 10 205 68 10 203 70 8
204 72 5 201 72 2 217 92 18 214 92 17 214 94 18 214 94 18 215 93 18
215 93 20 217 92 20 217 92 20 217 92 20 216 91 19 213 91 16 212 90 15
212 90 13 213 89 13 214 87 12 214 87 12 212 88 12 212 88 12 212 90 13
209 90 12 221 104 26 220 105 26 217 103 23 216 104 23 216 103 25
216 103 25 216 103 25 216 103 25 216 103 27 219 101 27 199 69 0
202 68 0 202 67 1 202 67 1 204 66 3 204 66 3 204 66 3 204 66 5
205 67 6 204 65 7 202 63 5 202 63 5 203 64 8 203 64 8 202 63 7
202 63 7 202 63 7 202 63 7 202 63 7 202 63 7 202 62 9 202 62 9
203 63 10 203 63 10 203 64 8 204 63 8 204 63 8 203 64 8 203 64 8
204 65 9 205 68 12 207 70 14 207 71 12 209 70 12 209 70 12 209 70 12
209 70 10 209 70 10 209 70 10 207 72 8 216 83 16 214 84 16 214 84 16
214 84 16 214 84 16 213 85 16 213 85 16 214 86 18 216 89 18 214 86 16
209 82 11 206 78 7 206 78 7 206 78 7 204 79 7 206 78 7 207 77 7
209 76 9 210 75 9 212 74 11 201 60 1 202 59 3 204 58 5 204 57 7
201 59 5 199 60 5 199 60 5 199 60 5 200 61 6 200 61 6 202 63 7
202 63 7 203 64 6 203 64 6 204 65 7 204 65 7 203 64 6 203 64 6
203 64 6 203 64 6 209 74 10 209 74 10 209 74 10 209 74 10 209 74 10
209 74 10 209 74 10 209 74 10 209 73 12 207 71 12 205 68 10 203 67 9
205 66 9 205 66 9 205 66 9 205 66 9 204 65 7 204 65 7 204 65 7
204 65 7 202 61 6 201 59 5 201 59 5 201 59 5 201 59 5 201 59 5
201 59 5 201 59 5 201 59 5 201 59 5 201 59 5 201 59 5 201 59 5
201 59 5 201 59 5 201 59 5 201 59 5 201 59 5 201 59 5 201 59 5
208 66 12 208 66 12 208 67 10 206 68 10 206 68 10 206 68 8 206 68 8
206 68 6 207 70 5 203 71 2 217 92 18 212 93 17 212 95 18 212 95 18
214 94 18 215 93 18 215 93 18 215 93 18 215 93 18 214 92 17 213 91 16
210 91 13 212 90 13 213 89 13 215 88 15 215 88 15 215 88 15 213 89 15
211 88 14 208 88 12 220 103 26 220 103 26 216 101 24 216 101 24
216 101 24 216 101 24 217 102 27 217 102 27 217 102 27 221 101 27
199 69 1 202 67 1 202 67 1 202 67 1 205 67 4 205 67 4 205 67 6
205 67 6 205 67 6 204 66 5 202 63 3 202 63 5 203 62 5 203 62 5
203 62 5 203 62 5 203 62 5 203 62 5 203 62 5 203 62 7 203 64 8
203 64 8 204 63 8 204 63 8 204 63 10 206 62 10 206 62 8 204 63 8
203 64 8 204 65 9 206 68 10 209 70 12 210 71 13 211 70 13 211 71 11
211 71 11 211 71 11 211 71 11 211 71 9 210 72 9 217 82 16 217 82 16
216 83 16 216 83 16 216 83 16 214 84 16 214 84 16 215 85 18 216 89 18
214 86 16 208 83 11 204 79 7 204 79 9 204 79 9 204 79 7 206 78 7
209 76 9 210 75 9 212 74 11 212 74 11 201 60 1 201 60 3 202 59 5
202 59 5 201 59 7 201 59 7 199 60 7 199 60 7 200 61 8 200 61 8
202 63 7 202 63 7 202 63 7 202 63 7 203 64 6 203 64 6 203 64 6
203 64 6 203 64 6 203 64 6 209 74 10 209 74 10 209 74 10 209 74 10
209 74 10 209 74 10 209 74 10 209 74 10 209 73 12 207 71 10 205 69 8
203 68 6 205 66 9 205 66 9 205 66 9 205 66 9 204 65 7 204 65 7
204 65 7 204 65 7 202 61 6 201 59 5 201 59 5 201 59 5 201 59 5
201 59 5 201 59 5 201 59 5 201 59 5 201 59 5 201 59 5 201 59 5
201 59 5 201 59 5 201 59 5 201 59 5 201 59 5 201 59 5 201 59 5
201 59 5 208 66 12 208 66 12 208 67 10 208 67 10 206 68 8 206 68 8
206 68 6 208 68 4 211 68 5 206 69 2 218 91 20 212 93 17 212 95 18
212 95 18 214 94 16 215 94 16 215 93 18 215 93 18 215 93 18 214 92 17
211 92 14 210 91 13 212 90 13 213 89 13 215 88 15 215 88 15 215 88 15
215 88 15 212 88 14 209 87 12 222 102 26 220 103 26 216 101 24
216 101 24 216 101 24 216 101 24 217 102 27 217 102 27 217 102 27
221 101 27 199 69 1 202 67 1 202 67 1 202 67 1 205 67 4 205 67 4
205 67 6 205 67 6 205 67 6 204 66 5 202 63 3 202 63 3 203 62 5
203 62 5 203 62 5 203 62 5 203 62 5 203 62 5 203 62 5 203 62 5
203 64 8 203 64 8 204 63 8 204 63 8 206 62 10 206 62 10 206 62 8
204 63 8 203 64 8 204 65 9 205 68 10 207 71 12 210 71 13 210 71 13
211 70 13 211 70 13 211 70 13 211 71 11 210 72 11 210 72 9 217 82 16
217 82 16 216 83 16 214 84 16 214 84 16 214 84 16 214 84 16 215 85 18
216 89 18 214 86 16 209 82 11 206 78 7 206 78 9 206 78 9 204 79 7
206 78 7 210 75 9 212 75 9 212 74 11 212 74 13 201 60 3 201 60 3
201 59 5 201 59 5 201 59 7 201 59 7 199 60 7 199 60 7 200 61 8
200 61 8 202 63 7 202 63 7 202 63 7 202 63 7 203 64 6 203 64 6
203 64 6 203 64 6 203 64 6 203 64 6 209 74 10 209 74 10 209 74 10
209 74 10 209 74 10 209 74 10 209 74 10 209 74 10 209 73 12 207 71 10
205 69 8 203 68 6 205 66 9 205 66 9 205 66 9 205 66 9 204 65 7
204 65 7 204 65 7 204 65 7 201 59 5 201 59 5 201 59 5 201 59 5
201 59 5 201 59 5 201 59 5 201 59 5 201 59 5 201 59 5 201 59 5
201 59 5 201 59 5 201 59 5 201 59 5 201 59 5 201 59 5 201 59 5
201 59 5 201 59 5 206 68 10 206 68 10 206 68 10 206 68 8 206 68 8
206 68 6 206 68 6 208 68 4 212 68 5 209 67 4 222 89 20 216 91 19
214 94 18 214 94 18 217 93 16 217 93 16 215 94 16 214 94 16 215 93 18
214 92 17 211 92 14 210 91 13 212 90 13 213 89 13 215 88 15 215 88 15
215 88 15 215 88 15 212 88 14 209 87 12 222 102 26 219 104 26
215 102 24 215 102 24 215 102 24 215 102 24 216 103 27 216 103 27
216 103 27 219 101 27 200 70 2 203 68 2 203 68 2 203 68 2 205 67 4
205 67 4 205 67 6 205 67 6 205 67 6 204 66 5 202 63 3 202 63 3
203 62 5 203 62 5 204 63 6 204 63 6 203 62 5 203 62 5 203 62 5
203 62 5 203 64 6 203 64 6 204 63 6 204 63 8 206 62 8 206 62 8
204 63 8 204 63 8 203 64 8 202 66 9 203 69 12 205 71 14 207 72 15
207 72 15 208 72 15 208 72 15 208 72 15 208 72 13 207 73 13 207 73 11
214 84 18 214 84 16 213 85 16 213 85 16 213 85 14 213 85 14 213 85 14
214 86 16 218 88 18 215 86 16 211 81 11 207 77 7 209 76 9 209 76 9
209 77 7 209 77 7 210 75 9 210 75 9 210 75 11 212 74 13 199 61 3
199 61 3 199 61 3 199 60 5 199 60 5 199 60 5 199 60 5 199 60 5
200 61 6 200 61 6 202 63 7 202 63 7 203 64 6 203 64 6 204 65 7
204 65 7 203 64 6 203 64 6 203 64 6 203 64 6 209 74 10 209 74 10
209 74 10 209 74 10 209 74 10 209 74 10 209 74 10 209 74 10 209 73 12
207 71 10 205 69 8 203 68 6 205 66 9 205 66 9 205 66 9 205 66 9
204 65 7 204 65 7 204 65 7 204 65 7 201 59 5 201 59 5 201 59 5
201 59 5 201 59 5 201 59 5 201 59 5 201 59 5 201 59 5 201 59 5
201 59 5 201 59 5 201 59 5 201 59 5 201 59 5 201 59 5 201 59 5
201 59 5 201 59 5 201 59 5 206 68 10 206 68 8 206 68 8 206 68 6
206 68 6 206 68 6 206 69 4 208 68 4 212 68 5 209 67 4 222 89 20
216 91 19 214 94 18 214 94 18 217 93 16 217 93 16 215 94 16 214 94 16
215 93 18 214 92 17 211 92 14 210 91 13 212 90 13 213 89 13 215 88 15
215 88 15 215 88 15 215 88 15 212 88 14 209 87 12 222 102 26
219 104 26 215 102 24 215 102 24 215 102 24 215 102 24 216 103 27
216 103 27 216 103 27 219 101 27 199 69 1 202 67 1 202 67 1 202 67 1
204 66 3 204 66 3 204 66 5 204 66 5 204 66 5 203 65 4 202 63 3
202 63 3 203 62 5 203 62 5 204 63 6 204 63 6 203 62 5 203 62 5
203 62 5 203 62 5 202 63 5 202 63 5 203 62 5 203 62 5 205 61 5
203 62 7 203 62 7 202 63 7 201 65 8 201 67 9 201 70 12 204 72 14
205 73 15 207 72 17 207 72 17 208 72 15 208 72 15 208 72 13 207 73 13
207 73 11 214 84 16 214 84 16 213 85 16 213 85 14 213 85 14 213 85 14
213 85 14 214 86 16 218 88 18 215 86 16 211 81 11 207 77 7 209 76 9
209 76 9 209 77 7 209 77 7 209 76 9 209 76 9 209 76 11 210 75 11
198 62 1 199 61 3 199 61 3 199 61 3 199 61 3 199 60 5 199 60 5
199 60 5 200 61 6 200 61 6 202 63 7 202 63 5 203 64 6 203 64 6
204 65 7 204 65 7 203 64 6 203 64 6 203 64 6 203 64 6 209 73 12
209 73 12 209 73 12 209 73 12 209 73 12 209 73 12 209 73 12 209 73 12
209 73 12 207 71 10 205 69 8 203 68 6 204 65 7 204 65 7 204 65 7
204 65 7 205 64 9 205 64 9 205 64 9 205 64 9 201 59 5 201 59 5
201 59 5 201 59 5 201 59 5 201 59 5 201 59 5 201 59 5 201 59 5
201 59 5 201 59 5 201 59 5 201 59 5 201 59 5 201 59 5 201 59 5
201 59 5 201 59 5 199 61 3 199 61 3 205 66 9 203 68 6 203 68 4
203 68 2 203 68 2 203 68 2 203 68 2 205 68 0 211 69 3 208 68 2
217 90 19 210 90 15 210 92 16 210 92 16 213 91 14 213 91 14 211 92 14
211 92 14 211 92 14 211 92 14 213 91 16 212 90 15 212 90 15 213 89 15
215 88 15 215 88 15 215 88 15 215 88 15 211 86 12 214 92 17 218 99 23
221 104 28 219 104 26 219 104 26 219 104 26 219 104 26 217 102 27
217 102 27 217 102 27 221 101 27 199 69 1 202 67 1 202 67 1 202 67 1
204 66 3 204 66 5 204 66 5 204 66 5 204 66 5 203 65 4 202 63 3
202 63 3 204 63 6 204 63 6 204 63 6 204 63 6 204 63 6 204 63 6
204 63 6 204 63 6 203 62 5 203 62 5 203 62 5 203 62 5 203 62 5
203 62 5 202 63 5 200 64 5 190 58 0 196 64 4 198 67 6 205 74 13
205 72 12 207 70 14 209 70 14 209 70 12 209 70 12 209 70 10 209 70 10
207 72 8 221 86 20 219 87 18 219 87 18 218 88 16 218 88 16 218 88 16
218 88 16 218 88 16 206 79 5 214 87 14 204 78 4 211 84 13 207 77 9
207 77 9 207 77 9 207 77 9 207 77 9 207 77 9 207 77 11 207 77 11
196 63 0 198 62 1 198 62 1 198 62 1 198 62 1 198 61 3 198 61 3
196 60 2 198 59 2 198 59 2 199 61 3 200 62 4 204 65 7 204 65 7
204 65 7 204 65 7 204 65 7 204 65 7 204 65 7 204 65 7 208 72 11
208 72 11 208 72 11 208 72 11 208 72 11 208 72 11 208 72 11 208 72 11
208 72 11 206 70 9 203 68 6 202 66 5 204 65 7 204 65 7 204 65 7
204 65 7 205 64 9 205 64 9 205 64 9 205 64 9 201 59 5 201 59 5
201 59 5 201 59 5 201 59 5 201 59 5 201 59 5 201 59 5 201 59 5
201 59 5 201 59 5 201 59 5 201 59 5 201 59 5 201 59 5 201 59 5
201 59 5 201 59 5 199 61 3 199 61 3 203 68 6 202 69 4 202 69 2
202 69 2 202 69 2 202 70 0 202 70 0 202 70 0 202 68 0 201 69 0
214 94 18 209 96 18 208 98 19 208 98 19 212 97 17 213 96 17 213 96 17
213 96 17 215 95 17 214 94 16 214 92 17 212 90 15 212 90 15 213 89 15
215 88 15 215 88 15 215 88 15 215 88 15 212 88 14 213 91 16 216 96 21
217 99 23 220 103 26 220 103 26 220 103 26 220 103 26 219 101 27
221 101 27 221 101 27 222 100 27 201 71 4 205 70 4 205 70 4 205 69 6
206 68 8 206 68 8 206 68 8 206 68 8 206 68 8 205 67 6 203 65 4
203 65 4 205 64 7 205 64 7 204 63 6 204 63 6 204 63 6 204 63 6
204 63 6 204 63 6 205 64 7 205 64 7 205 64 7 205 64 7 205 65 5
204 66 5 202 66 5 201 68 3 197 66 1 195 67 1 203 75 9 204 76 10
202 76 9 203 75 9 203 75 9 205 74 9 205 74 9 205 75 7 203 76 7
203 76 5 212 88 14 212 88 14 211 88 14 211 88 14 209 89 14 209 89 14
209 89 14 209 89 14 202 82 7 208 88 12 195 75 0 201 81 5 203 83 10
203 83 12 203 83 12 205 82 12 206 81 12 206 81 12 206 81 14 208 80 14
197 66 1 198 65 1 198 65 3 198 65 3 200 64 3 200 64 3 200 64 3
200 64 3 200 62 2 199 61 1 198 60 0 197 59 0 204 65 7 204 65 7
204 65 7 204 65 7 204 65 7 204 65 7 204 65 7 204 65 7 206 70 9
206 70 9 206 70 9 206 70 9 206 70 9 206 70 9 206 70 9 206 70 9
206 70 9 203 68 6 201 65 4 201 65 4 203 64 6 204 65 7 204 65 7
204 65 7 205 64 9 205 64 9 205 64 9 205 64 9 202 61 6 202 61 6
202 61 6 202 61 6 202 61 6 202 61 6 202 61 6 202 61 6 202 61 6
202 61 6 202 61 6 202 61 6 201 59 5 201 59 5 201 59 5 201 59 5
201 59 5 201 59 5 201 59 5 199 61 3 216 83 18 214 84 16 214 84 16
214 84 14 214 84 14 214 85 12 214 85 12 213 86 12 206 79 5 204 85 9
224 113 35 222 120 36 222 122 37 222 122 37 223 121 37 227 120 35
230 118 35 233 116 35 235 115 37 235 115 37 213 91 16 212 90 15
212 89 17 213 88 17 215 88 15 215 88 15 215 88 15 215 88 15 213 89 15
213 91 16 212 93 17 212 93 17 211 88 14 212 88 14 212 88 14 212 88 14
211 86 14 213 85 14 213 85 14 213 85 14 207 74 7 207 74 7 207 74 7
208 73 9 208 72 11 208 72 11 210 72 11 210 72 11 210 72 11 209 70 10
206 68 8 205 67 6 205 66 9 204 65 7 204 65 7 204 65 7 203 64 6
203 64 6 203 64 6 203 64 6 207 69 11 207 69 11 207 69 9 207 69 9
207 69 9 206 70 7 204 71 7 203 72 5 200 72 4 204 77 8 235 111 39
237 119 45 231 120 44 229 121 41 229 121 41 229 121 41 229 121 41
229 122 39 230 123 41 230 125 40 232 128 42 232 130 43 233 131 44
233 130 46 233 130 46 233 130 46 233 130 46 234 129 46 233 128 45
236 131 48 220 112 30 222 114 35 214 106 26 214 106 28 214 106 28
217 104 28 220 102 28 223 100 30 223 100 30 225 100 30 214 86 18
215 85 20 215 85 20 217 84 20 217 84 20 217 84 20 219 83 20 219 83 20
219 83 20 215 80 16 212 74 11 209 70 10 205 67 6 205 67 6 205 67 6
205 67 6 204 65 7 204 65 7 204 65 7 204 65 7 205 69 8 205 69 8
205 69 8 205 69 8 205 69 8 205 69 8 205 69 8 205 69 8 205 69 8
202 66 5 200 64 3 199 63 2 204 65 7 204 65 7 204 65 7 204 65 7
205 64 9 205 64 9 205 64 9 205 64 9 202 61 6 202 61 6 202 61 6
202 61 6 202 61 6 202 61 6 202 61 6 202 61 6 202 61 6 202 61 6
202 61 6 202 61 6 201 59 5 201 59 5 201 59 5 201 59 5 201 59 5
201 59 5 201 59 5 199 61 3 215 82 17 213 83 15 211 84 13 211 84 13
211 85 11 211 85 11 211 85 11 210 85 11 198 76 1 200 83 7 222 115 32
223 123 38 221 126 39 221 126 39 224 124 37 227 123 37 231 121 37
234 120 37 234 119 39 235 118 39 210 90 15 211 88 14 211 88 16
211 88 16 213 89 15 215 88 15 215 88 15 215 88 15 213 89 15 213 89 15
211 88 14 211 88 14 213 89 15 215 88 15 215 88 15 215 88 15 215 86 16
215 86 16 215 86 16 215 86 16 208 75 8 208 75 8 208 75 8 208 75 10
209 73 12 209 73 12 211 73 12 211 73 12 212 74 13 210 72 11 207 69 9
209 70 10 204 65 7 204 65 7 204 65 7 204 65 7 203 64 6 203 64 6
203 64 6 203 64 6 210 71 13 210 71 13 210 72 11 210 72 11 208 73 9
208 73 7 207 74 7 205 75 7 206 78 9 204 79 7 237 120 41 233 123 42
227 125 39 224 126 39 224 126 39 224 126 39 224 126 39 224 126 39
225 128 38 223 129 38 224 130 39 223 131 39 224 132 42 224 132 42
224 132 42 224 132 42 226 131 42 226 130 44 229 134 48 230 132 46
211 111 27 213 110 27 213 109 26 213 108 28 213 108 28 215 107 28
220 104 30 223 103 30 223 103 30 225 102 32 213 88 19 215 87 19
215 87 19 217 86 19 218 86 19 218 86 19 220 85 19 220 85 19 221 86 20
215 80 16 210 72 9 204 66 3 205 67 6 205 67 6 205 67 6 205 67 6
204 65 7 204 65 7 204 65 7 204 65 7 205 69 8 205 69 8 205 69 8
205 69 8 206 68 10 206 68 10 206 68 10 206 68 10 206 68 10 205 66 9
203 64 6 200 62 4 203 64 6 203 64 6 203 64 6 203 64 6 204 63 8
204 63 8 204 63 8 204 63 8 202 61 6 202 61 6 202 61 6 202 61 6
202 61 6 202 61 6 202 61 6 202 61 6 202 61 6 202 61 6 202 61 6
202 61 6 202 61 6 202 61 6 202 61 6 202 61 6 202 61 6 202 61 6
202 61 6 200 62 4 212 82 14 210 83 12 210 83 12 210 83 10 210 83 10
210 83 10 210 84 8 210 84 8 206 82 6 207 87 9 224 114 32 221 119 35
219 122 34 219 122 34 222 120 34 224 120 32 227 118 32 227 118 34
225 119 34 227 117 36 209 89 14 209 87 12 209 87 14 209 87 14
212 87 16 214 86 16 214 87 14 214 87 14 212 88 14 212 88 14 212 88 14
212 88 14 213 89 15 213 89 15 215 88 15 215 88 15 215 88 17 215 88 17
217 87 17 217 87 17 206 76 8 206 76 8 208 75 8 208 75 10 209 73 12
209 73 12 209 73 12 209 73 12 210 75 13 208 72 11 203 68 6 200 64 3
205 66 9 205 66 9 205 66 9 205 66 9 204 65 7 204 65 7 204 65 7
204 65 7 210 71 13 210 71 13 210 71 13 210 72 11 208 73 7 208 73 7
207 74 7 205 74 9 207 77 9 202 80 5 232 122 39 228 127 36 225 126 37
225 126 37 225 126 37 225 126 37 225 126 37 225 126 37 225 128 38
226 129 39 226 132 38 227 132 41 226 134 42 226 134 42 226 134 42
226 134 42 226 134 42 226 134 44 226 134 44 227 132 43 212 109 26
217 107 26 217 105 24 217 105 24 215 106 24 215 105 26 217 105 26
219 104 26 220 103 26 220 102 28 211 88 16 212 87 16 214 86 16
215 86 16 217 85 16 217 85 16 217 85 16 217 85 16 219 84 16 219 84 18
203 68 2 203 68 2 203 68 6 203 67 9 203 67 9 203 67 9 205 66 9
205 66 9 205 66 9 205 66 9 205 69 8 205 69 8 205 69 8 205 69 8
206 68 10 206 68 10 206 68 10 206 68 10 206 68 10 205 66 9 203 64 6
202 63 5 203 64 6 203 64 6 203 64 6 203 64 6 204 63 8 204 63 8
204 63 8 204 63 8 202 61 6 202 61 6 202 61 6 202 61 6 202 61 6
202 61 6 202 61 6 202 61 6 202 61 6 202 61 6 202 61 6 202 61 6
202 61 6 202 61 6 202 61 6 202 61 6 202 61 6 202 61 6 202 61 6
200 62 4 212 82 14 210 83 12 210 83 12 210 83 10 210 83 10 210 83 10
210 83 10 210 84 8 206 82 6 207 87 9 224 114 32 221 119 35 219 122 34
219 122 34 222 121 32 225 119 32 227 118 32 227 118 32 222 120 34
225 118 36 208 88 12 210 85 11 209 87 14 209 87 14 211 86 14
213 85 14 214 87 14 214 87 14 212 88 14 212 88 14 214 87 14 214 87 14
213 89 15 213 89 15 215 88 15 215 88 15 215 88 17 215 88 17 217 87 17
217 87 17 206 76 8 206 76 8 208 75 8 208 75 10 209 73 12 209 73 12
209 73 12 209 73 12 210 75 13 207 71 10 202 66 5 200 64 3 205 66 9
205 66 9 205 66 9 205 66 9 204 65 7 204 65 7 204 65 7 204 65 7
210 71 13 210 71 13 210 71 13 210 72 11 208 73 7 208 73 7 207 74 9
205 74 9 207 77 9 202 80 5 230 124 37 227 128 34 225 126 35
225 126 35 225 126 35 225 126 35 225 126 37 225 126 37 227 127 38
226 129 39 226 132 38 227 133 39 226 134 42 226 134 42 226 134 42
226 134 42 226 134 42 226 134 42 225 135 44 227 132 43 213 109 26
218 106 26 220 104 22 220 104 22 217 105 24 215 106 24 217 105 26
217 105 26 219 104 26 220 103 26 209 89 14 212 88 14 214 87 14
215 86 14 217 85 14 217 85 14 217 85 16 217 85 16 219 84 16 219 84 16
203 69 0 203 68 2 203 68 6 203 67 9 203 67 9 203 67 9 205 66 9
205 66 9 205 66 9 205 66 9 205 69 8 205 69 8 205 69 8 205 69 8
206 68 10 206 68 10 206 68 10 206 68 10 206 68 10 205 66 9 203 64 6
202 63 5 203 64 6 203 64 6 203 64 6 203 64 6 204 63 8 204 63 8
204 63 8 204 63 8 203 62 7 203 62 7 203 62 7 203 62 7 203 62 7
203 62 7 203 62 7 203 62 7 203 62 7 203 62 7 203 62 7 203 62 7
202 61 6 202 61 6 202 61 6 202 61 6 202 61 6 202 61 6 202 61 6
200 62 4 213 81 16 212 82 14 212 82 12 212 82 12 212 82 12 212 82 12
212 83 10 210 83 10 206 82 6 207 87 9 224 114 30 221 119 33
219 122 34 219 122 34 224 120 32 225 119 32 227 118 32 225 119 32
222 120 34 225 118 36 208 88 12 210 85 11 209 87 14 209 87 14
211 86 14 213 86 12 214 87 14 214 87 14 212 88 14 212 88 14 214 87 14
214 87 14 213 89 15 213 89 15 215 88 15 215 88 15 215 88 17 215 88 17
217 87 17 217 87 17 206 76 8 206 76 8 208 75 8 208 75 10 208 74 12
208 74 12 209 73 12 209 73 12 210 75 13 207 71 10 202 66 5 200 64 3
203 67 9 203 67 9 203 67 9 203 67 9 202 66 7 202 66 7 202 66 7
202 66 7 208 72 13 208 72 13 208 72 13 208 72 11 210 72 7 208 73 7
207 74 9 205 74 9 209 76 9 204 79 5 232 123 37 228 127 34 227 126 35
227 126 35 227 126 35 227 126 35 227 125 37 227 125 37 227 127 38
226 129 39 226 131 40 227 132 41 226 134 42 226 134 42 226 134 44
226 134 44 226 134 44 226 134 44 225 135 44 227 132 43 213 109 23
218 106 23 220 104 22 220 104 22 217 105 22 215 106 24 215 106 24
217 105 24 219 104 24 220 103 24 211 89 12 212 88 12 214 87 12
215 86 12 217 85 14 217 85 14 217 85 16 217 85 16 219 84 16 219 84 16
202 70 0 202 69 2 203 68 6 203 67 9 203 67 9 203 67 9 203 68 6
203 68 6 203 68 6 203 68 6 205 69 8 205 69 8 205 69 8 205 69 8
206 68 10 206 68 10 206 68 10 206 68 10 206 68 10 205 66 9 203 64 6
202 63 5 203 64 6 203 64 6 203 64 6 203 64 6 204 63 8 204 63 8
204 63 8 204 63 8 203 62 7 203 62 7 203 62 7 203 62 7 203 62 7
203 62 7 203 62 7 203 62 7 203 62 7 203 62 7 203 62 7 203 62 7
202 61 6 202 61 6 202 61 6 202 61 6 202 61 6 202 61 6 202 61 6
200 62 4 213 81 16 212 82 14 212 82 12 212 82 12 212 82 12 212 82 12
212 83 10 212 83 10 208 81 6 207 87 9 224 114 30 221 119 33
219 122 34 219 122 34 224 120 32 225 119 32 227 118 32 225 119 32
222 120 34 225 118 36 208 88 12 211 84 13 211 86 16 211 86 16
213 85 14 213 86 12 214 87 14 214 87 14 214 87 14 214 87 14 214 87 14
214 87 14 215 88 15 215 88 15 215 88 15 215 88 17 215 88 17 215 88 17
217 87 17 217 86 19 206 76 8 206 76 8 208 75 8 208 75 10 208 74 12
208 74 12 209 73 12 209 73 12 210 75 13 207 71 10 202 66 5 200 64 3
203 67 9 203 67 9 203 67 9 203 67 9 202 66 7 202 66 7 202 66 7
202 66 7 208 72 13 208 72 13 208 72 13 208 72 11 210 72 7 208 73 7
207 74 9 205 74 11 209 76 11 204 79 5 232 123 37 228 127 36
227 126 35 227 126 35 227 126 35 227 126 35 227 125 37 227 125 37
227 127 38 228 128 39 227 130 40 227 132 41 226 134 42 226 134 42
226 134 44 226 134 44 226 134 44 226 134 44 225 135 44 227 132 43
213 109 23 218 106 23 220 104 22 220 104 22 217 105 22 215 106 22
215 106 22 217 105 22 219 104 22 220 104 22 211 89 12 214 87 12
215 86 12 215 86 12 217 85 14 217 85 14 217 85 14 217 85 16 219 84 16
219 84 16 202 70 0 202 69 2 203 68 6 203 67 9 203 67 9 203 67 9
203 68 6 203 68 6 203 68 6 203 68 6 205 69 8 205 69 8 205 69 8
205 69 8 206 68 10 206 68 10 206 68 10 206 68 10 206 68 10 205 66 9
203 64 6 202 63 5 204 63 8 204 63 8 204 63 8 204 63 8 204 63 8
204 63 8 204 63 8 204 63 8 203 62 7 203 62 7 203 62 7 203 62 7
203 62 7 203 62 7 203 62 7 203 62 7 203 62 7 203 62 7 203 62 7
203 62 7 202 63 7 202 63 7 202 63 7 202 63 7 202 63 7 202 63 7
202 63 7 200 64 5 215 82 17 213 83 15 213 83 13 213 83 13 213 83 13
213 83 13 213 84 11 213 84 11 209 83 7 208 88 10 225 115 34
222 120 36 219 121 36 219 122 34 224 120 32 225 119 32 227 118 32
225 119 32 222 120 34 225 118 36 209 87 12 211 84 13 210 85 15
210 85 15 213 85 14 213 85 14 213 85 14 213 85 14 214 86 16 215 86 16
215 86 16 215 86 16 215 88 17 215 88 17 217 87 17 217 87 17 217 86 19
217 86 19 217 86 19 217 86 19 208 75 10 208 75 10 208 75 10 208 75 10
209 73 12 209 73 12 209 73 12 209 73 12 210 75 13 207 71 10 202 66 5
200 64 3 205 66 9 205 66 9 205 66 9 205 66 9 205 66 9 205 66 9
203 67 9 203 67 9 208 72 11 208 72 11 207 73 11 208 72 11 210 72 7
208 73 7 207 74 9 205 74 11 209 76 11 204 79 5 232 123 37 228 127 36
227 125 37 227 125 37 227 125 37 227 125 37 227 125 37 227 125 37
227 127 38 228 128 39 227 130 40 227 132 41 226 135 40 226 134 42
226 134 42 226 134 42 226 134 42 226 134 42 225 135 42 227 132 41
213 109 21 218 107 21 220 104 20 220 104 20 217 106 20 215 106 20
215 106 20 217 106 20 219 105 20 220 104 22 211 89 10 214 88 10
215 87 10 215 86 12 217 86 12 217 86 12 217 86 12 217 85 14 219 84 14
219 84 14 202 70 0 202 70 0 202 68 6 202 68 9 202 68 9 202 68 9
203 68 6 203 68 6 203 68 6 203 68 6 205 69 8 205 69 8 205 69 8
205 69 8 206 68 10 206 68 10 206 68 10 206 68 10 206 68 10 205 66 9
203 64 6 202 63 5 204 63 8 204 63 8 204 63 8 204 63 8 204 63 8
204 63 8 204 63 8 204 63 8 203 62 7 203 62 7 203 62 7 203 62 7
203 62 7 203 62 7 203 62 7 203 62 7 203 62 7 203 62 7 203 62 7
203 62 7 202 63 7 202 63 7 202 63 7 202 63 7 202 63 7 202 63 7
202 63 7 200 64 5 215 82 17 213 83 15 213 83 13 213 83 13 213 83 13
213 83 13 213 84 11 213 84 11 209 83 7 208 88 10 225 115 34
222 120 36 219 121 36 219 121 36 224 119 34 225 119 32 227 118 32
225 119 34 222 120 36 225 118 38 209 87 14 211 84 13 210 85 15
210 85 15 213 85 14 213 85 14 211 84 13 211 84 13 214 84 14 214 84 14
214 84 14 214 84 14 214 86 16 214 86 16 215 86 16 215 86 16 215 85 18
215 85 18 215 85 18 215 85 18 208 75 10 208 75 10 208 75 10 208 75 10
209 73 12 209 73 12 209 73 12 209 73 12 210 75 13 207 71 10 202 66 5
200 64 3 205 66 9 205 66 9 205 66 9 205 66 9 205 66 9 205 66 9
203 67 9 203 67 9 208 72 11 208 72 11 207 73 11 208 72 11 210 72 9
208 73 9 207 73 11 205 74 11 209 76 11 204 79 7 232 122 39 228 127 36
227 125 37 227 125 37 227 125 37 227 125 37 227 125 37 227 125 37
228 126 38 228 128 39 227 130 40 227 132 41 226 135 40 226 135 40
226 134 42 226 134 42 226 134 42 226 134 42 225 135 42 227 132 41
213 109 21 218 107 21 220 104 20 220 104 20 217 106 20 215 106 20
215 106 20 217 106 20 219 105 20 220 104 20 211 89 10 214 88 10
215 87 10 215 87 10 217 86 12 217 86 12 217 86 12 217 86 12 219 84 14
219 84 14 202 70 0 202 70 0 202 68 6 202 68 9 202 68 9 202 68 9
203 68 6 203 68 6 203 68 6 203 68 6 203 68 6 203 68 6 203 68 6
203 68 6 205 66 9 205 66 9 205 66 9 205 66 9 205 66 9 205 66 9
203 64 6 203 64 6 205 64 9 205 64 9 205 64 9 205 64 9 205 64 9
205 64 9 205 64 9 205 64 9 204 63 8 204 63 8 204 63 8 204 63 8
204 63 8 204 63 8 204 63 8 204 63 8 204 63 8 204 63 8 204 63 8
204 63 8 203 64 8 203 64 8 203 64 8 203 64 8 203 64 8 203 64 8
203 64 8 201 65 6 216 83 18 214 84 16 214 84 14 214 84 14 214 84 14
214 84 14 214 85 12 214 85 12 210 84 8 209 90 12 225 115 34
222 120 36 219 121 36 219 121 36 224 119 34 227 118 34 227 118 34
225 119 34 222 120 36 225 118 38 208 86 13 210 83 12 209 83 14
209 83 14 211 84 13 211 84 13 213 83 13 213 83 13 214 84 14 214 84 14
214 84 14 214 84 14 213 85 14 213 85 14 214 84 14 214 84 14 214 84 16
214 84 16 214 84 16 214 84 16 208 75 10 208 75 10 208 75 10 208 75 10
209 73 12 209 73 12 209 73 12 209 73 12 210 75 13 206 70 9 202 66 5
201 65 4 205 66 9 205 66 9 205 66 9 205 66 9 205 66 9 205 66 9
203 67 9 203 67 9 208 72 11 208 72 11 207 73 11 208 72 11 210 72 9
208 73 9 207 73 11 205 74 11 208 75 10 204 79 7 233 122 39 230 126 36
229 124 37 229 124 37 229 124 37 229 124 37 229 124 37 229 124 37
228 126 38 228 128 39 227 130 40 227 132 41 226 135 40 226 135 40
226 134 42 226 134 42 226 134 42 226 134 42 225 135 42 227 132 41
213 109 21 218 107 21 220 104 20 220 104 20 217 106 20 215 106 20
215 106 20 217 106 20 219 105 20 220 104 20 211 89 10 214 88 10
215 87 10 215 87 10 217 86 12 217 86 12 217 86 12 217 86 12 219 84 14
219 84 14 202 70 0 200 70 0 202 68 6 202 68 9 202 68 9 202 68 9
202 68 6 202 69 4 202 69 4 202 69 4 203 68 6 203 68 6 203 68 6
203 68 6 205 66 9 205 66 9 205 66 9 205 66 9 205 66 9 205 66 9
203 64 6 203 64 6 205 64 9 205 64 9 205 64 9 205 64 9 205 64 9
205 64 9 205 64 9 205 64 9 204 63 8 204 63 8 204 63 8 204 63 8
204 63 8 204 63 8 204 63 8 204 63 8 204 63 8 204 63 8 204 63 8
204 63 8 203 64 8 203 64 8 203 64 8 203 64 8 203 64 8 203 64 8
203 64 8 201 65 6 216 83 18 214 84 16 214 84 14 214 84 14 214 84 14
213 85 14 213 86 12 213 86 12 209 84 10 209 90 12 226 114 34
225 118 36 222 120 36 222 120 36 225 119 34 227 118 34 227 118 34
227 118 34 225 118 36 227 117 36 208 86 11 210 83 12 210 83 14
210 83 14 211 84 13 211 84 13 212 82 12 212 82 12 213 83 13 213 83 13
213 83 13 213 83 13 211 84 13 211 84 13 213 83 13 213 83 15 213 83 15
213 83 15 213 83 15 213 83 15 208 75 10 208 75 10 208 75 10 208 75 10
209 73 12 209 73 12 209 73 12 209 73 12 210 75 13 206 70 9 202 66 5
201 65 4 205 66 9 205 66 9 205 66 9 205 66 9 205 66 9 205 66 9
203 67 9 203 67 9 208 72 11 208 72 11 207 73 11 207 74 9 208 73 7
208 73 9 207 73 11 205 74 11 208 75 10 204 79 7 233 122 39 230 126 36
229 124 37 229 124 37 229 124 37 229 124 37 229 124 37 229 124 37
228 126 38 228 128 39 224 132 40 222 135 41 223 136 40 223 136 40
223 136 42 223 136 42 223 136 42 223 136 42 223 136 42 224 134 41
209 112 21 213 109 21 214 107 20 214 107 20 212 108 20 211 109 20
212 108 20 212 108 20 212 108 20 215 106 20 206 92 10 209 90 10
209 90 10 211 89 10 212 88 12 212 88 12 212 88 12 212 88 12 212 88 14
214 87 14 200 71 0 200 70 0 202 69 4 202 68 6 202 68 6 202 69 4
202 69 4 202 69 4 202 69 4 202 69 4 204 65 7 204 65 7 204 65 7
204 65 7 204 65 7 204 65 7 204 65 7 204 65 7 205 66 9 204 65 7
204 65 7 203 64 6 204 65 7 204 65 7 204 65 7 204 65 7 204 65 7
204 65 7 204 65 7 204 65 7 203 64 6 203 64 6 203 64 6 203 64 6
203 64 6 203 64 6 203 64 6 203 64 6 203 64 6 203 64 6 203 64 6
203 64 6 203 64 6 203 64 6 203 64 6 203 64 6 203 64 6 203 64 6
203 64 6 201 65 4 214 84 16 213 85 14 213 85 14 213 85 14 213 85 14
211 86 14 211 86 14 211 86 14 208 86 11 211 88 14 217 100 21
217 103 23 215 101 21 214 101 21 214 102 19 214 102 19 214 102 19
214 102 19 215 101 21 217 100 21 209 84 10 210 83 12 209 81 13
209 81 13 212 82 14 212 82 14 212 82 14 212 82 14 212 82 14 212 82 14
212 82 14 212 82 14 213 83 15 213 83 15 213 83 15 213 83 15 213 83 17
213 83 17 215 82 17 215 82 17 201 68 3 201 68 3 202 67 3 202 67 3
202 66 5 202 66 7 204 65 7 204 65 7 205 66 9 206 68 10 205 66 9
204 65 7 205 66 9 205 66 9 205 66 9 205 66 9 205 66 11 205 66 11
205 66 9 203 67 9 208 72 11 207 73 11 207 74 9 207 74 9 208 73 7
208 73 9 207 73 11 205 74 11 208 75 10 203 78 6 222 110 27 218 114 26
215 110 23 215 110 23 215 110 23 215 110 23 215 110 25 215 110 25
215 110 23 210 113 23 237 155 58 234 157 58 234 157 58 234 157 58
234 157 58 234 157 58 236 156 58 236 156 58 236 156 58 235 155 57
234 150 53 234 147 51 234 146 53 234 146 53 234 146 53 235 146 53
237 145 53 237 145 53 235 146 53 237 145 53 223 121 35 227 120 35
225 121 35 225 121 35 227 119 37 228 119 37 230 118 37 228 119 37
228 120 40 232 120 41 210 85 11 214 85 12 214 85 12 214 84 14
214 84 14 214 84 14 216 83 16 216 83 16 216 83 16 216 83 16 204 65 7
204 65 7 204 65 7 204 65 7 204 65 7 204 65 7 204 65 7 204 65 7
205 66 9 204 65 7 204 65 7 203 64 6 204 65 7 204 65 7 204 65 7
204 65 7 204 65 7 204 65 7 204 65 7 204 65 7 203 64 6 203 64 6
203 64 6 203 64 6 203 64 6 203 64 6 203 64 6 203 64 6 203 64 6
203 64 6 203 64 6 203 64 6 203 64 6 203 64 6 203 64 6 203 64 6
203 64 6 203 64 6 203 64 6 201 65 4 214 84 16 213 85 14 211 86 14
211 86 14 211 86 14 211 86 14 209 87 14 209 87 14 208 86 11 211 88 14
218 99 21 221 101 23 218 99 21 217 100 21 215 101 19 214 102 19
214 102 19 215 101 19 217 100 21 220 98 21 209 84 10 210 83 10
209 82 11 209 81 13 212 82 14 212 82 14 211 81 13 211 81 13 211 81 13
211 81 13 211 81 13 211 81 13 212 82 14 212 82 14 212 82 14 212 82 14
212 81 16 212 81 16 213 81 16 213 81 16 201 68 3 201 68 3 202 67 3
202 66 5 202 66 7 202 66 7 204 65 7 204 65 7 205 66 9 206 68 10
205 66 9 204 65 7 205 66 9 205 66 9 205 66 9 205 66 9 205 66 11
205 66 11 205 66 9 205 66 9 208 72 11 207 73 11 207 74 9 207 74 9
208 73 7 208 73 9 207 73 11 205 74 13 208 74 12 203 78 8 222 110 29
218 114 26 215 110 23 215 110 23 215 110 23 215 110 23 215 110 25
215 110 25 215 110 23 210 113 23 236 156 58 229 159 58 231 159 58
231 159 58 231 159 58 231 159 58 233 158 58 233 158 58 233 158 58
232 157 57 230 152 53 227 150 51 227 150 53 227 150 53 229 149 53
230 148 53 232 147 53 232 147 53 230 148 53 232 147 53 220 123 35
222 122 35 220 123 35 220 123 35 222 122 37 223 121 37 225 120 37
223 121 37 223 123 40 227 122 41 208 86 11 214 85 12 214 85 10
214 85 10 214 85 10 214 85 12 216 84 14 216 83 16 216 83 16 216 83 16
203 64 6 203 64 6 203 64 6 203 64 6 203 64 6 203 64 6 203 64 6
203 64 6 204 65 7 204 65 7 204 65 7 204 65 7 205 66 9 205 66 9
205 66 9 205 66 9 205 66 9 205 66 9 205 66 9 205 66 9 204 65 7
204 65 7 204 65 7 204 65 7 204 65 7 204 65 7 204 65 7 204 65 7
204 65 7 204 65 7 204 65 7 204 65 7 204 65 7 204 65 7 204 65 7
204 65 7 204 65 7 204 65 7 204 65 7 202 66 5 215 85 18 214 86 16
212 87 16 212 87 16 212 87 16 212 87 16 211 88 16 211 88 16 209 87 12
212 90 15 218 99 21 221 101 23 218 99 21 217 100 21 215 101 21
215 101 21 214 101 21 215 101 21 217 100 21 220 98 21 209 82 9
211 81 9 211 81 11 211 81 11 210 79 12 210 79 12 211 81 13 211 81 13
211 81 13 211 81 13 211 81 13 211 81 13 211 81 13 211 81 13 211 81 13
211 81 13 211 80 15 211 80 15 212 79 15 212 79 15 201 68 3 201 68 3
202 67 3 202 66 5 202 66 7 202 66 7 204 65 7 204 65 7 205 66 9
205 66 9 205 66 9 205 66 9 205 66 9 205 66 9 205 66 9 205 66 9
205 66 11 205 66 11 205 66 9 205 66 9 208 72 11 207 73 11 207 74 9
207 74 9 208 73 7 208 73 9 207 73 11 205 74 13 207 73 11 203 78 8
222 110 29 220 113 26 216 110 23 216 110 23 216 110 23 216 110 23
216 109 25 216 109 25 216 110 23 210 113 23 236 156 58 229 159 58
231 159 58 231 159 58 231 159 58 231 159 58 233 158 58 233 158 58
233 158 58 232 157 57 230 152 53 227 150 51 227 150 53 227 150 53
229 149 53 230 148 53 232 147 53 232 147 53 230 148 53 232 147 53
220 123 35 222 122 35 220 123 35 220 123 35 222 122 37 223 121 37
225 120 37 223 121 37 223 123 40 227 122 41 207 87 11 213 86 12
214 85 10 214 85 10 214 85 10 214 85 12 214 84 14 214 84 14 214 84 14
214 84 14 203 64 6 203 64 6 203 64 6 203 64 6 203 64 6 203 64 6
203 64 6 203 64 6 204 65 7 204 65 7 204 65 7 204 65 7 205 66 9
205 66 9 205 66 9 205 66 9 205 66 9 205 66 9 205 66 9 205 66 9
204 65 7 204 65 7 204 65 7 204 65 7 204 65 7 204 65 7 204 65 7
204 65 7 204 65 7 204 65 7 204 65 7 204 65 7 204 65 7 204 65 7
204 65 7 204 65 7 204 65 7 204 65 7 204 65 7 202 66 5 215 85 18
214 86 16 212 87 16 212 87 16 212 87 16 212 87 16 211 88 16 211 88 16
209 87 12 212 90 15 218 99 21 221 101 23 218 99 21 218 99 21
217 100 21 215 101 21 215 101 21 215 101 21 217 100 21 220 98 21
209 82 9 211 81 9 211 81 11 211 81 11 210 79 12 210 79 12 210 79 12
210 79 12 210 79 12 210 79 12 210 79 12 210 79 12 210 79 12 210 79 12
210 79 12 210 79 14 210 79 14 210 79 14 211 78 14 211 78 14 201 68 3
201 68 3 202 67 3 202 66 5 202 66 7 202 66 7 204 65 7 204 65 7
205 66 9 205 66 9 205 66 9 205 66 9 205 66 9 205 66 9 205 66 9
205 66 9 205 66 11 205 66 11 205 66 9 205 66 9 208 72 11 207 73 11
207 74 9 207 74 9 208 73 9 208 73 9 207 73 13 205 74 13 207 73 11
204 77 8 223 109 29 219 112 25 216 110 23 216 110 23 216 110 23
216 109 25 216 109 25 216 109 25 216 109 25 210 113 23 236 156 60
229 159 58 231 159 58 231 159 58 231 159 58 231 159 58 233 158 58
233 158 58 233 158 58 232 157 57 230 152 53 227 150 51 227 150 53
227 150 53 229 149 53 230 148 53 232 147 53 232 147 53 230 148 53
232 147 53 220 123 35 222 122 35 220 123 35 220 123 35 222 122 37
223 121 37 225 120 37 223 121 37 223 123 40 227 122 41 207 87 11
213 86 12 214 85 10 214 85 10 214 85 10 214 85 12 214 84 14 214 84 14
214 84 14 214 84 14 204 63 8 204 63 8 204 63 8 204 63 8 204 63 8
204 63 8 204 63 8 204 63 8 204 65 7 204 65 7 204 65 7 204 65 7
205 66 9 205 66 9 205 66 9 205 66 9 205 66 9 205 66 9 205 66 9
205 66 9 205 66 9 205 66 9 205 66 9 205 66 9 205 66 9 205 66 9
205 66 9 205 66 9 205 66 9 205 66 9 205 66 9 205 66 9 203 67 9
203 67 9 203 67 9 203 67 9 203 67 9 203 67 9 203 67 9 202 68 6
217 86 19 215 88 17 213 88 17 213 88 17 213 88 17 213 88 17 212 89 17
212 89 17 211 88 14 213 91 16 217 97 22 219 100 24 219 100 24
218 99 23 217 100 21 217 100 21 217 100 21 217 100 21 218 99 23
220 98 23 209 82 9 211 81 9 211 81 11 211 81 11 211 81 13 211 80 15
211 80 15 211 80 15 212 79 15 212 79 15 212 79 15 212 79 15 212 79 15
212 79 15 212 79 15 212 79 15 212 79 17 212 79 17 212 79 17 212 79 17
203 68 6 203 68 6 203 68 6 203 68 6 205 66 9 205 66 9 205 66 9
205 66 9 205 66 9 205 66 9 205 66 9 205 66 9 207 65 11 207 65 11
207 65 11 207 65 11 207 65 11 207 65 11 205 66 9 205 66 9 208 72 11
207 74 9 207 74 9 207 74 9 208 73 9 208 72 11 207 73 13 205 74 13
210 77 15 206 78 9 222 107 30 219 112 27 217 110 26 217 110 26
217 110 26 217 110 28 217 110 28 217 110 28 217 110 26 211 114 26
237 157 61 231 160 61 232 160 59 232 160 59 232 160 59 232 160 59
234 159 59 234 159 59 234 159 59 233 158 58 231 154 54 228 151 52
228 151 52 228 151 52 230 150 52 232 150 52 233 149 52 233 149 52
232 150 52 233 148 54 221 125 34 223 124 34 221 125 34 221 124 36
223 123 36 225 123 36 226 122 36 225 122 38 222 122 37 226 121 38
206 86 10 211 85 11 213 86 12 213 86 12 213 86 12 213 86 12 214 84 14
214 84 14 214 84 14 214 84 14 204 63 8 204 63 8 204 63 8 204 63 8
204 63 8 204 63 8 204 63 8 204 63 8 204 65 9 204 65 7 204 65 7
204 65 7 205 66 9 205 66 9 205 66 9 205 66 9 205 66 9 205 66 9
205 66 9 205 66 9 205 66 9 205 66 9 205 66 9 205 66 9 205 66 9
205 66 9 205 66 9 205 66 9 205 66 9 205 66 9 205 66 9 205 66 9
203 67 9 203 67 9 203 67 9 203 67 9 203 67 9 203 67 9 203 67 9
202 68 6 217 86 19 215 88 17 213 88 17 213 88 17 213 88 17 213 88 17
212 89 17 212 89 17 211 88 14 213 91 16 217 97 22 219 100 24
219 100 24 218 99 23 217 100 21 217 100 21 217 100 21 217 100 21
218 99 23 220 98 23 209 82 9 211 81 9 211 81 11 211 81 11 211 81 13
211 80 15 211 80 15 211 80 15 212 79 15 212 79 15 212 79 15 212 79 15
212 79 15 212 79 15 212 79 15 212 79 15 212 79 17 212 79 17 212 79 17
212 79 17 203 68 6 203 68 6 203 68 6 203 68 6 205 66 9 205 66 9
205 66 9 205 66 9 205 66 9 205 66 9 205 66 9 205 66 9 207 65 11
207 65 11 207 65 11 207 65 11 207 65 11 207 65 11 205 66 9 205 66 9
208 72 11 207 74 9 207 74 7 207 74 9 208 72 11 208 72 13 207 72 15
205 73 15 210 76 17 206 78 11 222 107 30 217 110 28 217 110 26
217 110 26 217 110 28 217 110 28 217 110 28 217 110 28 217 110 26
211 114 26 237 157 61 231 160 61 232 160 59 232 160 59 232 160 59
232 160 59 234 159 59 234 159 59 234 159 59 233 158 58 231 154 54
228 151 52 228 151 52 228 151 52 230 150 52 232 150 52 233 149 52
233 149 52 232 150 52 233 149 52 221 125 34 223 124 34 221 125 34
221 125 34 223 123 36 225 123 36 226 122 36 225 123 36 222 122 37
226 121 38 206 86 10 211 85 11 213 86 12 213 86 12 213 86 12
213 86 12 214 84 14 214 84 14 214 84 14 214 84 14 204 63 8 204 63 8
204 63 8 204 63 8 204 63 8 204 63 8 204 63 8 204 63 8 204 65 9
204 65 9 204 65 7 204 66 5 205 66 9 205 66 9 205 66 9 205 66 9
205 66 9 205 66 9 205 66 9 205 66 9 205 66 9 205 66 9 205 66 9
205 66 9 205 66 9 205 66 9 205 66 9 205 66 9 205 66 9 205 66 9
205 66 9 205 66 9 203 67 9 203 67 9 203 67 9 203 67 9 203 67 9
203 67 9 203 67 9 202 68 6 215 87 19 213 88 17 213 88 17 213 88 17
212 89 17 212 89 17 212 89 17 212 89 17 209 89 14 211 92 16 217 97 22
219 100 24 219 100 24 218 99 23 217 99 23 217 99 23 217 99 23
217 99 23 218 99 21 220 98 21 208 83 7 209 82 9 211 81 11 211 81 11
209 82 11 209 81 13 211 81 13 211 81 13 212 80 13 212 80 13 214 79 13
214 79 13 212 79 15 212 79 15 212 79 15 212 79 15 212 79 17 212 79 17
212 79 17 212 79 17 203 68 6 203 68 6 203 68 6 203 68 6 205 66 9
205 66 9 205 66 9 205 66 9 205 66 9 205 66 9 205 66 9 205 66 9
207 65 11 207 65 11 207 65 11 207 65 11 207 65 11 207 65 11 205 66 9
205 66 9 208 72 11 207 74 9 207 74 7 207 74 9 208 72 11 208 72 13
207 72 15 205 73 15 210 76 17 206 78 11 222 107 30 219 109 28
217 110 26 217 110 26 217 110 28 217 110 28 217 110 28 217 110 28
217 110 26 211 114 26 237 157 61 231 160 61 232 160 59 232 160 59
232 160 59 232 160 59 234 159 59 234 159 59 234 159 59 233 158 58
231 154 54 228 151 52 228 151 52 228 151 52 230 150 52 232 150 52
233 149 52 233 149 52 232 150 52 233 149 52 221 125 34 223 124 34
221 125 34 221 125 34 223 124 34 225 123 34 226 122 36 225 123 36
222 122 37 226 121 38 206 86 10 211 85 11 213 86 12 213 86 12
213 86 12 213 86 12 213 85 14 213 85 14 213 85 14 213 85 14 204 63 8
204 63 8 204 63 8 204 63 8 204 63 8 204 63 8 204 63 8 204 63 10
204 63 10 207 65 13 204 65 7 202 66 5 203 68 6 203 68 6 203 68 6
205 66 9 205 66 9 205 66 9 205 66 9 205 66 9 205 66 9 205 66 9
205 66 9 205 66 9 205 66 9 203 67 9 203 67 9 203 67 9 203 67 9
205 66 9 207 66 9 207 66 9 205 66 9 205 66 11 205 66 11 205 66 11
205 66 11 205 66 11 205 66 11 202 68 6 215 87 19 213 88 17 213 88 17
213 88 17 212 89 17 212 89 17 212 89 17 212 89 17 211 88 14 211 92 16
217 97 22 219 100 24 219 100 24 218 99 23 217 99 23 217 99 23
217 99 23 217 99 23 218 99 21 218 99 21 206 84 7 208 83 7 209 82 9
209 82 11 208 83 11 209 82 11 209 81 13 211 81 13 212 80 13 212 80 13
214 79 13 213 78 12 211 78 14 211 78 14 211 78 14 211 78 14 211 78 16
211 78 16 212 79 17 214 78 17 203 68 6 203 68 6 203 68 6 205 67 6
205 66 9 205 66 9 205 66 9 205 66 9 205 66 9 205 66 9 205 66 9
205 66 9 207 65 11 207 65 11 207 65 11 207 65 11 207 65 11 207 65 11
205 66 9 205 66 9 208 72 11 207 73 11 207 74 9 207 74 9 207 73 11
207 73 13 205 73 15 205 73 15 208 77 17 206 78 11 224 106 30
219 109 28 219 109 28 217 110 26 217 110 28 217 110 28 217 110 28
217 110 28 217 110 26 213 113 26 237 157 61 232 159 61 232 160 59
232 160 59 232 160 59 232 160 59 234 159 59 234 159 59 232 160 59
231 159 58 229 154 54 228 151 52 230 150 52 230 150 52 230 150 52
230 150 52 233 149 52 233 149 52 232 150 52 235 148 52 220 125 34
223 124 34 221 125 34 221 125 34 223 124 34 223 124 34 223 121 35
223 121 35 222 122 37 226 121 38 206 86 10 211 85 11 213 86 12
213 86 12 213 86 12 213 86 12 213 85 14 213 85 14 213 85 14 213 85 14
206 62 10 206 62 10 206 62 10 206 62 10 206 62 10 206 62 10 206 62 10
205 61 9 208 59 11 209 62 11 206 68 8 207 74 7 205 75 5 204 74 4
205 72 8 207 71 10 209 70 12 210 69 14 210 69 14 209 68 13 209 68 13
208 66 12 208 66 12 206 67 12 205 68 12 201 70 12 200 71 12 200 71 12
200 69 11 201 65 8 209 66 12 210 64 11 204 63 8 204 63 10 204 63 10
204 63 10 204 63 10 204 63 10 204 63 10 201 65 6 211 84 15 213 88 17
213 88 17 213 88 17 213 88 17 213 88 17 213 88 17 212 87 16 209 87 12
212 90 15 218 95 21 220 98 23 218 99 23 217 97 22 216 99 20 216 99 20
217 100 21 217 100 21 217 100 21 217 100 21 203 84 6 203 84 6
203 84 6 203 83 8 205 83 8 205 82 10 206 81 10 208 81 10 210 79 12
209 76 9 213 78 12 212 77 11 212 77 11 212 77 11 211 79 12 211 78 14
213 77 16 213 77 16 213 77 16 213 77 16 205 67 6 205 67 6 205 67 6
205 67 6 207 66 9 207 65 11 207 65 11 207 65 11 207 65 11 207 65 11
207 65 11 207 65 11 205 66 11 205 66 11 205 66 11 205 66 11 205 66 11
205 66 11 205 66 11 205 66 11 209 73 14 209 73 14 208 74 14 208 74 14
206 75 12 204 76 14 206 74 16 206 74 16 204 72 12 202 76 9 225 107 33
224 112 33 221 112 30 221 112 30 221 112 30 221 112 30 221 112 30
221 112 30 221 112 28 215 115 28 241 159 63 236 161 63 236 161 61
236 161 61 236 161 61 236 161 61 236 161 61 235 162 61 229 161 59
234 166 64 228 153 53 235 155 57 233 150 55 233 150 55 231 151 55
230 150 54 230 150 54 230 148 53 232 147 53 234 146 53 220 125 34
221 125 34 222 123 31 222 123 31 222 123 33 222 123 33 223 122 33
223 121 35 222 122 37 228 121 38 207 85 10 213 84 11 213 85 14
213 85 14 213 85 14 213 85 14 213 85 14 213 85 14 213 85 14 213 85 14
206 62 10 206 62 10 206 62 10 206 62 10 206 62 10 206 62 10 206 62 10
208 61 12 208 58 13 204 59 8 204 71 7 198 73 2 194 73 0 194 72 0
196 71 1 197 69 3 199 68 5 199 68 5 199 68 5 199 68 5 200 69 6
200 69 6 200 69 6 200 69 6 199 70 6 195 72 6 192 73 6 191 72 5
193 69 4 201 70 8 205 65 5 212 68 12 205 64 7 204 65 7 204 65 7
204 65 9 204 65 9 204 65 9 204 65 9 202 66 7 211 84 15 213 88 17
213 88 17 213 88 17 213 88 17 213 88 17 213 88 17 212 87 16 209 87 12
212 90 15 218 95 21 220 98 23 218 99 23 217 97 22 216 99 20 216 99 20
217 100 21 217 100 21 217 100 21 217 100 21 204 87 8 204 87 8
204 87 8 204 87 8 204 87 10 206 86 10 207 85 10 209 84 12 201 72 2
210 77 11 209 76 9 216 81 15 210 75 9 210 75 9 210 77 11 210 77 13
212 76 15 212 76 15 213 77 16 213 77 16 203 65 4 203 65 4 203 65 4
203 64 6 204 63 8 204 63 8 204 63 8 204 63 8 204 63 8 204 63 8
204 63 8 204 63 8 203 64 8 203 64 8 203 64 8 203 64 8 203 64 8
203 64 8 203 64 8 203 64 8 210 74 18 210 74 18 209 75 18 209 75 18
207 76 15 207 76 15 209 75 18 210 74 18 208 74 14 204 76 10
227 104 32 225 108 31 222 108 28 221 108 28 221 108 28 221 108 28
221 108 28 221 108 28 221 108 28 216 111 26 242 155 61 235 158 61
235 158 59 235 158 59 235 158 59 235 158 59 235 158 59 234 159 59
234 164 63 239 167 66 231 152 53 238 151 56 239 149 56 239 149 56
237 150 56 234 150 55 234 150 55 235 148 54 236 147 54 238 146 54
220 125 34 223 124 34 223 122 31 223 122 31 220 123 33 220 123 33
221 121 32 222 120 34 221 121 36 227 119 37 206 84 9 212 83 10
211 84 13 211 84 13 211 84 13 211 84 13 211 84 13 211 84 13 211 84 13
211 84 13 206 62 10 206 62 10 206 62 10 206 62 10 206 62 10 206 62 10
206 62 10 206 61 12 200 57 10 201 66 11 231 110 42 234 119 41
228 119 35 228 119 37 231 116 41 231 116 41 230 117 39 228 118 39
229 119 40 231 120 41 232 122 43 233 123 44 234 124 45 236 123 45
237 122 45 236 123 45 232 124 47 232 124 47 236 123 47 238 118 45
211 81 11 212 77 11 215 82 15 215 82 15 215 82 15 215 82 17 215 82 17
215 82 17 215 82 17 213 83 17 210 85 15 212 89 17 212 89 17 212 89 17
212 89 17 212 89 17 212 89 17 211 88 16 209 87 12 212 90 15 218 95 21
220 98 23 220 98 23 217 97 22 216 99 20 216 99 20 217 100 21
217 100 21 217 100 19 217 100 19 221 104 26 221 104 26 220 105 26
220 105 26 220 105 26 221 104 26 221 104 26 225 102 28 230 103 32
235 105 35 209 77 7 211 79 10 209 76 9 209 76 9 210 77 11 210 77 13
212 76 15 212 76 15 213 77 16 213 77 16 200 62 2 200 62 2 200 62 2
200 62 4 202 61 6 202 61 6 202 61 6 202 61 6 202 61 6 202 61 6
202 61 6 202 61 6 200 61 6 200 61 6 200 61 6 200 61 6 200 61 6
200 61 6 200 61 6 200 61 6 199 62 6 199 62 6 197 63 6 197 63 6
199 63 4 199 63 4 200 61 6 202 61 6 200 62 4 196 61 0 215 88 17
211 88 14 208 88 12 206 89 12 206 89 12 206 89 12 206 89 12 206 89 12
206 89 10 201 92 8 228 135 44 223 138 44 223 138 42 223 138 42
223 138 42 223 138 42 223 138 42 223 138 42 219 137 39 221 134 38
209 115 22 213 114 22 218 114 26 218 114 26 215 116 26 212 115 25
211 116 25 209 115 24 211 114 24 213 113 24 225 123 34 225 123 34
225 121 31 223 122 31 220 124 31 220 124 31 221 121 32 222 120 34
220 117 34 226 116 35 205 81 7 210 80 8 209 82 11 209 82 11 209 82 11
209 82 11 209 81 13 209 81 13 209 81 13 209 81 13 206 62 10 206 62 10
206 62 10 206 62 10 206 62 10 206 62 10 206 62 10 204 63 10 197 62 10
191 64 5 230 115 40 223 116 32 218 116 27 218 116 27 221 114 31
221 114 31 218 116 29 218 116 27 218 116 27 218 116 27 226 124 35
226 124 35 226 124 35 226 124 35 229 122 35 227 123 35 224 124 37
224 124 37 226 122 36 236 124 41 200 79 0 208 81 6 210 83 10
212 83 10 212 82 12 212 82 12 212 82 12 212 82 12 212 82 12 210 83 12
210 85 13 212 89 17 211 88 16 211 88 16 212 89 17 212 89 17 212 89 17
211 88 16 209 87 12 212 90 15 218 95 21 220 98 23 220 98 23 217 97 22
217 98 20 216 99 20 217 100 21 217 100 21 217 100 19 217 100 19
223 106 27 223 106 27 221 106 27 221 106 27 219 107 27 221 106 27
221 106 27 223 106 27 219 97 22 234 106 35 205 75 5 212 82 12
209 76 9 209 76 9 210 77 11 209 76 11 210 75 13 210 75 13 210 75 13
210 75 13 199 61 1 199 61 1 199 61 1 199 61 3 201 59 5 201 59 5
201 59 5 201 59 5 201 59 5 201 59 5 201 59 5 201 59 5 199 60 5
199 60 5 199 60 5 199 60 5 199 60 5 199 60 5 199 60 5 199 60 5
201 65 8 201 65 8 200 65 8 201 65 8 203 64 6 204 63 6 206 62 8
206 62 8 206 63 6 199 61 0 217 85 16 211 85 11 207 85 10 207 85 10
207 85 10 207 85 10 207 85 10 207 85 10 207 85 10 201 89 8 228 131 43
224 134 41 224 134 41 224 134 39 224 134 39 224 134 39 224 134 39
224 134 39 227 138 43 228 136 42 213 114 22 213 110 19 221 112 26
221 112 26 218 114 26 215 114 25 215 114 25 214 112 24 216 112 24
216 112 24 225 121 33 225 121 33 227 121 31 225 121 31 219 123 30
219 123 30 221 121 32 222 120 34 219 116 32 225 115 34 204 79 5
210 78 9 208 79 9 207 79 9 207 79 9 207 79 9 207 79 11 207 79 11
207 79 11 207 79 11 206 62 10 206 62 10 206 62 10 206 62 10 206 62 10
206 62 10 206 62 10 203 63 10 196 64 6 188 65 0 227 117 38 220 118 30
221 122 28 221 122 28 224 120 32 224 120 32 224 120 30 224 121 28
225 122 29 225 122 29 226 123 30 227 124 31 229 125 33 229 125 33
229 125 33 227 126 33 224 128 33 224 128 33 228 127 34 231 122 31
204 87 0 205 82 1 208 83 7 209 82 9 209 82 9 209 82 9 210 83 10
210 83 10 211 85 11 210 85 13 210 85 13 210 85 13 212 87 16 212 87 16
212 87 16 212 87 16 212 87 16 212 87 16 209 87 12 212 90 15 216 96 21
218 99 23 218 99 23 217 97 22 217 98 20 217 98 20 218 99 21 218 99 21
217 100 19 217 100 19 223 106 27 223 106 27 221 106 27 219 107 27
218 108 25 218 108 25 219 108 25 221 106 27 224 104 29 227 104 32
203 78 6 208 81 10 207 77 9 207 77 9 209 76 9 209 76 11 210 75 13
209 73 12 209 73 12 209 73 12 199 61 1 199 61 1 199 61 1 199 61 3
201 59 5 201 59 5 201 59 5 201 59 5 201 59 5 201 59 5 201 59 5
201 59 5 199 60 5 199 60 5 199 60 5 199 60 5 199 60 5 199 60 5
200 61 6 200 61 6 199 62 6 199 62 6 200 63 7 200 63 7 203 62 5
205 61 5 206 60 7 206 60 7 208 62 6 205 65 5 216 81 15 215 86 16
211 86 12 211 86 12 211 86 14 211 86 14 211 86 14 211 86 14 211 86 12
205 90 10 232 133 46 228 135 46 228 135 44 228 135 44 228 135 44
228 135 44 228 135 44 226 136 44 226 138 45 226 136 44 213 113 24
213 109 21 217 111 24 217 111 24 214 112 24 214 112 24 217 111 24
219 110 24 217 111 24 217 111 24 227 120 33 227 120 33 225 121 31
223 122 31 219 123 30 219 123 30 221 121 32 222 120 34 219 116 32
225 115 34 204 79 5 210 78 9 208 78 11 207 79 11 207 79 9 207 79 9
207 79 11 207 79 11 207 79 11 207 79 11 206 62 10 206 62 10 206 62 10
206 62 10 206 62 10 206 62 10 206 62 10 203 64 8 196 64 4 190 66 0
227 117 36 220 119 28 221 123 26 221 123 26 224 120 30 224 120 30
222 121 28 222 121 28 223 123 29 223 123 29 225 124 30 226 125 31
227 126 33 227 126 33 229 125 33 227 126 33 224 128 33 224 128 33
228 127 34 231 122 31 204 87 0 205 82 0 208 83 7 209 82 11 209 82 11
209 82 11 210 83 12 210 83 12 211 84 13 210 85 13 210 85 13 210 85 13
211 86 14 211 86 14 212 87 16 212 87 16 212 87 16 212 87 16 209 87 12
212 90 15 216 96 21 218 99 23 218 99 23 217 97 22 217 98 20 217 98 20
218 99 21 218 99 21 217 100 19 217 100 19 223 106 27 223 106 27
221 106 27 218 108 27 216 109 25 216 109 25 216 109 25 218 108 27
221 106 29 225 105 32 202 80 7 204 79 7 206 78 9 207 77 9 209 76 9
208 75 10 209 73 12 208 72 11 208 72 11 208 72 11 199 61 1 199 61 1
199 61 1 199 61 3 201 59 5 201 59 5 201 59 5 201 59 5 201 59 5
201 59 5 201 59 5 201 59 5 199 60 5 199 60 5 199 60 5 199 60 5
199 60 5 199 60 5 200 61 6 200 61 6 199 62 6 199 62 6 200 63 7
202 63 7 203 62 5 205 61 5 206 60 7 206 60 7 208 62 6 205 65 5
216 81 17 215 85 18 211 86 14 211 86 14 211 86 14 211 86 14 211 86 14
211 86 14 211 86 14 205 90 12 232 133 46 228 135 46 228 135 44
228 135 44 228 135 44 228 135 44 228 135 44 226 136 44 226 138 45
228 135 44 213 113 24 215 108 21 219 110 24 219 110 24 216 112 24
216 112 24 219 110 24 221 109 24 219 110 24 217 111 24 225 119 32
224 120 32 222 121 30 221 122 30 219 123 30 219 123 30 221 121 32
222 121 32 220 118 32 226 116 35 205 81 7 210 80 10 208 80 12
208 80 12 208 81 10 208 81 10 208 80 12 208 80 12 208 80 12 208 80 12
206 62 10 206 62 10 206 62 10 206 62 10 206 62 10 206 62 10 206 62 10
204 63 8 197 63 4 191 66 0 230 116 34 223 117 26 224 121 24
224 121 24 225 120 28 225 119 30 221 121 32 218 123 32 219 124 33
219 124 33 221 127 35 221 127 35 222 128 37 225 126 37 229 124 37
229 124 37 225 126 37 225 126 37 230 126 38 232 121 35 206 85 3
207 81 3 209 82 11 211 81 13 211 81 13 211 81 13 212 82 14 212 82 14
213 83 15 211 84 15 210 85 15 210 85 15 211 86 14 211 86 14 212 87 16
212 87 16 212 87 16 212 87 16 209 87 12 212 90 15 216 96 21 218 99 23
218 99 23 217 97 22 216 99 20 216 99 20 217 100 21 217 100 21
217 100 19 218 101 20 223 106 27 223 106 27 221 106 27 218 108 27
215 110 25 215 110 25 215 110 25 216 109 27 219 107 29 224 106 30
201 81 5 204 79 7 204 77 8 206 76 10 208 75 10 208 75 10 209 73 12
208 72 11 208 72 11 208 72 11 199 61 3 199 61 3 199 61 3 199 61 3
201 59 5 202 58 7 201 59 7 201 59 7 201 59 5 201 59 5 201 59 5
201 59 5 199 60 5 199 60 5 199 60 5 199 60 5 199 60 5 199 60 5
200 61 6 200 61 6 199 62 6 199 62 6 200 63 7 200 63 7 202 63 5
203 62 5 205 61 7 205 61 7 206 63 6 204 66 5 215 82 17 214 86 18
211 86 14 209 87 14 209 87 16 209 87 16 209 87 16 209 87 16 209 87 14
205 90 12 231 133 46 226 136 44 226 136 44 226 137 42 226 137 42
226 137 42 226 137 42 226 137 42 229 137 45 231 134 44 216 112 24
218 107 21 222 108 24 222 108 24 221 109 24 219 110 24 221 109 24
221 109 24 219 110 24 217 111 24 222 121 32 221 121 32 219 123 30
218 123 30 218 123 30 219 123 30 221 121 32 222 121 32 222 117 32
226 116 35 204 81 7 208 81 10 208 81 10 206 81 10 206 81 10 206 81 10
208 80 12 208 80 12 208 80 12 208 80 12 206 62 10 206 62 10 206 62 10
206 62 10 206 62 10 206 62 10 206 62 10 204 63 8 199 63 4 193 65 0
230 116 34 225 117 26 225 121 24 225 121 24 227 119 28 225 119 32
221 121 32 218 123 34 219 124 35 219 124 35 219 127 37 219 127 37
221 128 39 222 127 39 229 124 39 230 123 39 227 125 39 227 125 39
230 125 40 232 120 37 208 84 5 208 79 5 211 81 11 211 81 13 211 81 13
211 81 13 212 82 14 212 82 14 213 83 15 211 84 15 210 85 15 210 85 15
211 86 14 211 86 14 212 87 16 212 87 16 212 87 16 211 88 16 209 87 12
212 90 15 216 96 21 218 99 23 218 99 23 217 97 22 216 99 20 216 99 20
217 100 21 217 100 21 217 100 19 218 101 20 223 106 27 221 106 27
221 106 27 219 107 27 216 109 25 215 110 25 215 110 25 216 109 25
218 108 27 222 107 30 202 80 5 206 79 5 206 76 8 208 75 10 208 75 10
209 73 12 209 73 12 208 72 11 208 72 11 208 72 13 199 61 3 199 61 3
199 61 3 199 60 5 201 59 7 202 58 7 201 59 7 201 59 7 201 59 5
201 59 5 201 59 5 201 59 5 199 60 5 199 60 5 199 60 5 199 60 5
199 60 5 199 60 5 200 61 6 200 61 6 199 62 6 199 62 6 200 63 7
200 63 7 202 63 5 202 63 5 203 62 7 203 62 7 204 63 6 204 66 5
215 82 17 214 86 18 211 86 16 211 86 14 211 86 16 211 86 16 211 86 16
211 86 16 211 86 14 205 90 12 231 133 46 226 136 44 226 137 42
226 137 42 226 137 42 226 137 42 226 137 42 226 137 42 229 137 45
231 134 44 216 112 24 217 108 21 222 108 24 222 108 24 221 109 24
221 109 24 221 109 24 219 110 24 217 111 24 216 112 24 222 121 32
221 121 32 219 123 30 219 123 30 219 123 30 221 122 30 222 121 32
224 120 32 222 117 32 226 117 33 202 83 5 206 82 8 206 81 10
206 81 10 206 81 10 206 81 10 208 80 12 208 80 12 208 80 12 208 80 12
204 63 8 204 63 8 204 63 8 204 63 8 204 63 8 204 63 8 204 63 8
204 63 8 200 62 4 193 65 0 229 117 34 223 117 26 226 118 25
228 117 25 226 117 29 224 118 31 222 121 32 222 121 32 221 121 32
219 122 32 221 126 37 221 128 39 221 128 39 222 127 39 225 126 39
229 124 39 227 125 39 227 125 39 227 126 42 229 122 39 206 84 7
207 80 5 210 83 10 210 83 12 210 83 12 210 83 12 210 83 12 210 83 12
211 84 13 211 84 13 210 85 13 210 85 13 209 87 14 209 87 14 209 87 14
209 87 14 209 87 14 207 87 13 207 87 13 209 89 16 215 95 21 217 97 24
217 97 22 217 97 22 216 99 20 214 99 20 215 101 21 215 101 21
216 102 20 216 102 20 220 106 23 221 107 25 222 108 26 222 108 26
221 109 26 217 110 26 216 111 26 216 111 26 219 110 26 223 109 29
205 81 5 208 79 7 208 75 8 209 74 10 209 73 12 208 72 11 210 71 13
210 71 13 210 71 13 210 71 15 199 60 5 199 60 5 199 60 5 199 60 7
201 59 7 201 59 7 201 59 7 201 59 7 201 59 5 201 59 5 199 61 3
199 61 3 199 60 5 199 60 5 199 60 5 199 60 5 199 60 5 199 60 5
199 60 5 199 60 5 200 61 6 200 61 6 200 62 4 200 62 4 202 63 5
202 63 5 202 63 5 202 63 5 203 64 6 202 66 5 216 81 17 217 84 20
213 85 16 213 85 16 213 85 16 213 85 16 213 85 16 213 85 16 213 85 16
206 89 12 234 132 46 228 136 42 228 136 42 228 136 42 228 135 44
228 135 44 228 135 44 228 135 44 229 137 45 229 135 44 213 113 24
212 110 21 216 109 25 218 108 25 218 108 25 218 108 25 219 110 26
219 110 26 217 110 26 217 110 26 224 120 32 224 120 32 224 120 32
224 120 32 224 120 32 224 120 32 224 120 32 225 119 32 223 116 32
226 117 33 200 83 5 205 83 8 205 83 8 205 83 8 206 81 10 206 81 10
208 81 10 208 81 10 208 81 10 208 81 10 204 63 8 204 63 8 204 63 8
204 63 8 204 63 8 204 63 8 204 63 8 204 63 8 200 62 4 194 64 0
229 117 36 222 118 28 228 117 25 228 117 25 226 117 29 224 118 31
224 120 32 224 120 32 222 121 32 221 121 32 223 125 37 222 127 39
221 128 39 221 128 39 225 126 39 227 125 39 227 125 39 227 125 39
227 126 42 227 122 39 204 85 7 207 80 5 210 83 10 210 83 10 210 83 10
210 83 10 210 83 12 210 83 12 211 84 13 211 84 13 210 85 13 210 85 13
209 87 14 209 87 14 209 87 14 209 87 14 208 88 14 207 87 13 207 87 13
209 89 16 215 95 21 217 97 24 217 97 22 217 97 22 216 99 20 214 99 20
214 101 21 214 101 21 215 103 20 215 103 20 218 106 23 219 108 25
222 108 26 222 108 26 221 109 26 219 110 26 216 111 26 216 111 26
219 110 26 225 108 27 207 81 3 212 78 5 209 75 6 209 74 10 209 74 10
208 72 11 210 72 11 210 71 13 210 71 13 210 71 15 199 60 5 199 60 5
199 60 5 199 60 7 199 60 7 201 59 7 201 59 7 201 59 7 201 59 5
201 59 5 199 61 3 199 61 3 199 60 5 199 60 5 199 60 5 199 60 5
199 60 5 199 60 5 199 60 5 199 60 5 200 61 6 200 61 6 200 62 4
200 62 4 202 63 5 202 63 5 202 63 5 202 63 5 201 65 4 202 66 5
216 81 17 217 84 20 214 84 16 214 84 16 214 84 16 213 85 16 213 85 16
213 85 16 213 85 16 208 88 14 234 132 46 229 135 42 229 135 42
229 135 44 229 135 44 229 135 44 228 135 44 228 135 44 229 137 45
228 135 46 209 114 26 210 111 23 213 111 25 215 110 27 216 109 27
218 108 27 219 109 28 219 109 28 217 110 28 217 110 26 225 119 34
225 119 34 225 119 34 225 119 34 225 119 34 225 119 34 225 119 34
225 119 34 223 116 32 226 116 35 200 83 5 203 84 6 205 83 8 206 82 8
206 81 10 206 81 10 208 81 10 208 81 10 208 81 10 208 81 10 205 64 9
205 64 9 205 64 9 205 64 9 205 64 9 205 64 9 205 64 9 205 64 9
202 63 7 194 63 1 228 115 35 222 118 28 228 117 27 228 117 27
226 117 31 224 117 33 224 120 32 224 120 32 222 121 32 221 121 32
225 128 40 223 128 40 222 129 40 222 129 40 227 127 40 228 126 40
228 126 40 228 126 40 228 128 43 229 124 41 206 86 8 208 81 6
210 83 10 210 83 10 210 83 10 210 83 10 210 83 12 210 83 12 211 84 13
211 84 13 210 85 13 210 85 13 209 87 14 209 87 14 209 87 14 209 87 14
208 88 14 207 87 13 207 87 13 209 89 16 215 95 21 218 98 25 218 99 23
218 99 23 217 100 21 215 101 21 215 103 22 215 103 22 214 105 21
215 106 22 217 107 23 218 108 25 217 110 26 219 110 26 221 109 26
221 109 26 217 110 26 217 110 26 221 109 26 226 108 27 208 79 5
212 78 5 210 73 3 210 73 5 210 72 7 210 72 9 210 72 9 210 72 11
210 72 11 210 71 13 198 61 3 198 61 3 198 61 3 198 61 5 198 61 5
199 60 5 199 60 5 199 60 5 199 60 5 199 61 3 200 62 4 199 61 3
200 61 6 200 61 6 200 61 6 200 61 6 199 60 5 199 60 5 199 60 5
200 61 6 200 61 6 200 61 6 200 62 4 200 62 4 202 63 5 202 63 5
202 63 5 202 63 5 201 65 4 202 66 5 216 81 17 219 83 20 216 83 18
216 83 18 216 83 18 214 84 18 214 84 18 214 84 18 214 84 18 208 88 14
234 132 46 228 135 44 228 135 44 228 135 44 228 135 46 228 135 46
228 135 46 226 136 46 227 137 47 228 135 48 209 114 28 209 111 26
213 110 27 215 109 29 216 108 29 216 108 29 217 110 30 217 110 30
217 110 30 217 110 28 225 118 36 225 118 36 227 117 36 227 117 36
227 117 36 227 117 36 227 117 36 227 117 36 225 115 34 228 115 37
199 84 7 203 83 8 205 83 8 206 82 8 208 81 10 208 81 10 208 81 10
208 81 10 208 81 10 208 81 10 205 64 9 205 64 9 205 64 9 205 64 9
205 64 9 205 64 9 205 64 9 205 64 9 202 63 7 194 63 1 226 114 34
220 116 28 225 115 24 225 115 24 225 116 30 223 116 32 222 117 30
222 117 30 222 121 32 221 121 32 225 128 40 223 128 40 222 129 40
222 129 40 227 127 40 228 126 40 228 126 40 228 126 40 228 128 43
229 124 41 206 86 8 208 81 6 210 83 10 210 83 10 210 83 10 210 83 10
210 83 12 210 83 12 211 84 13 211 84 13 209 84 12 209 84 12 211 86 14
209 87 14 209 87 14 209 87 14 209 87 14 207 87 13 207 87 13 207 87 13
215 95 21 219 99 26 219 100 24 218 101 24 216 102 22 216 102 22
216 104 23 216 104 23 215 106 22 214 107 22 213 109 23 213 111 25
213 113 26 214 112 26 216 111 26 214 112 26 211 114 26 211 114 26
214 112 26 220 111 27 202 83 3 207 80 5 203 77 1 203 76 3 203 76 5
203 76 5 203 76 7 203 76 7 203 75 9 205 74 9 196 63 0 196 63 1
196 63 1 196 63 1 196 63 1 198 61 3 198 61 3 198 61 3 198 61 3
199 61 3 200 62 4 199 61 3 200 61 6 200 61 6 200 61 6 200 61 6
200 61 6 200 61 6 199 60 5 200 61 6 200 61 6 200 61 6 200 62 4
200 62 4 200 62 4 200 62 4 200 62 4 200 62 4 200 64 3 202 66 5
216 81 17 219 83 20 216 83 18 216 83 18 216 83 18 216 83 18 216 83 18
214 84 18 214 84 18 209 87 16 239 129 48 234 132 46 234 132 46
234 132 46 234 131 48 234 131 48 232 132 48 232 132 48 233 133 51
232 132 50 214 111 30 215 107 28 218 107 31 219 106 31 221 106 31
223 105 31 224 106 32 224 106 32 222 107 32 222 107 32 230 115 40
230 115 40 230 115 40 230 115 40 230 115 38 230 115 38 232 115 38
230 115 38 228 113 38 229 114 39 200 83 9 202 82 9 206 81 10
206 81 10 208 81 10 208 81 10 208 81 10 208 81 10 208 81 10 208 81 10
205 66 9 205 66 9 205 66 9 205 66 9 205 66 9 205 66 9 205 66 9
205 66 9 203 64 8 203 72 9 224 112 33 220 116 28 224 113 25
224 113 25 222 113 27 221 114 29 220 116 28 220 116 28 218 116 27
216 117 27 226 129 41 224 130 41 223 130 41 223 130 41 228 128 41
229 127 41 229 127 41 229 127 41 229 129 44 230 125 42 207 87 9
209 83 7 210 83 10 210 83 12 210 83 12 210 83 12 210 83 12 210 83 12
210 83 12 210 83 12 210 83 12 210 83 12 208 83 11 208 83 11 208 83 11
208 83 11 206 83 11 206 83 11 207 85 12 206 85 12 224 104 31
219 101 27 220 103 26 220 103 26 219 104 24 219 104 24 218 106 26
218 106 26 217 107 23 213 109 23 245 145 58 242 147 58 240 148 58
239 149 58 237 150 56 236 151 56 232 152 56 232 152 56 236 151 56
242 149 58 223 122 33 227 120 35 232 122 39 232 122 41 232 122 41
232 122 43 232 122 43 232 122 43 232 121 45 235 120 45 208 82 13
211 81 13 211 80 15 211 80 15 211 80 15 212 79 15 212 79 17 212 79 17
210 76 17 216 80 21 200 64 5 206 70 11 202 63 5 202 63 5 203 64 6
203 64 6 202 63 7 202 63 7 204 65 9 202 63 7 202 63 7 200 61 6
200 62 4 200 62 4 200 62 4 200 62 4 200 62 2 200 62 2 199 63 2
196 61 0 207 71 10 207 71 10 206 70 7 206 70 7 206 70 7 206 70 7
204 71 7 204 71 7 204 72 5 203 72 5 206 83 11 204 84 11 204 85 9
204 85 9 204 84 11 204 84 11 204 84 11 203 85 11 202 83 12 206 85 14
192 69 0 194 68 0 198 67 2 200 67 2 201 66 2 201 66 2 202 67 3
202 67 3 201 68 3 201 68 3 207 77 11 207 77 11 207 77 11 206 78 11
206 78 9 206 78 9 204 79 9 204 79 9 202 80 9 202 80 9 202 80 9
205 80 11 205 80 11 207 79 9 207 79 9 207 79 9 208 81 10 208 81 10
208 81 10 208 81 10 205 66 9 205 66 9 205 66 9 205 66 9 205 66 9
205 66 9 205 66 9 205 66 9 203 64 8 201 72 9 221 111 32 219 115 29
223 112 24 223 112 24 221 112 26 220 113 28 219 115 27 219 115 27
218 116 27 216 117 27 226 129 41 224 130 41 223 130 41 223 130 41
228 128 41 229 127 41 229 127 41 229 127 41 229 129 44 230 125 42
207 87 9 209 82 9 210 83 12 210 83 12 210 83 12 210 83 12 210 83 12
210 83 12 210 83 12 210 83 12 209 82 11 209 82 11 208 83 11 208 83 11
208 83 11 208 83 11 206 83 11 206 83 11 207 85 12 206 83 11
224 104 31 220 102 28 221 104 28 220 105 28 220 105 26 220 105 26
221 106 27 219 107 27 216 109 25 213 111 25 242 147 58 239 149 58
236 150 58 232 152 58 232 152 56 229 154 56 226 156 56 226 156 56
229 154 56 235 153 58 217 125 33 222 123 33 225 126 37 225 126 39
225 126 39 225 125 41 225 125 41 225 125 41 225 125 41 230 122 43
204 85 9 209 82 11 209 81 13 209 81 13 209 81 13 211 81 13 211 80 15
211 80 15 210 77 15 215 81 21 201 65 6 206 70 11 203 64 6 203 64 6
203 64 6 203 64 6 204 65 9 204 65 9 204 65 9 202 63 7 202 63 7
200 61 6 200 62 4 200 62 4 199 61 3 199 61 3 199 61 1 199 61 1
198 62 1 196 61 0 207 71 10 207 71 10 206 70 7 206 70 7 206 70 7
206 70 7 204 71 7 204 71 7 204 71 7 204 72 5 211 81 13 211 81 13
211 81 13 211 81 13 211 81 13 211 81 13 209 81 13 209 81 15 208 80 14
210 82 16 197 66 1 200 64 3 203 65 4 204 64 4 206 63 4 208 62 4
209 63 5 207 64 5 205 65 5 205 65 5 212 74 13 212 74 13 210 75 13
210 75 13 210 75 13 209 76 11 209 76 11 207 77 11 206 78 11 206 78 11
206 78 11 206 78 9 207 79 11 207 79 11 207 79 9 207 79 9 208 81 10
208 81 10 208 81 10 208 81 10 206 68 10 206 68 10 206 68 10 206 68 10
206 68 10 206 68 10 206 68 10 206 68 10 204 65 7 201 72 9 220 110 31
219 115 29 223 112 26 223 112 24 221 112 26 220 113 28 219 115 27
219 115 27 218 116 27 216 117 27 227 130 42 226 131 42 224 132 42
224 132 42 229 129 42 230 128 42 230 128 42 230 128 42 230 130 45
231 126 43 208 88 10 210 83 10 210 83 12 210 83 12 210 83 12
210 83 12 210 83 12 210 83 12 210 83 12 210 83 12 209 82 11 209 82 11
208 83 11 208 83 11 208 83 11 208 83 11 206 83 11 206 83 11 207 85 10
206 84 9 224 104 29 221 104 28 221 106 29 221 106 27 219 107 27
219 108 25 222 108 28 221 108 28 217 110 26 213 113 26 240 148 58
236 150 58 231 153 58 229 154 58 231 153 56 231 153 56 228 155 56
228 155 56 231 153 56 237 152 58 219 124 33 222 123 33 227 125 37
227 125 37 227 125 37 227 125 39 227 125 39 227 125 39 227 125 39
230 123 41 203 85 9 208 83 11 208 83 11 208 83 11 208 83 11 209 81 13
209 81 13 211 80 15 210 77 15 215 81 19 202 66 7 206 70 11 204 65 7
204 65 7 204 65 7 204 65 7 204 65 9 204 65 9 204 65 9 203 64 8
202 63 7 200 61 6 200 62 4 200 62 4 199 61 3 199 61 3 199 61 1
199 61 1 198 62 1 196 61 0 207 71 10 207 71 10 206 70 9 206 70 9
206 70 9 206 70 9 204 71 9 204 71 9 205 72 8 205 72 8 211 80 15
209 81 15 209 81 15 209 81 15 209 81 15 209 81 15 209 81 15 208 81 17
206 80 16 210 82 18 197 66 3 198 65 3 203 64 6 204 63 6 206 63 6
206 63 6 207 64 7 207 64 7 205 64 7 205 64 7 212 73 15 212 73 15
212 73 15 212 73 15 210 75 13 210 75 13 210 75 13 209 75 13 209 75 13
207 76 13 207 77 11 207 77 11 208 78 11 208 78 11 207 79 11 207 79 11
208 81 10 208 81 10 208 81 10 208 81 10 206 68 10 206 68 10 206 68 10
206 68 10 206 68 10 206 68 10 206 68 10 206 68 10 205 64 7 203 72 9
220 110 33 218 115 31 220 113 26 221 112 26 221 112 26 221 112 28
221 114 29 219 115 29 219 115 29 218 116 29 227 130 42 226 131 42
224 132 42 226 131 42 229 129 42 230 128 42 229 129 42 229 129 42
228 131 43 231 126 43 209 88 10 213 82 8 212 83 10 210 83 12
210 83 12 210 83 12 210 83 12 210 83 12 210 83 12 210 83 12 209 82 11
209 82 11 208 83 11 208 83 11 208 83 11 208 83 11 208 83 11 206 83 11
207 85 10 206 84 9 224 104 29 221 104 28 221 106 27 219 107 27
218 108 25 218 108 25 222 108 28 222 108 28 219 110 26 214 112 26
239 149 58 232 152 58 229 154 58 229 154 58 232 152 56 232 152 56
229 154 56 229 154 56 232 152 56 237 152 58 217 125 33 220 123 33
227 126 35 229 125 35 229 124 37 229 124 37 229 124 37 229 124 39
229 124 39 232 122 41 203 86 7 204 85 9 204 84 11 206 83 11 206 83 11
208 83 11 208 82 13 209 81 13 208 78 13 215 81 19 202 66 5 207 69 11
204 65 7 205 64 7 205 64 7 205 64 7 204 65 7 202 66 9 202 66 9
203 64 8 202 63 7 200 61 6 200 62 4 200 62 4 199 61 3 199 61 3
199 61 1 199 61 1 198 62 1 196 61 0 207 71 10 207 71 10 206 70 9
206 70 9 206 70 9 206 70 9 204 71 9 204 71 9 205 72 8 205 72 8
210 79 14 209 81 15 209 81 15 209 81 15 209 81 15 209 81 15 209 81 17
209 81 17 208 79 16 210 82 18 197 66 3 198 65 3 201 65 6 203 64 6
204 63 6 206 63 6 207 63 9 205 64 9 205 64 7 204 65 7 210 74 15
210 75 13 210 75 13 209 75 13 209 75 13 209 75 13 209 75 13 209 75 13
209 75 13 209 76 11 207 77 11 207 77 11 208 78 11 208 78 11 207 79 11
207 79 11 208 81 10 208 81 10 208 81 10 208 81 10 205 69 8 205 69 8
205 69 8 205 69 8 205 69 8 205 69 8 205 68 10 206 68 10 207 64 7
204 71 9 222 109 33 218 115 31 216 116 29 219 115 27 224 113 27
226 111 29 224 112 29 222 113 31 221 114 31 219 114 31 230 128 44
229 129 44 227 130 42 227 130 42 229 129 42 229 129 42 227 130 40
226 131 40 227 132 41 232 126 41 214 86 8 218 80 6 213 82 10
210 83 12 210 83 12 210 83 12 210 83 14 210 83 14 210 83 14 210 83 14
209 81 13 209 81 13 209 82 11 209 82 11 209 82 11 209 82 11 209 82 9
208 83 9 207 85 10 206 84 9 224 105 27 221 104 26 221 106 27
219 107 27 218 108 25 218 108 25 221 109 26 221 109 26 221 109 26
216 111 26 237 150 56 232 152 56 231 153 56 232 152 56 234 152 56
234 152 54 234 152 54 234 152 54 234 152 54 237 152 56 214 127 31
217 125 31 227 126 35 230 124 35 230 124 37 230 124 37 230 123 39
230 123 39 232 122 41 233 121 41 201 87 7 203 85 9 203 85 9 204 85 9
204 84 11 204 84 11 206 83 13 208 82 13 208 78 13 215 82 17 202 67 3
207 69 9 207 64 5 209 63 5 210 62 5 209 63 5 202 66 5 199 68 7
201 67 7 201 65 6 202 63 5 200 62 4 202 61 4 202 61 4 200 62 2
200 62 2 200 62 2 200 62 2 200 62 2 199 61 1 210 72 11 210 72 11
207 71 10 207 71 10 207 71 10 207 71 10 207 71 10 207 71 10 205 72 8
207 74 9 211 79 12 210 79 12 211 81 13 211 81 13 211 80 15 211 80 15
211 80 15 211 80 15 211 78 14 213 81 16 198 65 3 200 64 3 203 65 4
203 65 4 203 64 6 204 63 6 205 64 9 204 65 9 204 65 7 202 66 7
207 76 13 206 78 11 206 78 11 206 78 11 206 78 11 207 77 11 207 77 11
207 77 11 207 77 11 207 77 9 207 77 9 207 77 9 207 79 11 207 79 11
207 79 9 207 79 9 208 81 10 208 81 10 208 81 10 208 81 10 206 68 10
206 68 10 206 68 10 206 68 10 206 68 10 206 68 10 206 67 12 208 66 12
209 63 7 207 69 9 225 107 33 219 114 33 214 117 29 216 117 27
222 113 27 226 112 27 224 112 29 222 113 29 221 114 29 219 115 29
230 128 42 229 129 42 227 130 42 227 130 40 229 130 40 227 130 40
226 131 40 226 132 38 227 133 39 232 126 37 216 86 4 218 80 4
213 82 10 210 83 12 210 83 12 210 83 12 210 83 14 210 83 14 210 83 14
210 83 14 209 81 13 209 81 13 209 82 11 209 82 11 209 82 11 209 82 11
209 82 9 209 82 9 209 84 10 206 84 9 224 105 27 223 104 26 223 106 27
219 107 27 218 108 25 216 109 25 219 110 26 219 110 26 221 109 26
214 112 26 236 151 56 229 154 56 231 153 56 232 152 56 234 152 54
236 151 54 236 151 54 236 151 54 236 151 54 237 152 56 212 128 31
215 126 31 225 126 35 230 124 35 230 124 37 230 124 37 230 123 39
230 123 39 232 122 41 233 121 41 201 87 7 203 86 7 204 85 9 204 85 9
204 84 11 204 84 11 206 83 13 208 82 13 207 79 13 213 82 19 201 67 5
207 69 9 205 64 7 209 63 7 210 62 7 209 63 7 204 65 7 201 67 7
202 66 7 201 65 6 202 63 7 200 61 6 202 61 6 202 61 4 200 62 2
200 62 2 200 62 2 200 62 2 200 62 2 199 61 1 210 72 11 210 72 11
207 71 10 207 71 10 207 71 10 207 71 10 207 71 10 207 71 10 205 72 8
207 74 9 210 77 11 211 79 12 211 81 13 211 81 13 212 79 15 212 79 15
212 79 15 212 79 15 213 77 14 215 80 16 200 64 3 200 64 3 203 65 4
203 65 4 203 64 6 203 64 8 204 65 11 204 65 11 202 66 9 201 67 5
206 78 11 204 79 9 202 80 9 204 79 9 206 78 9 207 77 9 209 76 9
209 76 9 209 76 9 209 76 9 207 77 9 207 77 9 208 78 11 207 79 11
207 79 9 207 79 9 208 81 10 208 81 10 208 81 10 208 81 10 209 65 14
209 65 14 209 65 14 209 65 14 209 65 14 209 65 14 209 65 14 211 64 14
210 62 9 209 68 9 228 105 35 221 113 33 216 116 31 214 117 29
219 115 27 221 114 27 222 113 27 222 113 27 221 114 27 219 115 27
230 129 40 229 130 40 227 131 38 227 131 38 229 130 38 229 130 38
227 131 36 226 132 36 227 133 37 231 128 35 213 88 2 215 82 2
212 83 8 210 83 12 210 83 12 210 83 12 210 83 14 210 83 14 210 83 14
210 83 14 209 81 13 209 81 13 209 82 11 209 82 11 209 82 11 209 82 11
209 82 9 209 82 9 209 85 8 206 84 7 224 105 27 223 104 23 223 106 25
219 108 25 216 109 25 215 110 23 216 111 26 216 111 26 217 110 26
211 114 26 232 152 56 226 156 56 228 155 56 229 154 56 234 152 54
236 151 54 237 150 54 237 150 54 236 151 54 237 152 56 212 128 31
215 126 31 225 126 35 229 125 35 229 124 37 229 124 37 229 124 39
229 124 39 229 124 41 232 122 41 203 86 7 206 84 7 206 84 9 206 84 9
206 84 9 206 83 11 206 83 13 206 83 15 205 79 15 210 83 21 197 68 9
204 70 13 202 66 9 205 64 9 207 63 9 209 62 9 207 63 11 205 64 11
205 64 11 204 63 10 203 61 9 202 60 8 200 61 8 200 61 6 200 62 4
200 62 2 200 62 2 200 62 2 200 62 2 199 61 1 210 72 11 210 72 11
207 71 10 207 71 10 207 71 10 207 71 10 207 71 10 207 71 10 207 74 9
208 75 10 210 77 11 211 79 12 211 81 11 211 81 13 212 80 13 212 80 13
212 80 13 212 80 13 213 77 14 215 80 16 201 66 2 201 66 2 204 66 5
204 66 5 204 65 7 204 65 9 204 65 11 204 65 11 203 67 11 201 67 5
206 78 11 204 79 9 204 79 7 206 78 7 207 77 7 210 76 7 212 75 7
212 75 7 210 76 7 210 76 7 209 77 7 209 77 7 208 79 9 207 79 9
207 79 9 205 80 9 206 81 10 206 81 10 206 81 10 206 81 10 209 65 14
209 65 14 209 65 14 209 65 14 209 65 14 209 65 14 209 65 14 211 64 14
210 62 7 209 68 9 228 105 35 224 112 33 218 115 31 216 116 29
218 116 29 219 115 27 221 114 27 221 114 27 219 115 27 218 116 27
229 130 40 227 130 40 226 132 38 226 132 38 227 131 38 227 131 38
227 131 36 227 131 36 227 133 37 229 128 35 208 90 2 212 84 2
210 83 10 210 83 12 210 83 12 210 83 12 210 83 14 210 83 14 210 83 14
210 83 14 208 80 12 208 80 12 208 81 10 208 81 10 208 81 10 208 81 10
208 81 8 208 81 8 208 83 7 206 84 7 226 104 25 223 104 23 223 106 25
219 108 25 216 109 25 215 110 25 216 111 26 216 111 26 217 110 26
211 114 26 232 152 58 226 156 56 228 155 56 229 154 56 234 152 56
236 151 54 237 150 54 237 150 54 237 150 54 237 152 56 212 128 31
215 126 31 222 128 35 225 126 35 225 126 37 225 126 37 225 126 39
225 126 39 225 126 39 230 123 41 204 85 7 209 83 7 209 83 7 209 82 9
209 82 9 208 83 9 208 83 11 208 82 13 205 79 15 210 83 21 197 68 9
203 71 13 202 66 9 204 65 9 207 63 9 207 63 11 207 63 11 205 64 11
205 64 11 204 63 10 203 61 9 202 60 8 200 61 8 200 61 6 200 62 4
200 62 2 200 62 2 200 62 2 200 62 2 199 61 1 209 70 10 210 72 11
207 71 10 207 71 10 207 71 10 207 71 10 207 71 10 207 71 10 208 73 9
207 74 9 211 79 12 212 80 13 211 81 13 211 81 13 212 80 13 212 80 13
212 80 13 212 80 13 214 79 15 215 80 16 201 66 2 201 66 2 204 66 5
204 66 5 204 65 7 204 65 7 204 65 9 204 65 9 203 67 9 202 68 6
206 78 11 204 79 7 204 79 5 206 79 5 207 78 5 210 76 5 212 75 7
212 75 7 212 75 7 210 76 7 209 77 7 209 77 7 210 78 9 208 79 9
207 79 9 207 79 9 206 81 10 206 81 10 206 81 10 206 81 10 209 70 12
209 70 12 209 70 12 209 70 12 209 70 12 209 70 12 209 70 14 209 70 12
207 69 11 210 77 13 226 103 33 226 110 35 219 111 31 217 112 29
217 112 27 217 112 27 217 112 27 217 112 27 215 113 27 214 114 27
226 131 42 224 132 42 224 132 42 224 132 40 226 131 40 227 130 40
227 130 40 227 131 38 224 130 37 228 129 37 196 85 0 206 85 5
208 83 9 209 81 13 209 81 13 209 81 13 209 81 13 209 81 13 209 81 13
209 81 13 208 80 12 208 80 12 208 81 10 208 81 10 208 81 10 208 81 10
208 81 8 208 81 8 209 85 8 208 83 7 226 104 27 225 106 28 223 106 27
221 106 27 216 109 25 215 110 25 217 110 28 219 109 28 219 109 28
214 112 28 233 150 57 228 152 57 228 152 57 230 152 57 233 150 55
234 150 55 236 149 55 238 148 55 238 151 56 242 155 59 220 133 37
223 136 40 223 131 37 223 131 37 224 130 37 224 130 39 226 129 39
226 129 39 226 129 39 231 126 41 206 87 6 212 83 6 212 83 6 212 83 8
212 83 8 210 83 10 210 83 10 210 83 12 204 77 8 210 82 16 199 70 6
205 72 10 206 68 10 208 67 10 209 66 10 209 66 10 206 67 12 205 68 12
205 68 12 205 68 12 202 63 7 202 63 7 203 62 7 200 62 4 200 62 2
198 62 1 198 62 1 198 62 1 196 61 0 200 64 3 206 70 9 207 71 10
209 70 10 209 70 10 209 70 10 209 70 10 209 70 10 209 70 10 207 72 8
208 73 9 212 79 15 212 79 15 212 80 13 212 80 13 212 79 15 212 79 15
212 79 15 212 79 15 216 81 17 212 76 13 202 67 3 202 67 3 204 66 5
204 66 5 204 65 7 204 65 7 205 66 11 205 66 11 203 67 9 201 70 8
201 75 6 200 78 5 201 79 4 203 79 2 204 78 2 206 77 4 208 76 4
209 75 4 215 81 10 204 72 1 215 83 11 205 74 2 212 81 9 212 81 9
212 81 9 212 81 9 213 82 10 213 82 10 213 82 10 213 82 10 201 71 4
201 71 4 201 71 4 201 71 4 201 71 4 201 71 4 201 71 6 200 72 6
206 77 13 199 76 8 229 108 37 221 106 31 225 113 35 225 113 35
224 114 32 224 114 32 225 113 35 225 113 35 224 113 37 222 114 37
233 129 50 231 130 50 231 131 48 231 131 48 233 130 48 234 129 46
238 128 46 236 129 46 232 127 44 228 121 38 207 90 12 208 87 9
208 83 11 209 81 13 209 81 13 209 81 13 209 81 13 209 81 13 209 81 13
209 81 13 210 83 14 210 83 14 210 83 12 210 83 12 210 83 12 210 83 12
210 83 10 210 83 10 211 87 10 209 85 8 225 103 26 222 100 23
228 108 30 224 110 30 220 113 28 220 113 28 224 112 31 227 110 31
227 110 31 222 113 31 238 148 57 233 150 57 233 150 57 233 150 57
234 150 55 236 149 55 238 148 55 238 148 55 238 151 56 236 149 53
220 133 37 216 129 33 225 136 40 225 136 40 225 136 40 225 136 40
226 134 42 226 134 42 226 134 42 230 133 42 198 89 3 203 86 5
203 86 5 203 86 5 203 86 5 201 87 5 201 87 7 201 87 7 197 82 4
202 84 10 186 69 0 191 68 0 199 71 2 200 70 2 202 69 2 200 70 4
197 71 4 195 72 4 197 71 4 200 70 4 199 63 0 200 63 0 202 62 0
201 60 1 199 61 1 196 61 0 196 61 0 196 61 0 202 66 5 203 68 6
206 70 9 207 71 10 209 70 10 209 70 10 209 70 10 209 70 10 209 70 10
209 70 10 208 73 9 209 74 10 209 76 11 210 77 13 211 79 12 211 79 12
211 78 14 211 78 14 211 78 14 211 78 14 214 79 15 207 72 8 202 67 3
203 68 4 204 66 5 204 66 5 204 65 7 204 65 7 205 66 11 205 66 11
203 67 9 201 71 6 199 74 5 199 76 4 200 78 3 200 78 1 200 78 1
202 78 1 202 77 3 202 77 3 206 82 8 199 75 1 213 89 15 208 83 9
206 82 8 206 82 8 206 82 8 206 82 8 208 83 9 208 83 9 208 83 9
208 83 9 232 113 33 232 113 33 232 113 33 232 113 33 232 113 33
232 113 33 231 114 33 229 114 37 218 105 34 224 110 39 194 78 6
200 83 9 197 78 2 197 78 2 197 78 0 199 77 2 202 74 8 204 73 10
202 74 10 201 74 10 194 71 5 193 71 5 191 72 5 191 73 3 194 71 3
196 71 1 199 69 1 199 69 1 194 71 1 195 69 0 205 75 7 210 77 11
211 81 13 209 81 13 209 81 13 209 81 13 209 81 13 209 81 13 209 81 13
209 81 13 213 85 16 213 85 16 213 85 14 213 85 14 213 85 14 213 85 14
213 86 12 213 86 12 215 90 14 210 86 9 221 99 22 215 94 16 210 91 13
207 92 13 202 95 11 204 94 11 213 91 14 216 90 14 218 89 14 211 92 14
225 123 36 218 126 36 220 125 36 218 126 36 215 128 34 215 128 34
217 127 34 217 127 34 213 126 30 215 128 32 230 145 49 235 148 52
229 142 46 229 142 46 229 142 46 229 142 46 229 142 46 229 142 46
227 143 46 227 143 46 246 156 61 247 155 63 246 156 63 246 156 63
246 156 63 244 157 63 244 157 63 246 156 63 243 154 61 245 153 63
227 130 42 228 128 43 225 120 37 228 119 37 230 118 37 228 119 37
225 120 37 225 120 37 228 118 39 235 115 39 211 81 9 214 80 9
216 79 9 216 77 10 214 77 14 212 76 15 212 76 15 212 76 15 210 75 13
209 73 12 207 71 10 206 70 9 209 70 10 209 70 10 209 70 10 209 70 10
209 70 10 209 70 10 207 72 8 207 72 8 207 74 9 207 74 9 207 74 7
207 74 7 207 74 9 207 74 9 207 74 9 207 74 9 212 76 13 203 68 4
205 69 6 205 69 6 205 67 6 205 67 6 205 66 9 205 66 9 205 66 11
205 66 11 203 67 9 200 70 4 222 96 27 220 97 25 218 99 23 217 100 21
215 101 21 215 101 21 215 100 23 214 101 23 217 105 26 214 101 23
232 122 43 228 118 39 239 129 50 237 129 50 237 129 50 237 129 50
237 131 51 237 131 51 237 131 51 237 131 51 225 114 28 225 114 28
225 114 28 225 114 28 225 114 28 225 114 28 224 115 28 222 115 30
219 113 37 216 107 35 197 84 11 196 76 3 202 77 5 203 76 3 202 78 1
203 76 5 208 72 11 210 71 13 208 72 13 208 72 13 201 67 7 199 68 7
197 69 7 199 68 7 201 67 5 202 66 5 205 65 3 204 66 3 202 69 4
203 70 6 218 80 17 215 80 16 211 81 13 209 81 13 209 81 13 209 81 13
209 81 13 209 81 13 209 81 13 209 81 13 214 86 18 214 86 18 214 86 16
214 86 16 214 86 16 214 86 16 214 87 14 214 87 14 216 92 15 210 86 9
218 94 17 209 88 10 211 92 14 210 93 14 207 95 12 208 94 12 216 92 15
219 90 15 220 89 15 216 92 15 225 119 34 221 121 34 222 120 34
221 121 34 216 124 32 214 125 32 216 124 32 216 124 32 214 125 30
209 122 26 230 145 49 226 142 45 230 143 47 230 143 47 229 144 47
229 144 47 229 144 47 227 145 47 225 146 47 225 146 47 239 160 61
238 161 61 238 161 61 236 161 61 236 161 61 236 161 61 236 161 61
236 161 61 235 158 59 235 155 57 216 129 33 216 124 32 221 125 34
223 124 34 223 124 34 223 124 34 221 125 34 223 124 34 226 122 34
231 119 36 206 82 6 213 79 6 214 78 8 213 76 9 212 76 13 210 75 13
210 75 13 210 75 13 215 79 18 213 77 16 208 72 11 206 70 9 207 69 9
209 70 10 209 70 10 209 70 10 209 70 10 209 70 10 207 72 8 207 72 8
204 71 7 204 71 7 204 72 5 204 71 7 204 71 7 204 71 7 204 71 7
207 72 8 206 70 7 203 68 4 205 69 6 205 69 6 205 67 6 205 67 6
205 66 9 205 66 9 205 66 11 203 67 11 202 68 9 200 70 4 220 95 26
217 97 24 216 98 22 214 99 20 212 100 20 212 100 20 212 100 22
211 101 22 213 103 24 212 104 24 230 128 46 229 128 46 230 132 48
230 132 48 228 132 48 228 132 48 228 134 50 228 134 50 228 134 50
228 134 50 224 114 30 224 114 30 224 114 30 224 114 30 224 114 30
224 114 30 222 115 30 222 115 32 218 112 34 223 115 40 195 80 7
201 78 8 206 76 6 206 76 6 204 77 6 204 77 8 208 75 10 209 74 10
209 73 12 209 73 12 203 68 6 202 68 6 202 68 6 202 68 6 203 68 6
203 68 6 205 67 6 203 68 6 201 68 3 202 69 4 215 80 16 212 79 15
210 79 14 210 79 14 210 79 14 210 79 14 208 80 12 208 80 12 208 81 10
208 81 10 213 85 14 213 85 14 213 85 14 213 86 12 213 86 12 213 86 12
213 86 12 213 86 12 215 88 15 213 86 12 213 89 13 211 89 12 210 91 13
210 91 13 212 90 13 212 90 13 213 91 14 215 90 14 218 89 14 213 91 14
228 121 36 225 123 36 226 122 36 226 122 36 223 122 33 220 123 33
219 124 33 217 125 33 215 126 33 210 123 30 231 146 52 227 143 48
229 144 47 229 144 47 229 144 47 229 144 47 227 145 47 227 145 47
225 146 47 225 146 47 238 161 61 236 161 61 235 162 61 235 162 61
235 163 59 235 163 59 235 163 59 235 163 59 236 164 61 238 159 58
221 132 35 223 126 33 226 124 33 226 124 33 224 125 33 223 126 33
226 124 33 227 124 33 227 123 35 231 121 37 206 82 8 211 79 10
213 78 12 212 76 13 210 75 13 209 75 13 209 75 13 210 77 15 212 79 17
211 78 16 207 73 11 205 69 8 206 70 7 206 70 7 206 70 7 206 70 7
206 70 9 206 70 9 206 70 9 206 70 9 206 70 7 206 70 7 204 71 7
204 71 7 206 70 9 206 70 9 206 70 9 206 70 9 207 69 9 204 66 5
205 67 6 205 67 6 205 67 6 205 67 6 205 66 9 205 66 9 203 67 11
203 67 11 202 68 9 200 70 4 222 96 27 218 98 25 217 99 23 215 101 21
215 101 21 217 100 21 218 99 21 218 99 21 217 103 23 214 105 23
232 129 45 228 131 45 226 134 46 225 134 46 225 134 46 225 134 46
226 136 48 226 136 48 226 136 48 226 136 48 222 115 30 222 115 30
222 115 30 222 115 30 222 115 32 222 115 32 222 115 32 222 115 32
218 113 32 223 115 38 197 79 7 203 78 8 208 76 6 208 76 6 204 77 8
204 77 8 208 75 8 209 74 10 209 74 10 209 74 10 203 68 4 203 68 4
203 68 6 203 68 6 203 68 6 203 68 6 203 68 6 203 68 6 201 68 3
202 69 4 213 81 16 212 79 15 210 79 14 210 79 14 210 79 14 210 79 14
208 80 12 208 80 12 208 81 10 208 81 10 213 85 14 213 85 14 213 86 12
213 86 12 213 86 12 213 86 12 213 86 12 213 86 12 214 87 14 213 86 12
212 88 12 212 88 12 212 90 13 212 90 13 213 89 13 213 89 13 213 91 14
213 91 14 216 90 14 213 91 14 228 121 36 225 123 36 228 121 36
229 120 36 227 120 33 223 122 33 219 124 33 217 125 33 215 126 33
210 123 30 231 146 52 227 143 48 229 144 47 229 144 47 229 144 47
229 144 47 227 145 47 227 145 47 225 146 47 224 147 47 238 161 61
236 161 61 235 162 61 233 163 61 233 163 59 233 163 59 233 163 59
233 163 59 236 164 61 238 159 58 223 132 35 224 126 31 227 124 31
227 124 31 223 126 31 223 126 31 227 124 31 229 123 33 227 123 35
231 121 37 206 82 8 211 79 12 210 77 13 209 76 11 209 75 13 209 75 13
209 75 13 210 77 15 212 79 17 211 78 16 207 73 11 203 70 8 206 70 7
206 70 7 206 70 7 206 70 7 206 70 9 206 70 9 206 70 9 206 70 9
206 70 7 206 70 7 204 71 7 204 71 7 206 70 9 206 70 9 206 70 9
206 70 9 207 69 9 204 66 5 205 67 6 205 67 6 205 67 6 205 67 6
205 66 9 205 66 9 203 67 11 203 67 11 202 68 9 200 70 4 222 96 27
218 98 25 217 99 23 215 101 21 217 100 21 218 99 21 220 98 21
220 98 21 221 101 23 216 104 23 232 129 45 227 132 45 225 134 46
223 135 46 223 135 46 223 135 46 224 136 48 224 136 48 224 136 48
224 136 48 222 115 30 222 115 30 222 115 30 222 115 30 222 115 32
222 115 32 222 115 32 222 115 32 218 113 32 223 115 38 197 79 5
204 77 6 208 76 6 208 76 6 204 77 8 204 77 8 208 75 10 209 74 10
209 73 12 209 73 12 203 68 6 203 68 6 203 68 6 203 68 6 203 68 6
203 68 6 203 68 6 203 68 6 201 68 3 202 69 4 213 81 16 212 79 15
210 79 14 210 79 14 210 79 14 210 79 14 208 80 12 208 80 12 208 81 10
208 81 10 213 85 14 213 85 14 213 86 12 213 86 12 213 86 12 213 86 12
213 86 12 213 86 12 214 87 14 214 87 14 212 88 12 212 88 12 212 90 13
212 90 13 213 89 13 213 89 13 213 91 14 213 91 14 216 90 14 213 91 14
228 121 36 225 123 36 228 121 36 229 120 36 227 120 33 223 122 33
220 123 33 217 125 33 215 126 33 210 123 30 231 146 52 227 143 48
229 144 47 229 144 47 227 145 47 227 145 47 227 145 47 225 146 47
225 146 47 224 147 47 238 161 61 236 161 61 236 161 61 235 162 61
235 162 61 235 162 61 233 163 61 233 163 61 236 163 63 238 159 60
223 131 37 224 125 33 227 124 33 227 124 33 223 126 31 223 126 31
227 124 31 229 123 33 227 123 35 231 121 37 208 81 8 210 77 11
209 76 11 209 76 11 209 75 13 209 75 13 209 75 13 210 77 15 212 79 17
211 78 16 207 73 11 203 70 8 206 70 7 206 70 7 206 70 7 206 70 7
206 70 9 206 70 9 206 70 9 206 70 9 206 70 7 206 70 7 204 71 7
204 71 7 206 70 9 206 70 9 206 70 9 206 70 9 207 69 9 204 66 5
205 67 6 205 67 6 205 67 6 205 67 6 205 66 9 205 66 9 203 67 11
203 67 11 202 68 9 200 70 4 222 96 27 218 98 25 217 99 23 215 101 21
217 100 21 218 99 21 220 98 21 220 98 21 221 101 23 216 104 23
232 129 45 227 132 45 225 134 46 223 135 46 223 135 46 223 135 46
224 136 48 224 136 48 224 136 48 224 136 48 222 115 30 222 115 30
222 115 30 222 115 30 222 115 32 222 115 32 222 115 32 220 115 32
216 114 32 223 115 36 199 78 5 204 77 6 208 76 6 208 76 6 204 77 8
204 77 8 208 75 10 209 74 10 209 73 12 209 73 12 203 68 6 203 68 6
203 68 6 203 68 6 203 68 6 203 68 6 203 68 6 203 68 6 201 68 3
202 69 4 213 81 16 212 79 15 210 79 14 210 79 14 210 79 14 210 79 14
208 80 12 208 80 12 208 81 10 208 81 10 213 85 14 213 85 14 213 86 12
213 86 12 213 86 12 213 86 12 213 86 12 213 86 12 214 87 14 214 87 14
214 87 14 212 88 14 213 89 15 213 89 15 215 88 15 215 88 15 213 91 16
213 91 14 216 90 14 213 91 14 228 121 38 225 123 36 228 121 36
229 120 36 227 120 35 223 121 35 220 123 35 219 124 35 217 125 35
212 122 30 233 145 52 227 143 48 229 144 47 229 144 47 227 145 47
227 145 47 225 146 47 225 146 47 224 147 47 224 147 47 238 161 61
238 161 61 236 161 61 236 161 61 235 162 61 235 162 61 233 163 61
233 163 61 236 163 63 238 159 60 223 131 37 224 125 33 227 124 33
227 124 33 223 126 31 223 126 31 227 124 31 229 123 33 227 123 35
231 121 37 207 80 7 209 76 9 207 77 11 207 77 11 209 75 13 209 75 13
209 75 13 210 77 15 212 79 17 211 78 16 207 73 11 203 70 8 206 70 7
206 70 7 206 70 7 206 70 7 206 70 9 206 70 9 206 70 9 206 70 9
206 70 7 206 70 7 204 71 7 204 71 9 206 70 9 206 70 9 206 70 9
206 70 9 207 69 9 204 66 5 205 67 6 205 67 6 205 67 6 205 67 6
205 66 9 205 66 9 203 67 11 203 67 9 202 68 6 200 70 4 222 96 27
218 99 23 217 100 21 217 100 21 217 100 21 218 99 21 220 98 21
220 98 21 221 101 23 216 104 23 232 129 45 227 132 45 225 134 46
223 135 46 223 135 46 223 135 46 224 136 48 224 136 48 224 136 48
224 136 48 222 115 30 222 115 30 222 115 30 222 115 30 222 115 32
222 115 32 222 115 32 220 115 32 216 114 32 223 115 36 197 80 3
203 78 6 206 76 6 206 76 8 203 78 8 203 78 8 208 75 10 209 74 10
209 74 10 209 74 10 203 68 6 203 68 6 203 68 6 203 68 6 203 68 6
203 68 6 203 68 6 203 68 6 201 68 3 202 69 4 213 81 16 212 79 15
210 79 14 210 79 14 210 79 14 210 79 14 210 79 12 210 79 12 208 81 10
208 81 10 213 85 14 213 85 14 213 85 14 213 85 14 213 85 14 213 85 14
213 85 14 213 85 14 215 86 16 215 86 16 215 86 16 214 86 16 213 88 17
213 88 17 215 88 17 215 88 17 215 90 18 215 90 16 218 88 16 215 90 16
228 120 40 225 122 38 228 121 38 229 120 38 228 121 38 225 122 38
223 123 38 220 125 38 218 125 38 213 123 33 234 146 53 229 144 49
229 144 49 229 144 49 227 145 49 227 145 49 225 145 49 225 145 49
224 146 49 224 146 49 236 161 61 236 161 61 236 161 61 236 161 61
235 162 61 235 162 61 233 163 61 233 163 61 236 163 63 238 159 60
223 131 37 224 125 33 227 124 33 227 124 33 223 126 31 223 126 31
227 124 31 229 123 33 227 123 35 231 121 37 207 80 7 209 76 9
207 77 11 207 77 11 207 76 13 207 76 13 207 76 13 208 77 15 212 79 17
211 78 16 207 73 11 203 70 8 204 71 7 204 71 7 204 71 7 204 71 7
206 70 9 206 70 9 206 70 9 206 70 9 206 70 9 206 70 9 206 70 9
206 70 9 206 70 11 206 70 11 206 70 11 206 70 11 207 69 11 204 65 7
205 66 9 205 66 9 205 66 9 205 66 9 205 66 9 205 66 9 205 66 9
203 67 9 202 68 6 200 70 4 222 97 25 218 99 23 217 100 21 217 100 19
218 99 19 218 99 19 220 99 19 220 99 19 221 102 21 216 104 21
232 130 43 227 132 43 225 135 44 223 136 44 223 136 44 223 136 44
224 137 46 224 137 46 224 137 46 224 137 46 222 115 30 222 115 30
222 115 30 222 115 30 222 115 32 222 115 32 222 115 32 220 115 32
216 114 32 222 116 36 197 80 3 203 78 4 206 76 6 206 76 8 203 78 8
203 78 8 208 75 10 209 74 10 209 74 10 209 74 10 203 68 4 203 68 6
203 68 6 203 68 6 203 68 6 203 68 6 203 68 6 203 68 6 201 68 3
202 69 4 213 81 16 212 79 15 210 79 14 210 79 14 210 79 14 210 79 14
210 79 12 210 79 12 208 81 10 208 81 10 213 85 14 213 85 14 213 85 14
213 85 14 213 85 14 213 85 14 213 85 14 213 85 14 215 86 16 215 86 16
215 86 16 215 86 16 215 88 17 215 88 17 217 87 17 215 88 17 215 90 18
215 90 18 218 88 18 215 90 16 228 120 40 225 122 40 228 120 40
229 119 40 228 120 40 225 122 40 223 123 40 220 125 38 218 125 38
213 123 35 234 146 55 229 144 49 229 144 49 229 144 49 227 145 49
227 145 49 225 145 49 225 145 49 224 146 49 224 146 49 236 161 61
236 161 61 236 161 61 235 162 61 235 162 61 235 162 61 233 163 61
233 163 61 236 163 63 237 159 60 221 132 37 224 125 33 227 124 33
227 124 33 223 126 31 223 126 31 227 124 31 229 123 33 227 123 35
231 121 37 207 80 7 209 76 9 207 77 11 206 78 11 207 76 13 207 76 13
207 76 13 208 77 15 212 79 17 211 78 16 207 73 11 203 70 8 204 71 7
204 71 7 204 71 7 204 71 7 206 70 9 206 70 9 206 70 9 206 70 9
206 70 9 206 70 9 206 70 9 206 70 9 206 70 11 206 70 11 206 70 11
206 70 11 207 69 11 204 65 7 205 66 9 205 66 9 205 66 9 205 66 9
205 66 9 205 66 9 205 66 9 205 66 9 203 68 6 200 70 2 222 97 25
220 98 23 218 99 21 217 100 19 218 99 19 218 99 19 220 99 19
220 99 19 221 102 21 216 104 21 232 130 43 227 132 43 225 135 44
223 136 44 223 136 44 223 136 44 224 137 46 224 137 46 224 137 46
224 137 46 222 115 30 222 115 30 222 115 30 222 115 30 222 115 32
222 115 32 222 115 32 220 115 32 215 115 30 222 117 34 195 80 3
201 79 4 204 77 6 204 77 6 201 78 8 203 78 8 208 75 8 209 74 8
209 74 8 209 74 8 203 68 2 203 68 4 203 68 6 203 68 6 203 68 6
203 68 6 203 68 6 203 68 6 201 68 3 202 69 4 213 81 16 212 79 15
210 79 12 210 79 12 210 79 12 210 79 12 210 79 12 210 79 12 208 81 10
208 81 10 213 85 14 213 85 14 213 85 14 213 85 14 213 85 14 213 85 14
213 85 14 213 85 14 215 86 16 214 84 14 215 86 16 215 86 16 217 87 17
217 87 17 217 86 19 215 87 19 215 89 20 216 88 20 218 88 18 215 90 18
228 120 42 225 121 42 228 120 40 229 119 40 228 120 42 225 121 42
223 123 40 221 123 40 218 125 38 213 123 35 234 146 55 229 144 49
229 144 49 229 144 49 227 145 49 227 145 49 225 145 49 225 145 49
224 146 49 224 146 49 237 163 63 236 163 63 236 163 63 234 164 63
234 164 63 234 164 63 234 164 63 234 164 63 235 165 64 238 161 61
221 132 37 224 125 33 227 124 33 227 124 33 223 126 31 223 126 31
227 124 31 229 123 33 227 123 35 231 121 37 207 80 7 209 76 9
206 78 11 206 78 11 206 78 11 206 78 11 206 78 11 208 78 13 212 81 16
210 79 14 205 74 9 201 71 6 204 71 7 204 71 7 204 71 7 204 71 7
206 70 9 206 70 9 206 70 9 206 70 9 206 70 9 206 70 9 206 70 9
206 70 9 206 70 11 206 70 11 206 70 11 206 70 11 207 69 11 204 65 7
205 66 9 205 66 9 205 66 9 205 66 9 205 66 9 205 66 9 205 66 9
205 66 9 203 68 6 200 70 2 222 97 25 220 98 23 218 99 21 217 100 19
217 98 18 217 98 18 217 98 18 217 98 18 219 103 21 216 104 21
232 130 43 227 132 43 223 136 44 222 136 44 222 137 42 222 137 42
223 138 44 223 138 44 223 138 44 223 138 44 219 117 30 219 117 30
219 117 30 219 117 30 219 116 32 219 116 32 219 116 32 217 117 32
213 116 30 220 117 34 195 80 3 201 79 4 204 78 4 204 77 6 201 79 6
201 79 6 204 77 6 206 76 8 206 76 8 206 76 8 200 70 2 200 70 2
200 70 4 200 70 4 200 70 4 200 70 4 200 70 4 200 70 4 199 69 3
200 70 4 212 79 15 212 80 13 210 79 12 210 79 12 210 79 12 210 79 12
210 79 12 210 79 12 208 81 10 208 81 10 213 85 14 213 85 14 213 85 14
213 85 14 213 85 14 213 85 14 213 85 14 213 85 14 213 83 13 213 83 13
215 86 16 215 86 16 217 87 17 217 86 19 217 86 19 217 86 19 216 88 20
216 88 20 218 88 20 216 88 20 233 117 44 229 119 42 233 117 42
233 117 42 231 118 42 231 118 42 231 118 42 229 119 40 226 121 38
220 119 35 238 144 55 233 141 49 233 141 49 233 141 49 232 142 49
232 142 49 232 142 49 230 143 49 230 143 49 227 145 49 237 163 63
237 164 64 235 165 64 235 165 64 235 165 64 235 165 64 235 165 64
235 165 64 235 165 64 236 161 61 218 134 37 219 128 33 221 127 33
221 127 33 218 129 31 218 129 31 221 127 31 223 126 33 221 127 35
227 123 37 204 81 7 206 78 7 204 79 9 204 78 11 206 78 11 206 78 11
206 78 11 207 79 13 213 83 17 210 79 14 204 73 8 201 71 6 204 71 7
204 71 7 204 71 7 204 71 7 206 70 9 206 70 9 206 70 9 206 70 9
206 70 9 206 70 9 206 70 9 206 70 9 206 70 11 206 70 11 206 70 11
206 70 11 206 68 10 204 65 7 205 66 9 205 66 9 205 66 9 205 66 9
205 66 9 205 66 9 205 66 9 205 66 9 203 68 6 200 70 2 222 97 25
220 98 23 218 99 21 217 100 19 216 97 17 216 97 17 216 97 17
216 97 17 219 103 21 214 105 21 228 131 43 224 134 43 223 136 44
222 136 44 222 137 42 222 137 42 223 138 44 223 138 44 223 138 44
223 138 44 232 142 51 232 142 51 232 142 51 232 142 51 232 142 51
232 142 51 232 142 51 232 142 51 233 137 51 241 138 55 215 103 22
221 101 23 224 100 23 224 99 25 221 101 25 219 102 25 221 101 25
221 101 27 221 101 27 221 101 27 221 101 27 221 101 27 221 101 27
221 101 27 222 100 27 221 101 27 219 101 27 219 101 27 216 96 23
220 95 26 211 81 13 212 80 13 211 79 12 211 79 12 211 79 12 211 79 12
210 79 12 210 79 12 210 79 12 210 79 12 211 81 13 211 81 13 209 81 13
209 81 13 211 81 13 211 81 13 211 81 13 212 82 14 212 82 14 211 81 13
205 75 7 201 71 4 202 69 2 202 69 2 202 69 4 200 70 4 201 71 6
201 71 6 203 70 6 200 70 4 197 69 3 196 68 2 196 68 2 196 68 2
196 68 2 198 68 0 200 67 0 200 67 0 197 71 0 193 73 0 214 102 19
210 103 19 210 104 17 210 104 17 210 103 19 210 103 19 210 104 17
209 105 17 209 105 17 204 107 17 242 162 66 238 167 68 238 167 68
236 168 68 238 168 66 238 168 66 236 168 66 236 168 66 236 166 65
236 163 63 234 159 59 232 157 57 234 157 58 235 158 59 235 159 57
235 159 57 235 159 57 237 157 59 237 157 61 243 153 63 208 98 19
214 94 20 214 93 22 215 92 22 217 91 24 218 90 24 218 91 22 218 91 22
214 84 16 220 90 22 203 72 5 203 72 5 205 72 8 205 72 8 205 72 8
205 72 8 207 71 10 207 71 10 207 71 10 207 71 10 204 66 5 204 66 5
204 66 5 204 66 5 204 65 7 204 65 7 204 65 7 205 66 9 206 68 10
203 64 6 204 65 7 204 65 7 204 65 7 204 65 7 204 65 9 204 65 9
204 65 9 204 65 7 202 66 5 199 69 1 216 91 19 214 92 17 212 93 15
211 94 13 215 96 15 215 96 15 215 96 15 213 97 15 211 94 13 203 96 12
234 144 52 228 146 51 234 150 55 234 150 55 234 150 55 233 148 54
233 148 54 232 147 53 232 147 53 232 147 53 227 144 51 227 144 51
227 144 51 227 144 51 227 144 51 227 144 51 227 144 51 229 143 51
231 138 51 239 139 55 215 103 22 221 101 23 222 100 23 222 100 23
219 102 23 217 103 23 217 103 25 217 103 25 217 103 25 217 102 27
217 102 27 217 102 27 217 103 25 217 103 25 219 102 25 217 103 25
216 103 25 216 103 25 213 97 23 219 96 24 210 80 10 212 80 11
211 79 12 211 79 12 211 79 12 211 79 12 210 79 12 210 79 12 210 79 12
210 79 12 211 81 13 211 81 13 209 81 13 209 81 13 211 81 13 211 81 13
211 80 15 212 81 16 211 81 13 210 79 12 205 75 7 201 71 4 202 69 2
202 69 4 202 69 4 202 69 4 201 71 6 201 71 6 203 70 6 202 69 4
202 67 3 201 65 4 201 65 4 201 65 4 201 65 4 203 65 2 206 63 2
206 64 0 205 66 0 201 69 0 218 99 19 215 101 19 215 101 17 215 101 17
215 101 19 215 101 19 215 101 17 215 101 17 215 101 17 207 105 17
242 162 66 239 168 69 237 169 69 237 169 69 239 169 67 239 169 67
237 170 67 237 170 67 238 168 66 234 164 63 229 161 59 227 159 57
229 159 58 231 161 59 231 161 57 231 161 57 231 161 57 231 161 59
232 159 61 239 156 63 205 100 19 210 95 20 212 94 22 215 92 22
217 91 24 218 90 24 218 91 22 218 91 22 215 85 18 220 90 22 201 71 4
203 72 5 205 72 8 205 72 8 205 72 8 205 72 8 207 71 10 207 71 10
207 71 10 207 71 10 204 66 5 204 66 5 204 66 5 204 66 5 204 65 7
204 65 7 204 65 7 205 66 9 205 66 9 203 64 6 204 65 7 204 65 7
204 65 7 204 65 7 204 65 9 204 65 9 204 65 9 204 65 7 202 66 5
199 69 1 216 91 19 214 92 17 212 93 15 212 94 13 215 94 14 214 95 14
212 96 14 212 96 14 211 94 13 203 96 12 231 146 52 225 147 51
233 150 55 234 150 55 234 150 55 233 148 54 233 148 54 232 147 53
232 147 53 232 147 53 227 144 51 227 144 51 227 144 51 227 144 51
227 144 51 227 144 51 227 144 51 229 143 51 229 139 49 239 140 53
213 104 20 219 103 21 222 100 23 221 101 23 217 103 23 216 104 23
217 103 23 217 103 23 217 103 23 217 103 25 217 103 25 217 103 25
217 103 25 217 103 25 219 102 25 217 103 25 216 103 25 216 103 25
214 99 22 219 97 22 210 80 8 212 80 11 211 79 10 211 79 10 211 79 10
211 79 10 210 79 12 210 79 12 210 79 12 210 79 12 211 81 13 211 81 13
209 81 13 209 81 13 211 81 13 211 81 13 211 80 15 212 81 16 211 81 13
208 78 11 205 74 9 201 71 6 202 69 4 203 68 4 202 68 6 202 68 6
203 70 8 203 70 8 203 70 8 202 68 6 202 66 5 202 66 5 202 66 7
202 66 7 201 65 4 203 65 4 206 63 2 206 64 0 205 66 0 201 69 0
218 99 19 215 101 19 215 101 17 215 101 17 215 101 19 215 101 19
215 101 17 215 101 17 215 101 17 207 105 17 243 163 67 238 170 70
238 170 70 238 170 70 238 171 68 238 171 68 238 171 68 238 171 68
237 170 67 234 166 64 229 161 59 227 159 57 229 159 58 231 161 59
231 161 57 231 161 57 231 161 57 231 161 59 232 159 61 239 156 63
205 100 19 210 95 20 212 94 22 214 93 22 217 92 22 217 92 22
218 91 22 218 91 20 215 87 19 218 91 22 201 71 4 203 72 5 204 74 6
204 74 6 205 73 6 205 72 8 205 72 10 205 72 10 207 71 10 207 71 10
204 66 5 204 66 5 204 66 5 204 66 5 204 65 7 204 65 7 204 65 7
205 66 9 205 66 9 203 64 6 204 65 7 204 65 7 204 65 7 204 65 7
204 65 9 204 65 9 204 65 9 204 65 7 202 66 5 199 69 1 217 90 19
214 92 17 212 93 15 212 94 13 214 92 15 212 93 15 211 94 15 209 95 15
211 94 13 203 96 12 231 146 52 225 147 51 231 151 55 233 150 55
233 151 53 232 150 52 232 150 52 230 148 51 230 148 51 230 148 51
227 144 51 227 144 51 227 144 51 227 144 51 227 144 51 227 144 51
227 144 51 229 143 51 229 139 49 238 140 53 213 104 20 219 103 21
221 101 23 221 101 23 217 103 23 216 104 23 217 103 23 217 103 23
217 103 23 217 103 23 217 103 25 217 103 25 217 103 25 217 103 25
219 102 25 217 103 25 216 103 25 216 103 25 214 99 22 219 97 22
210 80 8 211 79 8 211 79 10 211 79 10 211 79 10 211 79 10 210 79 12
210 79 12 210 79 12 210 79 12 211 81 13 211 81 13 209 81 13 209 81 13
211 81 13 211 80 15 211 80 15 212 81 16 211 80 15 208 78 13 205 74 9
203 70 6 203 68 4 203 68 6 202 68 6 202 68 6 203 70 8 203 70 8
203 70 8 203 68 6 202 66 5 202 66 5 202 66 7 202 66 7 201 65 4
203 65 4 206 63 4 206 63 2 205 66 0 201 69 0 218 99 21 215 101 19
215 101 17 215 101 19 215 101 19 215 101 19 215 101 19 215 101 17
215 101 17 207 105 17 243 163 67 238 170 70 237 171 70 237 171 70
238 171 68 238 171 68 238 171 68 238 171 68 237 170 67 234 166 64
229 161 59 227 159 57 229 159 58 231 161 59 231 161 57 231 161 57
231 161 57 231 161 59 232 159 61 239 156 63 205 100 19 210 95 20
212 94 22 214 93 22 215 92 22 217 92 22 218 91 20 218 91 20 215 87 19
218 91 22 201 71 4 203 72 5 204 74 6 204 74 6 205 73 6 205 73 6
205 72 8 205 72 10 207 71 10 207 71 10 204 66 5 204 66 5 204 66 5
204 66 5 204 65 7 204 65 7 204 65 7 205 66 9 205 66 9 203 64 6
204 65 7 204 65 7 204 65 7 204 65 7 204 65 9 204 65 9 204 65 9
204 65 7 202 66 5 201 68 3 217 90 21 216 91 17 212 93 15 212 94 13
214 92 15 212 93 15 211 94 15 209 95 15 211 94 13 203 96 12
231 146 52 225 147 51 231 151 55 233 150 55 233 151 53 232 150 52
232 150 52 230 148 51 230 148 51 230 148 51 227 144 51 227 144 51
227 144 51 227 144 51 227 144 51 227 144 51 227 144 51 229 143 51
228 140 49 238 140 53 212 105 20 217 103 21 221 101 23 219 102 23
217 103 23 216 104 23 217 103 21 217 103 21 217 103 21 217 103 23
217 103 23 217 103 23 217 103 23 217 103 23 219 102 23 217 103 23
216 104 23 216 104 23 215 100 23 220 98 23 208 79 7 210 78 7 211 79 8
211 79 8 211 79 8 211 79 10 211 79 10 211 79 10 210 79 12 210 79 12
211 81 13 211 81 13 209 81 15 209 81 15 211 80 15 212 79 17 212 79 17
212 79 17 212 79 17 210 77 15 207 73 11 204 71 9 205 69 8 205 68 10
205 68 10 205 68 10 205 68 10 205 68 10 205 68 10 205 68 10 205 66 9
204 65 7 204 65 7 204 65 7 202 66 7 204 65 7 205 65 5 207 64 3
207 67 2 202 70 0 219 100 22 216 102 20 216 102 20 216 102 20
216 102 22 216 102 22 216 102 20 216 102 20 216 102 20 208 106 20
242 165 68 238 172 72 238 172 72 238 172 72 240 172 70 240 172 70
240 172 72 240 172 72 238 170 70 235 167 67 230 163 60 228 160 58
228 158 57 229 159 58 229 159 58 229 159 58 231 161 59 231 161 59
232 159 61 239 155 65 205 100 19 210 95 20 210 95 20 212 94 20
215 92 22 217 92 22 218 91 20 218 91 20 215 87 19 218 91 22 200 72 4
201 73 5 204 74 6 204 74 6 205 73 6 205 73 6 205 72 8 205 72 8
207 72 8 207 72 8 204 66 5 204 66 5 204 66 5 204 66 5 204 65 7
204 65 7 204 65 7 205 66 9 205 66 11 203 64 8 204 65 9 204 65 9
204 65 9 204 65 9 204 65 9 204 65 9 205 64 9 204 65 7 202 66 5
201 68 3 219 89 21 216 91 17 214 92 15 212 94 13 214 92 15 214 92 17
211 94 15 209 95 15 211 94 13 203 96 12 231 146 52 225 147 51
231 151 55 233 150 55 233 150 55 233 150 55 232 149 54 232 149 54
232 149 54 232 149 54 227 144 51 227 144 51 227 144 51 227 144 51
227 144 51 227 144 51 227 144 51 229 143 51 229 139 49 238 140 53
212 105 20 217 103 21 219 102 23 219 102 23 217 103 23 216 104 23
217 103 21 217 103 21 217 103 21 217 103 21 217 103 23 217 103 23
217 103 23 217 103 23 219 102 23 217 103 23 216 104 23 216 104 23
215 100 23 220 98 23 208 79 7 209 77 5 211 79 8 211 79 8 211 79 8
211 79 8 211 79 10 211 79 10 210 79 12 210 79 12 211 81 13 211 81 13
209 81 15 211 80 15 212 79 17 212 79 17 212 79 17 212 79 17 212 79 17
210 77 15 207 73 11 203 70 8 205 68 10 205 68 10 205 68 10 205 68 10
205 68 10 205 68 10 205 68 10 205 68 10 205 66 9 204 65 7 204 65 7
204 65 7 202 66 7 204 65 7 205 65 5 207 64 3 207 67 2 202 70 0
219 100 22 216 102 20 216 102 20 216 102 20 216 102 22 216 102 22
216 102 20 216 102 20 216 102 20 208 106 20 242 165 68 238 172 72
238 172 72 238 172 72 240 172 70 240 172 70 240 172 72 240 172 72
238 170 70 235 167 67 230 163 60 228 160 58 228 158 57 229 159 58
229 159 58 229 159 58 231 161 59 231 160 61 232 159 63 239 155 65
205 100 19 210 95 20 210 95 20 212 94 20 215 92 22 217 92 22
218 91 20 218 91 20 215 87 19 217 90 21 201 73 5 201 73 5 204 74 6
204 74 6 205 73 6 205 73 6 205 72 8 205 72 8 207 72 8 207 72 8
204 66 5 204 66 5 204 66 5 204 66 5 204 65 7 204 65 7 204 65 7
205 66 9 205 66 11 203 64 8 204 65 9 204 65 9 204 65 9 204 65 9
204 65 9 204 65 9 205 64 9 205 64 9 204 65 7 201 68 3 219 89 21
216 91 17 214 92 15 214 92 15 216 91 17 214 92 17 211 94 17 209 95 15
211 94 13 203 96 12 231 146 52 225 147 51 231 151 55 233 150 55
233 150 55 233 150 55 232 149 54 232 149 54 232 149 54 232 149 54
227 144 51 227 144 51 227 144 51 227 144 51 227 144 51 227 144 51
227 144 51 229 143 51 231 139 49 239 140 53 213 104 20 217 103 21
218 101 22 218 101 22 216 102 22 215 103 22 216 104 21 217 103 21
219 103 21 219 103 21 217 103 23 217 103 23 217 103 23 217 103 23
219 102 23 217 103 23 216 104 23 216 104 23 216 102 22 220 98 21
208 79 5 209 77 3 211 79 8 211 79 8 211 79 8 211 79 8 211 79 10
211 79 10 210 79 12 210 79 12 211 81 13 211 81 13 209 81 15 211 80 15
212 79 17 212 79 17 212 79 17 212 79 17 212 79 17 210 77 15 207 73 11
203 70 8 205 68 10 205 68 10 205 68 10 205 68 10 203 67 9 203 67 9
203 67 9 203 67 9 204 65 7 204 65 7 204 65 7 204 65 7 202 66 7
204 65 7 205 65 5 207 64 3 207 67 2 202 70 0 219 100 22 216 102 20
216 102 20 216 102 20 216 102 22 216 102 22 216 102 20 216 102 20
216 102 20 208 106 20 242 165 68 238 172 72 238 172 72 238 172 72
240 172 72 240 172 72 240 172 72 240 172 72 238 170 70 235 167 67
230 163 60 228 160 58 228 158 57 229 159 58 229 159 58 229 159 58
231 161 59 231 160 61 232 159 63 239 155 65 205 100 19 209 94 19
209 94 19 211 93 19 214 91 21 216 90 21 218 91 20 218 91 20 215 87 19
217 90 21 201 73 5 201 73 5 204 74 6 204 74 6 205 73 6 205 73 6
205 72 8 205 72 8 207 72 8 207 72 8 204 66 5 204 66 5 204 66 5
204 66 5 204 65 7 204 65 7 204 65 7 205 66 9 205 66 11 203 64 8
204 65 9 204 65 9 204 65 9 204 65 9 204 65 9 204 65 9 205 64 9
205 64 9 204 65 7 201 68 3 219 89 21 217 90 19 214 92 15 214 92 15
216 91 17 214 92 19 211 94 17 209 95 15 211 94 13 203 96 12
231 146 52 225 147 51 231 151 55 233 150 55 233 150 55 233 150 55
232 149 54 232 149 54 232 149 54 232 149 54 227 144 51 227 144 51
227 144 51 227 144 51 227 144 51 227 144 51 227 144 51 230 143 51
233 138 49 243 138 53 215 103 20 217 103 21 218 101 22 218 101 22
216 102 22 215 103 22 216 104 21 217 103 21 221 102 21 221 102 21
217 103 23 217 103 23 219 102 23 219 102 23 217 103 23 216 104 23
216 104 23 216 104 23 216 102 22 220 98 21 210 79 5 210 77 3 211 79 8
211 79 8 211 79 8 211 79 8 211 79 10 211 79 10 210 79 12 210 79 12
211 81 13 211 81 13 212 81 16 212 81 16 213 80 18 213 80 18 213 80 18
213 80 18 212 79 17 210 77 15 207 73 11 203 68 6 205 68 10 205 68 10
205 68 10 205 68 10 203 67 9 203 67 9 203 67 9 203 67 9 204 65 7
204 65 7 204 65 7 204 65 7 202 66 7 204 65 7 205 65 5 205 65 5
205 67 4 202 69 2 223 98 24 219 100 22 218 101 20 218 101 20
218 101 22 218 101 22 218 101 20 218 101 20 218 101 20 208 106 20
242 164 70 238 172 74 238 172 74 238 172 74 238 172 74 240 172 72
240 172 72 240 172 72 238 170 70 235 167 67 230 163 60 228 160 58
227 159 57 228 160 58 228 160 58 228 160 58 231 161 59 232 159 61
234 158 63 240 155 65 204 99 18 209 94 19 209 94 19 212 92 19
214 91 21 216 90 21 218 91 20 218 91 20 215 87 19 216 88 20 202 74 6
203 72 5 203 72 5 204 72 5 204 72 5 204 72 5 204 71 7 204 71 7
206 70 7 206 70 7 204 66 5 204 66 5 204 66 5 204 66 5 204 65 7
204 65 7 204 65 7 205 66 9 205 66 11 203 64 8 204 65 9 204 65 9
204 65 9 204 65 9 204 65 9 204 65 9 205 64 9 204 65 7 202 66 5
202 66 5 220 88 23 217 90 21 216 91 17 214 92 17 214 92 19 212 92 19
211 93 19 209 94 17 209 95 15 203 96 12 233 145 52 227 147 51
233 150 55 233 150 55 233 150 55 233 150 55 232 149 54 232 149 54
232 149 54 232 149 54 229 146 54 229 146 54 229 146 54 229 146 54
229 146 54 229 146 54 229 146 54 233 145 54 239 140 53 241 132 48
221 109 26 214 100 18 218 101 20 218 101 20 216 102 20 216 102 20
216 102 20 218 101 20 222 101 21 222 101 21 217 103 21 217 103 21
223 102 22 223 102 22 217 105 22 214 107 22 217 105 22 219 104 22
215 101 21 228 106 29 212 76 3 223 82 12 213 79 8 210 80 8 210 80 8
210 80 8 211 79 10 211 79 10 212 80 11 212 80 13 212 80 13 212 79 15
213 81 16 213 81 16 213 80 18 213 80 18 213 80 18 213 80 18 216 80 21
212 75 17 206 70 11 203 67 9 205 66 9 205 66 9 205 66 9 205 66 9
205 66 9 205 66 9 205 66 9 205 66 9 204 65 7 204 65 7 204 65 7
204 65 7 204 65 7 204 65 7 205 64 7 205 65 5 207 70 7 206 70 7
223 90 25 220 92 23 218 96 19 216 97 17 216 97 17 216 97 17 216 97 19
216 97 19 216 97 19 206 102 19 244 165 73 238 174 77 238 174 77
238 174 77 238 174 77 239 173 75 239 173 75 239 173 75 238 172 72
234 169 68 230 164 63 226 161 60 225 160 59 225 160 59 225 160 59
225 160 59 228 160 60 231 158 60 236 155 62 242 152 64 201 98 17
207 94 16 211 93 19 214 92 19 216 91 19 216 91 19 216 91 19 216 91 19
215 89 20 215 87 19 202 74 6 203 72 5 204 72 5 204 72 5 206 71 5
206 71 5 206 70 7 206 70 7 206 70 7 206 70 7 204 66 5 204 65 7
204 65 7 204 65 7 204 65 7 204 65 7 204 65 7 204 65 7 205 64 7
205 64 7 205 64 7 205 64 7 205 64 7 205 64 7 204 65 7 204 65 7
204 65 7 204 65 7 202 66 5 202 66 5 222 89 24 220 90 24 220 90 24
218 90 24 212 94 22 209 96 22 210 95 20 210 96 18 207 94 14
205 101 15 245 153 61 243 158 63 232 149 54 232 149 54 232 149 54
232 149 54 230 148 53 230 148 53 230 148 53 230 148 53 232 142 51
232 142 51 232 142 51 232 142 51 232 142 51 232 142 51 232 142 51
235 140 51 240 136 50 241 130 47 224 110 28 220 106 23 218 101 20
218 101 20 216 102 20 216 102 20 216 102 20 218 101 20 222 101 21
221 102 21 213 106 21 211 107 21 217 105 22 215 106 22 207 110 22
206 111 22 211 109 22 212 108 22 208 106 22 219 109 28 201 72 0
210 77 3 207 80 7 205 81 7 205 81 7 205 81 7 207 79 9 207 79 9
207 79 9 207 79 11 211 78 14 211 78 14 211 78 14 211 78 14 211 78 16
211 78 16 211 78 16 211 78 16 213 77 18 209 73 14 205 68 10 202 66 7
205 66 9 205 66 9 205 66 9 205 66 9 205 66 9 205 66 9 205 66 9
205 66 9 204 65 7 204 65 7 204 65 7 204 65 7 204 65 7 204 65 7
205 64 7 205 64 7 203 65 4 207 69 9 227 89 31 229 93 32 221 93 23
218 96 19 218 96 19 218 96 19 218 95 21 218 95 21 218 95 21
210 100 21 248 159 73 245 166 76 245 166 76 243 167 76 243 167 76
243 167 74 243 168 72 243 168 72 242 167 69 239 163 66 234 159 61
232 156 59 232 156 59 233 157 60 233 157 60 233 157 60 235 158 61
239 156 61 242 154 63 248 151 65 202 94 15 210 92 16 214 92 19
216 91 19 216 91 19 216 91 19 216 91 19 216 91 19 215 89 20 214 86 18
205 75 7 203 72 5 207 74 7 207 74 7 208 73 7 208 73 7 208 73 9
208 73 9 208 73 9 208 72 11 204 65 7 204 65 7 204 65 7 204 65 7
204 65 7 204 65 7 204 65 7 204 65 7 205 64 7 205 64 7 205 64 7
205 64 7 205 64 7 205 64 7 204 65 7 204 65 7 204 65 7 204 65 7
202 66 5 202 66 5 220 88 23 220 87 25 222 86 27 219 88 25 211 92 23
209 94 21 212 92 21 214 92 19 210 92 16 206 96 15 244 144 57
239 147 55 240 148 56 240 148 56 240 148 56 240 148 56 239 147 55
239 147 55 239 147 55 239 147 55 214 112 26 214 112 26 214 112 26
214 112 26 214 112 26 214 112 26 214 112 26 216 111 26 217 107 23
218 106 23 207 93 11 205 91 8 217 100 19 217 100 19 215 101 19
215 101 19 218 101 20 219 101 20 219 101 20 215 103 20 253 161 71
247 164 71 248 163 71 247 164 71 240 167 71 239 168 71 244 166 71
245 165 71 244 166 71 251 163 72 227 123 37 235 120 41 226 111 33
226 111 33 226 111 33 226 111 33 226 110 35 226 110 35 226 110 35
229 108 37 206 76 10 209 74 10 209 74 10 209 74 10 208 74 12
208 74 12 208 74 12 208 74 12 207 71 12 206 70 11 203 67 9 203 67 9
205 66 9 205 66 9 205 66 9 205 66 9 204 65 7 204 65 7 204 65 7
204 65 7 203 64 6 203 64 6 203 64 6 203 64 6 204 65 7 204 65 7
205 64 7 205 64 7 202 63 3 200 62 2 204 65 7 202 66 5 202 69 4
201 71 4 201 71 4 200 72 4 200 72 4 198 73 4 198 73 2 195 75 2
214 104 27 215 109 31 215 109 31 213 110 31 211 111 31 211 111 29
210 112 27 210 113 25 209 112 21 205 108 18 200 104 13 199 102 12
202 105 14 204 107 17 204 107 17 204 107 17 205 108 18 205 108 18
207 105 19 210 100 19 214 94 18 216 89 16 218 88 18 218 88 18
218 88 18 216 89 18 216 91 19 216 91 19 215 89 20 214 86 18 205 75 7
203 72 5 209 76 9 209 76 9 210 75 9 210 75 9 210 75 11 210 75 11
210 75 11 210 75 13 204 65 7 204 65 7 204 65 7 204 65 7 204 65 7
204 65 7 204 65 7 204 65 7 205 64 7 205 64 7 205 64 7 205 64 7
205 64 7 205 64 7 204 65 7 204 65 7 204 65 7 204 65 7 202 66 5
202 66 5 202 68 6 202 68 6 203 67 9 202 68 6 199 71 4 199 71 4
202 69 2 202 70 0 201 72 0 193 71 0 225 115 32 219 115 27 216 110 23
218 109 23 218 109 23 218 109 23 217 108 21 217 108 21 217 108 21
217 108 21 217 107 23 217 107 23 217 107 23 217 107 23 218 106 23
218 106 23 218 106 23 217 105 22 216 104 21 219 104 22 209 95 13
212 97 15 216 99 18 216 99 18 215 101 19 217 100 19 218 99 19
218 99 19 218 99 19 210 103 19 247 164 71 237 169 71 237 169 71
236 170 71 231 172 71 232 171 71 237 169 71 239 168 71 238 170 72
242 166 71 215 120 32 220 116 30 220 112 30 220 112 32 220 112 32
220 112 32 220 112 34 220 112 34 220 112 34 224 109 36 201 73 7
206 70 7 206 70 7 206 70 9 204 71 9 204 71 9 203 70 8 203 70 8
203 67 9 203 67 9 202 66 7 202 66 7 204 65 7 204 65 7 204 65 7
204 65 7 204 65 7 204 65 7 204 65 7 204 65 7 203 64 6 203 64 6
203 64 6 203 64 6 204 65 7 204 65 7 205 64 7 205 64 7 198 60 0
200 62 4 211 72 14 207 69 11 206 68 10 205 69 8 205 69 8 203 70 8
203 70 8 201 71 6 201 71 6 200 72 4 219 99 28 221 103 32 220 104 32
220 104 30 218 105 30 217 106 28 217 107 26 217 107 23 215 106 22
212 103 17 207 98 12 207 98 12 211 102 16 214 105 19 213 106 19
213 106 19 214 107 20 215 106 22 219 104 22 222 102 24 215 88 15
218 86 15 220 85 17 218 86 17 217 87 17 215 88 17 215 88 17 215 90 18
215 89 20 213 85 16 206 76 8 203 72 5 210 77 11 210 77 11 212 77 11
212 77 11 212 76 13 212 76 13 212 76 13 212 76 13 204 66 5 204 65 7
204 65 7 204 65 7 204 65 7 204 65 7 204 65 7 204 65 7 205 64 7
205 64 7 205 64 7 205 64 7 205 64 7 205 64 7 204 65 7 204 65 7
204 65 7 204 65 7 202 66 5 202 66 5 201 67 5 201 67 5 202 66 7
202 66 7 201 67 5 202 67 3 205 66 1 205 66 0 206 70 0 196 67 0
224 107 26 216 105 19 223 110 25 223 110 25 223 110 25 223 109 27
222 108 26 222 108 26 222 108 26 222 108 26 221 107 25 221 107 25
221 107 25 221 107 25 221 107 25 221 107 25 221 107 25 221 107 25
221 107 25 225 108 27 216 99 18 216 99 18 214 98 17 214 98 17
214 98 17 214 98 17 219 98 16 219 98 16 217 101 17 207 105 17
243 168 70 234 173 70 232 174 70 230 174 70 232 174 70 234 173 70
240 170 70 242 169 70 240 171 74 245 167 72 218 121 33 222 117 32
219 116 32 219 116 32 219 116 32 219 116 35 218 115 33 218 115 33
218 114 35 222 112 37 201 73 7 206 70 9 206 70 9 206 70 9 206 70 11
206 70 11 206 70 11 206 70 11 203 67 9 202 66 7 202 66 7 202 66 7
204 65 7 204 65 7 204 65 7 204 65 7 204 65 7 204 65 7 204 65 7
203 64 6 204 63 6 203 62 5 203 62 5 203 62 5 203 64 6 203 64 6
203 64 6 203 64 6 202 61 4 204 63 6 209 68 13 210 69 14 208 66 12
206 68 10 206 68 10 206 68 10 206 68 10 206 68 8 206 68 8 203 70 6
218 99 30 217 105 34 217 106 32 215 105 30 214 104 27 212 104 24
212 104 22 212 104 22 210 103 21 210 103 19 210 103 19 210 103 19
212 105 20 212 105 20 213 104 20 213 104 20 217 103 21 219 102 23
222 100 23 225 99 23 217 85 14 219 84 14 220 86 15 218 86 15
215 86 16 214 86 16 214 86 16 215 88 17 215 87 19 211 84 15 207 77 9
204 74 6 208 78 11 210 77 11 210 77 11 210 77 11 210 77 11 210 77 11
212 77 11 212 76 13 203 65 4 203 64 6 203 64 6 203 64 6 203 64 6
203 64 6 203 64 6 203 64 6 204 63 6 204 63 6 204 63 6 204 63 6
204 63 6 204 63 6 203 64 6 203 64 6 203 64 6 203 64 6 201 65 6
201 65 6 201 67 5 201 67 5 202 66 7 204 65 7 202 66 5 204 66 3
207 65 1 209 64 0 205 66 0 203 72 0 222 101 21 220 106 23 221 109 26
219 110 26 219 110 26 219 109 28 219 109 28 219 109 28 219 109 28
219 109 28 221 107 25 221 107 25 221 107 25 221 107 25 221 107 25
221 107 25 221 107 25 221 107 25 221 107 25 223 109 27 214 100 18
216 99 18 214 98 17 213 97 15 214 98 17 216 97 17 218 97 14 218 97 14
216 99 16 206 104 16 243 168 70 234 173 70 232 174 70 230 174 70
230 174 70 234 173 70 238 170 70 240 170 70 240 171 74 243 168 72
216 121 33 222 117 32 219 116 32 219 116 32 219 116 32 219 116 32
218 115 33 218 115 33 218 115 33 222 112 35 201 73 7 206 70 9
206 70 9 206 70 9 206 70 11 206 70 11 206 70 11 206 70 11 203 67 9
202 66 7 202 66 7 202 66 7 203 64 6 203 64 6 203 64 6 203 64 6
204 65 7 204 65 7 204 65 7 203 64 6 204 63 6 203 62 5 203 62 5
203 62 5 203 64 6 203 64 6 203 64 6 203 64 6 202 61 4 204 63 6
209 68 13 210 69 14 208 66 12 206 68 10 206 68 10 206 68 10 208 67 10
208 67 8 208 67 8 203 70 6 219 99 30 218 105 34 218 105 32 217 104 30
216 103 27 213 103 26 213 103 24 213 103 22 212 102 21 212 102 21
212 103 19 212 103 19 213 104 20 213 104 20 215 103 20 216 102 20
219 102 23 222 100 23 225 99 23 227 98 23 215 86 14 217 85 14
217 85 14 215 86 14 213 85 14 213 85 14 213 85 14 214 86 16 215 87 19
211 84 15 207 77 9 204 74 6 208 78 11 208 78 11 210 77 11 210 77 11
210 77 11 210 77 11 212 77 11 212 76 13 203 65 4 203 64 6 203 64 6
203 64 6 203 64 6 203 64 6 203 64 6 203 64 6 204 63 6 204 63 6
204 63 6 204 63 6 204 63 6 204 63 6 203 64 6 203 64 6 203 64 6
203 64 6 201 65 6 201 65 6 201 67 5 202 66 5 204 65 7 204 65 7
202 66 5 204 66 5 207 64 3 207 65 1 205 66 0 203 71 0 221 101 23
220 106 23 219 110 26 219 110 26 219 109 28 219 109 28 219 109 28
219 109 28 219 109 28 219 109 28 216 110 23 216 110 23 216 110 23
216 110 23 218 109 23 218 109 23 219 108 23 219 108 23 219 108 25
222 110 27 212 101 18 214 100 18 214 98 17 216 97 17 216 97 17
218 96 17 219 98 16 217 99 16 217 99 16 209 103 16 248 166 70
240 170 70 240 170 70 235 172 70 229 175 70 229 175 70 235 172 70
237 171 70 235 174 74 238 170 72 212 124 33 218 119 32 220 116 30
222 115 30 222 115 30 222 115 32 221 114 31 221 114 31 221 114 31
226 110 35 201 73 7 206 70 9 206 70 9 206 70 9 206 70 11 206 70 11
206 70 11 206 70 11 203 67 9 202 66 7 202 66 7 202 66 7 203 64 6
203 64 6 203 64 6 203 64 6 204 65 7 204 65 7 204 65 7 203 64 6
204 63 6 203 62 5 203 62 5 203 62 5 203 64 6 203 64 6 203 64 6
203 64 6 200 62 4 203 64 6 207 69 11 209 70 12 206 68 10 205 69 8
205 69 8 205 69 8 203 70 8 203 70 6 203 70 6 201 71 4 223 97 28
225 102 32 223 102 32 222 102 28 221 101 27 218 100 26 218 101 24
218 101 22 217 100 21 217 100 21 217 100 19 217 100 19 218 101 20
218 101 20 218 101 20 218 101 20 221 101 23 222 100 23 224 100 23
224 100 23 212 88 14 212 88 14 212 88 14 212 88 14 211 86 12
211 86 12 213 86 12 214 86 16 215 88 17 211 84 13 207 77 7 204 74 4
208 78 11 208 78 11 210 77 11 210 77 11 210 77 11 210 77 11 212 77 11
212 76 13 203 65 4 203 64 6 203 64 6 203 64 6 203 64 8 203 64 8
203 64 8 203 64 8 203 64 6 203 64 6 203 64 6 203 64 6 204 63 6
204 63 6 203 64 6 203 64 6 203 64 6 203 64 6 201 65 6 201 65 6
202 66 7 202 66 7 204 65 7 202 66 7 201 67 7 202 66 5 204 66 3
204 66 1 202 68 0 200 73 0 219 102 23 218 106 23 221 109 26
221 109 26 221 108 28 221 108 28 221 108 28 221 108 28 221 108 28
221 108 28 216 110 23 216 110 23 216 110 23 216 110 23 218 109 23
218 109 23 218 109 23 218 109 23 218 108 25 220 111 27 212 101 18
214 100 18 214 98 17 216 97 17 218 96 17 218 96 17 217 99 16
217 99 16 217 99 16 209 103 16 248 166 70 240 170 70 240 170 70
237 171 70 230 174 70 230 174 70 234 173 70 235 172 70 235 174 74
238 170 72 213 123 33 220 118 32 222 115 30 224 114 30 224 114 30
224 114 30 222 113 31 222 113 31 222 113 31 227 110 33 203 72 7
206 70 9 206 70 9 206 70 9 206 70 11 206 70 11 206 70 11 206 70 11
203 67 9 202 66 7 202 66 7 204 65 7 203 64 6 203 64 6 203 64 6
203 64 6 204 65 7 204 65 7 204 65 7 203 64 6 204 63 6 203 62 5
203 62 5 203 62 5 203 64 6 203 64 6 203 64 6 203 64 6 200 62 4
203 64 6 207 69 11 209 70 12 205 68 10 205 69 8 203 70 8 203 70 6
201 71 6 201 71 6 200 72 6 200 72 4 224 97 28 228 100 32 226 101 30
225 100 28 222 100 27 221 99 26 221 99 24 219 100 22 218 99 21
218 99 21 218 99 19 218 99 19 219 101 20 219 101 20 219 101 20
219 101 20 222 100 23 222 100 23 222 100 23 222 100 23 209 89 14
209 89 14 209 89 14 211 88 14 209 87 12 209 87 12 211 86 12 214 87 14
215 88 17 211 84 13 207 77 7 204 74 4 208 78 11 208 78 11 210 77 11
210 77 11 210 77 11 210 77 11 212 77 11 212 76 13 203 64 6 203 64 8
203 64 8 203 64 8 203 64 8 203 64 8 203 64 8 203 64 8 203 64 6
203 64 6 203 64 6 203 64 6 204 63 6 204 63 6 203 64 6 203 64 6
203 64 6 203 64 6 201 65 6 201 65 6 202 66 7 204 65 7 204 65 7
202 66 7 201 67 7 201 67 7 204 66 5 204 66 3 201 69 0 198 74 0
217 103 23 217 107 23 219 110 26 221 108 28 221 108 28 221 108 28
221 108 28 221 108 28 221 108 28 221 108 28 221 107 23 221 107 23
221 107 23 221 107 23 221 107 23 221 107 23 219 108 23 218 109 23
218 109 23 220 111 25 212 101 16 215 101 17 216 99 18 218 96 17
219 95 17 219 95 17 217 99 16 216 99 16 216 99 16 206 104 16
245 167 70 235 172 70 234 173 70 234 173 70 235 172 70 237 171 70
238 170 70 238 170 70 236 173 72 243 168 70 220 120 31 226 115 30
225 116 30 225 116 30 225 116 30 225 115 32 224 114 30 224 114 30
224 114 30 228 111 35 203 72 7 206 70 9 206 70 11 206 70 11 207 69 11
207 69 11 207 69 11 207 69 11 205 66 9 204 65 7 204 65 7 204 65 7
205 64 7 205 64 7 205 64 7 205 64 7 205 64 7 205 64 7 205 64 7
205 64 7 204 63 6 204 63 6 204 63 6 204 63 6 203 64 6 203 64 6
203 64 6 202 63 5 202 63 5 204 65 7 205 68 10 206 70 11 206 70 11
205 68 10 203 69 10 201 70 8 201 70 8 201 70 8 200 72 6 200 72 6
224 97 28 228 100 32 226 101 30 225 100 28 224 99 27 223 98 26
221 99 24 221 99 24 221 99 22 221 99 22 221 99 22 221 99 22
219 100 22 219 100 22 219 100 22 219 100 22 221 101 23 221 101 23
221 101 23 221 101 23 209 90 12 209 90 12 209 90 12 209 90 12
211 88 14 211 88 14 212 88 14 212 88 14 214 86 16 211 84 13 208 79 9
205 75 5 208 79 9 208 79 9 210 78 9 210 78 9 210 77 11 210 77 11
212 77 11 212 76 13 201 65 8 201 64 10 201 64 10 201 64 10 201 65 8
201 65 8 201 65 8 201 65 8 203 64 8 203 64 8 203 64 8 203 64 8
203 64 6 203 64 6 203 64 6 203 64 6 203 64 6 203 64 6 203 64 6
203 64 6 204 65 7 204 65 7 204 65 9 202 66 9 201 67 9 202 66 9
205 64 7 205 65 5 202 67 1 200 73 0 219 102 23 217 107 26 218 108 27
218 108 27 218 108 29 218 108 29 219 109 30 219 109 30 219 109 30
219 109 30 221 107 25 221 107 25 221 107 25 221 107 25 221 107 25
221 107 25 219 108 25 218 109 23 218 109 23 220 111 25 212 101 16
215 101 17 216 99 18 218 96 17 219 95 17 219 95 17 217 99 16
216 99 16 214 100 16 204 105 16 242 169 70 234 173 70 232 174 70
232 174 70 237 171 70 238 170 70 238 170 70 238 170 70 236 173 72
243 168 70 223 119 31 228 114 30 225 116 30 225 116 30 225 116 30
225 116 30 224 114 30 224 114 30 224 114 30 227 112 32 201 73 5
206 70 9 206 70 11 206 70 11 207 69 11 207 69 11 207 69 11 207 69 11
205 66 9 204 65 7 204 65 7 204 65 7 205 64 7 205 64 7 205 64 7
205 64 7 205 64 7 205 64 7 205 64 7 205 64 7 204 63 6 204 63 6
204 63 6 204 63 6 203 64 6 203 64 6 203 64 6 202 63 5 202 63 5
204 65 7 205 68 10 206 70 11 206 70 11 205 68 10 203 69 10 201 70 8
201 70 8 201 70 8 200 72 6 200 72 6 224 97 28 228 100 32 226 101 30
225 100 28 224 99 27 223 98 26 221 99 24 221 99 24 221 99 22
221 99 22 221 99 22 221 99 22 219 100 22 219 100 22 219 100 22
219 100 22 221 101 23 221 101 23 221 101 23 221 101 23 209 90 12
209 90 12 207 90 12 209 90 12 211 88 14 211 88 14 211 88 14 212 88 14
214 86 16 211 84 13 208 79 9 205 75 5 208 79 9 208 79 9 210 78 9
210 78 9 210 77 11 210 77 11 212 77 11 212 76 13 201 65 8 201 64 12
201 64 12 201 64 10 201 65 8 201 65 8 201 65 8 201 65 8 203 64 8
203 64 8 203 64 8 203 64 8 203 64 6 203 64 6 203 64 6 203 64 6
203 64 6 203 64 6 203 64 6 203 64 6 205 64 7 205 64 7 204 65 9
204 65 9 202 65 11 202 65 11 205 64 9 205 65 5 204 66 1 201 72 2
219 102 25 218 106 26 218 108 27 218 108 27 218 108 29 218 108 29
219 109 30 219 109 30 219 109 30 219 109 30 218 108 27 218 108 27
218 108 27 218 108 27 218 108 27 218 108 27 218 108 27 218 108 25
218 108 25 220 111 27 215 103 20 217 103 21 218 101 20 219 101 20
220 99 19 220 99 19 219 101 18 218 102 18 216 103 18 207 107 18
244 171 73 236 175 73 234 176 73 234 176 73 238 174 73 239 174 73
239 174 73 238 174 73 237 176 74 244 171 73 222 123 33 229 117 32
223 117 30 223 117 30 223 117 30 223 117 30 222 115 28 222 115 28
222 115 28 225 113 32 201 73 5 206 70 9 206 70 11 206 70 11 207 69 11
207 69 11 207 69 11 207 69 11 205 66 9 205 66 9 205 66 9 205 66 9
205 64 7 205 64 7 205 64 7 205 64 7 205 64 7 205 64 7 205 64 7
205 64 7 204 63 6 204 63 6 204 63 6 204 63 6 203 64 6 203 64 6
203 64 6 203 64 6 203 64 6 205 66 9 206 70 11 207 71 12 206 70 11
205 69 8 203 70 8 201 71 6 201 71 6 201 71 6 200 72 6 200 72 4
224 97 28 228 100 32 226 101 30 224 99 27 223 98 26 222 97 25
220 98 23 220 98 23 220 98 21 220 98 21 220 98 21 220 98 21 218 99 21
218 99 21 219 100 22 219 100 22 219 100 22 218 99 21 221 101 23
221 101 23 209 90 12 210 91 13 211 92 14 211 92 14 213 91 14
213 91 14 213 91 14 213 91 16 215 90 16 214 87 14 209 82 9 206 79 5
208 79 9 208 79 9 208 79 9 208 79 9 210 77 11 210 77 11 210 77 11
210 77 13 201 65 6 201 64 10 201 64 10 201 65 8 201 65 8 201 65 8
201 65 8 201 65 8 201 65 6 201 65 6 201 65 6 201 65 6 203 64 6
203 64 6 203 64 6 203 64 6 203 64 6 203 64 6 203 64 6 203 64 6
205 64 7 205 64 7 204 65 9 204 65 9 202 65 11 202 65 11 205 64 9
205 65 5 204 66 1 201 72 2 219 102 25 218 106 26 219 107 27
219 107 27 219 107 29 219 107 29 221 108 30 221 108 30 221 108 30
221 108 30 221 106 29 221 106 29 221 106 29 221 106 29 221 106 29
221 106 29 221 106 29 221 106 27 221 106 27 223 109 29 217 103 23
220 104 22 219 103 21 221 102 21 219 101 20 219 101 20 219 103 19
219 103 19 217 104 19 208 109 19 245 172 74 237 176 74 235 177 74
235 177 74 237 176 74 239 175 74 237 176 74 235 177 74 235 179 75
242 174 74 220 125 34 227 120 33 222 117 30 220 118 30 220 118 30
220 118 30 219 117 28 219 117 28 219 117 28 224 114 32 201 73 5
206 70 9 206 70 11 206 70 11 207 69 11 207 69 11 207 69 11 207 69 11
205 66 9 205 66 9 205 66 9 205 66 9 205 64 7 205 64 7 205 64 7
205 64 7 205 64 7 205 64 7 205 64 7 205 64 7 204 63 6 204 63 6
204 63 6 204 63 6 203 64 6 203 64 6 203 64 6 203 64 6 203 64 6
205 66 9 206 70 11 207 71 12 206 70 9 203 70 8 201 71 6 201 71 6
201 71 6 201 71 4 200 72 4 200 72 4 224 97 28 228 100 32 226 101 30
222 97 25 220 95 24 220 95 24 219 97 22 219 97 22 219 97 20 219 97 20
219 97 20 218 96 19 216 97 19 217 98 20 217 98 20 218 99 21 217 98 20
216 97 19 218 99 21 217 98 20 212 93 15 211 92 14 212 93 15 212 93 15
214 92 15 214 92 15 212 93 15 214 92 15 216 91 17 215 88 15 210 83 10
207 80 7 208 79 9 208 79 9 208 79 9 208 79 9 208 78 11 210 77 11
210 77 11 210 77 13 201 65 6 201 65 6 201 65 6 201 65 6 201 65 6
201 65 8 201 65 8 201 65 6 201 65 6 201 65 6 201 65 6 201 65 6
203 64 6 203 64 6 203 64 6 203 64 6 203 64 6 203 64 6 203 64 6
203 64 6 205 64 7 205 64 7 204 65 9 204 65 9 202 65 11 202 65 11
205 64 9 205 65 5 204 66 1 199 69 0 219 102 25 218 106 26 221 106 27
221 106 29 221 106 29 221 106 29 222 107 30 222 107 30 222 107 30
222 107 30 203 70 4 203 70 4 203 70 4 203 70 4 203 71 2 201 72 2
201 72 2 200 73 0 199 75 1 200 78 3 222 102 26 221 104 26 220 104 22
219 104 22 220 106 23 220 106 23 220 104 20 220 104 20 219 105 20
209 110 20 246 173 75 238 177 75 237 178 75 235 179 75 237 178 75
237 178 75 235 179 75 233 180 75 233 182 76 240 177 75 218 128 35
225 123 34 230 131 41 228 132 41 228 132 41 228 132 41 227 130 40
227 130 40 227 130 40 234 126 44 199 74 7 206 70 11 206 70 11
206 70 11 207 69 11 207 69 11 207 69 11 207 69 11 206 68 10 205 66 9
205 66 9 205 66 9 205 66 9 205 66 9 205 66 9 205 66 9 205 66 9
205 66 9 205 67 6 205 67 6 204 66 5 204 66 5 204 66 5 204 66 5
204 65 7 204 65 7 204 65 7 203 64 6 204 65 7 206 68 10 207 71 10
208 72 11 209 75 13 209 76 11 207 77 11 207 77 9 207 77 9 208 79 9
209 82 11 210 83 12 211 84 13 213 85 14 213 88 17 218 93 21 219 95 21
218 93 19 216 94 19 216 94 19 216 94 19 216 94 19 216 94 19 216 94 19
214 94 18 212 93 17 212 93 17 212 93 17 214 92 15 216 95 17 215 94 16
215 94 16 215 95 17 214 94 16 214 94 16 214 94 16 214 94 16 214 94 16
214 94 16 214 94 16 215 93 18 215 90 16 211 85 11 208 81 8 213 85 14
213 85 14 213 85 14 213 85 14 213 85 16 214 84 18 214 84 18 214 84 18
205 72 10 207 71 10 207 71 10 207 71 10 207 71 10 207 71 12 207 71 12
207 71 12 207 71 12 206 70 11 202 66 7 200 64 5 202 63 5 203 64 6
203 64 6 203 64 6 203 64 6 203 64 6 203 64 6 203 64 6 205 64 7
205 64 7 205 64 9 204 65 9 202 65 11 202 65 11 205 64 9 205 65 5
203 65 2 198 68 0 211 94 17 208 93 16 207 90 14 209 89 14 209 89 16
209 89 16 210 90 17 210 90 17 210 90 17 210 90 17 206 68 8 206 68 8
206 68 8 206 68 6 206 68 6 206 69 4 205 70 4 203 71 2 203 73 3
203 76 3 225 102 28 224 104 29 220 105 26 218 106 23 218 108 25
218 108 25 220 106 21 221 105 21 220 106 21 210 111 21 247 175 76
239 179 76 238 179 76 236 180 76 235 181 76 235 181 76 235 181 76
233 182 76 233 184 77 239 179 76 217 130 37 224 125 35 227 132 41
227 132 41 227 132 41 227 132 41 226 131 40 226 131 40 226 131 40
232 127 44 199 74 7 206 70 11 206 70 11 206 70 11 207 69 11 207 69 11
207 69 11 207 69 11 206 68 10 205 66 9 205 66 9 205 66 9 205 66 9
205 66 9 205 66 9 205 66 9 205 66 9 205 66 9 205 67 6 205 67 6
204 66 5 204 66 5 204 66 5 204 66 5 204 65 7 204 65 7 204 65 7
203 64 6 204 65 7 206 68 10 207 71 10 208 72 11 209 76 11 209 76 9
207 77 9 207 77 7 207 77 7 208 79 9 209 82 11 209 82 11 211 84 13
214 86 16 213 88 17 216 91 19 217 92 18 217 92 18 215 93 18 215 93 18
215 93 18 215 93 18 215 93 18 214 92 17 211 92 16 210 90 15 210 90 15
210 90 15 213 91 14 214 92 15 214 92 15 215 94 16 216 97 19 215 95 17
215 95 17 215 95 17 215 95 17 215 95 17 215 95 17 215 95 17 216 94 19
216 91 17 213 86 12 209 82 9 213 85 14 213 85 14 213 85 14 213 85 14
213 85 16 213 84 18 213 84 18 214 84 18 205 72 8 207 72 8 207 72 8
207 71 10 207 71 10 207 71 10 207 71 10 207 71 10 207 71 12 206 70 11
202 66 7 200 64 5 202 63 5 203 64 6 203 64 6 203 64 6 203 64 6
203 64 6 203 64 6 203 64 6 205 64 7 205 64 7 205 64 9 204 65 9
202 65 11 202 65 11 205 64 9 207 64 7 203 65 2 197 67 0 212 92 19
208 93 16 209 89 14 211 88 16 211 88 16 211 88 16 212 89 17 212 89 17
212 89 17 212 89 17 203 69 10 203 69 10 203 69 10 203 69 10 203 70 8
203 70 6 203 70 6 203 70 4 203 73 3 203 76 5 229 104 30 226 107 31
222 108 28 219 110 26 216 111 26 217 110 26 222 108 24 224 108 24
222 108 24 213 113 24 250 177 79 242 181 79 240 182 79 237 183 79
235 184 79 235 184 79 234 185 79 232 186 79 232 188 80 239 183 79
218 133 39 225 128 38 225 133 41 225 133 41 225 133 41 225 133 41
224 132 40 224 132 40 224 132 40 230 128 44 199 74 7 206 70 11
206 70 11 206 70 11 207 69 11 207 69 11 207 69 11 207 69 11 206 68 10
206 68 10 206 68 10 206 68 10 205 66 9 205 66 9 205 66 9 205 66 9
205 66 9 205 66 9 205 67 6 205 67 6 204 66 5 204 66 5 204 66 5
204 66 5 204 65 7 204 65 7 204 65 7 204 65 7 205 66 9 206 68 10
211 72 14 209 73 12 209 76 9 209 77 7 207 77 7 207 78 5 207 78 5
208 79 7 208 81 8 209 82 9 211 85 11 214 87 14 215 90 16 215 90 16
216 91 17 216 91 17 214 92 17 214 92 17 214 92 17 214 92 17 213 91 16
212 90 15 209 89 14 209 89 14 210 90 15 210 90 15 212 90 13 212 90 13
213 91 14 214 92 15 216 97 19 217 98 20 218 99 21 218 99 21 217 98 20
217 98 20 216 99 20 217 98 20 220 98 23 218 93 19 214 87 14 211 85 11
213 85 14 213 85 14 213 85 14 213 85 14 213 85 16 213 85 16 213 85 16
214 84 18 205 72 8 207 71 10 207 71 10 207 71 10 207 71 12 207 71 12
207 71 12 207 71 12 207 71 10 206 70 9 202 66 5 200 64 3 202 63 5
203 64 6 203 64 6 203 64 6 204 63 8 204 63 8 204 63 8 204 63 8
205 64 9 205 64 9 205 64 9 204 65 9 202 65 11 204 65 11 207 63 9
207 64 7 204 64 4 198 66 0 212 92 19 210 92 18 211 88 16 212 87 16
212 87 18 212 87 18 213 88 19 213 88 19 213 88 19 213 88 19 203 69 12
203 69 12 203 69 12 203 69 10 203 69 10 203 70 8 203 70 8 203 70 6
204 72 5 205 75 5 229 104 30 225 108 31 221 108 28 219 110 26
217 110 26 219 110 26 222 108 24 222 108 24 221 109 24 211 114 24
250 177 79 240 182 79 239 183 79 237 183 79 235 184 79 234 185 79
232 186 79 232 186 79 232 188 80 239 183 79 215 135 39 222 130 38
224 134 41 224 134 41 224 134 41 224 134 41 222 133 40 222 133 40
222 133 40 230 128 44 199 74 7 206 70 11 206 70 11 206 70 11
207 69 11 207 69 11 207 69 11 207 69 11 206 68 10 206 68 10 206 68 10
206 68 10 205 66 9 205 66 9 205 66 9 205 66 9 205 66 9 205 66 9
205 67 6 205 67 6 204 66 5 204 66 5 204 66 5 204 66 5 204 65 7
204 65 7 204 65 7 204 65 7 205 66 9 206 68 10 211 72 14 211 73 12
210 76 7 209 77 5 207 78 5 207 78 5 207 78 5 208 79 7 208 81 8
208 81 8 211 85 11 215 88 15 215 90 16 215 90 16 216 91 17 216 91 17
214 92 17 214 92 17 214 92 17 214 92 17 213 91 16 212 90 15 209 89 14
209 89 14 210 90 15 212 90 15 212 90 13 212 90 13 213 91 14 214 92 15
217 98 20 217 98 20 218 99 21 218 99 21 217 98 20 217 98 20 216 99 20
216 99 20 218 99 23 216 94 19 212 88 14 211 85 11 213 85 14 213 85 14
213 85 14 213 85 14 213 85 16 213 85 16 213 85 16 214 84 16 205 72 10
207 71 10 207 71 10 207 71 10 207 71 12 207 71 12 207 71 12 207 71 12
207 71 10 206 70 9 202 66 5 200 64 3 202 63 5 203 64 6 203 64 6
203 64 6 204 63 8 204 63 8 204 63 8 204 63 8 205 64 9 205 64 9
205 64 9 205 64 11 204 64 13 205 63 13 209 62 11 209 63 7 204 64 4
198 65 1 214 91 21 210 92 18 211 88 16 212 87 16 212 87 18 212 87 18
213 88 19 213 88 19 213 88 19 213 88 19 205 68 10 205 68 10 205 68 10
205 68 10 205 68 10 205 68 10 205 69 8 205 69 6 206 70 7 205 75 7
227 104 32 225 108 31 222 110 29 222 110 27 223 109 27 223 110 25
225 109 25 223 110 25 222 110 27 212 115 27 249 178 82 240 183 82
238 184 82 238 184 82 238 184 82 237 185 82 233 187 82 233 187 82
236 187 83 241 183 82 213 137 42 218 133 41 223 136 42 225 135 42
225 135 42 225 135 42 224 134 41 224 134 41 224 134 41 232 129 45
199 74 7 206 70 11 206 70 11 206 70 11 206 70 11 206 70 11 206 70 11
206 70 11 206 70 11 206 70 11 206 70 11 206 70 11 206 68 10 206 68 10
206 68 8 206 68 8 206 68 8 206 68 8 206 68 8 206 68 8 205 67 6
205 67 6 205 67 6 205 67 6 207 66 9 207 66 9 207 66 9 207 66 9
208 67 10 207 66 9 212 73 15 211 73 12 210 75 9 209 77 7 207 78 5
207 78 5 206 78 7 206 78 7 207 79 9 208 81 10 216 91 17 213 89 15
215 90 16 216 91 17 214 92 17 214 92 17 214 92 17 214 92 17 215 93 18
214 92 17 213 91 16 211 88 14 211 88 14 211 88 14 211 88 14 211 88 14
212 90 15 212 90 15 213 91 16 213 91 16 217 97 22 218 99 23 217 99 23
217 99 23 218 99 23 218 99 23 217 99 23 217 99 23 218 99 23
222 100 25 211 86 12 211 85 11 213 85 14 213 85 14 213 85 14
213 85 14 213 85 14 213 85 14 213 85 14 214 84 16 205 72 10 205 72 12
205 72 12 205 72 12 205 72 12 205 72 12 205 72 12 205 72 12 208 72 11
206 70 9 202 66 5 200 64 3 201 65 4 201 65 4 201 65 4 203 64 6
204 63 8 204 63 8 204 63 8 204 63 8 207 63 9 207 63 9 207 63 11
205 63 13 205 63 13 207 62 13 210 61 11 210 62 7 206 63 4 200 65 1
216 90 21 211 91 18 211 88 16 212 87 16 212 87 18 212 87 18 213 88 19
213 88 19 213 88 19 213 88 19 205 69 8 205 69 8 205 69 8 205 69 8
205 68 10 205 68 10 205 69 8 205 69 8 204 71 7 205 75 7 225 105 32
223 108 31 220 110 29 220 110 29 223 109 27 225 109 25 225 109 25
223 110 25 222 110 27 212 115 27 249 178 82 241 183 82 240 183 82
240 183 82 240 183 82 238 184 82 235 186 82 235 186 82 239 185 83
244 181 82 213 137 42 217 134 41 223 136 42 226 134 42 226 134 42
226 134 42 225 133 41 225 133 41 225 133 41 232 129 45 199 74 7
206 70 11 206 70 11 206 70 11 206 70 11 206 70 11 206 70 11 206 70 11
206 70 11 206 70 11 206 70 11 206 70 11 206 68 10 206 68 10 206 68 8
206 68 8 206 68 8 206 68 8 206 68 8 206 68 8 205 67 6 205 67 6
205 67 6 205 67 6 207 66 9 207 66 9 207 66 9 207 66 9 208 67 10
207 66 9 212 73 15 211 73 12 210 75 9 209 77 7 207 78 5 207 78 5
206 78 7 206 78 7 207 79 9 207 79 9 216 91 17 215 90 16 215 90 16
216 91 17 214 92 17 214 92 17 214 92 17 214 92 17 215 93 18 214 92 17
213 91 16 211 88 14 211 88 14 211 88 14 212 88 14 212 88 14 212 90 15
212 90 15 213 91 16 213 91 16 218 99 23 218 99 23 217 99 23 217 99 23
218 99 23 218 99 23 217 99 23 217 99 23 218 99 23 222 100 25
211 86 12 211 85 11 213 85 14 213 85 14 213 85 14 213 85 14 213 85 14
213 85 14 213 85 14 214 84 16 205 72 10 207 71 12 207 71 12 207 71 12
207 71 12 207 71 12 207 71 12 207 71 12 208 72 11 207 69 9 204 66 5
202 63 3 203 65 4 203 64 6 203 64 6 203 64 6 204 63 8 204 63 8
204 63 8 204 63 8 207 63 9 207 63 9 207 63 11 207 62 13 205 63 13
207 62 13 210 61 11 210 62 7 208 62 4 202 64 1 216 90 21 211 91 18
211 88 16 212 87 16 212 87 18 212 87 18 213 88 19 213 88 19 213 88 19
213 88 19 205 69 8 205 69 8 205 69 8 205 69 8 205 69 8 205 69 8
205 69 8 203 70 8 203 72 7 202 76 7 224 106 32 220 110 31 219 111 29
219 111 29 222 110 27 223 110 25 223 110 25 222 110 25 222 110 27
214 114 27 252 177 82 244 181 82 243 182 82 243 182 82 244 181 82
243 182 82 240 183 82 240 183 82 244 183 83 248 179 82 216 136 42
220 132 41 226 134 42 228 133 42 228 133 42 228 133 42 227 132 41
227 132 41 227 132 41 233 128 45 199 74 7 206 70 11 206 70 11
206 70 11 206 70 11 206 70 11 206 70 11 206 70 11 206 70 11 206 70 11
206 70 11 206 70 11 206 68 10 206 68 10 206 68 8 206 68 8 206 68 8
206 68 8 206 68 8 206 68 8 205 67 6 205 67 6 205 67 6 205 67 6
205 66 9 205 66 9 205 66 9 205 66 9 206 68 10 204 65 7 213 75 17
211 73 12 210 75 9 209 77 7 207 77 7 207 77 7 206 78 7 206 78 7
206 78 7 207 79 9 216 91 17 215 90 16 216 91 17 216 91 17 214 92 17
214 92 17 214 92 17 214 92 17 215 93 18 214 92 17 212 90 15 209 87 12
209 87 12 211 88 14 212 88 14 212 88 14 212 90 15 212 90 15 212 90 15
212 90 15 218 99 23 219 100 24 218 101 24 218 101 24 218 99 23
218 99 23 217 99 23 217 99 23 219 100 24 222 100 25 211 86 12
211 85 11 214 84 14 214 84 14 214 84 14 214 84 14 214 84 16 214 84 16
214 84 16 216 83 16 207 72 8 209 70 10 209 70 10 209 70 10 209 70 12
209 70 12 209 70 12 209 70 12 210 71 13 209 68 11 205 64 7 203 62 5
204 63 6 204 63 8 204 63 8 204 63 8 204 63 8 204 63 8 204 63 8
204 63 8 205 64 9 205 64 9 205 64 11 205 64 11 205 63 13 207 62 13
210 61 11 210 62 7 208 62 4 202 64 1 216 90 21 211 91 18 209 89 16
211 88 16 211 88 18 211 88 18 212 89 19 212 89 19 212 89 19 212 89 19
205 69 8 205 69 8 205 69 8 205 69 8 205 69 8 205 69 8 205 69 8
203 70 8 203 72 7 202 76 7 222 107 32 220 110 31 217 112 31
219 111 29 222 110 27 222 110 25 219 112 25 219 112 27 219 112 27
212 115 27 252 177 82 244 181 82 244 181 82 244 181 82 246 180 82
244 181 82 241 183 82 241 183 82 246 182 83 249 178 82 218 135 42
221 131 41 225 135 42 226 134 42 226 134 42 226 134 42 225 133 41
225 133 41 225 133 41 232 129 45 201 75 8 207 71 12 207 71 12
207 71 12 207 71 12 207 71 12 207 71 12 207 71 12 206 70 11 206 70 11
206 70 11 206 70 11 206 68 10 206 68 10 206 68 8 206 68 8 206 68 8
206 68 8 206 68 8 206 68 8 205 67 6 205 67 6 205 67 6 205 67 6
205 66 9 205 66 9 205 66 9 205 66 9 206 68 10 204 65 7 213 75 17
209 73 12 209 76 9 209 77 7 207 77 7 207 77 7 206 78 7 206 78 7
206 78 7 206 78 7 215 90 16 215 90 16 215 90 16 215 90 16 213 91 16
213 91 16 213 91 16 214 92 17 215 93 18 214 92 17 212 90 15 209 87 12
209 87 12 211 88 14 212 88 14 212 88 14 212 90 15 212 90 15 212 90 15
212 90 15 219 100 24 219 100 24 218 101 24 218 101 24 218 99 23
217 99 23 215 100 23 215 100 23 218 101 24 222 100 25 211 86 12
211 85 11 214 84 14 214 84 14 214 84 14 214 84 14 214 84 16 214 84 16
214 84 16 216 83 16 207 72 8 209 71 8 209 71 8 209 71 8 209 70 10
209 70 12 209 70 12 209 70 12 210 71 13 209 68 11 205 64 7 203 62 5
204 63 6 204 63 8 204 63 8 204 63 8 204 63 8 204 63 8 204 63 8
204 63 8 205 64 9 205 64 9 205 64 9 205 64 11 204 63 10 206 62 10
209 60 8 209 61 6 206 63 2 200 65 0 216 91 19 211 91 18 209 89 16
209 89 16 209 89 16 209 88 18 210 90 19 210 90 19 210 90 19 210 90 19
205 68 10 205 68 10 205 68 10 205 68 10 205 68 10 205 68 10 205 68 10
205 69 8 210 77 13 207 79 11 223 105 31 221 108 32 220 110 31
220 110 29 223 109 27 222 110 27 214 114 27 211 116 27 212 114 29
206 118 29 249 180 85 244 183 85 246 182 85 246 182 85 246 182 83
244 183 83 241 185 83 241 185 83 244 183 83 248 179 82 215 134 41
216 131 39 222 136 44 222 136 44 222 136 44 222 136 44 220 135 43
220 135 43 220 135 43 228 130 47 199 76 8 207 71 12 207 71 12
207 71 12 209 70 12 209 70 12 209 70 12 209 70 12 207 69 11 206 68 10
205 68 10 203 67 9 203 67 9 203 67 9 203 68 6 203 68 6 203 68 6
203 68 6 203 68 4 203 68 4 205 69 8 205 69 8 205 69 8 205 69 8
205 69 8 205 69 8 205 69 8 205 69 8 203 67 9 201 65 6 210 74 15
207 73 11 209 76 9 207 77 7 207 77 7 207 77 7 206 78 7 206 78 7
206 78 7 206 78 7 215 90 16 215 90 16 215 90 16 215 90 16 213 91 16
213 91 16 213 91 16 212 90 15 216 94 19 214 92 17 212 90 15 211 88 14
211 88 14 211 88 14 212 88 14 212 88 14 213 89 15 213 89 15 213 89 15
212 90 15 219 100 24 219 100 24 218 101 24 218 101 24 217 99 23
217 99 23 215 100 23 215 100 23 223 105 29 219 100 24 213 86 12
210 80 8 213 83 13 213 83 13 213 83 13 213 83 13 213 83 13 213 83 13
213 83 13 213 83 15 205 73 6 207 72 6 207 72 6 207 72 8 207 72 8
207 71 10 207 71 10 207 71 10 203 68 6 210 72 11 204 66 5 207 69 9
204 66 5 204 65 7 204 65 7 204 65 7 204 65 7 204 65 7 204 65 7
203 64 6 203 64 6 202 63 5 202 63 5 202 63 7 204 65 9 205 64 9
209 63 7 209 63 5 210 70 6 200 67 0 211 88 14 202 84 8 207 90 14
207 90 14 207 90 14 207 90 16 209 91 17 209 91 17 209 91 17 209 91 17
205 68 10 205 68 10 205 68 10 205 68 10 205 68 10 205 68 10 205 68 10
205 68 10 209 70 10 210 77 13 225 100 30 227 109 35 222 107 30
224 106 30 227 105 28 224 107 26 214 112 26 211 114 26 213 112 28
208 115 28 250 174 81 245 177 81 249 175 81 250 174 81 250 175 79
249 175 79 244 178 79 244 178 79 247 176 79 253 173 79 224 132 42
227 132 43 228 135 46 228 135 46 228 135 46 228 135 46 226 134 44
226 134 44 226 134 44 233 130 48 198 73 6 205 68 10 205 68 10
205 68 10 206 68 10 206 68 10 206 68 10 205 66 9 205 66 9 205 66 9
206 70 11 206 70 11 203 67 9 202 66 7 202 66 5 202 66 5 202 66 5
202 66 5 202 67 3 202 67 3 203 68 6 203 68 6 203 68 6 203 68 6
202 68 6 202 68 6 202 68 6 202 68 6 201 67 7 198 65 5 208 74 14
205 72 10 210 79 12 210 80 10 210 80 10 210 80 10 208 81 10 208 81 10
208 81 10 208 81 10 216 91 17 216 91 17 216 91 17 216 91 17 214 92 17
214 92 17 214 92 17 215 93 18 215 93 18 215 93 18 213 91 16 211 88 14
211 88 14 211 88 14 212 88 14 212 88 14 213 89 15 213 89 15 213 89 15
213 89 15 222 100 25 221 101 25 219 102 25 219 102 25 218 101 24
218 101 24 216 101 24 216 101 24 218 101 24 217 97 22 213 86 12
211 81 9 213 83 13 213 83 13 213 83 13 213 83 13 213 83 13 213 83 13
213 83 13 213 83 13 205 75 5 205 75 7 205 75 7 205 75 7 205 75 7
205 75 7 205 75 7 205 75 7 203 72 5 207 74 7 198 66 0 202 69 2
200 67 2 200 67 2 200 67 2 200 67 2 200 67 2 201 65 4 202 66 5
202 66 5 202 66 5 202 66 5 203 68 6 203 67 9 205 68 10 206 68 10
209 66 8 209 67 6 204 67 0 196 66 0 210 91 13 203 89 9 207 92 13
207 92 13 207 92 13 207 92 15 208 93 16 208 93 16 208 93 16 208 93 16
205 68 10 205 68 10 205 68 10 205 68 10 205 68 10 205 68 10 205 68 10
206 68 10 211 68 9 209 67 6 208 75 8 204 77 6 206 82 8 206 82 8
210 81 6 208 82 4 202 85 4 200 86 4 203 84 6 200 85 6 216 118 32
212 120 32 216 118 32 217 117 32 216 118 30 214 119 30 211 121 30
211 121 30 213 118 29 223 118 33 199 83 1 204 85 5 198 87 4 197 87 4
197 87 4 197 87 4 197 86 3 197 86 3 199 84 5 202 82 7 196 68 2
200 66 4 201 65 6 201 65 6 203 64 6 203 64 6 203 64 6 203 64 6
200 62 4 204 65 7 207 71 12 210 74 15 213 77 16 213 77 16 211 78 16
211 78 14 211 78 14 211 78 14 211 78 14 211 78 14 212 79 17 212 79 17
212 79 17 212 79 17 212 79 15 211 80 15 211 80 15 211 80 17 210 78 18
207 76 15 217 85 25 214 83 20 212 82 14 212 82 12 212 82 12 212 82 12
210 83 12 210 83 12 210 83 12 210 83 12 218 93 19 218 93 19 216 94 19
216 94 19 216 94 19 216 94 19 216 94 19 216 94 19 216 94 19 215 93 18
213 91 16 211 88 14 211 88 14 211 88 14 212 88 14 212 88 14 213 89 15
213 89 15 213 89 15 213 89 15 211 88 14 209 89 14 207 90 14 207 90 14
206 89 12 206 89 12 205 90 12 205 90 12 213 96 19 214 94 18 213 86 12
212 83 10 211 84 13 211 84 13 211 84 13 211 84 13 211 84 13 211 84 13
211 84 13 211 84 13 219 96 24 219 96 24 219 96 24 219 96 24 219 96 24
219 96 24 219 96 24 219 96 24 216 94 19 219 95 21 209 84 10 210 85 11
210 85 11 210 85 11 210 85 11 211 84 13 213 83 15 215 82 17 215 82 17
215 82 17 209 76 11 209 76 11 209 76 11 209 75 13 208 74 12 209 73 12
212 72 10 212 73 8 216 82 11 211 85 9 230 113 32 226 115 32
225 113 30 225 113 30 225 113 30 225 113 32 226 114 34 226 114 34
226 114 34 226 114 34 205 68 10 205 68 10 205 68 10 205 68 10
205 68 10 205 68 10 205 68 10 206 68 8 208 62 2 208 66 2 216 78 13
210 78 9 207 77 7 207 78 5 209 77 3 207 78 3 204 80 1 204 80 3
206 79 3 204 80 3 220 110 29 217 112 29 220 110 29 220 110 29
220 111 27 219 112 27 215 113 27 215 113 27 216 109 25 227 113 30
207 81 3 217 86 10 208 84 5 206 85 5 206 85 5 206 85 5 206 83 4
206 82 6 208 81 6 210 80 8 196 63 0 198 62 1 198 61 3 199 61 3
199 61 3 199 61 3 199 61 3 199 61 3 197 58 0 202 63 5 209 73 14
214 78 19 212 76 15 212 76 15 210 77 13 210 77 13 210 77 13 210 77 13
210 77 13 210 77 13 211 78 14 211 78 16 211 78 16 211 78 14 210 79 14
210 79 14 210 79 14 210 79 14 208 77 15 206 75 12 215 84 22 213 83 17
213 83 15 213 83 13 213 83 13 211 84 13 211 84 13 211 84 13 211 84 13
210 85 13 219 95 21 219 95 21 218 95 21 218 95 21 218 95 21 218 95 21
218 95 21 219 97 22 218 95 21 215 93 18 213 91 16 212 90 15 212 90 15
212 90 15 213 89 15 213 89 15 213 89 15 213 89 15 213 89 15 213 89 15
212 90 15 212 90 15 210 90 15 210 90 15 209 89 14 209 89 14 207 90 14
207 90 14 210 90 15 212 90 15 211 85 11 212 83 10 211 84 13 211 84 13
211 84 13 211 84 13 211 84 13 211 84 13 211 84 13 210 85 13 218 99 23
217 99 23 217 99 23 217 99 23 218 99 23 218 99 23 218 99 23 218 99 23
217 98 20 217 98 20 204 85 7 205 83 6 209 85 8 209 85 8 207 85 8
209 84 10 210 83 12 212 82 14 212 82 14 211 81 13 211 81 13 210 79 12
210 79 14 210 79 14 210 79 16 211 78 14 214 77 12 214 77 10 212 77 7
209 83 5 229 115 31 228 119 33 224 115 28 224 115 28 224 114 30
224 114 30 225 115 32 225 115 32 225 115 32 225 115 32 205 68 10
205 68 10 205 68 10 205 68 10 205 68 10 205 68 10 206 68 10 206 68 8
204 64 2 207 67 2 214 79 13 210 77 11 208 79 9 208 79 9 208 79 9
208 79 7 207 80 5 205 81 5 207 80 7 204 81 7 228 113 36 225 115 36
225 115 34 225 115 34 225 115 34 223 116 34 218 119 32 218 119 32
224 119 36 224 110 30 211 85 9 210 79 5 213 84 7 211 85 7 211 85 7
211 85 7 212 83 8 212 83 8 213 82 10 213 81 12 198 62 0 198 62 1
199 61 1 199 61 1 201 60 3 201 60 3 201 60 3 201 60 3 198 59 2
200 62 4 212 74 13 213 77 16 213 77 16 211 78 14 211 78 14 210 79 12
210 79 14 210 79 14 211 78 14 211 78 14 211 78 14 211 78 14 211 78 14
211 78 14 210 79 14 210 79 14 210 79 14 210 79 14 211 81 13 211 81 13
212 82 14 212 82 14 211 84 13 211 84 13 211 84 13 210 85 13 210 85 11
210 85 11 210 85 11 208 86 11 218 95 21 218 96 19 218 96 19 218 96 19
216 97 19 216 97 19 216 97 19 216 97 19 216 97 19 214 94 16 213 91 14
212 90 13 213 89 15 213 89 15 213 89 15 213 89 15 213 89 15 213 89 15
213 89 15 213 89 15 213 89 15 213 89 15 213 89 15 213 89 15 213 89 15
213 89 15 213 89 15 213 89 15 213 89 15 212 88 14 213 86 12 211 85 11
211 84 13 211 84 13 211 84 13 211 84 13 211 84 13 211 84 13 210 85 11
210 85 11 220 98 23 218 99 23 218 99 21 218 99 21 218 99 21 218 99 21
218 99 21 218 99 21 218 101 24 218 101 24 208 86 11 210 83 10
212 83 10 210 83 10 209 84 10 209 84 10 210 83 12 210 83 12 210 83 12
210 83 12 207 79 9 207 79 11 207 79 11 207 79 13 208 80 14 210 79 14
213 78 12 214 77 10 207 75 1 204 80 1 226 112 27 223 117 28
223 117 28 223 117 30 223 117 30 223 117 30 223 117 30 223 117 30
223 117 30 223 117 30 205 68 10 205 68 10 205 68 10 205 68 10
205 68 10 205 68 10 206 68 10 206 68 8 203 65 2 205 68 2 214 79 13
212 77 11 210 78 9 208 79 9 208 78 11 208 79 9 207 80 7 207 80 5
205 81 7 204 81 7 230 112 36 226 114 36 225 115 34 223 116 34
225 115 34 223 116 34 218 119 32 218 119 32 224 119 36 224 110 30
211 85 9 210 79 5 213 84 7 213 84 7 213 84 7 213 84 7 213 82 8
213 82 10 215 81 10 215 80 12 198 62 0 199 61 1 199 61 1 199 61 1
201 60 3 201 60 3 201 60 3 201 60 3 198 59 2 199 61 3 213 75 15
214 76 16 213 77 14 211 78 14 210 79 12 210 79 12 210 79 14 210 79 14
211 78 14 211 78 14 211 79 12 211 79 12 211 79 12 211 79 12 210 79 14
210 79 14 210 79 14 210 79 12 211 81 11 211 81 11 212 82 12 212 82 12
210 83 12 210 83 12 210 85 13 210 85 13 210 85 11 210 85 11 208 86 11
208 86 11 218 96 19 218 96 19 218 96 19 218 96 19 216 97 19 216 97 19
216 97 19 216 97 19 216 97 19 214 94 16 213 91 14 212 90 13 213 89 15
213 89 15 213 89 15 213 89 15 213 89 15 213 89 15 213 89 15 213 89 15
215 88 15 215 88 15 215 88 15 215 88 15 215 88 15 215 88 15 215 88 15
215 88 15 215 88 15 214 87 14 213 86 12 211 85 11 211 84 13 211 84 13
211 84 13 211 84 13 211 84 13 211 84 13 210 85 11 210 85 11 220 98 23
220 98 23 218 99 21 218 99 21 218 99 21 218 99 21 218 99 21 218 99 21
218 101 24 218 101 24 210 85 11 212 83 10 213 82 10 212 83 10
210 83 10 209 84 10 210 83 12 210 83 12 210 83 12 210 83 12 207 79 9
207 79 9 207 79 11 207 79 11 208 80 14 210 79 14 213 78 12 213 79 8
207 75 1 204 80 1 224 113 27 223 117 28 223 117 28 223 117 28
223 117 30 223 117 30 223 117 30 223 117 30 223 117 30 223 117 30
205 68 10 205 68 10 205 68 10 205 68 10 205 68 10 205 68 10 206 68 10
206 68 8 203 65 2 205 68 2 214 79 13 212 77 11 210 78 9 208 79 9
208 78 11 208 79 9 207 80 7 207 80 7 205 81 7 204 81 7 230 112 36
226 114 36 225 115 34 223 116 34 225 115 34 223 116 34 218 119 32
218 119 32 224 119 36 224 110 30 211 85 9 210 79 5 213 84 7 213 84 7
213 84 7 213 84 7 213 82 8 213 82 10 215 80 12 215 80 12 199 61 0
199 61 0 201 60 1 201 60 1 201 60 3 201 60 3 201 60 3 201 60 3
198 59 2 199 61 3 213 75 15 214 76 16 213 77 14 211 79 12 210 79 12
208 80 12 208 80 12 210 79 12 210 79 14 210 79 14 210 79 12 210 79 12
210 79 12 210 79 12 210 79 12 210 79 12 210 79 12 210 79 12 211 81 11
211 81 11 212 82 12 212 82 12 210 83 12 210 83 12 210 85 13 210 85 13
210 85 11 210 85 11 208 86 11 208 86 11 218 96 19 218 96 19 216 97 19
216 97 19 216 97 19 216 97 19 216 97 19 216 97 19 216 97 19 214 94 16
213 91 14 212 90 13 213 89 15 213 89 15 213 89 15 213 89 15 213 89 15
213 89 15 213 89 15 213 89 15 215 88 15 215 88 15 215 88 15 215 88 15
215 88 15 215 88 15 215 88 15 215 88 15 215 88 15 214 87 14 213 86 12
211 85 11 210 85 13 210 85 13 210 85 13 210 85 13 210 85 13 210 85 13
210 85 11 208 86 11 220 98 23 220 98 23 218 99 21 218 99 21 218 99 21
218 99 21 218 99 21 218 99 21 218 101 24 218 101 24 210 85 11
212 83 10 213 82 10 212 83 10 210 83 10 209 84 10 210 83 12 210 83 12
210 83 12 210 83 12 207 79 9 207 79 9 207 79 11 207 79 11 208 80 14
210 79 14 213 78 12 213 79 8 207 75 1 204 80 1 224 113 27 223 117 28
223 117 28 223 117 28 223 117 30 223 117 30 223 117 30 223 117 30
223 117 30 223 117 30 205 68 10 205 68 10 205 68 10 205 68 10
205 68 10 205 68 10 206 68 10 206 68 8 203 65 2 205 68 2 214 79 13
212 77 11 210 78 9 208 79 9 208 78 11 208 78 11 207 79 9 207 80 7
205 81 7 204 81 7 230 112 36 226 114 36 225 115 36 223 116 34
225 115 34 223 116 34 218 119 32 218 119 32 224 119 36 224 110 30
211 85 9 210 79 5 212 83 6 212 83 6 212 83 6 212 83 8 213 82 10
213 81 12 215 80 12 215 80 14 199 61 0 199 61 0 201 60 1 201 60 1
201 60 3 201 60 3 201 60 3 201 60 3 200 59 2 199 61 3 213 75 15
214 76 16 213 77 14 211 79 12 210 80 10 208 81 10 208 80 12 208 80 12
210 79 14 210 79 14 210 79 12 210 79 12 210 79 12 210 79 12 210 79 12
210 79 12 210 79 12 210 79 12 211 81 11 211 81 11 212 82 12 212 82 12
210 83 12 210 83 12 210 85 13 210 85 13 210 85 11 210 85 11 208 86 11
208 86 11 218 96 19 218 96 19 216 97 19 216 97 19 216 97 19 216 97 19
216 97 19 216 97 19 216 97 19 214 94 16 213 91 14 212 90 13 213 89 15
213 89 15 213 89 15 213 89 15 213 89 15 213 89 15 213 89 15 213 89 15
215 88 15 215 88 15 215 88 15 215 88 15 215 88 15 215 88 15 215 88 15
215 88 15 215 88 15 214 87 14 213 86 12 211 85 11 210 85 13 210 85 13
210 85 13 210 85 13 210 85 13 210 85 13 208 86 11 208 86 11 220 98 23
220 98 23 218 99 21 218 99 21 218 99 21 218 99 21 218 99 21 218 99 21
218 101 24 218 101 24 210 85 11 212 83 10 213 82 10 212 83 10
210 83 10 209 84 10 210 83 12 210 83 12 210 83 12 210 83 12 207 79 9
207 79 9 207 79 11 207 79 11 208 80 14 210 79 14 213 78 12 213 79 8
207 75 1 204 80 1 224 113 27 223 117 28 223 117 28 223 117 28
223 117 30 223 117 30 223 117 30 223 117 30 223 117 30 223 117 30
205 68 12 205 68 12 205 68 12 205 68 12 205 68 12 205 68 12 206 67 12
206 68 10 203 65 2 205 68 2 214 79 13 212 77 11 210 77 11 208 78 11
208 78 11 208 78 11 207 79 9 207 79 9 205 80 9 204 81 9 230 112 38
226 113 38 225 115 36 223 115 36 225 115 34 223 116 34 218 119 32
218 119 32 224 119 36 224 110 30 211 85 9 210 79 5 212 83 8 212 83 8
212 83 8 212 83 8 213 82 10 213 81 12 215 80 14 215 80 14 199 61 0
199 61 0 201 60 1 201 60 1 202 59 3 202 59 3 202 59 3 202 59 3
201 58 2 201 60 3 213 75 15 214 76 16 213 77 14 211 79 12 210 80 10
208 81 10 208 80 12 208 80 12 210 79 14 210 79 14 210 79 12 210 79 12
210 79 12 210 79 12 210 79 12 210 79 12 210 79 12 210 79 12 211 81 11
211 81 11 211 81 11 211 81 11 210 83 12 210 83 12 209 84 12 209 84 12
209 84 10 209 84 10 207 85 10 207 85 10 218 96 19 218 96 19 216 97 19
216 97 19 216 97 19 216 97 19 216 97 19 216 97 19 215 95 17 214 94 16
213 91 14 211 89 12 212 88 14 213 89 15 213 89 15 213 89 15 213 89 15
213 89 15 213 89 15 213 89 15 215 88 15 215 88 15 215 88 15 215 88 15
215 88 15 215 88 15 215 88 15 215 88 15 215 88 15 214 87 14 213 86 12
211 85 11 210 85 13 210 85 13 210 85 13 210 85 13 210 85 13 210 85 13
208 86 11 208 86 11 220 98 23 220 98 23 218 99 21 218 99 21 218 99 21
218 99 21 218 99 21 218 99 21 218 101 24 218 101 24 210 85 11
212 83 10 213 82 10 212 83 10 210 83 10 209 84 10 210 83 12 210 83 12
210 83 12 210 83 12 207 79 9 207 79 9 207 79 11 207 79 11 208 80 14
210 79 14 213 78 12 213 79 8 207 75 1 204 80 1 224 113 27 223 117 28
223 117 28 223 117 28 223 117 30 223 117 30 223 117 30 223 117 30
223 117 30 223 117 30 205 68 12 205 68 12 205 68 12 205 68 12
205 68 12 205 68 12 206 67 12 206 68 10 203 65 2 205 68 2 214 79 13
212 77 11 210 77 11 208 78 11 208 78 11 208 78 11 207 79 9 207 79 9
205 80 9 204 81 9 230 112 38 226 113 38 225 115 36 223 115 36
225 115 34 223 116 34 218 119 32 218 119 32 224 119 36 224 110 30
211 85 9 210 79 5 211 82 7 211 82 7 211 82 7 211 81 9 213 81 12
213 81 12 215 80 14 215 80 14 199 61 0 199 61 0 201 60 1 201 60 1
202 59 3 202 59 3 202 59 3 202 59 3 201 58 2 202 59 3 215 74 15
214 76 16 213 77 14 211 79 12 210 80 10 208 81 10 208 80 12 208 80 12
210 79 14 210 79 14 210 79 12 210 79 12 210 79 12 210 79 12 210 79 12
210 79 12 210 79 12 210 79 12 211 81 11 211 81 11 211 81 11 211 81 11
210 83 12 210 83 12 209 84 12 209 84 12 209 84 10 209 84 10 207 85 10
207 85 10 218 96 19 218 96 19 216 97 19 216 97 19 216 97 19 216 97 19
216 97 19 216 97 19 215 95 17 214 94 16 213 91 14 211 89 12 212 88 14
213 89 15 213 89 15 213 89 15 213 89 15 213 89 15 213 89 15 213 89 15
215 88 15 215 88 15 215 88 15 215 88 15 215 88 15 215 88 15 215 88 15
215 88 15 215 88 15 214 87 14 213 86 12 211 85 11 210 85 13 210 85 13
210 85 13 210 85 13 210 85 13 210 85 13 208 86 11 208 86 11 220 98 23
220 98 23 218 99 21 218 99 21 218 99 21 218 99 21 218 99 21 218 99 21
218 101 24 218 101 24 210 85 11 212 83 10 213 82 10 212 83 10
210 83 10 209 84 10 210 83 12 210 83 12 210 83 12 210 83 12 207 79 9
207 79 9 207 79 11 207 79 11 208 80 14 210 79 14 213 78 12 213 79 8
207 75 1 204 80 1 224 113 27 223 117 28 223 117 28 223 117 28
223 117 30 223 117 30 223 117 30 223 117 30 223 117 30 223 117 30
205 68 12 205 68 12 205 68 12 205 68 12 205 68 12 205 68 12 206 67 12
206 68 10 203 65 2 205 68 2 214 79 13 212 77 11 210 77 11 208 78 11
208 78 11 208 78 11 207 79 9 207 79 9 205 80 9 204 81 9 230 112 38
226 113 38 225 115 36 223 115 36 225 115 34 223 116 34 218 119 32
218 119 32 224 119 36 224 110 30 211 85 9 210 79 5 211 82 7 211 82 7
211 82 7 211 81 9 213 81 12 213 81 12 215 80 14 215 80 14 199 61 0
199 61 0 201 60 1 201 60 1 202 59 3 202 59 3 202 59 3 202 59 3
201 58 2 202 59 3 215 74 15 214 76 16 213 77 14 211 79 12 210 80 10
208 81 10 208 80 12 208 80 12 210 79 14 210 79 14 210 79 12 210 79 12
210 79 12 210 79 12 210 79 12 210 79 12 210 79 12 210 79 12 211 81 11
211 81 11 211 81 11 211 81 11 210 83 12 210 83 12 209 84 12 209 84 12
209 84 10 209 84 10 207 85 10 207 85 10 218 96 19 218 96 19 216 97 19
216 97 19 216 97 19 216 97 19 216 97 19 216 97 19 215 95 17 214 94 16
213 91 14 211 89 12 212 88 14 213 89 15 213 89 15 213 89 15 213 89 15
213 89 15 213 89 15 213 89 15 215 88 15 215 88 15 215 88 15 215 88 15
215 88 15 215 88 15 215 88 15 215 88 15 215 88 15 214 87 14 213 86 12
211 85 11 210 85 13 210 85 13 210 85 13 210 85 13 210 85 13 210 85 13
208 86 11 208 86 11 220 98 23 220 98 23 218 99 21 218 99 21 218 99 21
218 99 21 218 99 21 218 99 21 218 101 24 218 101 24 210 85 11
212 83 10 213 82 10 212 83 10 210 83 10 209 84 10 210 83 12 210 83 12
210 83 12 210 83 12 207 79 9 207 79 9 207 79 11 207 79 11 208 80 14
210 79 14 213 78 12 213 79 8 207 75 1 204 80 1 224 113 27 223 117 28
223 117 28 223 117 28 223 117 30 223 117 30 223 117 30 223 117 30
223 117 30 223 117 30 205 68 12 205 68 12 205 68 12 205 68 12
205 68 12 205 68 12 206 67 12 206 68 10 203 65 2 205 68 2 214 79 13
212 77 11 210 77 11 208 78 11 208 78 11 208 78 11 207 79 9 207 79 9
205 80 9 204 81 9 230 112 38 226 113 38 225 115 36 223 115 36
225 115 34 223 116 34 218 119 32 218 119 32 224 119 36 224 110 30
211 85 9 210 79 5 211 82 7 211 82 7 211 82 7 211 81 9 213 81 12
213 81 12 215 80 14 215 80 14 199 61 0 199 61 0 201 60 1 201 60 1
202 59 3 202 59 3 202 59 3 202 59 3 201 58 2 202 59 3 215 74 15
214 76 16 213 77 14 211 79 12 210 80 10 208 81 10 208 80 12 208 80 12
210 79 14 210 79 14 210 79 12 210 79 12 210 79 12 210 79 12 210 79 12
210 79 12 210 79 12 210 79 12 211 81 11 211 81 11 211 81 11 211 81 11
210 83 12 210 83 12 209 84 12 209 84 12 209 84 10 209 84 10 207 85 10
207 85 10 218 96 19 218 96 19 216 97 19 216 97 19 216 97 19 216 97 19
216 97 19 216 97 19 215 95 17 214 94 16 213 91 14 211 89 12 212 88 14
213 89 15 213 89 15 213 89 15 213 89 15 213 89 15 213 89 15 213 89 15
215 88 15 215 88 15 215 88 15 215 88 15 215 88 15 215 88 15 215 88 15
215 88 15 215 88 15 214 87 14 213 86 12 211 85 11 210 85 13 210 85 13
210 85 13 210 85 13 210 85 13 210 85 13 208 86 11 208 86 11 220 98 23
220 98 23 218 99 21 218 99 21 218 99 21 218 99 21 218 99 21 218 99 21
218 101 24 218 101 24 210 85 11 212 83 10 213 82 10 212 83 10
210 83 10 209 84 10 210 83 12 210 83 12 210 83 12 210 83 12 207 79 9
207 79 9 207 79 11 207 79 11 208 80 14 210 79 14 213 78 12 213 79 8
207 75 1 204 80 1 224 113 27 223 117 28 223 117 28 223 117 28
223 117 30 223 117 30 223 117 30 223 117 30 223 117 30 223 117 30
