P3
160 160
255
0 0 0 0 0 0 0 0 0 0 0 0 0 0 0 0 0 0 0 0 0 0 0 0 0 0 0 0 0 0 0 0 0
0 0 0 0 0 0 0 0 0 0 0 0 0 0 0 0 0 0 0 0 0 0 0 0 0 0 0 0 0 0 0 0 0
0 0 0 0 0 0 0 0 0 0 0 0 0 0 0 0 0 0 0 0 0 0 0 0 0 0 0 0 0 0 0 0 0
0 0 0 0 0 0 0 0 0 0 0 0 0 0 0 0 0 0 0 0 0 0 0 0 0 0 0 0 0 0 0 0 0
0 0 0 0 0 0 0 0 0 0 0 0 0 0 0 0 0 0 0 0 0 0 0 0 0 0 0 0 0 0 0 0 0
0 0 0 0 0 0 0 0 0 0 0 0 0 0 0 0 0 0 0 0 0 0 0 0 0 0 0 0 0 0 0 0 0
0 0 0 0 0 0 0 0 0 0 0 0 0 0 0 0 0 0 0 0 0 0 0 0 0 0 0 0 0 0 0 0 0
0 0 0 0 0 0 0 0 0 0 0 0 0 0 0 0 0 0 0 0 0 0 0 0 0 0 0 0 0 0 0 0 0
0 0 0 0 0 0 0 0 0 0 0 0 0 0 0 0 0 0 0 0 0 0 0 0 0 0 0 0 0 0 0 0 0
0 0 0 0 0 0 0 0 0 0 0 0 0 0 0 0 0 0 0 0 0 0 0 0 0 0 0 0 0 0 0 0 0
0 0 0 0 0 0 0 0 0 0 0 0 0 0 0 0 0 0 0 0 0 0 0 0 0 0 0 0 0 0 0 0 0
0 0 0 0 0 0 0 0 0 0 0 0 0 0 0 0 0 0 0 0 0 0 0 0 0 0 0 0 0 0 0 0 0
0 0 0 0 0 0 0 0 0 0 0 0 0 0 0 0 0 0 0 0 0 0 0 0 0 0 0 0 0 0 0 0 0
0 0 0 0 0 0 0 0 0 0 0 0 0 0 0 0 0 0 0 0 0 0 0 0 0 0 0 0 0 0 0 0 0
0 0 0 0 0 0 0 0 0 0 0 0 0 0 0 0 0 0 0 0 0 0 0 0 0 0 0 0 0 0 0 0 0
0 0 0 0 0 0 0 0 0 0 0 0 0 0 0 0 0 0 0 0 0 0 0 0 0 0 0 0 0 0 0 0 0
0 0 0 0 0 0 0 0 0 0 0 0 0 0 0 0 0 0 0 0 0 0 0 0 0 0 0 0 0 0 0 0 0
0 0 0 0 0 0 0 0 0 0 0 0 0 0 0 0 0 0 0 0 0 0 0 0 0 0 0 0 0 0 0 0 0
0 0 0 0 0 0 0 0 0 0 0 0 0 0 0 0 0 0 0 0 0 0 0 0 0 0 0 0 0 0 0 0 0
0 0 0 0 0 0 0 0 0 0 0 0 0 0 0 0 0 0 0 0 0 0 0 0 0 0 0 0 0 0 0 0 0
0 0 0 0 0 0 0 0 0 0 0 0 0 0 0 0 0 0 0 0 0 0 0 0 0 0 0 0 0 0 0 0 0
0 0 0 0 0 0 0 0 0 0 0 0 0 0 0 0 0 0 0 0 0 0 0 0 0 0 0 0 0 0 0 0 0
0 0 0 0 0 0 0 0 0 0 0 0 0 0 0 0 0 0 0 0 0 0 0 0 0 0 0 0 0 0 0 0 0
0 0 0 0 0 0 0 0 0 0 0 0 0 0 0 0 0 0 0 0 0 0 0 0 0 0 0 0 0 0 0 0 0
0 0 0 0 0 0 0 0 0 0 0 0 0 0 0 0 0 0 0 0 0 0 0 0 0 0 0 0 0 0 0 0 0
0 0 0 0 0 0 0 0 0 0 0 0 0 0 0 0 0 0 0 0 0 0 0 0 0 0 0 0 0 0 0 0 0
0 0 0 0 0 0 0 0 0 0 0 0 0 0 0 0 0 0 0 0 0 0 0 0 0 0 0 0 0 0 0 0 0
0 0 0 0 0 0 0 0 0 0 0 0 0 0 0 0 0 0 0 0 0 0 0 0 0 0 0 0 0 0 0 0 0
0 0 0 0 0 0 0 0 0 0 0 0 0 0 0 0 0 0 0 0 0 0 0 0 0 0 0 0 0 0 0 0 0
0 0 0 0 0 0 0 0 0 0 0 0 0 0 0 0 0 0 0 0 0 0 0 0 0 0 0 0 0 0 0 0 0
0 0 0 0 0 0 0 0 0 0 0 0 0 0 0 0 0 0 0 0 0 0 0 0 0 0 0 0 0 0 0 0 0
0 0 0 0 0 0 0 0 0 0 0 0 0 0 0 0 0 0 0 0 0 0 0 0 0 0 0 0 0 0 0 0 0
0 0 0 0 0 0 0 0 0 0 0 0 0 0 0 0 0 0 0 0 0 0 0 0 0 0 0 0 0 0 0 0 0
0 0 0 0 0 0 0 0 0 0 0 0 0 0 0 0 0 0 0 0 0 0 0 0 0 0 0 0 0 0 0 0 0
0 0 0 0 0 0 0 0 0 0 0 0 0 0 0 0 0 0 0 0 0 0 0 0 0 0 0 0 0 0 0 0 0
0 0 0 0 0 0 0 0 0 0 0 0 0 0 0 0 0 0 0 0 0 0 0 0 0 0 0 0 0 0 0 0 0
0 0 0 0 0 0 0 0 0 0 0 0 0 0 0 0 0 0 0 0 0 0 0 0 0 0 0 0 0 0 0 0 0
0 0 0 0 0 0 0 0 0 0 0 0 0 0 0 0 0 0 0 0 0 0 0 0 0 0 0 0 0 0 0 0 0
0 0 0 0 0 0 0 0 0 0 0 0 0 0 0 0 0 0 0 0 0 0 0 0 0 0 0 0 0 0 0 0 0
0 0 0 0 0 0 0 0 0 0 0 0 0 0 0 0 0 0 0 0 0 0 0 0 0 0 0 0 0 0 0 0 0
0 0 0 0 0 0 0 0 0 0 0 0 0 0 0 0 0 0 0 0 0 0 0 0 0 0 0 0 0 0 0 0 0
0 0 0 0 0 0 0 0 0 0 0 0 0 0 0 0 0 0 0 0 0 0 0 0 0 0 0 0 0 0 0 0 0
0 0 0 0 0 0 0 0 0 0 0 0 0 0 0 0 0 0 0 0 0 0 0 0 0 0 0 0 0 0 0 0 0
0 0 0 0 0 0 0 0 0 0 0 0 0 0 0 0 0 0 0 0 0 0 0 0 0 0 0 0 0 0 0 0 0
0 0 0 0 0 0 0 0 0 0 0 0 0 0 0 0 0 0 0 0 0 0 0 0 0 0 0 0 0 0 0 0 0
0 0 0 0 0 0 0 0 0 0 0 0 0 0 0 0 0 0 0 0 0 0 0 0 0 0 0 0 0 0 0 0 0
0 0 0 0 0 0 0 0 0 0 0 0 0 0 0 0 0 0 0 0 0 0 0 0 0 0 0 0 0 0 0 0 0
0 0 0 0 0 0 0 0 0 0 0 0 0 0 0 0 0 0 0 0 0 0 0 0 0 0 0 0 0 0 0 0 0
0 0 0 0 0 0 0 0 0 0 0 0 0 0 0 0 0 0 0 0 0 0 0 0 0 0 0 0 0 0 0 0 0
0 0 0 0 0 0 0 0 0 0 0 0 0 0 0 0 0 0 0 0 0 0 0 0 0 0 0 0 0 0 0 0 0
0 0 0 0 0 0 0 0 0 0 0 0 0 0 0 0 0 0 0 0 0 0 0 0 0 0 0 0 0 0 0 0 0
0 0 0 0 0 0 0 0 0 0 0 0 0 0 0 0 0 0 0 0 0 0 0 0 0 0 0 0 0 0 0 0 0
0 0 0 0 0 0 0 0 0 0 0 0 0 0 0 0 0 0 0 0 0 0 0 0 0 0 0 0 0 0 0 0 0
0 0 0 0 0 0 0 0 0 0 0 0 0 0 0 0 0 0 0 0 0 0 0 0 0 0 0 0 0 0 0 0 0
0 0 0 0 0 0 0 0 0 0 0 0 0 0 0 0 0 0 0 0 0 0 0 0 0 0 0 0 0 0 0 0 0
0 0 0 0 0 0 0 0 0 0 0 0 0 0 0 0 0 0 0 0 0 0 0 0 0 0 0 0 0 0 0 0 0
0 0 0 0 0 0 0 0 0 0 0 0 0 0 0 0 0 0 0 0 0 0 0 0 0 0 0 0 0 0 0 0 0
0 0 0 0 0 0 0 0 0 0 0 0 0 0 0 0 0 0 0 0 0 0 0 0 0 0 0 0 0 0 0 0 0
0 0 0 0 0 0 0 0 0 0 0 0 0 0 0 0 0 0 0 0 0 0 0 0 0 0 0 0 0 0 0 0 0
0 0 0 0 0 0 0 0 0 0 0 0 0 0 0 0 0 0 0 0 0 0 0 0 0 0 0 0 0 0 0 0 0
0 0 0 0 0 0 0 0 0 0 0 0 0 0 0 0 0 0 0 0 0 0 0 0 0 0 0 0 0 0 0 0 0
0 0 0 0 0 0 0 0 0 0 0 0 0 0 0 0 0 0 0 0 0 0 0 0 0 0 0 0 0 0 0 0 0
0 0 0 0 0 0 0 0 0 0 0 0 0 0 0 0 0 0 0 0 0 0 0 0 0 0 0 0 0 0 0 0 0
0 0 0 0 0 0 0 0 0 0 0 0 0 0 0 0 0 0 0 0 0 0 0 0 0 0 0 0 0 0 0 0 0
0 0 0 0 0 0 0 0 0 0 0 0 0 0 0 0 0 0 0 0 0 0 0 0 0 0 0 0 0 0 0 0 0
0 0 0 0 0 0 0 0 0 0 0 0 0 0 0 0 0 0 0 0 0 0 0 0 0 0 0 0 0 0 0 0 0
0 0 0 0 0 0 0 0 0 0 0 0 0 0 0 0 0 0 0 0 0 0 0 0 0 0 0 0 0 0 0 0 0
0 0 0 0 0 0 0 0 0 0 0 0 0 0 0 0 0 0 0 0 0 0 0 0 0 0 0 0 0 0 0 0 0
0 0 0 0 0 0 0 0 0 0 0 0 0 0 0 0 0 0 0 0 0 0 0 0 0 0 0 0 0 0 0 0 0
0 0 0 0 0 0 0 0 0 0 0 0 0 0 0 0 0 0 0 0 0 0 0 0 0 0 0 0 0 0 0 0 0
0 0 0 0 0 0 0 0 0 0 0 0 0 0 0 0 0 0 0 0 0 0 0 0 0 0 0 0 0 0 0 0 0
0 0 0 0 0 0 0 0 0 0 0 0 0 0 0 0 0 0 0 0 0 0 0 0 0 0 0 0 0 0 0 0 0
0 0 0 0 0 0 0 0 0 0 0 0 0 0 0 0 0 0 0 0 0 0 0 0 0 0 0 0 0 0 0 0 0
0 0 0 0 0 0 0 0 0 0 0 0 0 0 0 0 0 0 0 0 0 0 0 0 0 0 0 0 0 0 0 0 0
0 0 0 0 0 0 0 0 0 0 0 0 0 0 0 0 0 0 0 0 0 0 0 0 0 0 0 0 0 0 0 0 0
0 0 0 0 0 0 0 0 0 0 0 0 0 0 0 0 0 0 0 0 0 0 0 0 0 0 0 0 0 0 0 0 0
0 0 0 0 0 0 0 0 0 0 0 0 0 0 0 0 0 0 0 0 0 0 0 0 0 0 0 0 0 0 0 0 0
0 0 0 0 0 0 0 0 0 0 0 0 0 0 0 0 0 0 0 0 0 0 0 0 0 0 0 0 0 0 0 0 0
0 0 0 0 0 0 0 0 0 0 0 0 0 0 0 0 0 0 0 0 0 0 0 0 0 0 0 0 0 0 0 0 0
0 0 0 0 0 0 0 0 0 0 0 0 0 0 0 0 0 0 0 0 0 0 0 0 0 0 0 0 0 0 0 0 0
0 0 0 0 0 0 0 0 0 0 0 0 0 0 0 0 0 0 0 0 0 0 0 0 0 0 0 0 0 0 0 0 0
0 0 0 0 0 0 0 0 0 0 0 0 0 0 0 0 0 0 0 0 0 0 0 0 0 0 0 0 0 0 0 0 0
0 0 0 0 0 0 0 0 0 0 0 0 0 0 0 0 0 0 0 0 0 0 0 0 0 0 0 0 0 0 0 0 0
0 0 0 0 0 0 0 0 0 0 0 0 0 0 0 0 0 0 0 0 0 0 0 0 0 0 0 0 0 0 0 0 0
0 0 0 0 0 0 0 0 0 0 0 0 0 0 0 0 0 0 0 0 0 0 0 0 0 0 0 0 0 0 0 0 0
0 0 0 0 0 0 0 0 0 0 0 0 0 0 0 0 0 0 0 0 0 0 0 0 0 0 0 0 0 0 0 0 0
0 0 0 0 0 0 0 0 0 0 0 0 0 0 0 0 0 0 0 0 0 0 0 0 0 0 0 0 0 0 0 0 0
0 0 0 0 0 0 0 0 0 0 0 0 0 0 0 0 0 0 0 0 0 0 0 0 0 0 0 0 0 0 0 0 0
0 0 0 0 0 0 0 0 0 0 0 0 0 0 0 0 0 0 0 0 0 0 0 0 0 0 0 0 0 0 0 0 0
0 0 0 0 0 0 0 0 0 0 0 0 0 0 0 0 0 0 0 0 0 0 0 0 0 0 0 0 0 0 0 0 0
0 0 0 0 0 0 0 0 0 0 0 0 0 0 0 0 0 0 0 0 0 0 0 0 0 0 0 0 0 0 0 0 0
0 0 0 0 0 0 0 0 0 0 0 0 0 0 0 0 0 0 0 0 0 0 0 0 0 0 0 0 0 0 0 0 0
0 0 0 0 0 0 0 0 0 0 0 0 0 0 0 0 0 0 0 0 0 0 0 0 0 0 0 0 0 0 0 0 0
0 0 0 0 0 0 0 0 0 0 0 0 0 0 0 0 0 0 0 0 0 0 0 0 0 0 0 0 0 0 0 0 0
0 0 0 0 0 0 0 0 0 0 0 0 0 0 0 0 0 0 0 0 0 0 0 0 0 0 0 0 0 0 0 0 0
0 0 0 0 0 0 0 0 0 0 0 0 0 0 0 0 0 0 0 0 0 0 0 0 0 0 0 0 0 0 0 0 0
0 0 0 0 0 0 0 0 0 0 0 0 0 0 0 0 0 0 0 0 0 0 0 0 0 0 0 0 0 0 0 0 0
0 0 0 0 0 0 0 0 0 0 0 0 0 0 0 0 0 0 0 0 0 0 0 0 0 0 0 0 0 0 0 0 0
0 0 0 0 0 0 0 0 0 0 0 0 0 0 0 0 0 0 0 0 0 0 0 0 0 0 0 0 0 0 0 0 0
0 0 0 0 0 0 0 0 0 0 0 0 0 0 0 0 0 0 0 0 0 0 0 0 0 0 0 0 0 0 0 0 0
0 0 0 0 0 0 0 0 0 0 0 0 0 0 0 0 0 0 0 0 0 0 0 0 0 0 0 0 0 0 0 0 0
0 0 0 0 0 0 0 0 0 0 0 0 0 0 0 0 0 0 0 0 0 0 0 0 0 0 0 0 0 0 0 0 0
0 0 0 0 0 0 0 0 0 0 0 0 0 0 0 0 0 0 0 0 0 0 0 0 0 0 0 0 0 0 0 0 0
0 0 0 0 0 0 0 0 0 0 0 0 0 0 0 0 0 0 0 0 0 0 0 0 0 0 0 0 0 0 0 0 0
0 0 0 0 0 0 0 0 0 0 0 0 0 0 0 0 0 0 0 0 0 0 0 0 0 0 0 0 0 0 0 0 0
0 0 0 0 0 0 0 0 0 0 0 0 0 0 0 0 0 0 0 0 0 0 0 0 0 0 0 0 0 0 0 0 0
0 0 0 0 0 0 0 0 0 0 0 0 0 0 0 0 0 0 0 0 0 0 0 0 0 0 0 0 0 0 0 0 0
0 0 0 0 0 0 0 0 0 0 0 0 0 0 0 0 0 0 0 0 0 0 0 0 0 0 0 0 0 0 0 0 0
0 0 0 0 0 0 0 0 0 0 0 0 0 0 0 0 0 0 0 0 0 0 0 0 0 0 0 0 0 0 0 0 0
0 0 0 0 0 0 0 0 0 0 0 0 0 0 0 0 0 0 0 0 0 0 0 0 0 0 0 0 0 0 0 0 0
0 0 0 0 0 0 0 0 0 0 0 0 0 0 0 0 0 0 0 0 0 0 0 0 0 0 0 0 0 0 0 0 0
0 0 0 0 0 0 0 0 0 0 0 0 0 0 0 0 0 0 0 0 0 0 0 0 0 0 0 0 0 0 0 0 0
0 0 0 0 0 0 0 0 0 0 0 0 0 0 0 0 0 0 0 0 0 0 0 0 0 0 0 0 0 0 0 0 0
0 0 0 0 0 0 0 0 0 0 0 0 0 0 0 0 0 0 0 0 0 0 0 0 0 0 0 0 0 0 0 0 0
0 0 0 0 0 0 0 0 0 0 0 0 0 0 0 0 0 0 0 0 0 0 0 0 0 0 0 0 0 0 0 0 0
0 0 0 0 0 0 0 0 0 0 0 0 0 0 0 0 0 0 0 0 0 0 0 0 0 0 0 0 0 0 0 0 0
0 0 0 0 0 0 0 0 0 0 0 0 0 0 0 0 0 0 0 0 0 0 0 0 0 0 0 0 0 0 0 0 0
0 0 0 0 0 0 0 0 0 0 0 0 0 0 0 0 0 0 0 0 0 0 0 0 0 0 0 0 0 0 0 0 0
0 0 0 0 0 0 0 0 0 0 0 0 0 0 0 0 0 0 0 0 0 0 0 0 0 0 0 0 0 0 0 0 0
0 0 0 0 0 0 0 0 0 0 0 0 0 0 0 0 0 0 0 0 0 0 0 0 0 0 0 0 0 0 0 0 0
0 0 0 0 0 0 0 0 0 0 0 0 0 0 0 0 0 0 0 0 0 0 0 0 0 0 0 0 0 0 0 0 0
0 0 0 0 0 0 0 0 0 0 0 0 0 0 0 0 0 0 0 0 0 0 0 0 0 0 0 0 0 0 0 0 0
0 0 0 0 0 0 0 0 0 0 0 0 0 0 0 0 0 0 0 0 0 0 0 0 0 0 0 0 0 0 0 0 0
0 0 0 0 0 0 0 0 0 0 0 0 0 0 0 0 0 0 0 0 0 0 0 0 0 0 0 0 0 0 0 0 0
0 0 0 0 0 0 0 0 0 0 0 0 0 0 0 0 0 0 0 0 0 0 0 0 0 0 0 0 0 0 0 0 0
0 0 0 0 0 0 0 0 0 0 0 0 0 0 0 0 0 0 0 0 0 0 0 0 0 0 0 0 0 0 0 0 0
0 0 0 0 0 0 0 0 0 0 0 0 0 0 0 0 0 0 0 0 0 0 0 0 0 0 0 0 0 0 0 0 0
0 0 0 0 0 0 0 0 0 0 0 0 0 0 0 0 0 0 0 0 0 0 0 0 0 0 0 0 0 0 0 0 0
0 0 0 0 0 0 0 0 0 0 0 0 0 0 0 0 0 0 0 0 0 0 0 0 0 0 0 0 0 0 0 0 0
0 0 0 0 0 0 0 0 0 0 0 0 0 0 0 0 0 0 0 0 0 0 0 0 0 0 0 0 0 0 0 0 0
0 0 0 0 0 0 0 0 0 0 0 0 0 0 0 0 0 0 0 0 0 0 0 0 0 0 0 0 0 0 0 0 0
0 0 0 0 0 0 0 0 0 0 0 0 0 0 0 0 0 0 0 0 0 0 0 0 0 0 0 0 0 0 0 0 0
0 0 0 0 0 0 0 0 0 0 0 0 0 0 0 0 0 0 0 0 0 0 0 0 0 0 0 0 0 0 0 0 0
0 0 0 0 0 0 0 0 0 0 0 0 0 0 0 0 0 0 0 0 0 0 0 0 0 0 0 0 0 0 0 0 0
0 0 0 0 0 0 0 0 0 0 0 0 0 0 0 0 0 0 0 0 0 0 0 0 0 0 0 0 0 0 0 0 0
0 0 0 0 0 0 0 0 0 0 0 0 0 0 0 0 0 0 0 0 0 0 0 0 0 0 0 0 0 0 0 0 0
0 0 0 0 0 0 0 0 0 0 0 0 0 0 0 0 0 0 0 0 0 0 0 0 0 0 0 0 0 0 0 0 0
0 0 0 0 0 0 0 0 0 0 0 0 0 0 0 0 0 0 0 0 0 0 0 0 0 0 0 0 0 0 0 0 0
0 0 0 0 0 0 0 0 0 0 0 0 0 0 0 0 0 0 0 0 0 0 0 0 0 0 0 0 0 0 0 0 0
0 0 0 0 0 0 0 0 0 0 0 0 0 0 0 0 0 0 0 0 0 0 0 0 0 0 0 0 0 0 0 0 0
0 0 0 0 0 0 0 0 0 0 0 0 0 0 0 0 0 0 0 0 0 0 0 0 0 0 0 0 0 0 0 0 0
0 0 0 0 0 0 0 0 0 0 0 0 0 0 0 0 0 0 0 0 0 0 0 0 0 0 0 0 0 0 0 0 0
0 0 0 0 0 0 0 0 0 0 0 0 0 0 0 0 0 0 0 0 0 0 0 0 0 0 0 0 0 0 0 0 0
0 0 0 0 0 0 0 0 0 0 0 0 0 0 0 0 0 0 0 0 0 0 0 0 0 0 0 0 0 0 0 0 0
0 0 0 0 0 0 0 0 0 0 0 0 0 0 0 0 0 0 0 0 0 0 0 0 0 0 0 0 0 0 0 0 0
0 0 0 0 0 0 0 0 0 0 0 0 0 0 0 0 0 0 0 0 0 0 0 0 0 0 0 0 0 0 0 0 0
0 0 0 0 0 0 0 0 0 0 0 0 0 0 0 0 0 0 0 0 0 0 0 0 0 0 0 0 0 0 0 0 0
0 0 0 0 0 0 0 0 0 0 0 0 0 0 0 0 0 0 0 0 0 0 0 0 0 0 0 0 0 0 0 0 0
0 0 0 0 0 0 0 0 0 0 0 0 0 0 0 0 0 0 0 0 0 0 0 0 0 0 0 0 0 0 0 0 0
0 0 0 0 0 0 0 0 0 0 0 0 0 0 0 0 0 0 0 0 0 0 0 0 0 0 0 0 0 0 0 0 0
139 68 32 139 68 32 139 68 32 139 68 32 139 68 32 139 68 32 139 68 32
139 68 32 139 68 32 139 68 32 139 68 32 139 68 32 139 68 32 139 68 32
139 68 32 139 68 32 139 68 32 139 68 32 139 68 32 139 68 32 139 68 32
139 68 32 139 68 32 139 68 32 139 68 32 139 68 32 139 68 32 139 68 32
139 68 32 139 68 32 139 68 32 139 68 32 139 68 32 139 68 32 139 68 32
139 68 32 139 68 32 139 68 32 139 68 32 139 68 32 0 0 0 0 0 0 0 0 0
0 0 0 0 0 0 0 0 0 0 0 0 0 0 0 0 0 0 0 0 0 0 0 0 0 0 0 0 0 0 0 0 0
0 0 0 0 0 0 0 0 0 0 0 0 0 0 0 0 0 0 0 0 0 0 0 0 0 0 0 0 0 0 0 0 0
0 0 0 0 0 0 0 0 0 0 0 0 0 0 0 0 0 0 0 0 0 0 0 0 0 0 0 0 0 0 0 0 0
0 0 0 0 0 0 0 0 0 0 0 0 0 0 0 0 0 0 0 0 0 0 0 0 0 0 0 0 0 0 0 0 0
0 0 0 0 0 0 0 0 0 0 0 0 0 0 0 0 0 0 0 0 0 0 0 0 0 0 0 0 0 0 0 0 0
0 0 0 0 0 0 0 0 0 0 0 0 0 0 0 0 0 0 0 0 0 0 0 0 0 0 0 0 0 0 0 0 0
0 0 0 0 0 0 0 0 0 0 0 0 0 0 0 0 0 0 0 0 0 0 0 0 0 0 0 0 0 0 0 0 0
0 0 0 0 0 0 0 0 0 0 0 0 0 0 0 0 0 0 0 0 0 0 0 0 0 0 0 0 0 0 0 0 0
0 0 0 0 0 0 0 0 0 0 0 0 0 0 0 0 0 0 0 0 0 0 0 0 0 0 0 0 0 0 0 0 0
0 0 0 0 0 0 0 0 0 0 0 0 0 0 0 0 0 0 0 0 0 0 0 0 0 0 0 0 0 0 0 0 0
0 0 0 0 0 0 0 0 0 0 0 0 0 0 0 0 0 0 0 0 0 139 68 32 139 68 32
139 68 32 139 68 32 139 68 32 139 68 32 139 68 32 139 68 32 139 68 32
139 68 32 139 68 32 139 68 32 139 68 32 139 68 32 139 68 32 139 68 32
139 68 32 139 68 32 139 68 32 139 68 32 139 68 32 139 68 32 139 68 32
139 68 32 139 68 32 139 68 32 139 68 32 139 68 32 139 68 32 139 68 32
139 68 32 139 68 32 139 68 32 139 68 32 139 68 32 139 68 32 139 68 32
139 68 32 139 68 32 139 68 32 0 0 0 0 0 0 0 0 0 0 0 0 0 0 0 0 0 0
0 0 0 0 0 0 0 0 0 0 0 0 0 0 0 0 0 0 0 0 0 0 0 0 0 0 0 0 0 0 0 0 0
0 0 0 0 0 0 0 0 0 0 0 0 0 0 0 0 0 0 0 0 0 0 0 0 0 0 0 0 0 0 0 0 0
0 0 0 0 0 0 0 0 0 0 0 0 0 0 0 0 0 0 0 0 0 0 0 0 0 0 0 0 0 0 0 0 0
0 0 0 0 0 0 0 0 0 0 0 0 0 0 0 0 0 0 0 0 0 0 0 0 0 0 0 0 0 0 0 0 0
0 0 0 0 0 0 0 0 0 0 0 0 0 0 0 0 0 0 0 0 0 0 0 0 0 0 0 0 0 0 0 0 0
0 0 0 0 0 0 0 0 0 0 0 0 0 0 0 0 0 0 0 0 0 0 0 0 0 0 0 0 0 0 0 0 0
0 0 0 0 0 0 0 0 0 0 0 0 0 0 0 0 0 0 0 0 0 0 0 0 0 0 0 0 0 0 0 0 0
0 0 0 0 0 0 0 0 0 0 0 0 0 0 0 0 0 0 0 0 0 0 0 0 0 0 0 0 0 0 0 0 0
0 0 0 0 0 0 0 0 0 0 0 0 0 0 0 0 0 0 0 0 0 0 0 0 0 0 0 0 0 0 0 0 0
0 0 0 0 0 0 0 0 0 0 0 0 0 0 0 0 0 0 0 0 0 0 0 0 0 0 0 0 0 0 0 0 0
0 0 0 0 0 0 0 0 0 0 0 0 139 68 32 139 68 32 139 68 32 139 68 32
139 68 32 139 68 32 139 68 32 139 68 32 139 68 32 139 68 32 139 68 32
139 68 32 139 68 32 139 68 32 139 68 32 139 68 32 139 68 32 139 68 32
139 68 32 139 68 32 139 68 32 139 68 32 139 68 32 139 68 32 139 68 32
139 68 32 139 68 32 139 68 32 139 68 32 139 68 32 139 68 32 139 68 32
139 68 32 139 68 32 139 68 32 139 68 32 139 68 32 139 68 32 139 68 32
139 68 32 0 0 0 0 0 0 0 0 0 0 0 0 0 0 0 0 0 0 0 0 0 0 0 0 0 0 0 0 0 0
0 0 0 0 0 0 0 0 0 0 0 0 0 0 0 0 0 0 0 0 0 0 0 0 0 0 0 0 0 0 0 0 0
0 0 0 0 0 0 0 0 0 0 0 0 0 0 0 0 0 0 0 0 0 0 0 0 0 0 0 0 0 0 0 0 0
0 0 0 0 0 0 0 0 0 0 0 0 0 0 0 0 0 0 0 0 0 0 0 0 0 0 0 0 0 0 0 0 0
0 0 0 0 0 0 0 0 0 0 0 0 0 0 0 0 0 0 0 0 0 0 0 0 0 0 0 0 0 0 0 0 0
0 0 0 0 0 0 0 0 0 0 0 0 0 0 0 0 0 0 0 0 0 0 0 0 0 0 0 0 0 0 0 0 0
0 0 0 0 0 0 0 0 0 0 0 0 0 0 0 0 0 0 0 0 0 0 0 0 0 0 0 0 0 0 0 0 0
0 0 0 0 0 0 0 0 0 0 0 0 0 0 0 0 0 0 0 0 0 0 0 0 0 0 0 0 0 0 0 0 0
0 0 0 0 0 0 0 0 0 0 0 0 0 0 0 0 0 0 0 0 0 0 0 0 0 0 0 0 0 0 0 0 0
0 0 0 0 0 0 0 0 0 0 0 0 0 0 0 0 0 0 0 0 0 0 0 0 0 0 0 0 0 0 0 0 0
0 0 0 0 0 0 0 0 0 0 0 0 0 0 0 0 0 0 0 0 0 0 0 0 0 0 0 0 0 0 0 0 0
139 68 32 139 68 32 139 68 32 139 68 32 139 68 32 139 68 32 139 68 32
139 68 32 139 68 32 139 68 32 139 68 32 139 68 32 139 68 32 139 68 32
139 68 32 139 68 32 139 68 32 139 68 32 139 68 32 139 68 32 139 68 32
139 68 32 139 68 32 139 68 32 139 68 32 139 68 32 139 68 32 139 68 32
139 68 32 139 68 32 139 68 32 139 68 32 139 68 32 139 68 32 139 68 32
139 68 32 139 68 32 139 68 32 139 68 32 139 68 32 0 0 0 0 0 0 0 0 0
0 0 0 0 0 0 0 0 0 0 0 0 0 0 0 0 0 0 0 0 0 0 0 0 0 0 0 0 0 0 0 0 0
0 0 0 0 0 0 0 0 0 0 0 0 0 0 0 0 0 0 0 0 0 0 0 0 0 0 0 0 0 0 0 0 0
0 0 0 0 0 0 0 0 0 0 0 0 0 0 0 0 0 0 0 0 0 0 0 0 0 0 0 0 0 0 0 0 0
0 0 0 0 0 0 0 0 0 0 0 0 0 0 0 0 0 0 0 0 0 0 0 0 0 0 0 0 0 0 0 0 0
0 0 0 0 0 0 0 0 0 0 0 0 0 0 0 0 0 0 0 0 0 0 0 0 0 0 0 0 0 0 0 0 0
0 0 0 0 0 0 0 0 0 0 0 0 0 0 0 0 0 0 0 0 0 0 0 0 0 0 0 0 0 0 0 0 0
0 0 0 0 0 0 0 0 0 0 0 0 0 0 0 0 0 0 0 0 0 0 0 0 0 0 0 0 0 0 0 0 0
0 0 0 0 0 0 0 0 0 0 0 0 0 0 0 0 0 0 0 0 0 0 0 0 0 0 0 0 0 0 0 0 0
0 0 0 0 0 0 0 0 0 0 0 0 0 0 0 0 0 0 0 0 0 0 0 0 0 0 0 0 0 0 0 0 0
0 0 0 0 0 0 0 0 0 0 0 0 0 0 0 0 0 0 0 0 0 0 0 0 0 0 0 0 0 0 0 0 0
0 0 0 0 0 0 0 0 0 0 0 0 0 0 0 0 0 0 0 0 0 139 68 32 139 68 32
139 68 32 139 68 32 139 68 32 139 68 32 139 68 32 139 68 32 139 68 32
139 68 32 139 68 32 139 68 32 139 68 32 139 68 32 139 68 32 139 68 32
139 68 32 139 68 32 139 68 32 139 68 32 139 68 32 139 68 32 139 68 32
139 68 32 139 68 32 139 68 32 139 68 32 139 68 32 139 68 32 139 68 32
139 68 32 139 68 32 139 68 32 139 68 32 139 68 32 139 68 32 139 68 32
139 68 32 139 68 32 139 68 32 0 0 0 0 0 0 0 0 0 0 0 0 0 0 0 0 0 0
0 0 0 0 0 0 0 0 0 0 0 0 0 0 0 0 0 0 0 0 0 0 0 0 0 0 0 0 0 0 0 0 0
0 0 0 0 0 0 0 0 0 0 0 0 0 0 0 0 0 0 0 0 0 0 0 0 0 0 0 0 0 0 0 0 0
0 0 0 0 0 0 0 0 0 0 0 0 0 0 0 0 0 0 0 0 0 0 0 0 0 0 0 0 0 0 0 0 0
0 0 0 0 0 0 0 0 0 0 0 0 0 0 0 0 0 0 0 0 0 0 0 0 0 0 0 0 0 0 0 0 0
0 0 0 0 0 0 0 0 0 0 0 0 0 0 0 0 0 0 0 0 0 0 0 0 0 0 0 0 0 0 0 0 0
0 0 0 0 0 0 0 0 0 0 0 0 0 0 0 0 0 0 0 0 0 0 0 0 0 0 0 0 0 0 0 0 0
0 0 0 0 0 0 0 0 0 0 0 0 0 0 0 0 0 0 0 0 0 0 0 0 0 0 0 0 0 0 0 0 0
0 0 0 0 0 0 0 0 0 0 0 0 0 0 0 0 0 0 0 0 0 0 0 0 0 0 0 0 0 0 0 0 0
0 0 0 0 0 0 0 0 0 0 0 0 0 0 0 0 0 0 0 0 0 0 0 0 0 0 0 0 0 0 0 0 0
0 0 0 0 0 0 0 0 0 0 0 0 0 0 0 0 0 0 0 0 0 0 0 0 0 0 0 0 0 0 0 0 0
0 0 0 0 0 0 0 0 0 0 0 0 139 68 32 139 68 32 139 68 32 139 68 32
139 68 32 139 68 32 139 68 32 139 68 32 139 68 32 139 68 32 139 68 32
139 68 32 139 68 32 139 68 32 139 68 32 139 68 32 139 68 32 139 68 32
139 68 32 139 68 32 139 68 32 139 68 32 139 68 32 139 68 32 139 68 32
139 68 32 139 68 32 139 68 32 139 68 32 139 68 32 139 68 32 139 68 32
139 68 32 139 68 32 139 68 32 139 68 32 139 68 32 139 68 32 139 68 32
139 68 32 0 0 0 0 0 0 0 0 0 0 0 0 0 0 0 0 0 0 0 0 0 0 0 0 0 0 0 0 0 0
0 0 0 0 0 0 0 0 0 0 0 0 0 0 0 0 0 0 0 0 0 0 0 0 0 0 0 0 0 0 0 0 0
0 0 0 0 0 0 0 0 0 0 0 0 0 0 0 0 0 0 0 0 0 0 0 0 0 0 0 0 0 0 0 0 0
0 0 0 0 0 0 0 0 0 0 0 0 0 0 0 0 0 0 0 0 0 0 0 0 0 0 0 0 0 0 0 0 0
0 0 0 0 0 0 0 0 0 0 0 0 0 0 0 0 0 0 0 0 0 0 0 0 0 0 0 0 0 0 0 0 0
0 0 0 0 0 0 0 0 0 0 0 0 0 0 0 0 0 0 0 0 0 0 0 0 0 0 0 0 0 0 0 0 0
0 0 0 0 0 0 0 0 0 0 0 0 0 0 0 0 0 0 0 0 0 0 0 0 0 0 0 0 0 0 0 0 0
0 0 0 0 0 0 0 0 0 0 0 0 0 0 0 0 0 0 0 0 0 0 0 0 0 0 0 0 0 0 0 0 0
0 0 0 0 0 0 0 0 0 0 0 0 0 0 0 0 0 0 0 0 0 0 0 0 0 0 0 0 0 0 0 0 0
0 0 0 0 0 0 0 0 0 0 0 0 0 0 0 0 0 0 0 0 0 0 0 0 0 0 0 0 0 0 0 0 0
0 0 0 0 0 0 0 0 0 0 0 0 0 0 0 0 0 0 0 0 0 0 0 0 0 0 0 0 0 0 0 0 0
139 68 32 139 68 32 139 68 32 139 68 32 139 68 32 139 68 32 139 68 32
139 68 32 139 68 32 139 68 32 139 68 32 139 68 32 139 68 32 139 68 32
139 68 32 139 68 32 139 68 32 139 68 32 139 68 32 139 68 32 139 68 32
139 68 32 139 68 32 139 68 32 139 68 32 139 68 32 139 68 32 139 68 32
139 68 32 139 68 32 139 68 32 139 68 32 139 68 32 139 68 32 139 68 32
139 68 32 139 68 32 139 68 32 139 68 32 139 68 32 0 0 0 0 0 0 0 0 0
0 0 0 0 0 0 0 0 0 0 0 0 0 0 0 0 0 0 0 0 0 0 0 0 0 0 0 0 0 0 0 0 0
0 0 0 0 0 0 0 0 0 0 0 0 0 0 0 0 0 0 0 0 0 0 0 0 0 0 0 0 0 0 0 0 0
0 0 0 0 0 0 0 0 0 0 0 0 0 0 0 0 0 0 0 0 0 0 0 0 0 0 0 0 0 0 0 0 0
0 0 0 0 0 0 0 0 0 0 0 0 0 0 0 0 0 0 0 0 0 0 0 0 0 0 0 0 0 0 0 0 0
0 0 0 0 0 0 0 0 0 0 0 0 0 0 0 0 0 0 0 0 0 0 0 0 0 0 0 0 0 0 0 0 0
0 0 0 0 0 0 0 0 0 0 0 0 0 0 0 0 0 0 0 0 0 0 0 0 0 0 0 0 0 0 0 0 0
0 0 0 0 0 0 0 0 0 0 0 0 0 0 0 0 0 0 0 0 0 0 0 0 0 0 0 0 0 0 0 0 0
0 0 0 0 0 0 0 0 0 0 0 0 0 0 0 0 0 0 0 0 0 0 0 0 0 0 0 0 0 0 0 0 0
0 0 0 0 0 0 0 0 0 0 0 0 0 0 0 0 0 0 0 0 0 0 0 0 0 0 0 0 0 0 0 0 0
0 0 0 0 0 0 0 0 0 0 0 0 0 0 0 0 0 0 0 0 0 0 0 0 0 0 0 0 0 0 0 0 0
0 0 0 0 0 0 0 0 0 0 0 0 0 0 0 0 0 0 0 0 0 139 68 32 139 68 32
139 68 32 139 68 32 139 68 32 139 68 32 139 68 32 139 68 32 139 68 32
139 68 32 139 68 32 139 68 32 139 68 32 139 68 32 139 68 32 139 68 32
139 68 32 139 68 32 139 68 32 139 68 32 139 68 32 139 68 32 139 68 32
139 68 32 139 68 32 139 68 32 139 68 32 139 68 32 139 68 32 139 68 32
139 68 32 139 68 32 139 68 32 139 68 32 139 68 32 139 68 32 139 68 32
139 68 32 139 68 32 139 68 32 0 0 0 0 0 0 0 0 0 0 0 0 0 0 0 0 0 0
0 0 0 0 0 0 0 0 0 0 0 0 0 0 0 0 0 0 0 0 0 0 0 0 0 0 0 0 0 0 0 0 0
0 0 0 0 0 0 0 0 0 0 0 0 0 0 0 0 0 0 0 0 0 0 0 0 0 0 0 0 0 0 0 0 0
0 0 0 0 0 0 0 0 0 0 0 0 0 0 0 0 0 0 0 0 0 0 0 0 0 0 0 0 0 0 0 0 0
0 0 0 0 0 0 0 0 0 0 0 0 0 0 0 0 0 0 0 0 0 0 0 0 0 0 0 0 0 0 0 0 0
0 0 0 0 0 0 0 0 0 0 0 0 0 0 0 0 0 0 0 0 0 0 0 0 0 0 0 0 0 0 0 0 0
0 0 0 0 0 0 0 0 0 0 0 0 0 0 0 0 0 0 0 0 0 0 0 0 0 0 0 0 0 0 0 0 0
0 0 0 0 0 0 0 0 0 0 0 0 0 0 0 0 0 0 0 0 0 0 0 0 0 0 0 0 0 0 0 0 0
0 0 0 0 0 0 0 0 0 0 0 0 0 0 0 0 0 0 0 0 0 0 0 0 0 0 0 0 0 0 0 0 0
0 0 0 0 0 0 0 0 0 0 0 0 0 0 0 0 0 0 0 0 0 0 0 0 0 0 0 0 0 0 0 0 0
0 0 0 0 0 0 0 0 0 0 0 0 0 0 0 0 0 0 0 0 0 0 0 0 0 0 0 0 0 0 0 0 0
0 0 0 0 0 0 0 0 0 0 0 0 139 68 32 139 68 32 139 68 32 139 68 32
139 68 32 139 68 32 139 68 32 139 68 32 139 68 32 139 68 32 139 68 32
139 68 32 139 68 32 139 68 32 139 68 32 139 68 32 139 68 32 139 68 32
139 68 32 139 68 32 139 68 32 139 68 32 139 68 32 139 68 32 139 68 32
139 68 32 139 68 32 139 68 32 139 68 32 139 68 32 139 68 32 139 68 32
139 68 32 139 68 32 139 68 32 139 68 32 139 68 32 139 68 32 139 68 32
139 68 32 0 0 0 0 0 0 0 0 0 0 0 0 0 0 0 0 0 0 0 0 0 0 0 0 0 0 0 0 0 0
0 0 0 0 0 0 0 0 0 0 0 0 0 0 0 0 0 0 0 0 0 0 0 0 0 0 0 0 0 0 0 0 0
0 0 0 0 0 0 0 0 0 0 0 0 0 0 0 0 0 0 0 0 0 0 0 0 0 0 0 0 0 0 0 0 0
0 0 0 0 0 0 0 0 0 0 0 0 0 0 0 0 0 0 0 0 0 0 0 0 0 0 0 0 0 0 0 0 0
0 0 0 0 0 0 0 0 0 0 0 0 0 0 0 0 0 0 0 0 0 0 0 0 0 0 0 0 0 0 0 0 0
0 0 0 0 0 0 0 0 0 0 0 0 0 0 0 0 0 0 0 0 0 0 0 0 0 0 0 0 0 0 0 0 0
0 0 0 0 0 0 0 0 0 0 0 0 0 0 0 0 0 0 0 0 0 0 0 0 0 0 0 0 0 0 0 0 0
0 0 0 0 0 0 0 0 0 0 0 0 0 0 0 0 0 0 0 0 0 0 0 0 0 0 0 0 0 0 0 0 0
0 0 0 0 0 0 0 0 0 0 0 0 0 0 0 0 0 0 0 0 0 0 0 0 0 0 0 0 0 0 0 0 0
0 0 0 0 0 0 0 0 0 0 0 0 0 0 0 0 0 0 0 0 0 0 0 0 0 0 0 0 0 0 0 0 0
0 0 0 0 0 0 0 0 0 0 0 0 0 0 0 0 0 0 0 0 0 0 0 0 0 0 0 0 0 0 0 0 0
139 68 32 139 68 32 139 68 32 139 68 32 139 68 32 139 68 32 139 68 32
139 68 32 139 68 32 139 68 32 139 68 32 139 68 32 139 68 32 139 68 32
139 68 32 139 68 32 139 68 32 139 68 32 139 68 32 139 68 32 139 68 32
139 68 32 139 68 32 139 68 32 139 68 32 139 68 32 139 68 32 139 68 32
139 68 32 139 68 32 139 68 32 139 68 32 139 68 32 139 68 32 139 68 32
139 68 32 139 68 32 139 68 32 139 68 32 139 68 32 0 0 0 0 0 0 0 0 0
0 0 0 0 0 0 0 0 0 0 0 0 0 0 0 0 0 0 0 0 0 0 0 0 0 0 0 0 0 0 0 0 0
0 0 0 0 0 0 0 0 0 0 0 0 0 0 0 0 0 0 0 0 0 0 0 0 0 0 0 0 0 0 0 0 0
0 0 0 0 0 0 0 0 0 0 0 0 0 0 0 0 0 0 0 0 0 0 0 0 0 0 0 0 0 0 0 0 0
0 0 0 0 0 0 0 0 0 0 0 0 0 0 0 0 0 0 0 0 0 0 0 0 0 0 0 0 0 0 0 0 0
0 0 0 0 0 0 0 0 0 0 0 0 0 0 0 0 0 0 0 0 0 0 0 0 0 0 0 0 0 0 0 0 0
0 0 0 0 0 0 0 0 0 0 0 0 0 0 0 0 0 0 0 0 0 0 0 0 0 0 0 0 0 0 0 0 0
0 0 0 0 0 0 0 0 0 0 0 0 0 0 0 0 0 0 0 0 0 0 0 0 0 0 0 0 0 0 0 0 0
0 0 0 0 0 0 0 0 0 0 0 0 0 0 0 0 0 0 0 0 0 0 0 0 0 0 0 0 0 0 0 0 0
0 0 0 0 0 0 0 0 0 0 0 0 0 0 0 0 0 0 0 0 0 0 0 0 0 0 0 0 0 0 0 0 0
0 0 0 0 0 0 0 0 0 0 0 0 0 0 0 0 0 0 0 0 0 0 0 0 139 68 32 139 68 32
139 68 32 139 68 32 139 68 32 139 68 32 139 68 32 139 68 32 139 68 32
139 68 32 205 125 74 205 125 74 205 125 74 205 125 74 205 125 74
205 125 74 205 125 74 205 125 74 205 125 74 205 125 74 222 157 123
222 157 123 222 157 123 222 157 123 222 157 123 222 157 123
222 157 123 222 157 123 222 157 123 222 157 123 210 142 98 210 142 98
210 142 98 210 142 98 210 142 98 210 142 98 210 142 98 210 142 98
210 142 98 210 142 98 205 125 74 205 125 74 205 125 74 205 125 74
205 125 74 205 125 74 205 125 74 205 125 74 205 125 74 205 125 74
139 68 32 139 68 32 139 68 32 139 68 32 139 68 32 139 68 32 139 68 32
139 68 32 139 68 32 139 68 32 139 68 32 139 68 32 139 68 32 139 68 32
139 68 32 139 68 32 139 68 32 139 68 32 139 68 32 139 68 32 0 0 0
0 0 0 0 0 0 0 0 0 0 0 0 0 0 0 0 0 0 0 0 0 0 0 0 0 0 0 0 0 0 0 0 0
0 0 0 0 0 0 0 0 0 0 0 0 0 0 0 0 0 0 0 0 0 0 0 0 0 0 0 0 0 0 0 0 0
0 0 0 0 0 0 0 0 0 0 0 0 0 0 0 0 0 0 0 0 0 0 0 0 0 0 0 0 0 0 0 0 0
0 0 0 0 0 0 0 0 0 0 0 0 0 0 0 0 0 0 0 0 0 0 0 0 0 0 0 0 0 0 0 0 0
0 0 0 0 0 0 0 0 0 0 0 0 0 0 0 0 0 0 0 0 0 0 0 0 0 0 0 0 0 0 0 0 0
0 0 0 0 0 0 0 0 0 0 0 0 0 0 0 0 0 0 0 0 0 0 0 0 0 0 0 0 0 0 0 0 0
0 0 0 0 0 0 0 0 0 0 0 0 0 0 0 0 0 0 0 0 0 0 0 0 0 0 0 0 0 0 0 0 0
0 0 0 0 0 0 0 0 0 0 0 0 0 0 0 0 0 0 0 0 0 0 0 0 0 0 0 0 0 0 0 0 0
0 0 0 139 68 32 139 68 32 139 68 32 139 68 32 139 68 32 139 68 32
139 68 32 139 68 32 139 68 32 139 68 32 205 125 74 205 125 74
205 125 74 205 125 74 205 125 74 205 125 74 205 125 74 205 125 74
205 125 74 205 125 74 222 157 123 222 157 123 222 157 123 222 157 123
222 157 123 222 157 123 222 157 123 222 157 123 222 157 123
222 157 123 210 142 98 210 142 98 210 142 98 210 142 98 210 142 98
210 142 98 210 142 98 210 142 98 210 142 98 210 142 98 205 125 74
205 125 74 205 125 74 205 125 74 205 125 74 205 125 74 205 125 74
205 125 74 205 125 74 205 125 74 139 68 32 139 68 32 139 68 32
139 68 32 139 68 32 139 68 32 139 68 32 139 68 32 139 68 32 139 68 32
139 68 32 139 68 32 139 68 32 139 68 32 139 68 32 139 68 32 139 68 32
139 68 32 139 68 32 139 68 32 0 0 0 0 0 0 0 0 0 0 0 0 0 0 0 0 0 0
0 0 0 0 0 0 0 0 0 0 0 0 0 0 0 0 0 0 0 0 0 0 0 0 0 0 0 0 0 0 0 0 0
0 0 0 0 0 0 0 0 0 0 0 0 0 0 0 0 0 0 0 0 0 0 0 0 0 0 0 0 0 0 0 0 0
0 0 0 0 0 0 0 0 0 0 0 0 0 0 0 0 0 0 0 0 0 0 0 0 0 0 0 0 0 0 0 0 0
0 0 0 0 0 0 0 0 0 0 0 0 0 0 0 0 0 0 0 0 0 0 0 0 0 0 0 0 0 0 0 0 0
0 0 0 0 0 0 0 0 0 0 0 0 0 0 0 0 0 0 0 0 0 0 0 0 0 0 0 0 0 0 0 0 0
0 0 0 0 0 0 0 0 0 0 0 0 0 0 0 0 0 0 0 0 0 0 0 0 0 0 0 0 0 0 0 0 0
0 0 0 0 0 0 0 0 0 0 0 0 0 0 0 0 0 0 0 0 0 0 0 0 0 0 0 0 0 0 0 0 0
0 0 0 0 0 0 0 0 0 0 0 0 0 0 0 0 0 0 0 0 0 139 68 32 139 68 32
139 68 32 139 68 32 139 68 32 139 68 32 139 68 32 139 68 32 139 68 32
139 68 32 205 125 74 205 125 74 205 125 74 205 125 74 205 125 74
205 125 74 205 125 74 205 125 74 205 125 74 205 125 74 222 157 123
222 157 123 222 157 123 222 157 123 222 157 123 222 157 123
222 157 123 222 157 123 222 157 123 222 157 123 210 142 98 210 142 98
210 142 98 210 142 98 210 142 98 210 142 98 210 142 98 210 142 98
210 142 98 210 142 98 205 125 74 205 125 74 205 125 74 205 125 74
205 125 74 205 125 74 205 125 74 205 125 74 205 125 74 205 125 74
139 68 32 139 68 32 139 68 32 139 68 32 139 68 32 139 68 32 139 68 32
139 68 32 139 68 32 139 68 32 139 68 32 139 68 32 139 68 32 139 68 32
139 68 32 139 68 32 139 68 32 139 68 32 139 68 32 139 68 32 0 0 0
0 0 0 0 0 0 0 0 0 0 0 0 0 0 0 0 0 0 0 0 0 0 0 0 0 0 0 0 0 0 0 0 0
0 0 0 0 0 0 0 0 0 0 0 0 0 0 0 0 0 0 0 0 0 0 0 0 0 0 0 0 0 0 0 0 0
0 0 0 0 0 0 0 0 0 0 0 0 0 0 0 0 0 0 0 0 0 0 0 0 0 0 0 0 0 0 0 0 0
0 0 0 0 0 0 0 0 0 0 0 0 0 0 0 0 0 0 0 0 0 0 0 0 0 0 0 0 0 0 0 0 0
0 0 0 0 0 0 0 0 0 0 0 0 0 0 0 0 0 0 0 0 0 0 0 0 0 0 0 0 0 0 0 0 0
0 0 0 0 0 0 0 0 0 0 0 0 0 0 0 0 0 0 0 0 0 0 0 0 0 0 0 0 0 0 0 0 0
0 0 0 0 0 0 0 0 0 0 0 0 0 0 0 0 0 0 0 0 0 0 0 0 0 0 0 0 0 0 0 0 0
0 0 0 0 0 0 0 0 0 0 0 0 0 0 0 0 0 0 0 0 0 0 0 0 0 0 0 0 0 0 0 0 0
0 0 0 139 68 32 139 68 32 139 68 32 139 68 32 139 68 32 139 68 32
139 68 32 139 68 32 139 68 32 139 68 32 205 125 74 205 125 74
205 125 74 205 125 74 205 125 74 205 125 74 205 125 74 205 125 74
205 125 74 205 125 74 222 157 123 222 157 123 222 157 123 222 157 123
222 157 123 222 157 123 222 157 123 222 157 123 222 157 123
222 157 123 210 142 98 210 142 98 210 142 98 210 142 98 210 142 98
210 142 98 210 142 98 210 142 98 210 142 98 210 142 98 205 125 74
205 125 74 205 125 74 205 125 74 205 125 74 205 125 74 205 125 74
205 125 74 205 125 74 205 125 74 139 68 32 139 68 32 139 68 32
139 68 32 139 68 32 139 68 32 139 68 32 139 68 32 139 68 32 139 68 32
139 68 32 139 68 32 139 68 32 139 68 32 139 68 32 139 68 32 139 68 32
139 68 32 139 68 32 139 68 32 0 0 0 0 0 0 0 0 0 0 0 0 0 0 0 0 0 0
0 0 0 0 0 0 0 0 0 0 0 0 0 0 0 0 0 0 0 0 0 0 0 0 0 0 0 0 0 0 0 0 0
0 0 0 0 0 0 0 0 0 0 0 0 0 0 0 0 0 0 0 0 0 0 0 0 0 0 0 0 0 0 0 0 0
0 0 0 0 0 0 0 0 0 0 0 0 0 0 0 0 0 0 0 0 0 0 0 0 0 0 0 0 0 0 0 0 0
0 0 0 0 0 0 0 0 0 0 0 0 0 0 0 0 0 0 0 0 0 0 0 0 0 0 0 0 0 0 0 0 0
0 0 0 0 0 0 0 0 0 0 0 0 0 0 0 0 0 0 0 0 0 0 0 0 0 0 0 0 0 0 0 0 0
0 0 0 0 0 0 0 0 0 0 0 0 0 0 0 0 0 0 0 0 0 0 0 0 0 0 0 0 0 0 0 0 0
0 0 0 0 0 0 0 0 0 0 0 0 0 0 0 0 0 0 0 0 0 0 0 0 0 0 0 0 0 0 0 0 0
0 0 0 0 0 0 0 0 0 0 0 0 0 0 0 0 0 0 0 0 0 139 68 32 139 68 32
139 68 32 139 68 32 139 68 32 139 68 32 139 68 32 139 68 32 139 68 32
139 68 32 205 125 74 205 125 74 205 125 74 205 125 74 205 125 74
205 125 74 205 125 74 205 125 74 205 125 74 205 125 74 222 157 123
222 157 123 222 157 123 222 157 123 222 157 123 222 157 123
222 157 123 222 157 123 222 157 123 222 157 123 210 142 98 210 142 98
210 142 98 210 142 98 210 142 98 210 142 98 210 142 98 210 142 98
210 142 98 210 142 98 205 125 74 205 125 74 205 125 74 205 125 74
205 125 74 205 125 74 205 125 74 205 125 74 205 125 74 205 125 74
139 68 32 139 68 32 139 68 32 139 68 32 139 68 32 139 68 32 139 68 32
139 68 32 139 68 32 139 68 32 139 68 32 139 68 32 139 68 32 139 68 32
139 68 32 139 68 32 139 68 32 139 68 32 139 68 32 139 68 32 0 0 0
0 0 0 0 0 0 0 0 0 0 0 0 0 0 0 0 0 0 0 0 0 0 0 0 0 0 0 0 0 0 0 0 0
0 0 0 0 0 0 0 0 0 0 0 0 0 0 0 0 0 0 0 0 0 0 0 0 0 0 0 0 0 0 0 0 0
0 0 0 0 0 0 0 0 0 0 0 0 0 0 0 0 0 0 0 0 0 0 0 0 0 0 0 0 0 0 0 0 0
0 0 0 0 0 0 0 0 0 0 0 0 0 0 0 0 0 0 0 0 0 0 0 0 0 0 0 0 0 0 0 0 0
0 0 0 0 0 0 0 0 0 0 0 0 0 0 0 0 0 0 0 0 0 0 0 0 0 0 0 0 0 0 0 0 0
0 0 0 0 0 0 0 0 0 0 0 0 0 0 0 0 0 0 0 0 0 0 0 0 0 0 0 0 0 0 0 0 0
0 0 0 0 0 0 0 0 0 0 0 0 0 0 0 0 0 0 0 0 0 0 0 0 0 0 0 0 0 0 0 0 0
0 0 0 0 0 0 0 0 0 0 0 0 0 0 0 0 0 0 0 0 0 0 0 0 0 0 0 0 0 0 0 0 0
0 0 0 139 68 32 139 68 32 139 68 32 139 68 32 139 68 32 139 68 32
139 68 32 139 68 32 139 68 32 139 68 32 205 125 74 205 125 74
205 125 74 205 125 74 205 125 74 205 125 74 205 125 74 205 125 74
205 125 74 205 125 74 222 157 123 222 157 123 222 157 123 222 157 123
222 157 123 222 157 123 222 157 123 222 157 123 222 157 123
222 157 123 210 142 98 210 142 98 210 142 98 210 142 98 210 142 98
210 142 98 210 142 98 210 142 98 210 142 98 210 142 98 205 125 74
205 125 74 205 125 74 205 125 74 205 125 74 205 125 74 205 125 74
205 125 74 205 125 74 205 125 74 139 68 32 139 68 32 139 68 32
139 68 32 139 68 32 139 68 32 139 68 32 139 68 32 139 68 32 139 68 32
139 68 32 139 68 32 139 68 32 139 68 32 139 68 32 139 68 32 139 68 32
139 68 32 139 68 32 139 68 32 0 0 0 0 0 0 0 0 0 0 0 0 0 0 0 0 0 0
0 0 0 0 0 0 0 0 0 0 0 0 0 0 0 0 0 0 0 0 0 0 0 0 0 0 0 0 0 0 0 0 0
0 0 0 0 0 0 0 0 0 0 0 0 0 0 0 0 0 0 0 0 0 0 0 0 0 0 0 0 0 0 0 0 0
0 0 0 0 0 0 0 0 0 0 0 0 0 0 0 0 0 0 0 0 0 0 0 0 0 0 0 0 0 0 0 0 0
0 0 0 0 0 0 0 0 0 0 0 0 0 0 0 0 0 0 0 0 0 0 0 0 0 0 0 0 0 0 0 0 0
0 0 0 0 0 0 0 0 0 0 0 0 0 0 0 0 0 0 0 0 0 0 0 0 0 0 0 0 0 0 0 0 0
0 0 0 0 0 0 0 0 0 0 0 0 0 0 0 0 0 0 0 0 0 0 0 0 0 0 0 0 0 0 0 0 0
0 0 0 0 0 0 0 0 0 0 0 0 0 0 0 0 0 0 0 0 0 0 0 0 0 0 0 0 0 0 0 0 0
0 0 0 0 0 0 0 0 0 0 0 0 0 0 0 0 0 0 0 0 0 139 68 32 139 68 32
139 68 32 139 68 32 139 68 32 139 68 32 139 68 32 139 68 32 139 68 32
139 68 32 205 125 74 205 125 74 205 125 74 205 125 74 205 125 74
205 125 74 205 125 74 205 125 74 205 125 74 205 125 74 222 157 123
222 157 123 222 157 123 222 157 123 222 157 123 222 157 123
222 157 123 222 157 123 222 157 123 222 157 123 210 142 98 210 142 98
210 142 98 210 142 98 210 142 98 210 142 98 210 142 98 210 142 98
210 142 98 210 142 98 205 125 74 205 125 74 205 125 74 205 125 74
205 125 74 205 125 74 205 125 74 205 125 74 205 125 74 205 125 74
139 68 32 139 68 32 139 68 32 139 68 32 139 68 32 139 68 32 139 68 32
139 68 32 139 68 32 139 68 32 139 68 32 139 68 32 139 68 32 139 68 32
139 68 32 139 68 32 139 68 32 139 68 32 139 68 32 139 68 32 0 0 0
0 0 0 0 0 0 0 0 0 0 0 0 0 0 0 0 0 0 0 0 0 0 0 0 0 0 0 0 0 0 0 0 0
0 0 0 0 0 0 0 0 0 0 0 0 0 0 0 0 0 0 0 0 0 0 0 0 0 0 0 0 0 0 0 0 0
0 0 0 0 0 0 0 0 0 0 0 0 0 0 0 0 0 0 0 0 0 0 0 0 0 0 0 0 0 0 0 0 0
0 0 0 0 0 0 0 0 0 0 0 0 0 0 0 0 0 0 0 0 0 0 0 0 0 0 0 0 0 0 0 0 0
0 0 0 0 0 0 0 0 0 0 0 0 0 0 0 0 0 0 0 0 0 0 0 0 0 0 0 0 0 0 0 0 0
0 0 0 0 0 0 0 0 0 0 0 0 0 0 0 0 0 0 0 0 0 0 0 0 0 0 0 0 0 0 0 0 0
0 0 0 0 0 0 0 0 0 0 0 0 0 0 0 0 0 0 0 0 0 0 0 0 0 0 0 0 0 0 0 0 0
0 0 0 0 0 0 0 0 0 0 0 0 0 0 0 0 0 0 0 0 0 0 0 0 0 0 0 0 0 0 0 0 0
0 0 0 139 68 32 139 68 32 139 68 32 139 68 32 139 68 32 139 68 32
139 68 32 139 68 32 139 68 32 139 68 32 205 125 74 205 125 74
205 125 74 205 125 74 205 125 74 205 125 74 205 125 74 205 125 74
205 125 74 205 125 74 222 157 123 222 157 123 222 157 123 222 157 123
222 157 123 222 157 123 222 157 123 222 157 123 222 157 123
222 157 123 210 142 98 210 142 98 210 142 98 210 142 98 210 142 98
210 142 98 210 142 98 210 142 98 210 142 98 210 142 98 205 125 74
205 125 74 205 125 74 205 125 74 205 125 74 205 125 74 205 125 74
205 125 74 205 125 74 205 125 74 139 68 32 139 68 32 139 68 32
139 68 32 139 68 32 139 68 32 139 68 32 139 68 32 139 68 32 139 68 32
139 68 32 139 68 32 139 68 32 139 68 32 139 68 32 139 68 32 139 68 32
139 68 32 139 68 32 139 68 32 0 0 0 0 0 0 0 0 0 0 0 0 0 0 0 0 0 0
0 0 0 0 0 0 0 0 0 0 0 0 0 0 0 0 0 0 0 0 0 0 0 0 0 0 0 0 0 0 0 0 0
0 0 0 0 0 0 0 0 0 0 0 0 0 0 0 0 0 0 0 0 0 0 0 0 0 0 0 0 0 0 0 0 0
0 0 0 0 0 0 0 0 0 0 0 0 0 0 0 0 0 0 0 0 0 0 0 0 0 0 0 0 0 0 0 0 0
0 0 0 0 0 0 0 0 0 0 0 0 0 0 0 0 0 0 0 0 0 0 0 0 0 0 0 0 0 0 0 0 0
0 0 0 0 0 0 0 0 0 0 0 0 0 0 0 0 0 0 0 0 0 0 0 0 0 0 0 0 0 0 0 0 0
0 0 0 0 0 0 0 0 0 0 0 0 0 0 0 0 0 0 0 0 0 0 0 0 0 0 0 0 0 0 0 0 0
0 0 0 0 0 0 0 0 0 0 0 0 0 0 0 0 0 0 0 0 0 0 0 0 0 0 0 0 0 0 0 0 0
0 0 0 0 0 0 0 0 0 0 0 0 0 0 0 0 0 0 0 0 0 139 68 32 139 68 32
139 68 32 139 68 32 139 68 32 139 68 32 139 68 32 139 68 32 139 68 32
139 68 32 205 125 74 205 125 74 205 125 74 205 125 74 205 125 74
205 125 74 205 125 74 205 125 74 205 125 74 205 125 74 222 157 123
222 157 123 222 157 123 222 157 123 222 157 123 222 157 123
222 157 123 222 157 123 222 157 123 222 157 123 210 142 98 210 142 98
210 142 98 210 142 98 210 142 98 210 142 98 210 142 98 210 142 98
210 142 98 210 142 98 205 125 74 205 125 74 205 125 74 205 125 74
205 125 74 205 125 74 205 125 74 205 125 74 205 125 74 205 125 74
139 68 32 139 68 32 139 68 32 139 68 32 139 68 32 139 68 32 139 68 32
139 68 32 139 68 32 139 68 32 139 68 32 139 68 32 139 68 32 139 68 32
139 68 32 139 68 32 139 68 32 139 68 32 139 68 32 139 68 32 0 0 0
0 0 0 0 0 0 0 0 0 0 0 0 0 0 0 0 0 0 0 0 0 0 0 0 0 0 0 0 0 0 0 0 0
0 0 0 0 0 0 0 0 0 0 0 0 0 0 0 0 0 0 0 0 0 0 0 0 0 0 0 0 0 0 0 0 0
0 0 0 0 0 0 0 0 0 0 0 0 0 0 0 0 0 0 0 0 0 0 0 0 0 0 0 0 0 0 0 0 0
0 0 0 0 0 0 0 0 0 0 0 0 0 0 0 0 0 0 0 0 0 0 0 0 0 0 0 0 0 0 0 0 0
0 0 0 0 0 0 0 0 0 0 0 0 0 0 0 0 0 0 0 0 0 0 0 0 0 0 0 0 0 0 0 0 0
0 0 0 0 0 0 0 0 0 0 0 0 0 0 0 0 0 0 0 0 0 0 0 0 0 0 0 0 0 0 0 0 0
0 0 0 0 0 0 0 0 0 0 0 0 0 0 0 0 0 0 0 0 0 0 0 0 0 0 0 0 0 0 0 0 0
0 0 0 0 0 0 0 0 0 0 0 0 0 0 0 0 0 0 0 0 0 0 0 0 0 0 0 0 0 0 0 0 0
0 0 0 139 68 32 139 68 32 139 68 32 139 68 32 139 68 32 139 68 32
139 68 32 139 68 32 139 68 32 139 68 32 205 125 74 205 125 74
205 125 74 205 125 74 205 125 74 205 125 74 205 125 74 205 125 74
205 125 74 205 125 74 222 157 123 222 157 123 222 157 123 222 157 123
222 157 123 222 157 123 222 157 123 222 157 123 222 157 123
222 157 123 210 142 98 210 142 98 210 142 98 210 142 98 210 142 98
210 142 98 210 142 98 210 142 98 210 142 98 210 142 98 205 125 74
205 125 74 205 125 74 205 125 74 205 125 74 205 125 74 205 125 74
205 125 74 205 125 74 205 125 74 139 68 32 139 68 32 139 68 32
139 68 32 139 68 32 139 68 32 139 68 32 139 68 32 139 68 32 139 68 32
139 68 32 139 68 32 139 68 32 139 68 32 139 68 32 139 68 32 139 68 32
139 68 32 139 68 32 139 68 32 0 0 0 0 0 0 0 0 0 0 0 0 0 0 0 0 0 0
0 0 0 0 0 0 0 0 0 0 0 0 0 0 0 0 0 0 0 0 0 0 0 0 0 0 0 0 0 0 0 0 0
0 0 0 0 0 0 0 0 0 0 0 0 0 0 0 0 0 0 0 0 0 0 0 0 0 0 0 0 0 0 0 0 0
0 0 0 0 0 0 0 0 0 0 0 0 0 0 0 0 0 0 0 0 0 0 0 0 0 0 0 0 0 0 0 0 0
0 0 0 0 0 0 0 0 0 0 0 0 0 0 0 0 0 0 0 0 0 0 0 0 0 0 0 0 0 0 0 0 0
0 0 0 0 0 0 0 0 0 0 0 0 0 0 0 0 0 0 0 0 0 0 0 0 0 0 0 0 0 0 0 0 0
0 0 0 0 0 0 0 0 0 0 0 0 0 0 0 0 0 0 0 0 0 0 0 0 0 0 0 0 0 0 0 0 0
0 0 0 0 0 0 0 0 0 0 0 0 0 0 0 0 0 0 0 0 0 0 0 0 0 0 0 0 0 0 0 0 0
0 0 0 0 0 0 0 0 0 0 0 0 0 0 0 0 0 0 0 0 0 172 93 49 172 93 49
172 93 49 172 93 49 172 93 49 172 93 49 172 93 49 172 93 49 172 93 49
172 93 49 222 157 123 222 157 123 222 157 123 222 157 123 222 157 123
222 157 123 222 157 123 222 157 123 222 157 123 222 157 123
205 125 74 205 125 74 205 125 74 205 125 74 205 125 74 205 125 74
205 125 74 205 125 74 205 125 74 205 125 74 172 93 49 172 93 49
172 93 49 172 93 49 172 93 49 172 93 49 172 93 49 172 93 49 172 93 49
172 93 49 172 93 49 172 93 49 172 93 49 172 93 49 172 93 49 172 93 49
172 93 49 172 93 49 172 93 49 172 93 49 205 125 74 205 125 74
205 125 74 205 125 74 205 125 74 205 125 74 205 125 74 205 125 74
205 125 74 205 125 74 172 93 49 172 93 49 172 93 49 172 93 49
172 93 49 172 93 49 172 93 49 172 93 49 172 93 49 172 93 49 139 68 32
139 68 32 139 68 32 139 68 32 139 68 32 139 68 32 139 68 32 139 68 32
139 68 32 139 68 32 0 0 0 0 0 0 0 0 0 0 0 0 0 0 0 0 0 0 0 0 0 0 0 0
0 0 0 0 0 0 0 0 0 0 0 0 0 0 0 0 0 0 0 0 0 0 0 0 0 0 0 0 0 0 0 0 0
0 0 0 0 0 0 0 0 0 0 0 0 0 0 0 0 0 0 0 0 0 0 0 0 0 0 0 0 0 0 0 0 0
0 0 0 0 0 0 0 0 0 0 0 0 0 0 0 0 0 0 0 0 0 0 0 0 0 0 0 0 0 0 0 0 0
0 0 0 0 0 0 0 0 0 0 0 0 0 0 0 0 0 0 0 0 0 0 0 0 0 0 0 0 0 0 0 0 0
0 0 0 0 0 0 0 0 0 0 0 0 0 0 0 0 0 0 0 0 0 0 0 0 0 0 0 0 0 0 0 0 0
0 0 0 0 0 0 0 0 0 0 0 0 0 0 0 0 0 0 0 0 0 0 0 0 0 0 0 0 0 0 0 0 0
0 0 0 0 0 0 0 0 0 0 0 0 0 0 0 0 0 0 172 93 49 172 93 49 172 93 49
172 93 49 172 93 49 172 93 49 172 93 49 172 93 49 172 93 49 172 93 49
222 157 123 222 157 123 222 157 123 222 157 123 222 157 123
222 157 123 222 157 123 222 157 123 222 157 123 222 157 123
205 125 74 205 125 74 205 125 74 205 125 74 205 125 74 205 125 74
205 125 74 205 125 74 205 125 74 205 125 74 172 93 49 172 93 49
172 93 49 172 93 49 172 93 49 172 93 49 172 93 49 172 93 49 172 93 49
172 93 49 172 93 49 172 93 49 172 93 49 172 93 49 172 93 49 172 93 49
172 93 49 172 93 49 172 93 49 172 93 49 205 125 74 205 125 74
205 125 74 205 125 74 205 125 74 205 125 74 205 125 74 205 125 74
205 125 74 205 125 74 172 93 49 172 93 49 172 93 49 172 93 49
172 93 49 172 93 49 172 93 49 172 93 49 172 93 49 172 93 49 139 68 32
139 68 32 139 68 32 139 68 32 139 68 32 139 68 32 139 68 32 139 68 32
139 68 32 139 68 32 0 0 0 0 0 0 0 0 0 0 0 0 0 0 0 0 0 0 0 0 0 0 0 0
0 0 0 0 0 0 0 0 0 0 0 0 0 0 0 0 0 0 0 0 0 0 0 0 0 0 0 0 0 0 0 0 0
0 0 0 0 0 0 0 0 0 0 0 0 0 0 0 0 0 0 0 0 0 0 0 0 0 0 0 0 0 0 0 0 0
0 0 0 0 0 0 0 0 0 0 0 0 0 0 0 0 0 0 0 0 0 0 0 0 0 0 0 0 0 0 0 0 0
0 0 0 0 0 0 0 0 0 0 0 0 0 0 0 0 0 0 0 0 0 0 0 0 0 0 0 0 0 0 0 0 0
0 0 0 0 0 0 0 0 0 0 0 0 0 0 0 0 0 0 0 0 0 0 0 0 0 0 0 0 0 0 0 0 0
0 0 0 0 0 0 0 0 0 0 0 0 0 0 0 0 0 0 0 0 0 0 0 0 0 0 0 0 0 0 0 0 0
0 0 0 0 0 0 0 0 0 0 0 0 0 0 0 0 0 0 172 93 49 172 93 49 172 93 49
172 93 49 172 93 49 172 93 49 172 93 49 172 93 49 172 93 49 172 93 49
222 157 123 222 157 123 222 157 123 222 157 123 222 157 123
222 157 123 222 157 123 222 157 123 222 157 123 222 157 123
205 125 74 205 125 74 205 125 74 205 125 74 205 125 74 205 125 74
205 125 74 205 125 74 205 125 74 205 125 74 172 93 49 172 93 49
172 93 49 172 93 49 172 93 49 172 93 49 172 93 49 172 93 49 172 93 49
172 93 49 172 93 49 172 93 49 172 93 49 172 93 49 172 93 49 172 93 49
172 93 49 172 93 49 172 93 49 172 93 49 205 125 74 205 125 74
205 125 74 205 125 74 205 125 74 205 125 74 205 125 74 205 125 74
205 125 74 205 125 74 172 93 49 172 93 49 172 93 49 172 93 49
172 93 49 172 93 49 172 93 49 172 93 49 172 93 49 172 93 49 139 68 32
139 68 32 139 68 32 139 68 32 139 68 32 139 68 32 139 68 32 139 68 32
139 68 32 139 68 32 0 0 0 0 0 0 0 0 0 0 0 0 0 0 0 0 0 0 0 0 0 0 0 0
0 0 0 0 0 0 0 0 0 0 0 0 0 0 0 0 0 0 0 0 0 0 0 0 0 0 0 0 0 0 0 0 0
0 0 0 0 0 0 0 0 0 0 0 0 0 0 0 0 0 0 0 0 0 0 0 0 0 0 0 0 0 0 0 0 0
0 0 0 0 0 0 0 0 0 0 0 0 0 0 0 0 0 0 0 0 0 0 0 0 0 0 0 0 0 0 0 0 0
0 0 0 0 0 0 0 0 0 0 0 0 0 0 0 0 0 0 0 0 0 0 0 0 0 0 0 0 0 0 0 0 0
0 0 0 0 0 0 0 0 0 0 0 0 0 0 0 0 0 0 0 0 0 0 0 0 0 0 0 0 0 0 0 0 0
0 0 0 0 0 0 0 0 0 0 0 0 0 0 0 0 0 0 0 0 0 0 0 0 0 0 0 0 0 0 0 0 0
0 0 0 0 0 0 0 0 0 0 0 0 0 0 0 0 0 0 172 93 49 172 93 49 172 93 49
172 93 49 172 93 49 172 93 49 172 93 49 172 93 49 172 93 49 172 93 49
222 157 123 222 157 123 222 157 123 222 157 123 222 157 123
222 157 123 222 157 123 222 157 123 222 157 123 222 157 123
205 125 74 205 125 74 205 125 74 205 125 74 205 125 74 205 125 74
205 125 74 205 125 74 205 125 74 205 125 74 172 93 49 172 93 49
172 93 49 172 93 49 172 93 49 172 93 49 172 93 49 172 93 49 172 93 49
172 93 49 172 93 49 172 93 49 172 93 49 172 93 49 172 93 49 172 93 49
172 93 49 172 93 49 172 93 49 172 93 49 205 125 74 205 125 74
205 125 74 205 125 74 205 125 74 205 125 74 205 125 74 205 125 74
205 125 74 205 125 74 172 93 49 172 93 49 172 93 49 172 93 49
172 93 49 172 93 49 172 93 49 172 93 49 172 93 49 172 93 49 139 68 32
139 68 32 139 68 32 139 68 32 139 68 32 139 68 32 139 68 32 139 68 32
139 68 32 139 68 32 0 0 0 0 0 0 0 0 0 0 0 0 0 0 0 0 0 0 0 0 0 0 0 0
0 0 0 0 0 0 0 0 0 0 0 0 0 0 0 0 0 0 0 0 0 0 0 0 0 0 0 0 0 0 0 0 0
0 0 0 0 0 0 0 0 0 0 0 0 0 0 0 0 0 0 0 0 0 0 0 0 0 0 0 0 0 0 0 0 0
0 0 0 0 0 0 0 0 0 0 0 0 0 0 0 0 0 0 0 0 0 0 0 0 0 0 0 0 0 0 0 0 0
0 0 0 0 0 0 0 0 0 0 0 0 0 0 0 0 0 0 0 0 0 0 0 0 0 0 0 0 0 0 0 0 0
0 0 0 0 0 0 0 0 0 0 0 0 0 0 0 0 0 0 0 0 0 0 0 0 0 0 0 0 0 0 0 0 0
0 0 0 0 0 0 0 0 0 0 0 0 0 0 0 0 0 0 0 0 0 0 0 0 0 0 0 0 0 0 0 0 0
0 0 0 0 0 0 0 0 0 0 0 0 0 0 0 0 0 0 172 93 49 172 93 49 172 93 49
172 93 49 172 93 49 172 93 49 172 93 49 172 93 49 172 93 49 172 93 49
222 157 123 222 157 123 222 157 123 222 157 123 222 157 123
222 157 123 222 157 123 222 157 123 222 157 123 222 157 123
205 125 74 205 125 74 205 125 74 205 125 74 205 125 74 205 125 74
205 125 74 205 125 74 205 125 74 205 125 74 172 93 49 172 93 49
172 93 49 172 93 49 172 93 49 172 93 49 172 93 49 172 93 49 172 93 49
172 93 49 172 93 49 172 93 49 172 93 49 172 93 49 172 93 49 172 93 49
172 93 49 172 93 49 172 93 49 172 93 49 205 125 74 205 125 74
205 125 74 205 125 74 205 125 74 205 125 74 205 125 74 205 125 74
205 125 74 205 125 74 172 93 49 172 93 49 172 93 49 172 93 49
172 93 49 172 93 49 172 93 49 172 93 49 172 93 49 172 93 49 139 68 32
139 68 32 139 68 32 139 68 32 139 68 32 139 68 32 139 68 32 139 68 32
139 68 32 139 68 32 0 0 0 0 0 0 0 0 0 0 0 0 0 0 0 0 0 0 0 0 0 0 0 0
0 0 0 0 0 0 0 0 0 0 0 0 0 0 0 0 0 0 0 0 0 0 0 0 0 0 0 0 0 0 0 0 0
0 0 0 0 0 0 0 0 0 0 0 0 0 0 0 0 0 0 0 0 0 0 0 0 0 0 0 0 0 0 0 0 0
0 0 0 0 0 0 0 0 0 0 0 0 0 0 0 0 0 0 0 0 0 0 0 0 0 0 0 0 0 0 0 0 0
0 0 0 0 0 0 0 0 0 0 0 0 0 0 0 0 0 0 0 0 0 0 0 0 0 0 0 0 0 0 0 0 0
0 0 0 0 0 0 0 0 0 0 0 0 0 0 0 0 0 0 0 0 0 0 0 0 0 0 0 0 0 0 0 0 0
0 0 0 0 0 0 0 0 0 0 0 0 0 0 0 0 0 0 0 0 0 0 0 0 0 0 0 0 0 0 0 0 0
0 0 0 0 0 0 0 0 0 0 0 0 0 0 0 0 0 0 172 93 49 172 93 49 172 93 49
172 93 49 172 93 49 172 93 49 172 93 49 172 93 49 172 93 49 172 93 49
222 157 123 222 157 123 222 157 123 222 157 123 222 157 123
222 157 123 222 157 123 222 157 123 222 157 123 222 157 123
205 125 74 205 125 74 205 125 74 205 125 74 205 125 74 205 125 74
205 125 74 205 125 74 205 125 74 205 125 74 172 93 49 172 93 49
172 93 49 172 93 49 172 93 49 172 93 49 172 93 49 172 93 49 172 93 49
172 93 49 172 93 49 172 93 49 172 93 49 172 93 49 172 93 49 172 93 49
172 93 49 172 93 49 172 93 49 172 93 49 205 125 74 205 125 74
205 125 74 205 125 74 205 125 74 205 125 74 205 125 74 205 125 74
205 125 74 205 125 74 172 93 49 172 93 49 172 93 49 172 93 49
172 93 49 172 93 49 172 93 49 172 93 49 172 93 49 172 93 49 139 68 32
139 68 32 139 68 32 139 68 32 139 68 32 139 68 32 139 68 32 139 68 32
139 68 32 139 68 32 0 0 0 0 0 0 0 0 0 0 0 0 0 0 0 0 0 0 0 0 0 0 0 0
0 0 0 0 0 0 0 0 0 0 0 0 0 0 0 0 0 0 0 0 0 0 0 0 0 0 0 0 0 0 0 0 0
0 0 0 0 0 0 0 0 0 0 0 0 0 0 0 0 0 0 0 0 0 0 0 0 0 0 0 0 0 0 0 0 0
0 0 0 0 0 0 0 0 0 0 0 0 0 0 0 0 0 0 0 0 0 0 0 0 0 0 0 0 0 0 0 0 0
0 0 0 0 0 0 0 0 0 0 0 0 0 0 0 0 0 0 0 0 0 0 0 0 0 0 0 0 0 0 0 0 0
0 0 0 0 0 0 0 0 0 0 0 0 0 0 0 0 0 0 0 0 0 0 0 0 0 0 0 0 0 0 0 0 0
0 0 0 0 0 0 0 0 0 0 0 0 0 0 0 0 0 0 0 0 0 0 0 0 0 0 0 0 0 0 0 0 0
0 0 0 0 0 0 0 0 0 0 0 0 0 0 0 0 0 0 172 93 49 172 93 49 172 93 49
172 93 49 172 93 49 172 93 49 172 93 49 172 93 49 172 93 49 172 93 49
222 157 123 222 157 123 222 157 123 222 157 123 222 157 123
222 157 123 222 157 123 222 157 123 222 157 123 222 157 123
205 125 74 205 125 74 205 125 74 205 125 74 205 125 74 205 125 74
205 125 74 205 125 74 205 125 74 205 125 74 172 93 49 172 93 49
172 93 49 172 93 49 172 93 49 172 93 49 172 93 49 172 93 49 172 93 49
172 93 49 172 93 49 172 93 49 172 93 49 172 93 49 172 93 49 172 93 49
172 93 49 172 93 49 172 93 49 172 93 49 205 125 74 205 125 74
205 125 74 205 125 74 205 125 74 205 125 74 205 125 74 205 125 74
205 125 74 205 125 74 172 93 49 172 93 49 172 93 49 172 93 49
172 93 49 172 93 49 172 93 49 172 93 49 172 93 49 172 93 49 139 68 32
139 68 32 139 68 32 139 68 32 139 68 32 139 68 32 139 68 32 139 68 32
139 68 32 139 68 32 0 0 0 0 0 0 0 0 0 0 0 0 0 0 0 0 0 0 0 0 0 0 0 0
0 0 0 0 0 0 0 0 0 0 0 0 0 0 0 0 0 0 0 0 0 0 0 0 0 0 0 0 0 0 0 0 0
0 0 0 0 0 0 0 0 0 0 0 0 0 0 0 0 0 0 0 0 0 0 0 0 0 0 0 0 0 0 0 0 0
0 0 0 0 0 0 0 0 0 0 0 0 0 0 0 0 0 0 0 0 0 0 0 0 0 0 0 0 0 0 0 0 0
0 0 0 0 0 0 0 0 0 0 0 0 0 0 0 0 0 0 0 0 0 0 0 0 0 0 0 0 0 0 0 0 0
0 0 0 0 0 0 0 0 0 0 0 0 0 0 0 0 0 0 0 0 0 0 0 0 0 0 0 0 0 0 0 0 0
0 0 0 0 0 0 0 0 0 0 0 0 0 0 0 0 0 0 0 0 0 0 0 0 0 0 0 0 0 0 0 0 0
0 0 0 0 0 0 0 0 0 0 0 0 0 0 0 0 0 0 172 93 49 172 93 49 172 93 49
172 93 49 172 93 49 172 93 49 172 93 49 172 93 49 172 93 49 172 93 49
222 157 123 222 157 123 222 157 123 222 157 123 222 157 123
222 157 123 222 157 123 222 157 123 222 157 123 222 157 123
205 125 74 205 125 74 205 125 74 205 125 74 205 125 74 205 125 74
205 125 74 205 125 74 205 125 74 205 125 74 172 93 49 172 93 49
172 93 49 172 93 49 172 93 49 172 93 49 172 93 49 172 93 49 172 93 49
172 93 49 172 93 49 172 93 49 172 93 49 172 93 49 172 93 49 172 93 49
172 93 49 172 93 49 172 93 49 172 93 49 205 125 74 205 125 74
205 125 74 205 125 74 205 125 74 205 125 74 205 125 74 205 125 74
205 125 74 205 125 74 172 93 49 172 93 49 172 93 49 172 93 49
172 93 49 172 93 49 172 93 49 172 93 49 172 93 49 172 93 49 139 68 32
139 68 32 139 68 32 139 68 32 139 68 32 139 68 32 139 68 32 139 68 32
139 68 32 139 68 32 0 0 0 0 0 0 0 0 0 0 0 0 0 0 0 0 0 0 0 0 0 0 0 0
0 0 0 0 0 0 0 0 0 0 0 0 0 0 0 0 0 0 0 0 0 0 0 0 0 0 0 0 0 0 0 0 0
0 0 0 0 0 0 0 0 0 0 0 0 0 0 0 0 0 0 0 0 0 0 0 0 0 0 0 0 0 0 0 0 0
0 0 0 0 0 0 0 0 0 0 0 0 0 0 0 0 0 0 0 0 0 0 0 0 0 0 0 0 0 0 0 0 0
0 0 0 0 0 0 0 0 0 0 0 0 0 0 0 0 0 0 0 0 0 0 0 0 0 0 0 0 0 0 0 0 0
0 0 0 0 0 0 0 0 0 0 0 0 0 0 0 0 0 0 0 0 0 0 0 0 0 0 0 0 0 0 0 0 0
0 0 0 0 0 0 0 0 0 0 0 0 0 0 0 0 0 0 0 0 0 0 0 0 0 0 0 0 0 0 0 0 0
0 0 0 0 0 0 0 0 0 0 0 0 0 0 0 0 0 0 172 93 49 172 93 49 172 93 49
172 93 49 172 93 49 172 93 49 172 93 49 172 93 49 172 93 49 172 93 49
222 157 123 222 157 123 222 157 123 222 157 123 222 157 123
222 157 123 222 157 123 222 157 123 222 157 123 222 157 123
205 125 74 205 125 74 205 125 74 205 125 74 205 125 74 205 125 74
205 125 74 205 125 74 205 125 74 205 125 74 172 93 49 172 93 49
172 93 49 172 93 49 172 93 49 172 93 49 172 93 49 172 93 49 172 93 49
172 93 49 172 93 49 172 93 49 172 93 49 172 93 49 172 93 49 172 93 49
172 93 49 172 93 49 172 93 49 172 93 49 205 125 74 205 125 74
205 125 74 205 125 74 205 125 74 205 125 74 205 125 74 205 125 74
205 125 74 205 125 74 172 93 49 172 93 49 172 93 49 172 93 49
172 93 49 172 93 49 172 93 49 172 93 49 172 93 49 172 93 49 139 68 32
139 68 32 139 68 32 139 68 32 139 68 32 139 68 32 139 68 32 139 68 32
139 68 32 139 68 32 0 0 0 0 0 0 0 0 0 0 0 0 0 0 0 0 0 0 0 0 0 0 0 0
0 0 0 0 0 0 0 0 0 0 0 0 0 0 0 0 0 0 0 0 0 0 0 0 0 0 0 0 0 0 0 0 0
0 0 0 0 0 0 0 0 0 0 0 0 0 0 0 0 0 0 0 0 0 0 0 0 0 0 0 0 0 0 0 0 0
0 0 0 0 0 0 0 0 0 0 0 0 0 0 0 0 0 0 0 0 0 0 0 0 0 0 0 0 0 0 0 0 0
0 0 0 0 0 0 0 0 0 0 0 0 0 0 0 0 0 0 0 0 0 0 0 0 0 0 0 0 0 0 0 0 0
0 0 0 0 0 0 0 0 0 0 0 0 0 0 0 0 0 0 0 0 0 0 0 0 0 0 0 0 0 0 0 0 0
0 0 0 0 0 0 0 0 0 0 0 0 0 0 0 0 0 0 0 0 0 0 0 0 0 0 0 0 0 0 0 0 0
0 0 0 0 0 0 0 0 0 0 0 0 0 0 0 0 0 0 172 93 49 172 93 49 172 93 49
172 93 49 172 93 49 172 93 49 172 93 49 172 93 49 172 93 49 172 93 49
222 157 123 222 157 123 222 157 123 222 157 123 222 157 123
222 157 123 222 157 123 222 157 123 222 157 123 222 157 123
205 125 74 205 125 74 205 125 74 205 125 74 205 125 74 205 125 74
205 125 74 205 125 74 205 125 74 205 125 74 172 93 49 172 93 49
172 93 49 172 93 49 172 93 49 172 93 49 172 93 49 172 93 49 172 93 49
172 93 49 172 93 49 172 93 49 172 93 49 172 93 49 172 93 49 172 93 49
172 93 49 172 93 49 172 93 49 172 93 49 205 125 74 205 125 74
205 125 74 205 125 74 205 125 74 205 125 74 205 125 74 205 125 74
205 125 74 205 125 74 172 93 49 172 93 49 172 93 49 172 93 49
172 93 49 172 93 49 172 93 49 172 93 49 172 93 49 172 93 49 139 68 32
139 68 32 139 68 32 139 68 32 139 68 32 139 68 32 139 68 32 139 68 32
139 68 32 139 68 32 0 0 0 0 0 0 0 0 0 0 0 0 0 0 0 0 0 0 0 0 0 0 0 0
0 0 0 0 0 0 0 0 0 0 0 0 0 0 0 0 0 0 0 0 0 0 0 0 0 0 0 0 0 0 0 0 0
0 0 0 0 0 0 0 0 0 0 0 0 0 0 0 0 0 0 0 0 0 0 0 0 0 0 0 0 0 0 0 0 0
0 0 0 0 0 0 0 0 0 0 0 0 0 0 0 0 0 0 0 0 0 0 0 0 0 0 0 0 0 0 0 0 0
0 0 0 0 0 0 0 0 0 0 0 0 0 0 0 0 0 0 0 0 0 0 0 0 0 0 0 0 0 0 0 0 0
0 0 0 0 0 0 0 0 0 0 0 0 0 0 0 0 0 0 0 0 0 0 0 0 0 0 0 0 0 0 0 0 0
0 0 0 0 0 0 0 0 0 0 0 0 0 0 0 0 0 0 0 0 0 139 68 32 139 68 32
139 68 32 139 68 32 139 68 32 139 68 32 139 68 32 139 68 32 139 68 32
139 68 32 210 142 98 210 142 98 210 142 98 210 142 98 210 142 98
210 142 98 210 142 98 210 142 98 210 142 98 210 142 98 205 125 74
205 125 74 205 125 74 205 125 74 205 125 74 205 125 74 205 125 74
205 125 74 205 125 74 205 125 74 172 93 49 172 93 49 172 93 49
172 93 49 172 93 49 172 93 49 172 93 49 172 93 49 172 93 49 172 93 49
205 125 74 205 125 74 205 125 74 205 125 74 205 125 74 205 125 74
205 125 74 205 125 74 205 125 74 205 125 74 222 157 123 222 157 123
222 157 123 222 157 123 222 157 123 222 157 123 222 157 123
222 157 123 222 157 123 222 157 123 230 190 164 230 190 164
230 190 164 230 190 164 230 190 164 230 190 164 230 190 164
230 190 164 230 190 164 230 190 164 230 190 164 230 190 164
230 190 164 230 190 164 230 190 164 230 190 164 230 190 164
230 190 164 230 190 164 230 190 164 210 142 98 210 142 98 210 142 98
210 142 98 210 142 98 210 142 98 210 142 98 210 142 98 210 142 98
210 142 98 90 44 16 90 44 16 90 44 16 90 44 16 90 44 16 90 44 16
90 44 16 90 44 16 90 44 16 90 44 16 0 0 0 0 0 0 0 0 0 0 0 0 0 0 0
0 0 0 0 0 0 0 0 0 0 0 0 0 0 0 0 0 0 0 0 0 0 0 0 0 0 0 0 0 0 0 0 0
0 0 0 0 0 0 0 0 0 0 0 0 0 0 0 0 0 0 0 0 0 0 0 0 0 0 0 0 0 0 0 0 0
0 0 0 0 0 0 0 0 0 0 0 0 0 0 0 0 0 0 0 0 0 0 0 0 0 0 0 0 0 0 0 0 0
0 0 0 0 0 0 0 0 0 0 0 0 0 0 0 0 0 0 0 0 0 0 0 0 0 0 0 0 0 0 0 0 0
0 0 0 0 0 0 0 0 0 0 0 0 0 0 0 0 0 0 0 0 0 0 0 0 0 0 0 0 0 0 0 0 0
139 68 32 139 68 32 139 68 32 139 68 32 139 68 32 139 68 32 139 68 32
139 68 32 139 68 32 139 68 32 210 142 98 210 142 98 210 142 98
210 142 98 210 142 98 210 142 98 210 142 98 210 142 98 210 142 98
210 142 98 205 125 74 205 125 74 205 125 74 205 125 74 205 125 74
205 125 74 205 125 74 205 125 74 205 125 74 205 125 74 172 93 49
172 93 49 172 93 49 172 93 49 172 93 49 172 93 49 172 93 49 172 93 49
172 93 49 172 93 49 205 125 74 205 125 74 205 125 74 205 125 74
205 125 74 205 125 74 205 125 74 205 125 74 205 125 74 205 125 74
222 157 123 222 157 123 222 157 123 222 157 123 222 157 123
222 157 123 222 157 123 222 157 123 222 157 123 222 157 123
230 190 164 230 190 164 230 190 164 230 190 164 230 190 164
230 190 164 230 190 164 230 190 164 230 190 164 230 190 164
230 190 164 230 190 164 230 190 164 230 190 164 230 190 164
230 190 164 230 190 164 230 190 164 230 190 164 230 190 164
210 142 98 210 142 98 210 142 98 210 142 98 210 142 98 210 142 98
210 142 98 210 142 98 210 142 98 210 142 98 90 44 16 90 44 16
90 44 16 90 44 16 90 44 16 90 44 16 90 44 16 90 44 16 90 44 16
90 44 16 0 0 0 0 0 0 0 0 0 0 0 0 0 0 0 0 0 0 0 0 0 0 0 0 0 0 0 0 0 0
0 0 0 0 0 0 0 0 0 0 0 0 0 0 0 0 0 0 0 0 0 0 0 0 0 0 0 0 0 0 0 0 0
0 0 0 0 0 0 0 0 0 0 0 0 0 0 0 0 0 0 0 0 0 0 0 0 0 0 0 0 0 0 0 0 0
0 0 0 0 0 0 0 0 0 0 0 0 0 0 0 0 0 0 0 0 0 0 0 0 0 0 0 0 0 0 0 0 0
0 0 0 0 0 0 0 0 0 0 0 0 0 0 0 0 0 0 0 0 0 0 0 0 0 0 0 0 0 0 0 0 0
0 0 0 0 0 0 0 0 0 0 0 0 0 0 0 0 0 0 139 68 32 139 68 32 139 68 32
139 68 32 139 68 32 139 68 32 139 68 32 139 68 32 139 68 32 139 68 32
210 142 98 210 142 98 210 142 98 210 142 98 210 142 98 210 142 98
210 142 98 210 142 98 210 142 98 210 142 98 205 125 74 205 125 74
205 125 74 205 125 74 205 125 74 205 125 74 205 125 74 205 125 74
205 125 74 205 125 74 172 93 49 172 93 49 172 93 49 172 93 49
172 93 49 172 93 49 172 93 49 172 93 49 172 93 49 172 93 49
205 125 74 205 125 74 205 125 74 205 125 74 205 125 74 205 125 74
205 125 74 205 125 74 205 125 74 205 125 74 222 157 123 222 157 123
222 157 123 222 157 123 222 157 123 222 157 123 222 157 123
222 157 123 222 157 123 222 157 123 230 190 164 230 190 164
230 190 164 230 190 164 230 190 164 230 190 164 230 190 164
230 190 164 230 190 164 230 190 164 230 190 164 230 190 164
230 190 164 230 190 164 230 190 164 230 190 164 230 190 164
230 190 164 230 190 164 230 190 164 210 142 98 210 142 98 210 142 98
210 142 98 210 142 98 210 142 98 210 142 98 210 142 98 210 142 98
210 142 98 90 44 16 90 44 16 90 44 16 90 44 16 90 44 16 90 44 16
90 44 16 90 44 16 90 44 16 90 44 16 0 0 0 0 0 0 0 0 0 0 0 0 0 0 0
0 0 0 0 0 0 0 0 0 0 0 0 0 0 0 0 0 0 0 0 0 0 0 0 0 0 0 0 0 0 0 0 0
0 0 0 0 0 0 0 0 0 0 0 0 0 0 0 0 0 0 0 0 0 0 0 0 0 0 0 0 0 0 0 0 0
0 0 0 0 0 0 0 0 0 0 0 0 0 0 0 0 0 0 0 0 0 0 0 0 0 0 0 0 0 0 0 0 0
0 0 0 0 0 0 0 0 0 0 0 0 0 0 0 0 0 0 0 0 0 0 0 0 0 0 0 0 0 0 0 0 0
0 0 0 0 0 0 0 0 0 0 0 0 0 0 0 0 0 0 0 0 0 0 0 0 0 0 0 0 0 0 0 0 0
139 68 32 139 68 32 139 68 32 139 68 32 139 68 32 139 68 32 139 68 32
139 68 32 139 68 32 139 68 32 210 142 98 210 142 98 210 142 98
210 142 98 210 142 98 210 142 98 210 142 98 210 142 98 210 142 98
210 142 98 205 125 74 205 125 74 205 125 74 205 125 74 205 125 74
205 125 74 205 125 74 205 125 74 205 125 74 205 125 74 172 93 49
172 93 49 172 93 49 172 93 49 172 93 49 172 93 49 172 93 49 172 93 49
172 93 49 172 93 49 205 125 74 205 125 74 205 125 74 205 125 74
205 125 74 205 125 74 205 125 74 205 125 74 205 125 74 205 125 74
222 157 123 222 157 123 222 157 123 222 157 123 222 157 123
222 157 123 222 157 123 222 157 123 222 157 123 222 157 123
230 190 164 230 190 164 230 190 164 230 190 164 230 190 164
230 190 164 230 190 164 230 190 164 230 190 164 230 190 164
230 190 164 230 190 164 230 190 164 230 190 164 230 190 164
230 190 164 230 190 164 230 190 164 230 190 164 230 190 164
210 142 98 210 142 98 210 142 98 210 142 98 210 142 98 210 142 98
210 142 98 210 142 98 210 142 98 210 142 98 90 44 16 90 44 16
90 44 16 90 44 16 90 44 16 90 44 16 90 44 16 90 44 16 90 44 16
90 44 16 0 0 0 0 0 0 0 0 0 0 0 0 0 0 0 0 0 0 0 0 0 0 0 0 0 0 0 0 0 0
0 0 0 0 0 0 0 0 0 0 0 0 0 0 0 0 0 0 0 0 0 0 0 0 0 0 0 0 0 0 0 0 0
0 0 0 0 0 0 0 0 0 0 0 0 0 0 0 0 0 0 0 0 0 0 0 0 0 0 0 0 0 0 0 0 0
0 0 0 0 0 0 0 0 0 0 0 0 0 0 0 0 0 0 0 0 0 0 0 0 0 0 0 0 0 0 0 0 0
0 0 0 0 0 0 0 0 0 0 0 0 0 0 0 0 0 0 0 0 0 0 0 0 0 0 0 0 0 0 0 0 0
0 0 0 0 0 0 0 0 0 0 0 0 0 0 0 0 0 0 139 68 32 139 68 32 139 68 32
139 68 32 139 68 32 139 68 32 139 68 32 139 68 32 139 68 32 139 68 32
210 142 98 210 142 98 210 142 98 210 142 98 210 142 98 210 142 98
210 142 98 210 142 98 210 142 98 210 142 98 205 125 74 205 125 74
205 125 74 205 125 74 205 125 74 205 125 74 205 125 74 205 125 74
205 125 74 205 125 74 172 93 49 172 93 49 172 93 49 172 93 49
172 93 49 172 93 49 172 93 49 172 93 49 172 93 49 172 93 49
205 125 74 205 125 74 205 125 74 205 125 74 205 125 74 205 125 74
205 125 74 205 125 74 205 125 74 205 125 74 222 157 123 222 157 123
222 157 123 222 157 123 222 157 123 222 157 123 222 157 123
222 157 123 222 157 123 222 157 123 230 190 164 230 190 164
230 190 164 230 190 164 230 190 164 230 190 164 230 190 164
230 190 164 230 190 164 230 190 164 230 190 164 230 190 164
230 190 164 230 190 164 230 190 164 230 190 164 230 190 164
230 190 164 230 190 164 230 190 164 210 142 98 210 142 98 210 142 98
210 142 98 210 142 98 210 142 98 210 142 98 210 142 98 210 142 98
210 142 98 90 44 16 90 44 16 90 44 16 90 44 16 90 44 16 90 44 16
90 44 16 90 44 16 90 44 16 90 44 16 0 0 0 0 0 0 0 0 0 0 0 0 0 0 0
0 0 0 0 0 0 0 0 0 0 0 0 0 0 0 0 0 0 0 0 0 0 0 0 0 0 0 0 0 0 0 0 0
0 0 0 0 0 0 0 0 0 0 0 0 0 0 0 0 0 0 0 0 0 0 0 0 0 0 0 0 0 0 0 0 0
0 0 0 0 0 0 0 0 0 0 0 0 0 0 0 0 0 0 0 0 0 0 0 0 0 0 0 0 0 0 0 0 0
0 0 0 0 0 0 0 0 0 0 0 0 0 0 0 0 0 0 0 0 0 0 0 0 0 0 0 0 0 0 0 0 0
0 0 0 0 0 0 0 0 0 0 0 0 0 0 0 0 0 0 0 0 0 0 0 0 0 0 0 0 0 0 0 0 0
139 68 32 139 68 32 139 68 32 139 68 32 139 68 32 139 68 32 139 68 32
139 68 32 139 68 32 139 68 32 210 142 98 210 142 98 210 142 98
210 142 98 210 142 98 210 142 98 210 142 98 210 142 98 210 142 98
210 142 98 205 125 74 205 125 74 205 125 74 205 125 74 205 125 74
205 125 74 205 125 74 205 125 74 205 125 74 205 125 74 172 93 49
172 93 49 172 93 49 172 93 49 172 93 49 172 93 49 172 93 49 172 93 49
172 93 49 172 93 49 205 125 74 205 125 74 205 125 74 205 125 74
205 125 74 205 125 74 205 125 74 205 125 74 205 125 74 205 125 74
222 157 123 222 157 123 222 157 123 222 157 123 222 157 123
222 157 123 222 157 123 222 157 123 222 157 123 222 157 123
230 190 164 230 190 164 230 190 164 230 190 164 230 190 164
230 190 164 230 190 164 230 190 164 230 190 164 230 190 164
230 190 164 230 190 164 230 190 164 230 190 164 230 190 164
230 190 164 230 190 164 230 190 164 230 190 164 230 190 164
210 142 98 210 142 98 210 142 98 210 142 98 210 142 98 210 142 98
210 142 98 210 142 98 210 142 98 210 142 98 90 44 16 90 44 16
90 44 16 90 44 16 90 44 16 90 44 16 90 44 16 90 44 16 90 44 16
90 44 16 0 0 0 0 0 0 0 0 0 0 0 0 0 0 0 0 0 0 0 0 0 0 0 0 0 0 0 0 0 0
0 0 0 0 0 0 0 0 0 0 0 0 0 0 0 0 0 0 0 0 0 0 0 0 0 0 0 0 0 0 0 0 0
0 0 0 0 0 0 0 0 0 0 0 0 0 0 0 0 0 0 0 0 0 0 0 0 0 0 0 0 0 0 0 0 0
0 0 0 0 0 0 0 0 0 0 0 0 0 0 0 0 0 0 0 0 0 0 0 0 0 0 0 0 0 0 0 0 0
0 0 0 0 0 0 0 0 0 0 0 0 0 0 0 0 0 0 0 0 0 0 0 0 0 0 0 0 0 0 0 0 0
0 0 0 0 0 0 0 0 0 0 0 0 0 0 0 0 0 0 139 68 32 139 68 32 139 68 32
139 68 32 139 68 32 139 68 32 139 68 32 139 68 32 139 68 32 139 68 32
210 142 98 210 142 98 210 142 98 210 142 98 210 142 98 210 142 98
210 142 98 210 142 98 210 142 98 210 142 98 205 125 74 205 125 74
205 125 74 205 125 74 205 125 74 205 125 74 205 125 74 205 125 74
205 125 74 205 125 74 172 93 49 172 93 49 172 93 49 172 93 49
172 93 49 172 93 49 172 93 49 172 93 49 172 93 49 172 93 49
205 125 74 205 125 74 205 125 74 205 125 74 205 125 74 205 125 74
205 125 74 205 125 74 205 125 74 205 125 74 222 157 123 222 157 123
222 157 123 222 157 123 222 157 123 222 157 123 222 157 123
222 157 123 222 157 123 222 157 123 230 190 164 230 190 164
230 190 164 230 190 164 230 190 164 230 190 164 230 190 164
230 190 164 230 190 164 230 190 164 230 190 164 230 190 164
230 190 164 230 190 164 230 190 164 230 190 164 230 190 164
230 190 164 230 190 164 230 190 164 210 142 98 210 142 98 210 142 98
210 142 98 210 142 98 210 142 98 210 142 98 210 142 98 210 142 98
210 142 98 90 44 16 90 44 16 90 44 16 90 44 16 90 44 16 90 44 16
90 44 16 90 44 16 90 44 16 90 44 16 0 0 0 0 0 0 0 0 0 0 0 0 0 0 0
0 0 0 0 0 0 0 0 0 0 0 0 0 0 0 0 0 0 0 0 0 0 0 0 0 0 0 0 0 0 0 0 0
0 0 0 0 0 0 0 0 0 0 0 0 0 0 0 0 0 0 0 0 0 0 0 0 0 0 0 0 0 0 0 0 0
0 0 0 0 0 0 0 0 0 0 0 0 0 0 0 0 0 0 0 0 0 0 0 0 0 0 0 0 0 0 0 0 0
0 0 0 0 0 0 0 0 0 0 0 0 0 0 0 0 0 0 0 0 0 0 0 0 0 0 0 0 0 0 0 0 0
0 0 0 0 0 0 0 0 0 0 0 0 0 0 0 0 0 0 0 0 0 0 0 0 0 0 0 0 0 0 0 0 0
139 68 32 139 68 32 139 68 32 139 68 32 139 68 32 139 68 32 139 68 32
139 68 32 139 68 32 139 68 32 210 142 98 210 142 98 210 142 98
210 142 98 210 142 98 210 142 98 210 142 98 210 142 98 210 142 98
210 142 98 205 125 74 205 125 74 205 125 74 205 125 74 205 125 74
205 125 74 205 125 74 205 125 74 205 125 74 205 125 74 172 93 49
172 93 49 172 93 49 172 93 49 172 93 49 172 93 49 172 93 49 172 93 49
172 93 49 172 93 49 205 125 74 205 125 74 205 125 74 205 125 74
205 125 74 205 125 74 205 125 74 205 125 74 205 125 74 205 125 74
222 157 123 222 157 123 222 157 123 222 157 123 222 157 123
222 157 123 222 157 123 222 157 123 222 157 123 222 157 123
230 190 164 230 190 164 230 190 164 230 190 164 230 190 164
230 190 164 230 190 164 230 190 164 230 190 164 230 190 164
230 190 164 230 190 164 230 190 164 230 190 164 230 190 164
230 190 164 230 190 164 230 190 164 230 190 164 230 190 164
210 142 98 210 142 98 210 142 98 210 142 98 210 142 98 210 142 98
210 142 98 210 142 98 210 142 98 210 142 98 90 44 16 90 44 16
90 44 16 90 44 16 90 44 16 90 44 16 90 44 16 90 44 16 90 44 16
90 44 16 0 0 0 0 0 0 0 0 0 0 0 0 0 0 0 0 0 0 0 0 0 0 0 0 0 0 0 0 0 0
0 0 0 0 0 0 0 0 0 0 0 0 0 0 0 0 0 0 0 0 0 0 0 0 0 0 0 0 0 0 0 0 0
0 0 0 0 0 0 0 0 0 0 0 0 0 0 0 0 0 0 0 0 0 0 0 0 0 0 0 0 0 0 0 0 0
0 0 0 0 0 0 0 0 0 0 0 0 0 0 0 0 0 0 0 0 0 0 0 0 0 0 0 0 0 0 0 0 0
0 0 0 0 0 0 0 0 0 0 0 0 0 0 0 0 0 0 0 0 0 0 0 0 0 0 0 0 0 0 0 0 0
0 0 0 0 0 0 0 0 0 0 0 0 0 0 0 0 0 0 139 68 32 139 68 32 139 68 32
139 68 32 139 68 32 139 68 32 139 68 32 139 68 32 139 68 32 139 68 32
210 142 98 210 142 98 210 142 98 210 142 98 210 142 98 210 142 98
210 142 98 210 142 98 210 142 98 210 142 98 205 125 74 205 125 74
205 125 74 205 125 74 205 125 74 205 125 74 205 125 74 205 125 74
205 125 74 205 125 74 172 93 49 172 93 49 172 93 49 172 93 49
172 93 49 172 93 49 172 93 49 172 93 49 172 93 49 172 93 49
205 125 74 205 125 74 205 125 74 205 125 74 205 125 74 205 125 74
205 125 74 205 125 74 205 125 74 205 125 74 222 157 123 222 157 123
222 157 123 222 157 123 222 157 123 222 157 123 222 157 123
222 157 123 222 157 123 222 157 123 230 190 164 230 190 164
230 190 164 230 190 164 230 190 164 230 190 164 230 190 164
230 190 164 230 190 164 230 190 164 230 190 164 230 190 164
230 190 164 230 190 164 230 190 164 230 190 164 230 190 164
230 190 164 230 190 164 230 190 164 210 142 98 210 142 98 210 142 98
210 142 98 210 142 98 210 142 98 210 142 98 210 142 98 210 142 98
210 142 98 90 44 16 90 44 16 90 44 16 90 44 16 90 44 16 90 44 16
90 44 16 90 44 16 90 44 16 90 44 16 0 0 0 0 0 0 0 0 0 0 0 0 0 0 0
0 0 0 0 0 0 0 0 0 0 0 0 0 0 0 0 0 0 0 0 0 0 0 0 0 0 0 0 0 0 0 0 0
0 0 0 0 0 0 0 0 0 0 0 0 0 0 0 0 0 0 0 0 0 0 0 0 0 0 0 0 0 0 0 0 0
0 0 0 0 0 0 0 0 0 0 0 0 0 0 0 0 0 0 0 0 0 0 0 0 0 0 0 0 0 0 0 0 0
0 0 0 0 0 0 0 0 0 0 0 0 0 0 0 0 0 0 0 0 0 0 0 0 0 0 0 0 0 0 0 0 0
0 0 0 0 0 0 0 0 0 0 0 0 0 0 0 0 0 0 0 0 0 0 0 0 0 0 0 0 0 0 0 0 0
139 68 32 139 68 32 139 68 32 139 68 32 139 68 32 139 68 32 139 68 32
139 68 32 139 68 32 139 68 32 210 142 98 210 142 98 210 142 98
210 142 98 210 142 98 210 142 98 210 142 98 210 142 98 210 142 98
210 142 98 205 125 74 205 125 74 205 125 74 205 125 74 205 125 74
205 125 74 205 125 74 205 125 74 205 125 74 205 125 74 172 93 49
172 93 49 172 93 49 172 93 49 172 93 49 172 93 49 172 93 49 172 93 49
172 93 49 172 93 49 205 125 74 205 125 74 205 125 74 205 125 74
205 125 74 205 125 74 205 125 74 205 125 74 205 125 74 205 125 74
222 157 123 222 157 123 222 157 123 222 157 123 222 157 123
222 157 123 222 157 123 222 157 123 222 157 123 222 157 123
230 190 164 230 190 164 230 190 164 230 190 164 230 190 164
230 190 164 230 190 164 230 190 164 230 190 164 230 190 164
230 190 164 230 190 164 230 190 164 230 190 164 230 190 164
230 190 164 230 190 164 230 190 164 230 190 164 230 190 164
210 142 98 210 142 98 210 142 98 210 142 98 210 142 98 210 142 98
210 142 98 210 142 98 210 142 98 210 142 98 90 44 16 90 44 16
90 44 16 90 44 16 90 44 16 90 44 16 90 44 16 90 44 16 90 44 16
90 44 16 0 0 0 0 0 0 0 0 0 0 0 0 0 0 0 0 0 0 0 0 0 0 0 0 0 0 0 0 0 0
0 0 0 0 0 0 0 0 0 0 0 0 0 0 0 0 0 0 0 0 0 0 0 0 0 0 0 0 0 0 0 0 0
0 0 0 0 0 0 0 0 0 0 0 0 0 0 0 0 0 0 0 0 0 0 0 0 0 0 0 0 0 0 0 0 0
0 0 0 0 0 0 0 0 0 0 0 0 0 0 0 0 0 0 0 0 0 0 0 0 0 0 0 0 0 0 0 0 0
0 0 0 0 0 0 0 0 0 0 0 0 0 0 0 0 0 0 0 0 0 0 0 0 0 0 0 0 0 0 0 0 0
0 0 0 0 0 0 0 0 0 0 0 0 0 0 0 0 0 0 139 68 32 139 68 32 139 68 32
139 68 32 139 68 32 139 68 32 139 68 32 139 68 32 139 68 32 139 68 32
210 142 98 210 142 98 210 142 98 210 142 98 210 142 98 210 142 98
210 142 98 210 142 98 210 142 98 210 142 98 205 125 74 205 125 74
205 125 74 205 125 74 205 125 74 205 125 74 205 125 74 205 125 74
205 125 74 205 125 74 210 142 98 210 142 98 210 142 98 210 142 98
210 142 98 210 142 98 210 142 98 210 142 98 210 142 98 210 142 98
222 157 123 222 157 123 222 157 123 222 157 123 222 157 123
222 157 123 222 157 123 222 157 123 222 157 123 222 157 123
230 190 164 230 190 164 230 190 164 230 190 164 230 190 164
230 190 164 230 190 164 230 190 164 230 190 164 230 190 164
230 190 164 230 190 164 230 190 164 230 190 164 230 190 164
230 190 164 230 190 164 230 190 164 230 190 164 230 190 164
230 190 164 230 190 164 230 190 164 230 190 164 230 190 164
230 190 164 230 190 164 230 190 164 230 190 164 230 190 164
222 157 123 222 157 123 222 157 123 222 157 123 222 157 123
222 157 123 222 157 123 222 157 123 222 157 123 222 157 123
205 125 74 205 125 74 205 125 74 205 125 74 205 125 74 205 125 74
205 125 74 205 125 74 205 125 74 205 125 74 90 44 16 90 44 16
90 44 16 90 44 16 90 44 16 90 44 16 90 44 16 90 44 16 90 44 16
90 44 16 0 0 0 0 0 0 0 0 0 0 0 0 0 0 0 0 0 0 0 0 0 0 0 0 0 0 0 0 0 0
0 0 0 0 0 0 0 0 0 0 0 0 0 0 0 0 0 0 0 0 0 0 0 0 0 0 0 0 0 0 0 0 0
0 0 0 0 0 0 0 0 0 0 0 0 0 0 0 0 0 0 0 0 0 0 0 0 0 0 0 0 0 0 0 0 0
0 0 0 0 0 0 0 0 0 0 0 0 0 0 0 0 0 0 0 0 0 0 0 0 0 0 0 0 0 0 0 0 0
0 0 0 0 0 0 0 0 0 0 0 0 0 0 0 0 0 0 0 0 0 139 68 32 139 68 32
139 68 32 139 68 32 139 68 32 139 68 32 139 68 32 139 68 32 139 68 32
139 68 32 210 142 98 210 142 98 210 142 98 210 142 98 210 142 98
210 142 98 210 142 98 210 142 98 210 142 98 210 142 98 205 125 74
205 125 74 205 125 74 205 125 74 205 125 74 205 125 74 205 125 74
205 125 74 205 125 74 205 125 74 210 142 98 210 142 98 210 142 98
210 142 98 210 142 98 210 142 98 210 142 98 210 142 98 210 142 98
210 142 98 222 157 123 222 157 123 222 157 123 222 157 123
222 157 123 222 157 123 222 157 123 222 157 123 222 157 123
222 157 123 230 190 164 230 190 164 230 190 164 230 190 164
230 190 164 230 190 164 230 190 164 230 190 164 230 190 164
230 190 164 230 190 164 230 190 164 230 190 164 230 190 164
230 190 164 230 190 164 230 190 164 230 190 164 230 190 164
230 190 164 230 190 164 230 190 164 230 190 164 230 190 164
230 190 164 230 190 164 230 190 164 230 190 164 230 190 164
230 190 164 222 157 123 222 157 123 222 157 123 222 157 123
222 157 123 222 157 123 222 157 123 222 157 123 222 157 123
222 157 123 205 125 74 205 125 74 205 125 74 205 125 74 205 125 74
205 125 74 205 125 74 205 125 74 205 125 74 205 125 74 90 44 16
90 44 16 90 44 16 90 44 16 90 44 16 90 44 16 90 44 16 90 44 16
90 44 16 90 44 16 0 0 0 0 0 0 0 0 0 0 0 0 0 0 0 0 0 0 0 0 0 0 0 0
0 0 0 0 0 0 0 0 0 0 0 0 0 0 0 0 0 0 0 0 0 0 0 0 0 0 0 0 0 0 0 0 0
0 0 0 0 0 0 0 0 0 0 0 0 0 0 0 0 0 0 0 0 0 0 0 0 0 0 0 0 0 0 0 0 0
0 0 0 0 0 0 0 0 0 0 0 0 0 0 0 0 0 0 0 0 0 0 0 0 0 0 0 0 0 0 0 0 0
0 0 0 0 0 0 0 0 0 0 0 0 0 0 0 0 0 0 0 0 0 0 0 0 0 0 0 139 68 32
139 68 32 139 68 32 139 68 32 139 68 32 139 68 32 139 68 32 139 68 32
139 68 32 139 68 32 210 142 98 210 142 98 210 142 98 210 142 98
210 142 98 210 142 98 210 142 98 210 142 98 210 142 98 210 142 98
205 125 74 205 125 74 205 125 74 205 125 74 205 125 74 205 125 74
205 125 74 205 125 74 205 125 74 205 125 74 210 142 98 210 142 98
210 142 98 210 142 98 210 142 98 210 142 98 210 142 98 210 142 98
210 142 98 210 142 98 222 157 123 222 157 123 222 157 123 222 157 123
222 157 123 222 157 123 222 157 123 222 157 123 222 157 123
222 157 123 230 190 164 230 190 164 230 190 164 230 190 164
230 190 164 230 190 164 230 190 164 230 190 164 230 190 164
230 190 164 230 190 164 230 190 164 230 190 164 230 190 164
230 190 164 230 190 164 230 190 164 230 190 164 230 190 164
230 190 164 230 190 164 230 190 164 230 190 164 230 190 164
230 190 164 230 190 164 230 190 164 230 190 164 230 190 164
230 190 164 222 157 123 222 157 123 222 157 123 222 157 123
222 157 123 222 157 123 222 157 123 222 157 123 222 157 123
222 157 123 205 125 74 205 125 74 205 125 74 205 125 74 205 125 74
205 125 74 205 125 74 205 125 74 205 125 74 205 125 74 90 44 16
90 44 16 90 44 16 90 44 16 90 44 16 90 44 16 90 44 16 90 44 16
90 44 16 90 44 16 0 0 0 0 0 0 0 0 0 0 0 0 0 0 0 0 0 0 0 0 0 0 0 0
0 0 0 0 0 0 0 0 0 0 0 0 0 0 0 0 0 0 0 0 0 0 0 0 0 0 0 0 0 0 0 0 0
0 0 0 0 0 0 0 0 0 0 0 0 0 0 0 0 0 0 0 0 0 0 0 0 0 0 0 0 0 0 0 0 0
0 0 0 0 0 0 0 0 0 0 0 0 0 0 0 0 0 0 0 0 0 0 0 0 0 0 0 0 0 0 0 0 0
0 0 0 0 0 0 0 0 0 0 0 0 0 0 0 0 0 0 0 0 0 0 0 0 0 0 0 139 68 32
139 68 32 139 68 32 139 68 32 139 68 32 139 68 32 139 68 32 139 68 32
139 68 32 139 68 32 210 142 98 210 142 98 210 142 98 210 142 98
210 142 98 210 142 98 210 142 98 210 142 98 210 142 98 210 142 98
205 125 74 205 125 74 205 125 74 205 125 74 205 125 74 205 125 74
205 125 74 205 125 74 205 125 74 205 125 74 210 142 98 210 142 98
210 142 98 210 142 98 210 142 98 210 142 98 210 142 98 210 142 98
210 142 98 210 142 98 222 157 123 222 157 123 222 157 123 222 157 123
222 157 123 222 157 123 222 157 123 222 157 123 222 157 123
222 157 123 230 190 164 230 190 164 230 190 164 230 190 164
230 190 164 230 190 164 230 190 164 230 190 164 230 190 164
230 190 164 230 190 164 230 190 164 230 190 164 230 190 164
230 190 164 230 190 164 230 190 164 230 190 164 230 190 164
230 190 164 230 190 164 230 190 164 230 190 164 230 190 164
230 190 164 230 190 164 230 190 164 230 190 164 230 190 164
230 190 164 222 157 123 222 157 123 222 157 123 222 157 123
222 157 123 222 157 123 222 157 123 222 157 123 222 157 123
222 157 123 205 125 74 205 125 74 205 125 74 205 125 74 205 125 74
205 125 74 205 125 74 205 125 74 205 125 74 205 125 74 90 44 16
90 44 16 90 44 16 90 44 16 90 44 16 90 44 16 90 44 16 90 44 16
90 44 16 90 44 16 0 0 0 0 0 0 0 0 0 0 0 0 0 0 0 0 0 0 0 0 0 0 0 0
0 0 0 0 0 0 0 0 0 0 0 0 0 0 0 0 0 0 0 0 0 0 0 0 0 0 0 0 0 0 0 0 0
0 0 0 0 0 0 0 0 0 0 0 0 0 0 0 0 0 0 0 0 0 0 0 0 0 0 0 0 0 0 0 0 0
0 0 0 0 0 0 0 0 0 0 0 0 0 0 0 0 0 0 0 0 0 0 0 0 0 0 0 0 0 0 0 0 0
0 0 0 0 0 0 0 0 0 0 0 0 0 0 0 0 0 0 0 0 0 0 0 0 0 0 0 139 68 32
139 68 32 139 68 32 139 68 32 139 68 32 139 68 32 139 68 32 139 68 32
139 68 32 139 68 32 210 142 98 210 142 98 210 142 98 210 142 98
210 142 98 210 142 98 210 142 98 210 142 98 210 142 98 210 142 98
205 125 74 205 125 74 205 125 74 205 125 74 205 125 74 205 125 74
205 125 74 205 125 74 205 125 74 205 125 74 210 142 98 210 142 98
210 142 98 210 142 98 210 142 98 210 142 98 210 142 98 210 142 98
210 142 98 210 142 98 222 157 123 222 157 123 222 157 123 222 157 123
222 157 123 222 157 123 222 157 123 222 157 123 222 157 123
222 157 123 230 190 164 230 190 164 230 190 164 230 190 164
230 190 164 230 190 164 230 190 164 230 190 164 230 190 164
230 190 164 230 190 164 230 190 164 230 190 164 230 190 164
230 190 164 230 190 164 230 190 164 230 190 164 230 190 164
230 190 164 230 190 164 230 190 164 230 190 164 230 190 164
230 190 164 230 190 164 230 190 164 230 190 164 230 190 164
230 190 164 222 157 123 222 157 123 222 157 123 222 157 123
222 157 123 222 157 123 222 157 123 222 157 123 222 157 123
222 157 123 205 125 74 205 125 74 205 125 74 205 125 74 205 125 74
205 125 74 205 125 74 205 125 74 205 125 74 205 125 74 90 44 16
90 44 16 90 44 16 90 44 16 90 44 16 90 44 16 90 44 16 90 44 16
90 44 16 90 44 16 0 0 0 0 0 0 0 0 0 0 0 0 0 0 0 0 0 0 0 0 0 0 0 0
0 0 0 0 0 0 0 0 0 0 0 0 0 0 0 0 0 0 0 0 0 0 0 0 0 0 0 0 0 0 0 0 0
0 0 0 0 0 0 0 0 0 0 0 0 0 0 0 0 0 0 0 0 0 0 0 0 0 0 0 0 0 0 0 0 0
0 0 0 0 0 0 0 0 0 0 0 0 0 0 0 0 0 0 0 0 0 0 0 0 0 0 0 0 0 0 0 0 0
0 0 0 0 0 0 0 0 0 0 0 0 0 0 0 0 0 0 0 0 0 0 0 0 0 0 0 139 68 32
139 68 32 139 68 32 139 68 32 139 68 32 139 68 32 139 68 32 139 68 32
139 68 32 139 68 32 210 142 98 210 142 98 210 142 98 210 142 98
210 142 98 210 142 98 210 142 98 210 142 98 210 142 98 210 142 98
205 125 74 205 125 74 205 125 74 205 125 74 205 125 74 205 125 74
205 125 74 205 125 74 205 125 74 205 125 74 210 142 98 210 142 98
210 142 98 210 142 98 210 142 98 210 142 98 210 142 98 210 142 98
210 142 98 210 142 98 222 157 123 222 157 123 222 157 123 222 157 123
222 157 123 222 157 123 222 157 123 222 157 123 222 157 123
222 157 123 230 190 164 230 190 164 230 190 164 230 190 164
230 190 164 230 190 164 230 190 164 230 190 164 230 190 164
230 190 164 230 190 164 230 190 164 230 190 164 230 190 164
230 190 164 230 190 164 230 190 164 230 190 164 230 190 164
230 190 164 230 190 164 230 190 164 230 190 164 230 190 164
230 190 164 230 190 164 230 190 164 230 190 164 230 190 164
230 190 164 222 157 123 222 157 123 222 157 123 222 157 123
222 157 123 222 157 123 222 157 123 222 157 123 222 157 123
222 157 123 205 125 74 205 125 74 205 125 74 205 125 74 205 125 74
205 125 74 205 125 74 205 125 74 205 125 74 205 125 74 90 44 16
90 44 16 90 44 16 90 44 16 90 44 16 90 44 16 90 44 16 90 44 16
90 44 16 90 44 16 0 0 0 0 0 0 0 0 0 0 0 0 0 0 0 0 0 0 0 0 0 0 0 0
0 0 0 0 0 0 0 0 0 0 0 0 0 0 0 0 0 0 0 0 0 0 0 0 0 0 0 0 0 0 0 0 0
0 0 0 0 0 0 0 0 0 0 0 0 0 0 0 0 0 0 0 0 0 0 0 0 0 0 0 0 0 0 0 0 0
0 0 0 0 0 0 0 0 0 0 0 0 0 0 0 0 0 0 0 0 0 0 0 0 0 0 0 0 0 0 0 0 0
0 0 0 0 0 0 0 0 0 0 0 0 0 0 0 0 0 0 0 0 0 0 0 0 0 0 0 139 68 32
139 68 32 139 68 32 139 68 32 139 68 32 139 68 32 139 68 32 139 68 32
139 68 32 139 68 32 210 142 98 210 142 98 210 142 98 210 142 98
210 142 98 210 142 98 210 142 98 210 142 98 210 142 98 210 142 98
205 125 74 205 125 74 205 125 74 205 125 74 205 125 74 205 125 74
205 125 74 205 125 74 205 125 74 205 125 74 210 142 98 210 142 98
210 142 98 210 142 98 210 142 98 210 142 98 210 142 98 210 142 98
210 142 98 210 142 98 222 157 123 222 157 123 222 157 123 222 157 123
222 157 123 222 157 123 222 157 123 222 157 123 222 157 123
222 157 123 230 190 164 230 190 164 230 190 164 230 190 164
230 190 164 230 190 164 230 190 164 230 190 164 230 190 164
230 190 164 230 190 164 230 190 164 230 190 164 230 190 164
230 190 164 230 190 164 230 190 164 230 190 164 230 190 164
230 190 164 230 190 164 230 190 164 230 190 164 230 190 164
230 190 164 230 190 164 230 190 164 230 190 164 230 190 164
230 190 164 222 157 123 222 157 123 222 157 123 222 157 123
222 157 123 222 157 123 222 157 123 222 157 123 222 157 123
222 157 123 205 125 74 205 125 74 205 125 74 205 125 74 205 125 74
205 125 74 205 125 74 205 125 74 205 125 74 205 125 74 90 44 16
90 44 16 90 44 16 90 44 16 90 44 16 90 44 16 90 44 16 90 44 16
90 44 16 90 44 16 0 0 0 0 0 0 0 0 0 0 0 0 0 0 0 0 0 0 0 0 0 0 0 0
0 0 0 0 0 0 0 0 0 0 0 0 0 0 0 0 0 0 0 0 0 0 0 0 0 0 0 0 0 0 0 0 0
0 0 0 0 0 0 0 0 0 0 0 0 0 0 0 0 0 0 0 0 0 0 0 0 0 0 0 0 0 0 0 0 0
0 0 0 0 0 0 0 0 0 0 0 0 0 0 0 0 0 0 0 0 0 0 0 0 0 0 0 0 0 0 0 0 0
0 0 0 0 0 0 0 0 0 0 0 0 0 0 0 0 0 0 0 0 0 0 0 0 0 0 0 139 68 32
139 68 32 139 68 32 139 68 32 139 68 32 139 68 32 139 68 32 139 68 32
139 68 32 139 68 32 210 142 98 210 142 98 210 142 98 210 142 98
210 142 98 210 142 98 210 142 98 210 142 98 210 142 98 210 142 98
205 125 74 205 125 74 205 125 74 205 125 74 205 125 74 205 125 74
205 125 74 205 125 74 205 125 74 205 125 74 210 142 98 210 142 98
210 142 98 210 142 98 210 142 98 210 142 98 210 142 98 210 142 98
210 142 98 210 142 98 222 157 123 222 157 123 222 157 123 222 157 123
222 157 123 222 157 123 222 157 123 222 157 123 222 157 123
222 157 123 230 190 164 230 190 164 230 190 164 230 190 164
230 190 164 230 190 164 230 190 164 230 190 164 230 190 164
230 190 164 230 190 164 230 190 164 230 190 164 230 190 164
230 190 164 230 190 164 230 190 164 230 190 164 230 190 164
230 190 164 230 190 164 230 190 164 230 190 164 230 190 164
230 190 164 230 190 164 230 190 164 230 190 164 230 190 164
230 190 164 222 157 123 222 157 123 222 157 123 222 157 123
222 157 123 222 157 123 222 157 123 222 157 123 222 157 123
222 157 123 205 125 74 205 125 74 205 125 74 205 125 74 205 125 74
205 125 74 205 125 74 205 125 74 205 125 74 205 125 74 90 44 16
90 44 16 90 44 16 90 44 16 90 44 16 90 44 16 90 44 16 90 44 16
90 44 16 90 44 16 0 0 0 0 0 0 0 0 0 0 0 0 0 0 0 0 0 0 0 0 0 0 0 0
0 0 0 0 0 0 0 0 0 0 0 0 0 0 0 0 0 0 0 0 0 0 0 0 0 0 0 0 0 0 0 0 0
0 0 0 0 0 0 0 0 0 0 0 0 0 0 0 0 0 0 0 0 0 0 0 0 0 0 0 0 0 0 0 0 0
0 0 0 0 0 0 0 0 0 0 0 0 0 0 0 0 0 0 0 0 0 0 0 0 0 0 0 0 0 0 0 0 0
0 0 0 0 0 0 0 0 0 0 0 0 0 0 0 0 0 0 0 0 0 0 0 0 0 0 0 139 68 32
139 68 32 139 68 32 139 68 32 139 68 32 139 68 32 139 68 32 139 68 32
139 68 32 139 68 32 210 142 98 210 142 98 210 142 98 210 142 98
210 142 98 210 142 98 210 142 98 210 142 98 210 142 98 210 142 98
205 125 74 205 125 74 205 125 74 205 125 74 205 125 74 205 125 74
205 125 74 205 125 74 205 125 74 205 125 74 210 142 98 210 142 98
210 142 98 210 142 98 210 142 98 210 142 98 210 142 98 210 142 98
210 142 98 210 142 98 222 157 123 222 157 123 222 157 123 222 157 123
222 157 123 222 157 123 222 157 123 222 157 123 222 157 123
222 157 123 230 190 164 230 190 164 230 190 164 230 190 164
230 190 164 230 190 164 230 190 164 230 190 164 230 190 164
230 190 164 230 190 164 230 190 164 230 190 164 230 190 164
230 190 164 230 190 164 230 190 164 230 190 164 230 190 164
230 190 164 230 190 164 230 190 164 230 190 164 230 190 164
230 190 164 230 190 164 230 190 164 230 190 164 230 190 164
230 190 164 222 157 123 222 157 123 222 157 123 222 157 123
222 157 123 222 157 123 222 157 123 222 157 123 222 157 123
222 157 123 205 125 74 205 125 74 205 125 74 205 125 74 205 125 74
205 125 74 205 125 74 205 125 74 205 125 74 205 125 74 90 44 16
90 44 16 90 44 16 90 44 16 90 44 16 90 44 16 90 44 16 90 44 16
90 44 16 90 44 16 0 0 0 0 0 0 0 0 0 0 0 0 0 0 0 0 0 0 0 0 0 0 0 0
0 0 0 0 0 0 0 0 0 0 0 0 0 0 0 0 0 0 0 0 0 0 0 0 0 0 0 0 0 0 0 0 0
0 0 0 0 0 0 0 0 0 0 0 0 0 0 0 0 0 0 0 0 0 0 0 0 0 0 0 0 0 0 0 0 0
0 0 0 0 0 0 0 0 0 0 0 0 0 0 0 0 0 0 0 0 0 0 0 0 0 0 0 0 0 0 0 0 0
0 0 0 0 0 0 0 0 0 0 0 0 0 0 0 0 0 0 0 0 0 0 0 0 0 0 0 139 68 32
139 68 32 139 68 32 139 68 32 139 68 32 139 68 32 139 68 32 139 68 32
139 68 32 139 68 32 210 142 98 210 142 98 210 142 98 210 142 98
210 142 98 210 142 98 210 142 98 210 142 98 210 142 98 210 142 98
205 125 74 205 125 74 205 125 74 205 125 74 205 125 74 205 125 74
205 125 74 205 125 74 205 125 74 205 125 74 210 142 98 210 142 98
210 142 98 210 142 98 210 142 98 210 142 98 210 142 98 210 142 98
210 142 98 210 142 98 222 157 123 222 157 123 222 157 123 222 157 123
222 157 123 222 157 123 222 157 123 222 157 123 222 157 123
222 157 123 230 190 164 230 190 164 230 190 164 230 190 164
230 190 164 230 190 164 230 190 164 230 190 164 230 190 164
230 190 164 230 190 164 230 190 164 230 190 164 230 190 164
230 190 164 230 190 164 230 190 164 230 190 164 230 190 164
230 190 164 230 190 164 230 190 164 230 190 164 230 190 164
230 190 164 230 190 164 230 190 164 230 190 164 230 190 164
230 190 164 222 157 123 222 157 123 222 157 123 222 157 123
222 157 123 222 157 123 222 157 123 222 157 123 222 157 123
222 157 123 205 125 74 205 125 74 205 125 74 205 125 74 205 125 74
205 125 74 205 125 74 205 125 74 205 125 74 205 125 74 90 44 16
90 44 16 90 44 16 90 44 16 90 44 16 90 44 16 90 44 16 90 44 16
90 44 16 90 44 16 0 0 0 0 0 0 0 0 0 0 0 0 0 0 0 0 0 0 0 0 0 0 0 0
0 0 0 0 0 0 0 0 0 0 0 0 0 0 0 0 0 0 0 0 0 0 0 0 0 0 0 0 0 0 0 0 0
0 0 0 0 0 0 0 0 0 0 0 0 0 0 0 0 0 0 0 0 0 0 0 0 0 0 0 0 0 0 0 0 0
0 0 0 0 0 0 0 0 0 0 0 0 0 0 0 0 0 0 0 0 0 0 0 0 0 0 0 0 0 0 0 0 0
0 0 0 0 0 0 0 0 0 0 0 0 0 0 0 0 0 0 0 0 0 0 0 0 0 0 0 139 68 32
139 68 32 139 68 32 139 68 32 139 68 32 139 68 32 139 68 32 139 68 32
139 68 32 139 68 32 139 68 32 139 68 32 139 68 32 139 68 32 139 68 32
139 68 32 139 68 32 139 68 32 139 68 32 139 68 32 205 125 74
205 125 74 205 125 74 205 125 74 205 125 74 205 125 74 205 125 74
205 125 74 205 125 74 205 125 74 222 157 123 222 157 123 222 157 123
222 157 123 222 157 123 222 157 123 222 157 123 222 157 123
222 157 123 222 157 123 230 190 164 230 190 164 230 190 164
230 190 164 230 190 164 230 190 164 230 190 164 230 190 164
230 190 164 230 190 164 230 190 164 230 190 164 230 190 164
230 190 164 230 190 164 230 190 164 230 190 164 230 190 164
230 190 164 230 190 164 230 190 164 230 190 164 230 190 164
230 190 164 230 190 164 230 190 164 230 190 164 230 190 164
230 190 164 230 190 164 222 157 123 222 157 123 222 157 123
222 157 123 222 157 123 222 157 123 222 157 123 222 157 123
222 157 123 222 157 123 222 157 123 222 157 123 222 157 123
222 157 123 222 157 123 222 157 123 222 157 123 222 157 123
222 157 123 222 157 123 210 142 98 210 142 98 210 142 98 210 142 98
210 142 98 210 142 98 210 142 98 210 142 98 210 142 98 210 142 98
205 125 74 205 125 74 205 125 74 205 125 74 205 125 74 205 125 74
205 125 74 205 125 74 205 125 74 205 125 74 90 44 16 90 44 16
90 44 16 90 44 16 90 44 16 90 44 16 90 44 16 90 44 16 90 44 16
90 44 16 0 0 0 0 0 0 0 0 0 0 0 0 0 0 0 0 0 0 0 0 0 0 0 0 0 0 0 0 0 0
0 0 0 0 0 0 0 0 0 0 0 0 0 0 0 0 0 0 0 0 0 0 0 0 0 0 0 0 0 0 0 0 0
0 0 0 0 0 0 0 0 0 0 0 0 0 0 0 0 0 0 0 0 0 0 0 0 0 0 0 0 0 0 0 0 0
0 0 0 0 0 0 0 0 0 0 0 0 0 0 0 0 0 0 0 0 0 0 0 0 139 68 32 139 68 32
139 68 32 139 68 32 139 68 32 139 68 32 139 68 32 139 68 32 139 68 32
139 68 32 139 68 32 139 68 32 139 68 32 139 68 32 139 68 32 139 68 32
139 68 32 139 68 32 139 68 32 139 68 32 205 125 74 205 125 74
205 125 74 205 125 74 205 125 74 205 125 74 205 125 74 205 125 74
205 125 74 205 125 74 222 157 123 222 157 123 222 157 123 222 157 123
222 157 123 222 157 123 222 157 123 222 157 123 222 157 123
222 157 123 230 190 164 230 190 164 230 190 164 230 190 164
230 190 164 230 190 164 230 190 164 230 190 164 230 190 164
230 190 164 230 190 164 230 190 164 230 190 164 230 190 164
230 190 164 230 190 164 230 190 164 230 190 164 230 190 164
230 190 164 230 190 164 230 190 164 230 190 164 230 190 164
230 190 164 230 190 164 230 190 164 230 190 164 230 190 164
230 190 164 222 157 123 222 157 123 222 157 123 222 157 123
222 157 123 222 157 123 222 157 123 222 157 123 222 157 123
222 157 123 222 157 123 222 157 123 222 157 123 222 157 123
222 157 123 222 157 123 222 157 123 222 157 123 222 157 123
222 157 123 210 142 98 210 142 98 210 142 98 210 142 98 210 142 98
210 142 98 210 142 98 210 142 98 210 142 98 210 142 98 205 125 74
205 125 74 205 125 74 205 125 74 205 125 74 205 125 74 205 125 74
205 125 74 205 125 74 205 125 74 90 44 16 90 44 16 90 44 16 90 44 16
90 44 16 90 44 16 90 44 16 90 44 16 90 44 16 90 44 16 0 0 0 0 0 0
0 0 0 0 0 0 0 0 0 0 0 0 0 0 0 0 0 0 0 0 0 0 0 0 0 0 0 0 0 0 0 0 0
0 0 0 0 0 0 0 0 0 0 0 0 0 0 0 0 0 0 0 0 0 0 0 0 0 0 0 0 0 0 0 0 0
0 0 0 0 0 0 0 0 0 0 0 0 0 0 0 0 0 0 0 0 0 0 0 0 0 0 0 0 0 0 0 0 0
0 0 0 0 0 0 0 0 0 0 0 0 0 0 0 139 68 32 139 68 32 139 68 32 139 68 32
139 68 32 139 68 32 139 68 32 139 68 32 139 68 32 139 68 32 139 68 32
139 68 32 139 68 32 139 68 32 139 68 32 139 68 32 139 68 32 139 68 32
139 68 32 139 68 32 205 125 74 205 125 74 205 125 74 205 125 74
205 125 74 205 125 74 205 125 74 205 125 74 205 125 74 205 125 74
222 157 123 222 157 123 222 157 123 222 157 123 222 157 123
222 157 123 222 157 123 222 157 123 222 157 123 222 157 123
230 190 164 230 190 164 230 190 164 230 190 164 230 190 164
230 190 164 230 190 164 230 190 164 230 190 164 230 190 164
230 190 164 230 190 164 230 190 164 230 190 164 230 190 164
230 190 164 230 190 164 230 190 164 230 190 164 230 190 164
230 190 164 230 190 164 230 190 164 230 190 164 230 190 164
230 190 164 230 190 164 230 190 164 230 190 164 230 190 164
222 157 123 222 157 123 222 157 123 222 157 123 222 157 123
222 157 123 222 157 123 222 157 123 222 157 123 222 157 123
222 157 123 222 157 123 222 157 123 222 157 123 222 157 123
222 157 123 222 157 123 222 157 123 222 157 123 222 157 123
210 142 98 210 142 98 210 142 98 210 142 98 210 142 98 210 142 98
210 142 98 210 142 98 210 142 98 210 142 98 205 125 74 205 125 74
205 125 74 205 125 74 205 125 74 205 125 74 205 125 74 205 125 74
205 125 74 205 125 74 90 44 16 90 44 16 90 44 16 90 44 16 90 44 16
90 44 16 90 44 16 90 44 16 90 44 16 90 44 16 0 0 0 0 0 0 0 0 0 0 0 0
0 0 0 0 0 0 0 0 0 0 0 0 0 0 0 0 0 0 0 0 0 0 0 0 0 0 0 0 0 0 0 0 0
0 0 0 0 0 0 0 0 0 0 0 0 0 0 0 0 0 0 0 0 0 0 0 0 0 0 0 0 0 0 0 0 0
0 0 0 0 0 0 0 0 0 0 0 0 0 0 0 0 0 0 0 0 0 0 0 0 0 0 0 0 0 0 0 0 0
0 0 0 0 0 0 0 0 0 139 68 32 139 68 32 139 68 32 139 68 32 139 68 32
139 68 32 139 68 32 139 68 32 139 68 32 139 68 32 139 68 32 139 68 32
139 68 32 139 68 32 139 68 32 139 68 32 139 68 32 139 68 32 139 68 32
139 68 32 205 125 74 205 125 74 205 125 74 205 125 74 205 125 74
205 125 74 205 125 74 205 125 74 205 125 74 205 125 74 222 157 123
222 157 123 222 157 123 222 157 123 222 157 123 222 157 123
222 157 123 222 157 123 222 157 123 222 157 123 230 190 164
230 190 164 230 190 164 230 190 164 230 190 164 230 190 164
230 190 164 230 190 164 230 190 164 230 190 164 230 190 164
230 190 164 230 190 164 230 190 164 230 190 164 230 190 164
230 190 164 230 190 164 230 190 164 230 190 164 230 190 164
230 190 164 230 190 164 230 190 164 230 190 164 230 190 164
230 190 164 230 190 164 230 190 164 230 190 164 222 157 123
222 157 123 222 157 123 222 157 123 222 157 123 222 157 123
222 157 123 222 157 123 222 157 123 222 157 123 222 157 123
222 157 123 222 157 123 222 157 123 222 157 123 222 157 123
222 157 123 222 157 123 222 157 123 222 157 123 210 142 98 210 142 98
210 142 98 210 142 98 210 142 98 210 142 98 210 142 98 210 142 98
210 142 98 210 142 98 205 125 74 205 125 74 205 125 74 205 125 74
205 125 74 205 125 74 205 125 74 205 125 74 205 125 74 205 125 74
90 44 16 90 44 16 90 44 16 90 44 16 90 44 16 90 44 16 90 44 16
90 44 16 90 44 16 90 44 16 0 0 0 0 0 0 0 0 0 0 0 0 0 0 0 0 0 0 0 0 0
0 0 0 0 0 0 0 0 0 0 0 0 0 0 0 0 0 0 0 0 0 0 0 0 0 0 0 0 0 0 0 0 0
0 0 0 0 0 0 0 0 0 0 0 0 0 0 0 0 0 0 0 0 0 0 0 0 0 0 0 0 0 0 0 0 0
0 0 0 0 0 0 0 0 0 0 0 0 0 0 0 0 0 0 0 0 0 0 0 0 0 0 0 0 0 0 0 0 0
139 68 32 139 68 32 139 68 32 139 68 32 139 68 32 139 68 32 139 68 32
139 68 32 139 68 32 139 68 32 139 68 32 139 68 32 139 68 32 139 68 32
139 68 32 139 68 32 139 68 32 139 68 32 139 68 32 139 68 32
205 125 74 205 125 74 205 125 74 205 125 74 205 125 74 205 125 74
205 125 74 205 125 74 205 125 74 205 125 74 222 157 123 222 157 123
222 157 123 222 157 123 222 157 123 222 157 123 222 157 123
222 157 123 222 157 123 222 157 123 230 190 164 230 190 164
230 190 164 230 190 164 230 190 164 230 190 164 230 190 164
230 190 164 230 190 164 230 190 164 230 190 164 230 190 164
230 190 164 230 190 164 230 190 164 230 190 164 230 190 164
230 190 164 230 190 164 230 190 164 230 190 164 230 190 164
230 190 164 230 190 164 230 190 164 230 190 164 230 190 164
230 190 164 230 190 164 230 190 164 222 157 123 222 157 123
222 157 123 222 157 123 222 157 123 222 157 123 222 157 123
222 157 123 222 157 123 222 157 123 222 157 123 222 157 123
222 157 123 222 157 123 222 157 123 222 157 123 222 157 123
222 157 123 222 157 123 222 157 123 210 142 98 210 142 98 210 142 98
210 142 98 210 142 98 210 142 98 210 142 98 210 142 98 210 142 98
210 142 98 205 125 74 205 125 74 205 125 74 205 125 74 205 125 74
205 125 74 205 125 74 205 125 74 205 125 74 205 125 74 90 44 16
90 44 16 90 44 16 90 44 16 90 44 16 90 44 16 90 44 16 90 44 16
90 44 16 90 44 16 0 0 0 0 0 0 0 0 0 0 0 0 0 0 0 0 0 0 0 0 0 0 0 0
0 0 0 0 0 0 0 0 0 0 0 0 0 0 0 0 0 0 0 0 0 0 0 0 0 0 0 0 0 0 0 0 0
0 0 0 0 0 0 0 0 0 0 0 0 0 0 0 0 0 0 0 0 0 0 0 0 0 0 0 0 0 0 0 0 0
0 0 0 0 0 0 0 0 0 0 0 0 0 0 0 0 0 0 0 0 0 0 0 0 0 0 0 0 0 0 139 68 32
139 68 32 139 68 32 139 68 32 139 68 32 139 68 32 139 68 32 139 68 32
139 68 32 139 68 32 139 68 32 139 68 32 139 68 32 139 68 32 139 68 32
139 68 32 139 68 32 139 68 32 139 68 32 139 68 32 205 125 74
205 125 74 205 125 74 205 125 74 205 125 74 205 125 74 205 125 74
205 125 74 205 125 74 205 125 74 222 157 123 222 157 123 222 157 123
222 157 123 222 157 123 222 157 123 222 157 123 222 157 123
222 157 123 222 157 123 230 190 164 230 190 164 230 190 164
230 190 164 230 190 164 230 190 164 230 190 164 230 190 164
230 190 164 230 190 164 230 190 164 230 190 164 230 190 164
230 190 164 230 190 164 230 190 164 230 190 164 230 190 164
230 190 164 230 190 164 230 190 164 230 190 164 230 190 164
230 190 164 230 190 164 230 190 164 230 190 164 230 190 164
230 190 164 230 190 164 222 157 123 222 157 123 222 157 123
222 157 123 222 157 123 222 157 123 222 157 123 222 157 123
222 157 123 222 157 123 222 157 123 222 157 123 222 157 123
222 157 123 222 157 123 222 157 123 222 157 123 222 157 123
222 157 123 222 157 123 210 142 98 210 142 98 210 142 98 210 142 98
210 142 98 210 142 98 210 142 98 210 142 98 210 142 98 210 142 98
205 125 74 205 125 74 205 125 74 205 125 74 205 125 74 205 125 74
205 125 74 205 125 74 205 125 74 205 125 74 90 44 16 90 44 16
90 44 16 90 44 16 90 44 16 90 44 16 90 44 16 90 44 16 90 44 16
90 44 16 0 0 0 0 0 0 0 0 0 0 0 0 0 0 0 0 0 0 0 0 0 0 0 0 0 0 0 0 0 0
0 0 0 0 0 0 0 0 0 0 0 0 0 0 0 0 0 0 0 0 0 0 0 0 0 0 0 0 0 0 0 0 0
0 0 0 0 0 0 0 0 0 0 0 0 0 0 0 0 0 0 0 0 0 0 0 0 0 0 0 0 0 0 0 0 0
0 0 0 0 0 0 0 0 0 0 0 0 0 0 0 0 0 0 0 0 0 0 0 0 139 68 32 139 68 32
139 68 32 139 68 32 139 68 32 139 68 32 139 68 32 139 68 32 139 68 32
139 68 32 139 68 32 139 68 32 139 68 32 139 68 32 139 68 32 139 68 32
139 68 32 139 68 32 139 68 32 139 68 32 205 125 74 205 125 74
205 125 74 205 125 74 205 125 74 205 125 74 205 125 74 205 125 74
205 125 74 205 125 74 222 157 123 222 157 123 222 157 123 222 157 123
222 157 123 222 157 123 222 157 123 222 157 123 222 157 123
222 157 123 230 190 164 230 190 164 230 190 164 230 190 164
230 190 164 230 190 164 230 190 164 230 190 164 230 190 164
230 190 164 230 190 164 230 190 164 230 190 164 230 190 164
230 190 164 230 190 164 230 190 164 230 190 164 230 190 164
230 190 164 230 190 164 230 190 164 230 190 164 230 190 164
230 190 164 230 190 164 230 190 164 230 190 164 230 190 164
230 190 164 222 157 123 222 157 123 222 157 123 222 157 123
222 157 123 222 157 123 222 157 123 222 157 123 222 157 123
222 157 123 222 157 123 222 157 123 222 157 123 222 157 123
222 157 123 222 157 123 222 157 123 222 157 123 222 157 123
222 157 123 210 142 98 210 142 98 210 142 98 210 142 98 210 142 98
210 142 98 210 142 98 210 142 98 210 142 98 210 142 98 205 125 74
205 125 74 205 125 74 205 125 74 205 125 74 205 125 74 205 125 74
205 125 74 205 125 74 205 125 74 90 44 16 90 44 16 90 44 16 90 44 16
90 44 16 90 44 16 90 44 16 90 44 16 90 44 16 90 44 16 0 0 0 0 0 0
0 0 0 0 0 0 0 0 0 0 0 0 0 0 0 0 0 0 0 0 0 0 0 0 0 0 0 0 0 0 0 0 0
0 0 0 0 0 0 0 0 0 0 0 0 0 0 0 0 0 0 0 0 0 0 0 0 0 0 0 0 0 0 0 0 0
0 0 0 0 0 0 0 0 0 0 0 0 0 0 0 0 0 0 0 0 0 0 0 0 0 0 0 0 0 0 0 0 0
0 0 0 0 0 0 0 0 0 0 0 0 0 0 0 139 68 32 139 68 32 139 68 32 139 68 32
139 68 32 139 68 32 139 68 32 139 68 32 139 68 32 139 68 32 139 68 32
139 68 32 139 68 32 139 68 32 139 68 32 139 68 32 139 68 32 139 68 32
139 68 32 139 68 32 205 125 74 205 125 74 205 125 74 205 125 74
205 125 74 205 125 74 205 125 74 205 125 74 205 125 74 205 125 74
222 157 123 222 157 123 222 157 123 222 157 123 222 157 123
222 157 123 222 157 123 222 157 123 222 157 123 222 157 123
230 190 164 230 190 164 230 190 164 230 190 164 230 190 164
230 190 164 230 190 164 230 190 164 230 190 164 230 190 164
230 190 164 230 190 164 230 190 164 230 190 164 230 190 164
230 190 164 230 190 164 230 190 164 230 190 164 230 190 164
230 190 164 230 190 164 230 190 164 230 190 164 230 190 164
230 190 164 230 190 164 230 190 164 230 190 164 230 190 164
222 157 123 222 157 123 222 157 123 222 157 123 222 157 123
222 157 123 222 157 123 222 157 123 222 157 123 222 157 123
222 157 123 222 157 123 222 157 123 222 157 123 222 157 123
222 157 123 222 157 123 222 157 123 222 157 123 222 157 123
210 142 98 210 142 98 210 142 98 210 142 98 210 142 98 210 142 98
210 142 98 210 142 98 210 142 98 210 142 98 205 125 74 205 125 74
205 125 74 205 125 74 205 125 74 205 125 74 205 125 74 205 125 74
205 125 74 205 125 74 90 44 16 90 44 16 90 44 16 90 44 16 90 44 16
90 44 16 90 44 16 90 44 16 90 44 16 90 44 16 0 0 0 0 0 0 0 0 0 0 0 0
0 0 0 0 0 0 0 0 0 0 0 0 0 0 0 0 0 0 0 0 0 0 0 0 0 0 0 0 0 0 0 0 0
0 0 0 0 0 0 0 0 0 0 0 0 0 0 0 0 0 0 0 0 0 0 0 0 0 0 0 0 0 0 0 0 0
0 0 0 0 0 0 0 0 0 0 0 0 0 0 0 0 0 0 0 0 0 0 0 0 0 0 0 0 0 0 0 0 0
0 0 0 0 0 0 0 0 0 139 68 32 139 68 32 139 68 32 139 68 32 139 68 32
139 68 32 139 68 32 139 68 32 139 68 32 139 68 32 139 68 32 139 68 32
139 68 32 139 68 32 139 68 32 139 68 32 139 68 32 139 68 32 139 68 32
139 68 32 205 125 74 205 125 74 205 125 74 205 125 74 205 125 74
205 125 74 205 125 74 205 125 74 205 125 74 205 125 74 222 157 123
222 157 123 222 157 123 222 157 123 222 157 123 222 157 123
222 157 123 222 157 123 222 157 123 222 157 123 230 190 164
230 190 164 230 190 164 230 190 164 230 190 164 230 190 164
230 190 164 230 190 164 230 190 164 230 190 164 230 190 164
230 190 164 230 190 164 230 190 164 230 190 164 230 190 164
230 190 164 230 190 164 230 190 164 230 190 164 230 190 164
230 190 164 230 190 164 230 190 164 230 190 164 230 190 164
230 190 164 230 190 164 230 190 164 230 190 164 222 157 123
222 157 123 222 157 123 222 157 123 222 157 123 222 157 123
222 157 123 222 157 123 222 157 123 222 157 123 222 157 123
222 157 123 222 157 123 222 157 123 222 157 123 222 157 123
222 157 123 222 157 123 222 157 123 222 157 123 210 142 98 210 142 98
210 142 98 210 142 98 210 142 98 210 142 98 210 142 98 210 142 98
210 142 98 210 142 98 205 125 74 205 125 74 205 125 74 205 125 74
205 125 74 205 125 74 205 125 74 205 125 74 205 125 74 205 125 74
90 44 16 90 44 16 90 44 16 90 44 16 90 44 16 90 44 16 90 44 16
90 44 16 90 44 16 90 44 16 0 0 0 0 0 0 0 0 0 0 0 0 0 0 0 0 0 0 0 0 0
0 0 0 0 0 0 0 0 0 0 0 0 0 0 0 0 0 0 0 0 0 0 0 0 0 0 0 0 0 0 0 0 0
0 0 0 0 0 0 0 0 0 0 0 0 0 0 0 0 0 0 0 0 0 0 0 0 0 0 0 0 0 0 0 0 0
0 0 0 0 0 0 0 0 0 0 0 0 0 0 0 0 0 0 0 0 0 0 0 0 0 0 0 0 0 0 0 0 0
139 68 32 139 68 32 139 68 32 139 68 32 139 68 32 139 68 32 139 68 32
139 68 32 139 68 32 139 68 32 139 68 32 139 68 32 139 68 32 139 68 32
139 68 32 139 68 32 139 68 32 139 68 32 139 68 32 139 68 32
205 125 74 205 125 74 205 125 74 205 125 74 205 125 74 205 125 74
205 125 74 205 125 74 205 125 74 205 125 74 222 157 123 222 157 123
222 157 123 222 157 123 222 157 123 222 157 123 222 157 123
222 157 123 222 157 123 222 157 123 230 190 164 230 190 164
230 190 164 230 190 164 230 190 164 230 190 164 230 190 164
230 190 164 230 190 164 230 190 164 230 190 164 230 190 164
230 190 164 230 190 164 230 190 164 230 190 164 230 190 164
230 190 164 230 190 164 230 190 164 230 190 164 230 190 164
230 190 164 230 190 164 230 190 164 230 190 164 230 190 164
230 190 164 230 190 164 230 190 164 222 157 123 222 157 123
222 157 123 222 157 123 222 157 123 222 157 123 222 157 123
222 157 123 222 157 123 222 157 123 222 157 123 222 157 123
222 157 123 222 157 123 222 157 123 222 157 123 222 157 123
222 157 123 222 157 123 222 157 123 210 142 98 210 142 98 210 142 98
210 142 98 210 142 98 210 142 98 210 142 98 210 142 98 210 142 98
210 142 98 205 125 74 205 125 74 205 125 74 205 125 74 205 125 74
205 125 74 205 125 74 205 125 74 205 125 74 205 125 74 90 44 16
90 44 16 90 44 16 90 44 16 90 44 16 90 44 16 90 44 16 90 44 16
90 44 16 90 44 16 0 0 0 0 0 0 0 0 0 0 0 0 0 0 0 0 0 0 0 0 0 0 0 0
0 0 0 0 0 0 0 0 0 0 0 0 0 0 0 0 0 0 0 0 0 0 0 0 0 0 0 0 0 0 0 0 0
0 0 0 0 0 0 0 0 0 0 0 0 0 0 0 0 0 0 0 0 0 0 0 0 0 0 0 0 0 0 0 0 0
139 68 32 139 68 32 139 68 32 139 68 32 139 68 32 139 68 32 139 68 32
139 68 32 139 68 32 139 68 32 210 142 98 210 142 98 210 142 98
210 142 98 210 142 98 210 142 98 210 142 98 210 142 98 210 142 98
210 142 98 222 157 123 222 157 123 222 157 123 222 157 123
222 157 123 222 157 123 222 157 123 222 157 123 222 157 123
222 157 123 172 93 49 172 93 49 172 93 49 172 93 49 172 93 49
172 93 49 172 93 49 172 93 49 172 93 49 172 93 49 222 157 123
222 157 123 222 157 123 222 157 123 222 157 123 222 157 123
222 157 123 222 157 123 222 157 123 222 157 123 230 190 164
230 190 164 230 190 164 230 190 164 230 190 164 230 190 164
230 190 164 230 190 164 230 190 164 230 190 164 230 190 164
230 190 164 230 190 164 230 190 164 230 190 164 230 190 164
230 190 164 230 190 164 230 190 164 230 190 164 222 157 123
222 157 123 222 157 123 222 157 123 222 157 123 222 157 123
222 157 123 222 157 123 222 157 123 222 157 123 222 157 123
222 157 123 222 157 123 222 157 123 222 157 123 222 157 123
222 157 123 222 157 123 222 157 123 222 157 123 210 142 98 210 142 98
210 142 98 210 142 98 210 142 98 210 142 98 210 142 98 210 142 98
210 142 98 210 142 98 210 142 98 210 142 98 210 142 98 210 142 98
210 142 98 210 142 98 210 142 98 210 142 98 210 142 98 210 142 98
205 125 74 205 125 74 205 125 74 205 125 74 205 125 74 205 125 74
205 125 74 205 125 74 205 125 74 205 125 74 90 44 16 90 44 16
90 44 16 90 44 16 90 44 16 90 44 16 90 44 16 90 44 16 90 44 16
90 44 16 0 0 0 0 0 0 0 0 0 0 0 0 0 0 0 0 0 0 0 0 0 0 0 0 0 0 0 0 0 0
0 0 0 0 0 0 0 0 0 0 0 0 0 0 0 0 0 0 0 0 0 0 0 0 0 0 0 0 0 0 0 0 0
0 0 0 0 0 0 0 0 0 0 0 0 0 0 0 0 0 0 0 0 0 0 0 0 0 0 0 139 68 32
139 68 32 139 68 32 139 68 32 139 68 32 139 68 32 139 68 32 139 68 32
139 68 32 139 68 32 210 142 98 210 142 98 210 142 98 210 142 98
210 142 98 210 142 98 210 142 98 210 142 98 210 142 98 210 142 98
222 157 123 222 157 123 222 157 123 222 157 123 222 157 123
222 157 123 222 157 123 222 157 123 222 157 123 222 157 123 172 93 49
172 93 49 172 93 49 172 93 49 172 93 49 172 93 49 172 93 49 172 93 49
172 93 49 172 93 49 222 157 123 222 157 123 222 157 123 222 157 123
222 157 123 222 157 123 222 157 123 222 157 123 222 157 123
222 157 123 230 190 164 230 190 164 230 190 164 230 190 164
230 190 164 230 190 164 230 190 164 230 190 164 230 190 164
230 190 164 230 190 164 230 190 164 230 190 164 230 190 164
230 190 164 230 190 164 230 190 164 230 190 164 230 190 164
230 190 164 222 157 123 222 157 123 222 157 123 222 157 123
222 157 123 222 157 123 222 157 123 222 157 123 222 157 123
222 157 123 222 157 123 222 157 123 222 157 123 222 157 123
222 157 123 222 157 123 222 157 123 222 157 123 222 157 123
222 157 123 210 142 98 210 142 98 210 142 98 210 142 98 210 142 98
210 142 98 210 142 98 210 142 98 210 142 98 210 142 98 210 142 98
210 142 98 210 142 98 210 142 98 210 142 98 210 142 98 210 142 98
210 142 98 210 142 98 210 142 98 205 125 74 205 125 74 205 125 74
205 125 74 205 125 74 205 125 74 205 125 74 205 125 74 205 125 74
205 125 74 90 44 16 90 44 16 90 44 16 90 44 16 90 44 16 90 44 16
90 44 16 90 44 16 90 44 16 90 44 16 0 0 0 0 0 0 0 0 0 0 0 0 0 0 0
0 0 0 0 0 0 0 0 0 0 0 0 0 0 0 0 0 0 0 0 0 0 0 0 0 0 0 0 0 0 0 0 0
0 0 0 0 0 0 0 0 0 0 0 0 0 0 0 0 0 0 0 0 0 0 0 0 0 0 0 0 0 0 0 0 0
0 0 0 0 0 0 0 0 0 139 68 32 139 68 32 139 68 32 139 68 32 139 68 32
139 68 32 139 68 32 139 68 32 139 68 32 139 68 32 210 142 98
210 142 98 210 142 98 210 142 98 210 142 98 210 142 98 210 142 98
210 142 98 210 142 98 210 142 98 222 157 123 222 157 123 222 157 123
222 157 123 222 157 123 222 157 123 222 157 123 222 157 123
222 157 123 222 157 123 172 93 49 172 93 49 172 93 49 172 93 49
172 93 49 172 93 49 172 93 49 172 93 49 172 93 49 172 93 49
222 157 123 222 157 123 222 157 123 222 157 123 222 157 123
222 157 123 222 157 123 222 157 123 222 157 123 222 157 123
230 190 164 230 190 164 230 190 164 230 190 164 230 190 164
230 190 164 230 190 164 230 190 164 230 190 164 230 190 164
230 190 164 230 190 164 230 190 164 230 190 164 230 190 164
230 190 164 230 190 164 230 190 164 230 190 164 230 190 164
222 157 123 222 157 123 222 157 123 222 157 123 222 157 123
222 157 123 222 157 123 222 157 123 222 157 123 222 157 123
222 157 123 222 157 123 222 157 123 222 157 123 222 157 123
222 157 123 222 157 123 222 157 123 222 157 123 222 157 123
210 142 98 210 142 98 210 142 98 210 142 98 210 142 98 210 142 98
210 142 98 210 142 98 210 142 98 210 142 98 210 142 98 210 142 98
210 142 98 210 142 98 210 142 98 210 142 98 210 142 98 210 142 98
210 142 98 210 142 98 205 125 74 205 125 74 205 125 74 205 125 74
205 125 74 205 125 74 205 125 74 205 125 74 205 125 74 205 125 74
90 44 16 90 44 16 90 44 16 90 44 16 90 44 16 90 44 16 90 44 16
90 44 16 90 44 16 90 44 16 0 0 0 0 0 0 0 0 0 0 0 0 0 0 0 0 0 0 0 0 0
0 0 0 0 0 0 0 0 0 0 0 0 0 0 0 0 0 0 0 0 0 0 0 0 0 0 0 0 0 0 0 0 0
0 0 0 0 0 0 0 0 0 0 0 0 0 0 0 0 0 0 0 0 0 0 0 0 0 0 0 0 0 0 0 0 0
0 0 0 139 68 32 139 68 32 139 68 32 139 68 32 139 68 32 139 68 32
139 68 32 139 68 32 139 68 32 139 68 32 210 142 98 210 142 98
210 142 98 210 142 98 210 142 98 210 142 98 210 142 98 210 142 98
210 142 98 210 142 98 222 157 123 222 157 123 222 157 123 222 157 123
222 157 123 222 157 123 222 157 123 222 157 123 222 157 123
222 157 123 172 93 49 172 93 49 172 93 49 172 93 49 172 93 49
172 93 49 172 93 49 172 93 49 172 93 49 172 93 49 222 157 123
222 157 123 222 157 123 222 157 123 222 157 123 222 157 123
222 157 123 222 157 123 222 157 123 222 157 123 230 190 164
230 190 164 230 190 164 230 190 164 230 190 164 230 190 164
230 190 164 230 190 164 230 190 164 230 190 164 230 190 164
230 190 164 230 190 164 230 190 164 230 190 164 230 190 164
230 190 164 230 190 164 230 190 164 230 190 164 222 157 123
222 157 123 222 157 123 222 157 123 222 157 123 222 157 123
222 157 123 222 157 123 222 157 123 222 157 123 222 157 123
222 157 123 222 157 123 222 157 123 222 157 123 222 157 123
222 157 123 222 157 123 222 157 123 222 157 123 210 142 98 210 142 98
210 142 98 210 142 98 210 142 98 210 142 98 210 142 98 210 142 98
210 142 98 210 142 98 210 142 98 210 142 98 210 142 98 210 142 98
210 142 98 210 142 98 210 142 98 210 142 98 210 142 98 210 142 98
205 125 74 205 125 74 205 125 74 205 125 74 205 125 74 205 125 74
205 125 74 205 125 74 205 125 74 205 125 74 90 44 16 90 44 16
90 44 16 90 44 16 90 44 16 90 44 16 90 44 16 90 44 16 90 44 16
90 44 16 0 0 0 0 0 0 0 0 0 0 0 0 0 0 0 0 0 0 0 0 0 0 0 0 0 0 0 0 0 0
0 0 0 0 0 0 0 0 0 0 0 0 0 0 0 0 0 0 0 0 0 0 0 0 0 0 0 0 0 0 0 0 0
0 0 0 0 0 0 0 0 0 0 0 0 0 0 0 0 0 0 0 0 0 0 0 0 0 0 0 139 68 32
139 68 32 139 68 32 139 68 32 139 68 32 139 68 32 139 68 32 139 68 32
139 68 32 139 68 32 210 142 98 210 142 98 210 142 98 210 142 98
210 142 98 210 142 98 210 142 98 210 142 98 210 142 98 210 142 98
222 157 123 222 157 123 222 157 123 222 157 123 222 157 123
222 157 123 222 157 123 222 157 123 222 157 123 222 157 123 172 93 49
172 93 49 172 93 49 172 93 49 172 93 49 172 93 49 172 93 49 172 93 49
172 93 49 172 93 49 222 157 123 222 157 123 222 157 123 222 157 123
222 157 123 222 157 123 222 157 123 222 157 123 222 157 123
222 157 123 230 190 164 230 190 164 230 190 164 230 190 164
230 190 164 230 190 164 230 190 164 230 190 164 230 190 164
230 190 164 230 190 164 230 190 164 230 190 164 230 190 164
230 190 164 230 190 164 230 190 164 230 190 164 230 190 164
230 190 164 222 157 123 222 157 123 222 157 123 222 157 123
222 157 123 222 157 123 222 157 123 222 157 123 222 157 123
222 157 123 222 157 123 222 157 123 222 157 123 222 157 123
222 157 123 222 157 123 222 157 123 222 157 123 222 157 123
222 157 123 210 142 98 210 142 98 210 142 98 210 142 98 210 142 98
210 142 98 210 142 98 210 142 98 210 142 98 210 142 98 210 142 98
210 142 98 210 142 98 210 142 98 210 142 98 210 142 98 210 142 98
210 142 98 210 142 98 210 142 98 205 125 74 205 125 74 205 125 74
205 125 74 205 125 74 205 125 74 205 125 74 205 125 74 205 125 74
205 125 74 90 44 16 90 44 16 90 44 16 90 44 16 90 44 16 90 44 16
90 44 16 90 44 16 90 44 16 90 44 16 0 0 0 0 0 0 0 0 0 0 0 0 0 0 0
0 0 0 0 0 0 0 0 0 0 0 0 0 0 0 0 0 0 0 0 0 0 0 0 0 0 0 0 0 0 0 0 0
0 0 0 0 0 0 0 0 0 0 0 0 0 0 0 0 0 0 0 0 0 0 0 0 0 0 0 0 0 0 0 0 0
0 0 0 0 0 0 0 0 0 139 68 32 139 68 32 139 68 32 139 68 32 139 68 32
139 68 32 139 68 32 139 68 32 139 68 32 139 68 32 210 142 98
210 142 98 210 142 98 210 142 98 210 142 98 210 142 98 210 142 98
210 142 98 210 142 98 210 142 98 222 157 123 222 157 123 222 157 123
222 157 123 222 157 123 222 157 123 222 157 123 222 157 123
222 157 123 222 157 123 172 93 49 172 93 49 172 93 49 172 93 49
172 93 49 172 93 49 172 93 49 172 93 49 172 93 49 172 93 49
222 157 123 222 157 123 222 157 123 222 157 123 222 157 123
222 157 123 222 157 123 222 157 123 222 157 123 222 157 123
230 190 164 230 190 164 230 190 164 230 190 164 230 190 164
230 190 164 230 190 164 230 190 164 230 190 164 230 190 164
230 190 164 230 190 164 230 190 164 230 190 164 230 190 164
230 190 164 230 190 164 230 190 164 230 190 164 230 190 164
222 157 123 222 157 123 222 157 123 222 157 123 222 157 123
222 157 123 222 157 123 222 157 123 222 157 123 222 157 123
222 157 123 222 157 123 222 157 123 222 157 123 222 157 123
222 157 123 222 157 123 222 157 123 222 157 123 222 157 123
210 142 98 210 142 98 210 142 98 210 142 98 210 142 98 210 142 98
210 142 98 210 142 98 210 142 98 210 142 98 210 142 98 210 142 98
210 142 98 210 142 98 210 142 98 210 142 98 210 142 98 210 142 98
210 142 98 210 142 98 205 125 74 205 125 74 205 125 74 205 125 74
205 125 74 205 125 74 205 125 74 205 125 74 205 125 74 205 125 74
90 44 16 90 44 16 90 44 16 90 44 16 90 44 16 90 44 16 90 44 16
90 44 16 90 44 16 90 44 16 0 0 0 0 0 0 0 0 0 0 0 0 0 0 0 0 0 0 0 0 0
0 0 0 0 0 0 0 0 0 0 0 0 0 0 0 0 0 0 0 0 0 0 0 0 0 0 0 0 0 0 0 0 0
0 0 0 0 0 0 0 0 0 0 0 0 0 0 0 0 0 0 0 0 0 0 0 0 0 0 0 0 0 0 0 0 0
0 0 0 139 68 32 139 68 32 139 68 32 139 68 32 139 68 32 139 68 32
139 68 32 139 68 32 139 68 32 139 68 32 210 142 98 210 142 98
210 142 98 210 142 98 210 142 98 210 142 98 210 142 98 210 142 98
210 142 98 210 142 98 222 157 123 222 157 123 222 157 123 222 157 123
222 157 123 222 157 123 222 157 123 222 157 123 222 157 123
222 157 123 172 93 49 172 93 49 172 93 49 172 93 49 172 93 49
172 93 49 172 93 49 172 93 49 172 93 49 172 93 49 222 157 123
222 157 123 222 157 123 222 157 123 222 157 123 222 157 123
222 157 123 222 157 123 222 157 123 222 157 123 230 190 164
230 190 164 230 190 164 230 190 164 230 190 164 230 190 164
230 190 164 230 190 164 230 190 164 230 190 164 230 190 164
230 190 164 230 190 164 230 190 164 230 190 164 230 190 164
230 190 164 230 190 164 230 190 164 230 190 164 222 157 123
222 157 123 222 157 123 222 157 123 222 157 123 222 157 123
222 157 123 222 157 123 222 157 123 222 157 123 222 157 123
222 157 123 222 157 123 222 157 123 222 157 123 222 157 123
222 157 123 222 157 123 222 157 123 222 157 123 210 142 98 210 142 98
210 142 98 210 142 98 210 142 98 210 142 98 210 142 98 210 142 98
210 142 98 210 142 98 210 142 98 210 142 98 210 142 98 210 142 98
210 142 98 210 142 98 210 142 98 210 142 98 210 142 98 210 142 98
205 125 74 205 125 74 205 125 74 205 125 74 205 125 74 205 125 74
205 125 74 205 125 74 205 125 74 205 125 74 90 44 16 90 44 16
90 44 16 90 44 16 90 44 16 90 44 16 90 44 16 90 44 16 90 44 16
90 44 16 0 0 0 0 0 0 0 0 0 0 0 0 0 0 0 0 0 0 0 0 0 0 0 0 0 0 0 0 0 0
0 0 0 0 0 0 0 0 0 0 0 0 0 0 0 0 0 0 0 0 0 0 0 0 0 0 0 0 0 0 0 0 0
0 0 0 0 0 0 0 0 0 0 0 0 0 0 0 0 0 0 0 0 0 0 0 0 0 0 0 139 68 32
139 68 32 139 68 32 139 68 32 139 68 32 139 68 32 139 68 32 139 68 32
139 68 32 139 68 32 210 142 98 210 142 98 210 142 98 210 142 98
210 142 98 210 142 98 210 142 98 210 142 98 210 142 98 210 142 98
222 157 123 222 157 123 222 157 123 222 157 123 222 157 123
222 157 123 222 157 123 222 157 123 222 157 123 222 157 123 172 93 49
172 93 49 172 93 49 172 93 49 172 93 49 172 93 49 172 93 49 172 93 49
172 93 49 172 93 49 222 157 123 222 157 123 222 157 123 222 157 123
222 157 123 222 157 123 222 157 123 222 157 123 222 157 123
222 157 123 230 190 164 230 190 164 230 190 164 230 190 164
230 190 164 230 190 164 230 190 164 230 190 164 230 190 164
230 190 164 230 190 164 230 190 164 230 190 164 230 190 164
230 190 164 230 190 164 230 190 164 230 190 164 230 190 164
230 190 164 222 157 123 222 157 123 222 157 123 222 157 123
222 157 123 222 157 123 222 157 123 222 157 123 222 157 123
222 157 123 222 157 123 222 157 123 222 157 123 222 157 123
222 157 123 222 157 123 222 157 123 222 157 123 222 157 123
222 157 123 210 142 98 210 142 98 210 142 98 210 142 98 210 142 98
210 142 98 210 142 98 210 142 98 210 142 98 210 142 98 210 142 98
210 142 98 210 142 98 210 142 98 210 142 98 210 142 98 210 142 98
210 142 98 210 142 98 210 142 98 205 125 74 205 125 74 205 125 74
205 125 74 205 125 74 205 125 74 205 125 74 205 125 74 205 125 74
205 125 74 90 44 16 90 44 16 90 44 16 90 44 16 90 44 16 90 44 16
90 44 16 90 44 16 90 44 16 90 44 16 0 0 0 0 0 0 0 0 0 0 0 0 0 0 0
0 0 0 0 0 0 0 0 0 0 0 0 0 0 0 0 0 0 0 0 0 0 0 0 0 0 0 0 0 0 0 0 0
0 0 0 0 0 0 0 0 0 0 0 0 0 0 0 0 0 0 0 0 0 0 0 0 0 0 0 0 0 0 0 0 0
0 0 0 0 0 0 0 0 0 139 68 32 139 68 32 139 68 32 139 68 32 139 68 32
139 68 32 139 68 32 139 68 32 139 68 32 139 68 32 210 142 98
210 142 98 210 142 98 210 142 98 210 142 98 210 142 98 210 142 98
210 142 98 210 142 98 210 142 98 222 157 123 222 157 123 222 157 123
222 157 123 222 157 123 222 157 123 222 157 123 222 157 123
222 157 123 222 157 123 172 93 49 172 93 49 172 93 49 172 93 49
172 93 49 172 93 49 172 93 49 172 93 49 172 93 49 172 93 49
222 157 123 222 157 123 222 157 123 222 157 123 222 157 123
222 157 123 222 157 123 222 157 123 222 157 123 222 157 123
230 190 164 230 190 164 230 190 164 230 190 164 230 190 164
230 190 164 230 190 164 230 190 164 230 190 164 230 190 164
230 190 164 230 190 164 230 190 164 230 190 164 230 190 164
230 190 164 230 190 164 230 190 164 230 190 164 230 190 164
222 157 123 222 157 123 222 157 123 222 157 123 222 157 123
222 157 123 222 157 123 222 157 123 222 157 123 222 157 123
222 157 123 222 157 123 222 157 123 222 157 123 222 157 123
222 157 123 222 157 123 222 157 123 222 157 123 222 157 123
210 142 98 210 142 98 210 142 98 210 142 98 210 142 98 210 142 98
210 142 98 210 142 98 210 142 98 210 142 98 210 142 98 210 142 98
210 142 98 210 142 98 210 142 98 210 142 98 210 142 98 210 142 98
210 142 98 210 142 98 205 125 74 205 125 74 205 125 74 205 125 74
205 125 74 205 125 74 205 125 74 205 125 74 205 125 74 205 125 74
90 44 16 90 44 16 90 44 16 90 44 16 90 44 16 90 44 16 90 44 16
90 44 16 90 44 16 90 44 16 0 0 0 0 0 0 0 0 0 0 0 0 0 0 0 0 0 0 0 0 0
0 0 0 0 0 0 0 0 0 0 0 0 0 0 0 0 0 0 0 0 0 0 0 0 0 0 0 0 0 0 0 0 0
0 0 0 0 0 0 0 0 0 0 0 0 0 0 0 0 0 0 0 0 0 0 0 0 0 0 0 0 0 0 0 0 0
0 0 0 139 68 32 139 68 32 139 68 32 139 68 32 139 68 32 139 68 32
139 68 32 139 68 32 139 68 32 139 68 32 210 142 98 210 142 98
210 142 98 210 142 98 210 142 98 210 142 98 210 142 98 210 142 98
210 142 98 210 142 98 222 157 123 222 157 123 222 157 123 222 157 123
222 157 123 222 157 123 222 157 123 222 157 123 222 157 123
222 157 123 172 93 49 172 93 49 172 93 49 172 93 49 172 93 49
172 93 49 172 93 49 172 93 49 172 93 49 172 93 49 222 157 123
222 157 123 222 157 123 222 157 123 222 157 123 222 157 123
222 157 123 222 157 123 222 157 123 222 157 123 230 190 164
230 190 164 230 190 164 230 190 164 230 190 164 230 190 164
230 190 164 230 190 164 230 190 164 230 190 164 230 190 164
230 190 164 230 190 164 230 190 164 230 190 164 230 190 164
230 190 164 230 190 164 230 190 164 230 190 164 222 157 123
222 157 123 222 157 123 222 157 123 222 157 123 222 157 123
222 157 123 222 157 123 222 157 123 222 157 123 222 157 123
222 157 123 222 157 123 222 157 123 222 157 123 222 157 123
222 157 123 222 157 123 222 157 123 222 157 123 210 142 98 210 142 98
210 142 98 210 142 98 210 142 98 210 142 98 210 142 98 210 142 98
210 142 98 210 142 98 210 142 98 210 142 98 210 142 98 210 142 98
210 142 98 210 142 98 210 142 98 210 142 98 210 142 98 210 142 98
205 125 74 205 125 74 205 125 74 205 125 74 205 125 74 205 125 74
205 125 74 205 125 74 205 125 74 205 125 74 90 44 16 90 44 16
90 44 16 90 44 16 90 44 16 90 44 16 90 44 16 90 44 16 90 44 16
90 44 16 0 0 0 0 0 0 0 0 0 0 0 0 0 0 0 0 0 0 0 0 0 0 0 0 0 0 0 0 0 0
0 0 0 0 0 0 0 0 0 0 0 0 0 0 0 0 0 0 0 0 0 0 0 0 0 0 0 0 0 0 0 0 0
0 0 0 0 0 0 0 0 0 0 0 0 0 0 0 0 0 0 0 0 0 0 0 0 0 0 0 139 68 32
139 68 32 139 68 32 139 68 32 139 68 32 139 68 32 139 68 32 139 68 32
139 68 32 139 68 32 210 142 98 210 142 98 210 142 98 210 142 98
210 142 98 210 142 98 210 142 98 210 142 98 210 142 98 210 142 98
210 142 98 210 142 98 210 142 98 210 142 98 210 142 98 210 142 98
210 142 98 210 142 98 210 142 98 210 142 98 139 68 32 139 68 32
139 68 32 139 68 32 139 68 32 139 68 32 139 68 32 139 68 32 139 68 32
139 68 32 222 157 123 222 157 123 222 157 123 222 157 123 222 157 123
222 157 123 222 157 123 222 157 123 222 157 123 222 157 123 172 93 49
172 93 49 172 93 49 172 93 49 172 93 49 172 93 49 172 93 49 172 93 49
172 93 49 172 93 49 139 68 32 139 68 32 139 68 32 139 68 32 139 68 32
139 68 32 139 68 32 139 68 32 139 68 32 139 68 32 139 68 32 139 68 32
139 68 32 139 68 32 139 68 32 139 68 32 139 68 32 139 68 32 139 68 32
139 68 32 210 142 98 210 142 98 210 142 98 210 142 98 210 142 98
210 142 98 210 142 98 210 142 98 210 142 98 210 142 98 210 142 98
210 142 98 210 142 98 210 142 98 210 142 98 210 142 98 210 142 98
210 142 98 210 142 98 210 142 98 205 125 74 205 125 74 205 125 74
205 125 74 205 125 74 205 125 74 205 125 74 205 125 74 205 125 74
205 125 74 172 93 49 172 93 49 172 93 49 172 93 49 172 93 49
172 93 49 172 93 49 172 93 49 172 93 49 172 93 49 90 44 16 90 44 16
90 44 16 90 44 16 90 44 16 90 44 16 90 44 16 90 44 16 90 44 16
90 44 16 0 0 0 0 0 0 0 0 0 0 0 0 0 0 0 0 0 0 0 0 0 0 0 0 0 0 0 0 0 0
0 0 0 0 0 0 0 0 0 0 0 0 0 0 0 0 0 0 0 0 0 0 0 0 0 0 0 0 0 0 0 0 0
0 0 0 0 0 0 0 0 0 0 0 0 0 0 0 0 0 0 0 0 0 0 0 0 0 0 0 139 68 32
139 68 32 139 68 32 139 68 32 139 68 32 139 68 32 139 68 32 139 68 32
139 68 32 139 68 32 210 142 98 210 142 98 210 142 98 210 142 98
210 142 98 210 142 98 210 142 98 210 142 98 210 142 98 210 142 98
210 142 98 210 142 98 210 142 98 210 142 98 210 142 98 210 142 98
210 142 98 210 142 98 210 142 98 210 142 98 139 68 32 139 68 32
139 68 32 139 68 32 139 68 32 139 68 32 139 68 32 139 68 32 139 68 32
139 68 32 222 157 123 222 157 123 222 157 123 222 157 123 222 157 123
222 157 123 222 157 123 222 157 123 222 157 123 222 157 123 172 93 49
172 93 49 172 93 49 172 93 49 172 93 49 172 93 49 172 93 49 172 93 49
172 93 49 172 93 49 139 68 32 139 68 32 139 68 32 139 68 32 139 68 32
139 68 32 139 68 32 139 68 32 139 68 32 139 68 32 139 68 32 139 68 32
139 68 32 139 68 32 139 68 32 139 68 32 139 68 32 139 68 32 139 68 32
139 68 32 210 142 98 210 142 98 210 142 98 210 142 98 210 142 98
210 142 98 210 142 98 210 142 98 210 142 98 210 142 98 210 142 98
210 142 98 210 142 98 210 142 98 210 142 98 210 142 98 210 142 98
210 142 98 210 142 98 210 142 98 205 125 74 205 125 74 205 125 74
205 125 74 205 125 74 205 125 74 205 125 74 205 125 74 205 125 74
205 125 74 172 93 49 172 93 49 172 93 49 172 93 49 172 93 49
172 93 49 172 93 49 172 93 49 172 93 49 172 93 49 90 44 16 90 44 16
90 44 16 90 44 16 90 44 16 90 44 16 90 44 16 90 44 16 90 44 16
90 44 16 0 0 0 0 0 0 0 0 0 0 0 0 0 0 0 0 0 0 0 0 0 0 0 0 0 0 0 0 0 0
0 0 0 0 0 0 0 0 0 0 0 0 0 0 0 0 0 0 0 0 0 0 0 0 0 0 0 0 0 0 0 0 0
0 0 0 0 0 0 0 0 0 0 0 0 0 0 0 0 0 0 0 0 0 0 0 0 0 0 0 139 68 32
139 68 32 139 68 32 139 68 32 139 68 32 139 68 32 139 68 32 139 68 32
139 68 32 139 68 32 210 142 98 210 142 98 210 142 98 210 142 98
210 142 98 210 142 98 210 142 98 210 142 98 210 142 98 210 142 98
210 142 98 210 142 98 210 142 98 210 142 98 210 142 98 210 142 98
210 142 98 210 142 98 210 142 98 210 142 98 139 68 32 139 68 32
139 68 32 139 68 32 139 68 32 139 68 32 139 68 32 139 68 32 139 68 32
139 68 32 222 157 123 222 157 123 222 157 123 222 157 123 222 157 123
222 157 123 222 157 123 222 157 123 222 157 123 222 157 123 172 93 49
172 93 49 172 93 49 172 93 49 172 93 49 172 93 49 172 93 49 172 93 49
172 93 49 172 93 49 139 68 32 139 68 32 139 68 32 139 68 32 139 68 32
139 68 32 139 68 32 139 68 32 139 68 32 139 68 32 139 68 32 139 68 32
139 68 32 139 68 32 139 68 32 139 68 32 139 68 32 139 68 32 139 68 32
139 68 32 210 142 98 210 142 98 210 142 98 210 142 98 210 142 98
210 142 98 210 142 98 210 142 98 210 142 98 210 142 98 210 142 98
210 142 98 210 142 98 210 142 98 210 142 98 210 142 98 210 142 98
210 142 98 210 142 98 210 142 98 205 125 74 205 125 74 205 125 74
205 125 74 205 125 74 205 125 74 205 125 74 205 125 74 205 125 74
205 125 74 172 93 49 172 93 49 172 93 49 172 93 49 172 93 49
172 93 49 172 93 49 172 93 49 172 93 49 172 93 49 90 44 16 90 44 16
90 44 16 90 44 16 90 44 16 90 44 16 90 44 16 90 44 16 90 44 16
90 44 16 0 0 0 0 0 0 0 0 0 0 0 0 0 0 0 0 0 0 0 0 0 0 0 0 0 0 0 0 0 0
0 0 0 0 0 0 0 0 0 0 0 0 0 0 0 0 0 0 0 0 0 0 0 0 0 0 0 0 0 0 0 0 0
0 0 0 0 0 0 0 0 0 0 0 0 0 0 0 0 0 0 0 0 0 0 0 0 0 0 0 139 68 32
139 68 32 139 68 32 139 68 32 139 68 32 139 68 32 139 68 32 139 68 32
139 68 32 139 68 32 210 142 98 210 142 98 210 142 98 210 142 98
210 142 98 210 142 98 210 142 98 210 142 98 210 142 98 210 142 98
210 142 98 210 142 98 210 142 98 210 142 98 210 142 98 210 142 98
210 142 98 210 142 98 210 142 98 210 142 98 139 68 32 139 68 32
139 68 32 139 68 32 139 68 32 139 68 32 139 68 32 139 68 32 139 68 32
139 68 32 222 157 123 222 157 123 222 157 123 222 157 123 222 157 123
222 157 123 222 157 123 222 157 123 222 157 123 222 157 123 172 93 49
172 93 49 172 93 49 172 93 49 172 93 49 172 93 49 172 93 49 172 93 49
172 93 49 172 93 49 139 68 32 139 68 32 139 68 32 139 68 32 139 68 32
139 68 32 139 68 32 139 68 32 139 68 32 139 68 32 139 68 32 139 68 32
139 68 32 139 68 32 139 68 32 139 68 32 139 68 32 139 68 32 139 68 32
139 68 32 210 142 98 210 142 98 210 142 98 210 142 98 210 142 98
210 142 98 210 142 98 210 142 98 210 142 98 210 142 98 210 142 98
210 142 98 210 142 98 210 142 98 210 142 98 210 142 98 210 142 98
210 142 98 210 142 98 210 142 98 205 125 74 205 125 74 205 125 74
205 125 74 205 125 74 205 125 74 205 125 74 205 125 74 205 125 74
205 125 74 172 93 49 172 93 49 172 93 49 172 93 49 172 93 49
172 93 49 172 93 49 172 93 49 172 93 49 172 93 49 90 44 16 90 44 16
90 44 16 90 44 16 90 44 16 90 44 16 90 44 16 90 44 16 90 44 16
90 44 16 0 0 0 0 0 0 0 0 0 0 0 0 0 0 0 0 0 0 0 0 0 0 0 0 0 0 0 0 0 0
0 0 0 0 0 0 0 0 0 0 0 0 0 0 0 0 0 0 0 0 0 0 0 0 0 0 0 0 0 0 0 0 0
0 0 0 0 0 0 0 0 0 0 0 0 0 0 0 0 0 0 0 0 0 0 0 0 0 0 0 139 68 32
139 68 32 139 68 32 139 68 32 139 68 32 139 68 32 139 68 32 139 68 32
139 68 32 139 68 32 210 142 98 210 142 98 210 142 98 210 142 98
210 142 98 210 142 98 210 142 98 210 142 98 210 142 98 210 142 98
210 142 98 210 142 98 210 142 98 210 142 98 210 142 98 210 142 98
210 142 98 210 142 98 210 142 98 210 142 98 139 68 32 139 68 32
139 68 32 139 68 32 139 68 32 139 68 32 139 68 32 139 68 32 139 68 32
139 68 32 222 157 123 222 157 123 222 157 123 222 157 123 222 157 123
222 157 123 222 157 123 222 157 123 222 157 123 222 157 123 172 93 49
172 93 49 172 93 49 172 93 49 172 93 49 172 93 49 172 93 49 172 93 49
172 93 49 172 93 49 139 68 32 139 68 32 139 68 32 139 68 32 139 68 32
139 68 32 139 68 32 139 68 32 139 68 32 139 68 32 139 68 32 139 68 32
139 68 32 139 68 32 139 68 32 139 68 32 139 68 32 139 68 32 139 68 32
139 68 32 210 142 98 210 142 98 210 142 98 210 142 98 210 142 98
210 142 98 210 142 98 210 142 98 210 142 98 210 142 98 210 142 98
210 142 98 210 142 98 210 142 98 210 142 98 210 142 98 210 142 98
210 142 98 210 142 98 210 142 98 205 125 74 205 125 74 205 125 74
205 125 74 205 125 74 205 125 74 205 125 74 205 125 74 205 125 74
205 125 74 172 93 49 172 93 49 172 93 49 172 93 49 172 93 49
172 93 49 172 93 49 172 93 49 172 93 49 172 93 49 90 44 16 90 44 16
90 44 16 90 44 16 90 44 16 90 44 16 90 44 16 90 44 16 90 44 16
90 44 16 0 0 0 0 0 0 0 0 0 0 0 0 0 0 0 0 0 0 0 0 0 0 0 0 0 0 0 0 0 0
0 0 0 0 0 0 0 0 0 0 0 0 0 0 0 0 0 0 0 0 0 0 0 0 0 0 0 0 0 0 0 0 0
0 0 0 0 0 0 0 0 0 0 0 0 0 0 0 0 0 0 0 0 0 0 0 0 0 0 0 139 68 32
139 68 32 139 68 32 139 68 32 139 68 32 139 68 32 139 68 32 139 68 32
139 68 32 139 68 32 210 142 98 210 142 98 210 142 98 210 142 98
210 142 98 210 142 98 210 142 98 210 142 98 210 142 98 210 142 98
210 142 98 210 142 98 210 142 98 210 142 98 210 142 98 210 142 98
210 142 98 210 142 98 210 142 98 210 142 98 139 68 32 139 68 32
139 68 32 139 68 32 139 68 32 139 68 32 139 68 32 139 68 32 139 68 32
139 68 32 222 157 123 222 157 123 222 157 123 222 157 123 222 157 123
222 157 123 222 157 123 222 157 123 222 157 123 222 157 123 172 93 49
172 93 49 172 93 49 172 93 49 172 93 49 172 93 49 172 93 49 172 93 49
172 93 49 172 93 49 139 68 32 139 68 32 139 68 32 139 68 32 139 68 32
139 68 32 139 68 32 139 68 32 139 68 32 139 68 32 139 68 32 139 68 32
139 68 32 139 68 32 139 68 32 139 68 32 139 68 32 139 68 32 139 68 32
139 68 32 210 142 98 210 142 98 210 142 98 210 142 98 210 142 98
210 142 98 210 142 98 210 142 98 210 142 98 210 142 98 210 142 98
210 142 98 210 142 98 210 142 98 210 142 98 210 142 98 210 142 98
210 142 98 210 142 98 210 142 98 205 125 74 205 125 74 205 125 74
205 125 74 205 125 74 205 125 74 205 125 74 205 125 74 205 125 74
205 125 74 172 93 49 172 93 49 172 93 49 172 93 49 172 93 49
172 93 49 172 93 49 172 93 49 172 93 49 172 93 49 90 44 16 90 44 16
90 44 16 90 44 16 90 44 16 90 44 16 90 44 16 90 44 16 90 44 16
90 44 16 0 0 0 0 0 0 0 0 0 0 0 0 0 0 0 0 0 0 0 0 0 0 0 0 0 0 0 0 0 0
0 0 0 0 0 0 0 0 0 0 0 0 0 0 0 0 0 0 0 0 0 0 0 0 0 0 0 0 0 0 0 0 0
0 0 0 0 0 0 0 0 0 0 0 0 0 0 0 0 0 0 0 0 0 0 0 0 0 0 0 139 68 32
139 68 32 139 68 32 139 68 32 139 68 32 139 68 32 139 68 32 139 68 32
139 68 32 139 68 32 210 142 98 210 142 98 210 142 98 210 142 98
210 142 98 210 142 98 210 142 98 210 142 98 210 142 98 210 142 98
210 142 98 210 142 98 210 142 98 210 142 98 210 142 98 210 142 98
210 142 98 210 142 98 210 142 98 210 142 98 139 68 32 139 68 32
139 68 32 139 68 32 139 68 32 139 68 32 139 68 32 139 68 32 139 68 32
139 68 32 222 157 123 222 157 123 222 157 123 222 157 123 222 157 123
222 157 123 222 157 123 222 157 123 222 157 123 222 157 123 172 93 49
172 93 49 172 93 49 172 93 49 172 93 49 172 93 49 172 93 49 172 93 49
172 93 49 172 93 49 139 68 32 139 68 32 139 68 32 139 68 32 139 68 32
139 68 32 139 68 32 139 68 32 139 68 32 139 68 32 139 68 32 139 68 32
139 68 32 139 68 32 139 68 32 139 68 32 139 68 32 139 68 32 139 68 32
139 68 32 210 142 98 210 142 98 210 142 98 210 142 98 210 142 98
210 142 98 210 142 98 210 142 98 210 142 98 210 142 98 210 142 98
210 142 98 210 142 98 210 142 98 210 142 98 210 142 98 210 142 98
210 142 98 210 142 98 210 142 98 205 125 74 205 125 74 205 125 74
205 125 74 205 125 74 205 125 74 205 125 74 205 125 74 205 125 74
205 125 74 172 93 49 172 93 49 172 93 49 172 93 49 172 93 49
172 93 49 172 93 49 172 93 49 172 93 49 172 93 49 90 44 16 90 44 16
90 44 16 90 44 16 90 44 16 90 44 16 90 44 16 90 44 16 90 44 16
90 44 16 0 0 0 0 0 0 0 0 0 0 0 0 0 0 0 0 0 0 0 0 0 0 0 0 0 0 0 0 0 0
0 0 0 0 0 0 0 0 0 0 0 0 0 0 0 0 0 0 0 0 0 0 0 0 0 0 0 0 0 0 0 0 0
0 0 0 0 0 0 0 0 0 0 0 0 0 0 0 0 0 0 0 0 0 0 0 0 0 0 0 139 68 32
139 68 32 139 68 32 139 68 32 139 68 32 139 68 32 139 68 32 139 68 32
139 68 32 139 68 32 210 142 98 210 142 98 210 142 98 210 142 98
210 142 98 210 142 98 210 142 98 210 142 98 210 142 98 210 142 98
210 142 98 210 142 98 210 142 98 210 142 98 210 142 98 210 142 98
210 142 98 210 142 98 210 142 98 210 142 98 139 68 32 139 68 32
139 68 32 139 68 32 139 68 32 139 68 32 139 68 32 139 68 32 139 68 32
139 68 32 222 157 123 222 157 123 222 157 123 222 157 123 222 157 123
222 157 123 222 157 123 222 157 123 222 157 123 222 157 123 172 93 49
172 93 49 172 93 49 172 93 49 172 93 49 172 93 49 172 93 49 172 93 49
172 93 49 172 93 49 139 68 32 139 68 32 139 68 32 139 68 32 139 68 32
139 68 32 139 68 32 139 68 32 139 68 32 139 68 32 139 68 32 139 68 32
139 68 32 139 68 32 139 68 32 139 68 32 139 68 32 139 68 32 139 68 32
139 68 32 210 142 98 210 142 98 210 142 98 210 142 98 210 142 98
210 142 98 210 142 98 210 142 98 210 142 98 210 142 98 210 142 98
210 142 98 210 142 98 210 142 98 210 142 98 210 142 98 210 142 98
210 142 98 210 142 98 210 142 98 205 125 74 205 125 74 205 125 74
205 125 74 205 125 74 205 125 74 205 125 74 205 125 74 205 125 74
205 125 74 172 93 49 172 93 49 172 93 49 172 93 49 172 93 49
172 93 49 172 93 49 172 93 49 172 93 49 172 93 49 90 44 16 90 44 16
90 44 16 90 44 16 90 44 16 90 44 16 90 44 16 90 44 16 90 44 16
90 44 16 0 0 0 0 0 0 0 0 0 0 0 0 0 0 0 0 0 0 0 0 0 0 0 0 0 0 0 0 0 0
0 0 0 0 0 0 0 0 0 0 0 0 0 0 0 0 0 0 0 0 0 0 0 0 0 0 0 0 0 0 0 0 0
0 0 0 0 0 0 0 0 0 0 0 0 0 0 0 0 0 0 0 0 0 0 0 0 0 0 0 139 68 32
139 68 32 139 68 32 139 68 32 139 68 32 139 68 32 139 68 32 139 68 32
139 68 32 139 68 32 210 142 98 210 142 98 210 142 98 210 142 98
210 142 98 210 142 98 210 142 98 210 142 98 210 142 98 210 142 98
210 142 98 210 142 98 210 142 98 210 142 98 210 142 98 210 142 98
210 142 98 210 142 98 210 142 98 210 142 98 139 68 32 139 68 32
139 68 32 139 68 32 139 68 32 139 68 32 139 68 32 139 68 32 139 68 32
139 68 32 222 157 123 222 157 123 222 157 123 222 157 123 222 157 123
222 157 123 222 157 123 222 157 123 222 157 123 222 157 123 172 93 49
172 93 49 172 93 49 172 93 49 172 93 49 172 93 49 172 93 49 172 93 49
172 93 49 172 93 49 139 68 32 139 68 32 139 68 32 139 68 32 139 68 32
139 68 32 139 68 32 139 68 32 139 68 32 139 68 32 139 68 32 139 68 32
139 68 32 139 68 32 139 68 32 139 68 32 139 68 32 139 68 32 139 68 32
139 68 32 210 142 98 210 142 98 210 142 98 210 142 98 210 142 98
210 142 98 210 142 98 210 142 98 210 142 98 210 142 98 210 142 98
210 142 98 210 142 98 210 142 98 210 142 98 210 142 98 210 142 98
210 142 98 210 142 98 210 142 98 205 125 74 205 125 74 205 125 74
205 125 74 205 125 74 205 125 74 205 125 74 205 125 74 205 125 74
205 125 74 172 93 49 172 93 49 172 93 49 172 93 49 172 93 49
172 93 49 172 93 49 172 93 49 172 93 49 172 93 49 90 44 16 90 44 16
90 44 16 90 44 16 90 44 16 90 44 16 90 44 16 90 44 16 90 44 16
90 44 16 0 0 0 0 0 0 0 0 0 0 0 0 0 0 0 0 0 0 0 0 0 0 0 0 0 0 0 0 0 0
0 0 0 0 0 0 0 0 0 0 0 0 0 0 0 0 0 0 0 0 0 0 0 0 0 0 0 0 0 0 0 0 0
0 0 0 0 0 0 0 0 0 0 0 0 0 0 0 0 0 0 0 0 0 0 0 0 0 0 0 139 68 32
139 68 32 139 68 32 139 68 32 139 68 32 139 68 32 139 68 32 139 68 32
139 68 32 139 68 32 210 142 98 210 142 98 210 142 98 210 142 98
210 142 98 210 142 98 210 142 98 210 142 98 210 142 98 210 142 98
210 142 98 210 142 98 210 142 98 210 142 98 210 142 98 210 142 98
210 142 98 210 142 98 210 142 98 210 142 98 139 68 32 139 68 32
139 68 32 139 68 32 139 68 32 139 68 32 139 68 32 139 68 32 139 68 32
139 68 32 222 157 123 222 157 123 222 157 123 222 157 123 222 157 123
222 157 123 222 157 123 222 157 123 222 157 123 222 157 123 172 93 49
172 93 49 172 93 49 172 93 49 172 93 49 172 93 49 172 93 49 172 93 49
172 93 49 172 93 49 139 68 32 139 68 32 139 68 32 139 68 32 139 68 32
139 68 32 139 68 32 139 68 32 139 68 32 139 68 32 139 68 32 139 68 32
139 68 32 139 68 32 139 68 32 139 68 32 139 68 32 139 68 32 139 68 32
139 68 32 210 142 98 210 142 98 210 142 98 210 142 98 210 142 98
210 142 98 210 142 98 210 142 98 210 142 98 210 142 98 210 142 98
210 142 98 210 142 98 210 142 98 210 142 98 210 142 98 210 142 98
210 142 98 210 142 98 210 142 98 205 125 74 205 125 74 205 125 74
205 125 74 205 125 74 205 125 74 205 125 74 205 125 74 205 125 74
205 125 74 172 93 49 172 93 49 172 93 49 172 93 49 172 93 49
172 93 49 172 93 49 172 93 49 172 93 49 172 93 49 90 44 16 90 44 16
90 44 16 90 44 16 90 44 16 90 44 16 90 44 16 90 44 16 90 44 16
90 44 16 0 0 0 0 0 0 0 0 0 0 0 0 0 0 0 0 0 0 0 0 0 0 0 0 0 0 0 0 0 0
0 0 0 0 0 0 0 0 0 0 0 0 0 0 0 0 0 0 0 0 0 0 0 0 0 0 0 0 0 0 0 0 0
0 0 0 0 0 0 0 0 0 0 0 0 0 0 0 0 0 0 0 0 0 0 0 0 0 0 0 139 68 32
139 68 32 139 68 32 139 68 32 139 68 32 139 68 32 139 68 32 139 68 32
139 68 32 139 68 32 210 142 98 210 142 98 210 142 98 210 142 98
210 142 98 210 142 98 210 142 98 210 142 98 210 142 98 210 142 98
205 125 74 205 125 74 205 125 74 205 125 74 205 125 74 205 125 74
205 125 74 205 125 74 205 125 74 205 125 74 139 68 32 139 68 32
139 68 32 139 68 32 139 68 32 139 68 32 139 68 32 139 68 32 139 68 32
139 68 32 139 68 32 139 68 32 139 68 32 139 68 32 139 68 32 139 68 32
139 68 32 139 68 32 139 68 32 139 68 32 222 157 123 222 157 123
222 157 123 222 157 123 222 157 123 222 157 123 222 157 123
222 157 123 222 157 123 222 157 123 230 190 164 230 190 164
230 190 164 230 190 164 230 190 164 230 190 164 230 190 164
230 190 164 230 190 164 230 190 164 222 157 123 222 157 123
222 157 123 222 157 123 222 157 123 222 157 123 222 157 123
222 157 123 222 157 123 222 157 123 139 68 32 139 68 32 139 68 32
139 68 32 139 68 32 139 68 32 139 68 32 139 68 32 139 68 32 139 68 32
205 125 74 205 125 74 205 125 74 205 125 74 205 125 74 205 125 74
205 125 74 205 125 74 205 125 74 205 125 74 205 125 74 205 125 74
205 125 74 205 125 74 205 125 74 205 125 74 205 125 74 205 125 74
205 125 74 205 125 74 90 44 16 90 44 16 90 44 16 90 44 16 90 44 16
90 44 16 90 44 16 90 44 16 90 44 16 90 44 16 0 0 0 0 0 0 0 0 0 0 0 0
0 0 0 0 0 0 0 0 0 0 0 0 0 0 0 0 0 0 0 0 0 0 0 0 0 0 0 0 0 0 0 0 0
0 0 0 0 0 0 0 0 0 0 0 0 0 0 0 0 0 0 0 0 0 0 0 0 0 0 0 0 0 0 0 0 0
0 0 0 0 0 0 0 0 0 0 0 0 0 0 0 0 0 0 0 0 0 0 0 0 0 0 0 0 0 0 0 0 0
0 0 0 0 0 0 0 0 0 139 68 32 139 68 32 139 68 32 139 68 32 139 68 32
139 68 32 139 68 32 139 68 32 139 68 32 139 68 32 210 142 98
210 142 98 210 142 98 210 142 98 210 142 98 210 142 98 210 142 98
210 142 98 210 142 98 210 142 98 205 125 74 205 125 74 205 125 74
205 125 74 205 125 74 205 125 74 205 125 74 205 125 74 205 125 74
205 125 74 139 68 32 139 68 32 139 68 32 139 68 32 139 68 32
139 68 32 139 68 32 139 68 32 139 68 32 139 68 32 139 68 32 139 68 32
139 68 32 139 68 32 139 68 32 139 68 32 139 68 32 139 68 32 139 68 32
139 68 32 222 157 123 222 157 123 222 157 123 222 157 123 222 157 123
222 157 123 222 157 123 222 157 123 222 157 123 222 157 123
230 190 164 230 190 164 230 190 164 230 190 164 230 190 164
230 190 164 230 190 164 230 190 164 230 190 164 230 190 164
222 157 123 222 157 123 222 157 123 222 157 123 222 157 123
222 157 123 222 157 123 222 157 123 222 157 123 222 157 123 139 68 32
139 68 32 139 68 32 139 68 32 139 68 32 139 68 32 139 68 32 139 68 32
139 68 32 139 68 32 205 125 74 205 125 74 205 125 74 205 125 74
205 125 74 205 125 74 205 125 74 205 125 74 205 125 74 205 125 74
205 125 74 205 125 74 205 125 74 205 125 74 205 125 74 205 125 74
205 125 74 205 125 74 205 125 74 205 125 74 90 44 16 90 44 16
90 44 16 90 44 16 90 44 16 90 44 16 90 44 16 90 44 16 90 44 16
90 44 16 0 0 0 0 0 0 0 0 0 0 0 0 0 0 0 0 0 0 0 0 0 0 0 0 0 0 0 0 0 0
0 0 0 0 0 0 0 0 0 0 0 0 0 0 0 0 0 0 0 0 0 0 0 0 0 0 0 0 0 0 0 0 0
0 0 0 0 0 0 0 0 0 0 0 0 0 0 0 0 0 0 0 0 0 0 0 0 0 0 0 0 0 0 0 0 0
0 0 0 0 0 0 0 0 0 0 0 0 0 0 0 0 0 0 0 0 0 0 0 0 139 68 32 139 68 32
139 68 32 139 68 32 139 68 32 139 68 32 139 68 32 139 68 32 139 68 32
139 68 32 210 142 98 210 142 98 210 142 98 210 142 98 210 142 98
210 142 98 210 142 98 210 142 98 210 142 98 210 142 98 205 125 74
205 125 74 205 125 74 205 125 74 205 125 74 205 125 74 205 125 74
205 125 74 205 125 74 205 125 74 139 68 32 139 68 32 139 68 32
139 68 32 139 68 32 139 68 32 139 68 32 139 68 32 139 68 32 139 68 32
139 68 32 139 68 32 139 68 32 139 68 32 139 68 32 139 68 32 139 68 32
139 68 32 139 68 32 139 68 32 222 157 123 222 157 123 222 157 123
222 157 123 222 157 123 222 157 123 222 157 123 222 157 123
222 157 123 222 157 123 230 190 164 230 190 164 230 190 164
230 190 164 230 190 164 230 190 164 230 190 164 230 190 164
230 190 164 230 190 164 222 157 123 222 157 123 222 157 123
222 157 123 222 157 123 222 157 123 222 157 123 222 157 123
222 157 123 222 157 123 139 68 32 139 68 32 139 68 32 139 68 32
139 68 32 139 68 32 139 68 32 139 68 32 139 68 32 139 68 32
205 125 74 205 125 74 205 125 74 205 125 74 205 125 74 205 125 74
205 125 74 205 125 74 205 125 74 205 125 74 205 125 74 205 125 74
205 125 74 205 125 74 205 125 74 205 125 74 205 125 74 205 125 74
205 125 74 205 125 74 90 44 16 90 44 16 90 44 16 90 44 16 90 44 16
90 44 16 90 44 16 90 44 16 90 44 16 90 44 16 0 0 0 0 0 0 0 0 0 0 0 0
0 0 0 0 0 0 0 0 0 0 0 0 0 0 0 0 0 0 0 0 0 0 0 0 0 0 0 0 0 0 0 0 0
0 0 0 0 0 0 0 0 0 0 0 0 0 0 0 0 0 0 0 0 0 0 0 0 0 0 0 0 0 0 0 0 0
0 0 0 0 0 0 0 0 0 0 0 0 0 0 0 0 0 0 0 0 0 0 0 0 0 0 0 0 0 0 0 0 0
0 0 0 0 0 0 0 0 0 139 68 32 139 68 32 139 68 32 139 68 32 139 68 32
139 68 32 139 68 32 139 68 32 139 68 32 139 68 32 210 142 98
210 142 98 210 142 98 210 142 98 210 142 98 210 142 98 210 142 98
210 142 98 210 142 98 210 142 98 205 125 74 205 125 74 205 125 74
205 125 74 205 125 74 205 125 74 205 125 74 205 125 74 205 125 74
205 125 74 139 68 32 139 68 32 139 68 32 139 68 32 139 68 32
139 68 32 139 68 32 139 68 32 139 68 32 139 68 32 139 68 32 139 68 32
139 68 32 139 68 32 139 68 32 139 68 32 139 68 32 139 68 32 139 68 32
139 68 32 222 157 123 222 157 123 222 157 123 222 157 123 222 157 123
222 157 123 222 157 123 222 157 123 222 157 123 222 157 123
230 190 164 230 190 164 230 190 164 230 190 164 230 190 164
230 190 164 230 190 164 230 190 164 230 190 164 230 190 164
222 157 123 222 157 123 222 157 123 222 157 123 222 157 123
222 157 123 222 157 123 222 157 123 222 157 123 222 157 123 139 68 32
139 68 32 139 68 32 139 68 32 139 68 32 139 68 32 139 68 32 139 68 32
139 68 32 139 68 32 205 125 74 205 125 74 205 125 74 205 125 74
205 125 74 205 125 74 205 125 74 205 125 74 205 125 74 205 125 74
205 125 74 205 125 74 205 125 74 205 125 74 205 125 74 205 125 74
205 125 74 205 125 74 205 125 74 205 125 74 90 44 16 90 44 16
90 44 16 90 44 16 90 44 16 90 44 16 90 44 16 90 44 16 90 44 16
90 44 16 0 0 0 0 0 0 0 0 0 0 0 0 0 0 0 0 0 0 0 0 0 0 0 0 0 0 0 0 0 0
0 0 0 0 0 0 0 0 0 0 0 0 0 0 0 0 0 0 0 0 0 0 0 0 0 0 0 0 0 0 0 0 0
0 0 0 0 0 0 0 0 0 0 0 0 0 0 0 0 0 0 0 0 0 0 0 0 0 0 0 0 0 0 0 0 0
0 0 0 0 0 0 0 0 0 0 0 0 0 0 0 0 0 0 0 0 0 0 0 0 139 68 32 139 68 32
139 68 32 139 68 32 139 68 32 139 68 32 139 68 32 139 68 32 139 68 32
139 68 32 210 142 98 210 142 98 210 142 98 210 142 98 210 142 98
210 142 98 210 142 98 210 142 98 210 142 98 210 142 98 205 125 74
205 125 74 205 125 74 205 125 74 205 125 74 205 125 74 205 125 74
205 125 74 205 125 74 205 125 74 139 68 32 139 68 32 139 68 32
139 68 32 139 68 32 139 68 32 139 68 32 139 68 32 139 68 32 139 68 32
139 68 32 139 68 32 139 68 32 139 68 32 139 68 32 139 68 32 139 68 32
139 68 32 139 68 32 139 68 32 222 157 123 222 157 123 222 157 123
222 157 123 222 157 123 222 157 123 222 157 123 222 157 123
222 157 123 222 157 123 230 190 164 230 190 164 230 190 164
230 190 164 230 190 164 230 190 164 230 190 164 230 190 164
230 190 164 230 190 164 222 157 123 222 157 123 222 157 123
222 157 123 222 157 123 222 157 123 222 157 123 222 157 123
222 157 123 222 157 123 139 68 32 139 68 32 139 68 32 139 68 32
139 68 32 139 68 32 139 68 32 139 68 32 139 68 32 139 68 32
205 125 74 205 125 74 205 125 74 205 125 74 205 125 74 205 125 74
205 125 74 205 125 74 205 125 74 205 125 74 205 125 74 205 125 74
205 125 74 205 125 74 205 125 74 205 125 74 205 125 74 205 125 74
205 125 74 205 125 74 90 44 16 90 44 16 90 44 16 90 44 16 90 44 16
90 44 16 90 44 16 90 44 16 90 44 16 90 44 16 0 0 0 0 0 0 0 0 0 0 0 0
0 0 0 0 0 0 0 0 0 0 0 0 0 0 0 0 0 0 0 0 0 0 0 0 0 0 0 0 0 0 0 0 0
0 0 0 0 0 0 0 0 0 0 0 0 0 0 0 0 0 0 0 0 0 0 0 0 0 0 0 0 0 0 0 0 0
0 0 0 0 0 0 0 0 0 0 0 0 0 0 0 0 0 0 0 0 0 0 0 0 0 0 0 0 0 0 0 0 0
0 0 0 0 0 0 0 0 0 139 68 32 139 68 32 139 68 32 139 68 32 139 68 32
139 68 32 139 68 32 139 68 32 139 68 32 139 68 32 210 142 98
210 142 98 210 142 98 210 142 98 210 142 98 210 142 98 210 142 98
210 142 98 210 142 98 210 142 98 205 125 74 205 125 74 205 125 74
205 125 74 205 125 74 205 125 74 205 125 74 205 125 74 205 125 74
205 125 74 139 68 32 139 68 32 139 68 32 139 68 32 139 68 32
139 68 32 139 68 32 139 68 32 139 68 32 139 68 32 139 68 32 139 68 32
139 68 32 139 68 32 139 68 32 139 68 32 139 68 32 139 68 32 139 68 32
139 68 32 222 157 123 222 157 123 222 157 123 222 157 123 222 157 123
222 157 123 222 157 123 222 157 123 222 157 123 222 157 123
230 190 164 230 190 164 230 190 164 230 190 164 230 190 164
230 190 164 230 190 164 230 190 164 230 190 164 230 190 164
222 157 123 222 157 123 222 157 123 222 157 123 222 157 123
222 157 123 222 157 123 222 157 123 222 157 123 222 157 123 139 68 32
139 68 32 139 68 32 139 68 32 139 68 32 139 68 32 139 68 32 139 68 32
139 68 32 139 68 32 205 125 74 205 125 74 205 125 74 205 125 74
205 125 74 205 125 74 205 125 74 205 125 74 205 125 74 205 125 74
205 125 74 205 125 74 205 125 74 205 125 74 205 125 74 205 125 74
205 125 74 205 125 74 205 125 74 205 125 74 90 44 16 90 44 16
90 44 16 90 44 16 90 44 16 90 44 16 90 44 16 90 44 16 90 44 16
90 44 16 0 0 0 0 0 0 0 0 0 0 0 0 0 0 0 0 0 0 0 0 0 0 0 0 0 0 0 0 0 0
0 0 0 0 0 0 0 0 0 0 0 0 0 0 0 0 0 0 0 0 0 0 0 0 0 0 0 0 0 0 0 0 0
0 0 0 0 0 0 0 0 0 0 0 0 0 0 0 0 0 0 0 0 0 0 0 0 0 0 0 0 0 0 0 0 0
0 0 0 0 0 0 0 0 0 0 0 0 0 0 0 0 0 0 0 0 0 0 0 0 139 68 32 139 68 32
139 68 32 139 68 32 139 68 32 139 68 32 139 68 32 139 68 32 139 68 32
139 68 32 210 142 98 210 142 98 210 142 98 210 142 98 210 142 98
210 142 98 210 142 98 210 142 98 210 142 98 210 142 98 205 125 74
205 125 74 205 125 74 205 125 74 205 125 74 205 125 74 205 125 74
205 125 74 205 125 74 205 125 74 139 68 32 139 68 32 139 68 32
139 68 32 139 68 32 139 68 32 139 68 32 139 68 32 139 68 32 139 68 32
139 68 32 139 68 32 139 68 32 139 68 32 139 68 32 139 68 32 139 68 32
139 68 32 139 68 32 139 68 32 222 157 123 222 157 123 222 157 123
222 157 123 222 157 123 222 157 123 222 157 123 222 157 123
222 157 123 222 157 123 230 190 164 230 190 164 230 190 164
230 190 164 230 190 164 230 190 164 230 190 164 230 190 164
230 190 164 230 190 164 222 157 123 222 157 123 222 157 123
222 157 123 222 157 123 222 157 123 222 157 123 222 157 123
222 157 123 222 157 123 139 68 32 139 68 32 139 68 32 139 68 32
139 68 32 139 68 32 139 68 32 139 68 32 139 68 32 139 68 32
205 125 74 205 125 74 205 125 74 205 125 74 205 125 74 205 125 74
205 125 74 205 125 74 205 125 74 205 125 74 205 125 74 205 125 74
205 125 74 205 125 74 205 125 74 205 125 74 205 125 74 205 125 74
205 125 74 205 125 74 90 44 16 90 44 16 90 44 16 90 44 16 90 44 16
90 44 16 90 44 16 90 44 16 90 44 16 90 44 16 0 0 0 0 0 0 0 0 0 0 0 0
0 0 0 0 0 0 0 0 0 0 0 0 0 0 0 0 0 0 0 0 0 0 0 0 0 0 0 0 0 0 0 0 0
0 0 0 0 0 0 0 0 0 0 0 0 0 0 0 0 0 0 0 0 0 0 0 0 0 0 0 0 0 0 0 0 0
0 0 0 0 0 0 0 0 0 0 0 0 0 0 0 0 0 0 0 0 0 0 0 0 0 0 0 0 0 0 0 0 0
0 0 0 0 0 0 0 0 0 139 68 32 139 68 32 139 68 32 139 68 32 139 68 32
139 68 32 139 68 32 139 68 32 139 68 32 139 68 32 210 142 98
210 142 98 210 142 98 210 142 98 210 142 98 210 142 98 210 142 98
210 142 98 210 142 98 210 142 98 205 125 74 205 125 74 205 125 74
205 125 74 205 125 74 205 125 74 205 125 74 205 125 74 205 125 74
205 125 74 139 68 32 139 68 32 139 68 32 139 68 32 139 68 32
139 68 32 139 68 32 139 68 32 139 68 32 139 68 32 139 68 32 139 68 32
139 68 32 139 68 32 139 68 32 139 68 32 139 68 32 139 68 32 139 68 32
139 68 32 222 157 123 222 157 123 222 157 123 222 157 123 222 157 123
222 157 123 222 157 123 222 157 123 222 157 123 222 157 123
230 190 164 230 190 164 230 190 164 230 190 164 230 190 164
230 190 164 230 190 164 230 190 164 230 190 164 230 190 164
222 157 123 222 157 123 222 157 123 222 157 123 222 157 123
222 157 123 222 157 123 222 157 123 222 157 123 222 157 123 139 68 32
139 68 32 139 68 32 139 68 32 139 68 32 139 68 32 139 68 32 139 68 32
139 68 32 139 68 32 205 125 74 205 125 74 205 125 74 205 125 74
205 125 74 205 125 74 205 125 74 205 125 74 205 125 74 205 125 74
205 125 74 205 125 74 205 125 74 205 125 74 205 125 74 205 125 74
205 125 74 205 125 74 205 125 74 205 125 74 90 44 16 90 44 16
90 44 16 90 44 16 90 44 16 90 44 16 90 44 16 90 44 16 90 44 16
90 44 16 0 0 0 0 0 0 0 0 0 0 0 0 0 0 0 0 0 0 0 0 0 0 0 0 0 0 0 0 0 0
0 0 0 0 0 0 0 0 0 0 0 0 0 0 0 0 0 0 0 0 0 0 0 0 0 0 0 0 0 0 0 0 0
0 0 0 0 0 0 0 0 0 0 0 0 0 0 0 0 0 0 0 0 0 0 0 0 0 0 0 0 0 0 0 0 0
0 0 0 0 0 0 0 0 0 0 0 0 0 0 0 0 0 0 0 0 0 0 0 0 139 68 32 139 68 32
139 68 32 139 68 32 139 68 32 139 68 32 139 68 32 139 68 32 139 68 32
139 68 32 210 142 98 210 142 98 210 142 98 210 142 98 210 142 98
210 142 98 210 142 98 210 142 98 210 142 98 210 142 98 205 125 74
205 125 74 205 125 74 205 125 74 205 125 74 205 125 74 205 125 74
205 125 74 205 125 74 205 125 74 139 68 32 139 68 32 139 68 32
139 68 32 139 68 32 139 68 32 139 68 32 139 68 32 139 68 32 139 68 32
139 68 32 139 68 32 139 68 32 139 68 32 139 68 32 139 68 32 139 68 32
139 68 32 139 68 32 139 68 32 222 157 123 222 157 123 222 157 123
222 157 123 222 157 123 222 157 123 222 157 123 222 157 123
222 157 123 222 157 123 230 190 164 230 190 164 230 190 164
230 190 164 230 190 164 230 190 164 230 190 164 230 190 164
230 190 164 230 190 164 222 157 123 222 157 123 222 157 123
222 157 123 222 157 123 222 157 123 222 157 123 222 157 123
222 157 123 222 157 123 139 68 32 139 68 32 139 68 32 139 68 32
139 68 32 139 68 32 139 68 32 139 68 32 139 68 32 139 68 32
205 125 74 205 125 74 205 125 74 205 125 74 205 125 74 205 125 74
205 125 74 205 125 74 205 125 74 205 125 74 205 125 74 205 125 74
205 125 74 205 125 74 205 125 74 205 125 74 205 125 74 205 125 74
205 125 74 205 125 74 90 44 16 90 44 16 90 44 16 90 44 16 90 44 16
90 44 16 90 44 16 90 44 16 90 44 16 90 44 16 0 0 0 0 0 0 0 0 0 0 0 0
0 0 0 0 0 0 0 0 0 0 0 0 0 0 0 0 0 0 0 0 0 0 0 0 0 0 0 0 0 0 0 0 0
0 0 0 0 0 0 0 0 0 0 0 0 0 0 0 0 0 0 0 0 0 0 0 0 0 0 0 0 0 0 0 0 0
0 0 0 0 0 0 0 0 0 0 0 0 0 0 0 0 0 0 0 0 0 0 0 0 0 0 0 0 0 0 0 0 0
0 0 0 0 0 0 0 0 0 139 68 32 139 68 32 139 68 32 139 68 32 139 68 32
139 68 32 139 68 32 139 68 32 139 68 32 139 68 32 210 142 98
210 142 98 210 142 98 210 142 98 210 142 98 210 142 98 210 142 98
210 142 98 210 142 98 210 142 98 205 125 74 205 125 74 205 125 74
205 125 74 205 125 74 205 125 74 205 125 74 205 125 74 205 125 74
205 125 74 139 68 32 139 68 32 139 68 32 139 68 32 139 68 32
139 68 32 139 68 32 139 68 32 139 68 32 139 68 32 139 68 32 139 68 32
139 68 32 139 68 32 139 68 32 139 68 32 139 68 32 139 68 32 139 68 32
139 68 32 222 157 123 222 157 123 222 157 123 222 157 123 222 157 123
222 157 123 222 157 123 222 157 123 222 157 123 222 157 123
230 190 164 230 190 164 230 190 164 230 190 164 230 190 164
230 190 164 230 190 164 230 190 164 230 190 164 230 190 164
222 157 123 222 157 123 222 157 123 222 157 123 222 157 123
222 157 123 222 157 123 222 157 123 222 157 123 222 157 123 139 68 32
139 68 32 139 68 32 139 68 32 139 68 32 139 68 32 139 68 32 139 68 32
139 68 32 139 68 32 205 125 74 205 125 74 205 125 74 205 125 74
205 125 74 205 125 74 205 125 74 205 125 74 205 125 74 205 125 74
205 125 74 205 125 74 205 125 74 205 125 74 205 125 74 205 125 74
205 125 74 205 125 74 205 125 74 205 125 74 90 44 16 90 44 16
90 44 16 90 44 16 90 44 16 90 44 16 90 44 16 90 44 16 90 44 16
90 44 16 0 0 0 0 0 0 0 0 0 0 0 0 0 0 0 0 0 0 0 0 0 0 0 0 0 0 0 0 0 0
0 0 0 0 0 0 0 0 0 0 0 0 0 0 0 0 0 0 0 0 0 0 0 0 0 0 0 0 0 0 0 0 0
0 0 0 0 0 0 0 0 0 0 0 0 0 0 0 0 0 0 0 0 0 0 0 0 0 0 0 0 0 0 0 0 0
0 0 0 0 0 0 0 0 0 0 0 0 0 0 0 0 0 0 0 0 0 0 0 0 139 68 32 139 68 32
139 68 32 139 68 32 139 68 32 139 68 32 139 68 32 139 68 32 139 68 32
139 68 32 205 125 74 205 125 74 205 125 74 205 125 74 205 125 74
205 125 74 205 125 74 205 125 74 205 125 74 205 125 74 139 68 32
139 68 32 139 68 32 139 68 32 139 68 32 139 68 32 139 68 32 139 68 32
139 68 32 139 68 32 172 93 49 172 93 49 172 93 49 172 93 49 172 93 49
172 93 49 172 93 49 172 93 49 172 93 49 172 93 49 139 68 32 139 68 32
139 68 32 139 68 32 139 68 32 139 68 32 139 68 32 139 68 32 139 68 32
139 68 32 230 190 164 230 190 164 230 190 164 230 190 164 230 190 164
230 190 164 230 190 164 230 190 164 230 190 164 230 190 164
230 190 164 230 190 164 230 190 164 230 190 164 230 190 164
230 190 164 230 190 164 230 190 164 230 190 164 230 190 164
222 157 123 222 157 123 222 157 123 222 157 123 222 157 123
222 157 123 222 157 123 222 157 123 222 157 123 222 157 123 172 93 49
172 93 49 172 93 49 172 93 49 172 93 49 172 93 49 172 93 49 172 93 49
172 93 49 172 93 49 139 68 32 139 68 32 139 68 32 139 68 32 139 68 32
139 68 32 139 68 32 139 68 32 139 68 32 139 68 32 172 93 49 172 93 49
172 93 49 172 93 49 172 93 49 172 93 49 172 93 49 172 93 49 172 93 49
172 93 49 90 44 16 90 44 16 90 44 16 90 44 16 90 44 16 90 44 16
90 44 16 90 44 16 90 44 16 90 44 16 0 0 0 0 0 0 0 0 0 0 0 0 0 0 0
0 0 0 0 0 0 0 0 0 0 0 0 0 0 0 0 0 0 0 0 0 0 0 0 0 0 0 0 0 0 0 0 0
0 0 0 0 0 0 0 0 0 0 0 0 0 0 0 0 0 0 0 0 0 0 0 0 0 0 0 0 0 0 0 0 0
0 0 0 0 0 0 0 0 0 0 0 0 0 0 0 0 0 0 0 0 0 0 0 0 0 0 0 0 0 0 0 0 0
0 0 0 0 0 0 139 68 32 139 68 32 139 68 32 139 68 32 139 68 32
139 68 32 139 68 32 139 68 32 139 68 32 139 68 32 205 125 74
205 125 74 205 125 74 205 125 74 205 125 74 205 125 74 205 125 74
205 125 74 205 125 74 205 125 74 139 68 32 139 68 32 139 68 32
139 68 32 139 68 32 139 68 32 139 68 32 139 68 32 139 68 32 139 68 32
172 93 49 172 93 49 172 93 49 172 93 49 172 93 49 172 93 49 172 93 49
172 93 49 172 93 49 172 93 49 139 68 32 139 68 32 139 68 32 139 68 32
139 68 32 139 68 32 139 68 32 139 68 32 139 68 32 139 68 32
230 190 164 230 190 164 230 190 164 230 190 164 230 190 164
230 190 164 230 190 164 230 190 164 230 190 164 230 190 164
230 190 164 230 190 164 230 190 164 230 190 164 230 190 164
230 190 164 230 190 164 230 190 164 230 190 164 230 190 164
222 157 123 222 157 123 222 157 123 222 157 123 222 157 123
222 157 123 222 157 123 222 157 123 222 157 123 222 157 123 172 93 49
172 93 49 172 93 49 172 93 49 172 93 49 172 93 49 172 93 49 172 93 49
172 93 49 172 93 49 139 68 32 139 68 32 139 68 32 139 68 32 139 68 32
139 68 32 139 68 32 139 68 32 139 68 32 139 68 32 172 93 49 172 93 49
172 93 49 172 93 49 172 93 49 172 93 49 172 93 49 172 93 49 172 93 49
172 93 49 90 44 16 90 44 16 90 44 16 90 44 16 90 44 16 90 44 16
90 44 16 90 44 16 90 44 16 90 44 16 0 0 0 0 0 0 0 0 0 0 0 0 0 0 0
0 0 0 0 0 0 0 0 0 0 0 0 0 0 0 0 0 0 0 0 0 0 0 0 0 0 0 0 0 0 0 0 0
0 0 0 0 0 0 0 0 0 0 0 0 0 0 0 0 0 0 0 0 0 0 0 0 0 0 0 0 0 0 0 0 0
0 0 0 0 0 0 0 0 0 0 0 0 0 0 0 0 0 0 0 0 0 0 0 0 0 0 0 0 0 0 0 0 0
0 0 0 0 0 0 139 68 32 139 68 32 139 68 32 139 68 32 139 68 32
139 68 32 139 68 32 139 68 32 139 68 32 139 68 32 205 125 74
205 125 74 205 125 74 205 125 74 205 125 74 205 125 74 205 125 74
205 125 74 205 125 74 205 125 74 139 68 32 139 68 32 139 68 32
139 68 32 139 68 32 139 68 32 139 68 32 139 68 32 139 68 32 139 68 32
172 93 49 172 93 49 172 93 49 172 93 49 172 93 49 172 93 49 172 93 49
172 93 49 172 93 49 172 93 49 139 68 32 139 68 32 139 68 32 139 68 32
139 68 32 139 68 32 139 68 32 139 68 32 139 68 32 139 68 32
230 190 164 230 190 164 230 190 164 230 190 164 230 190 164
230 190 164 230 190 164 230 190 164 230 190 164 230 190 164
230 190 164 230 190 164 230 190 164 230 190 164 230 190 164
230 190 164 230 190 164 230 190 164 230 190 164 230 190 164
222 157 123 222 157 123 222 157 123 222 157 123 222 157 123
222 157 123 222 157 123 222 157 123 222 157 123 222 157 123 172 93 49
172 93 49 172 93 49 172 93 49 172 93 49 172 93 49 172 93 49 172 93 49
172 93 49 172 93 49 139 68 32 139 68 32 139 68 32 139 68 32 139 68 32
139 68 32 139 68 32 139 68 32 139 68 32 139 68 32 172 93 49 172 93 49
172 93 49 172 93 49 172 93 49 172 93 49 172 93 49 172 93 49 172 93 49
172 93 49 90 44 16 90 44 16 90 44 16 90 44 16 90 44 16 90 44 16
90 44 16 90 44 16 90 44 16 90 44 16 0 0 0 0 0 0 0 0 0 0 0 0 0 0 0
0 0 0 0 0 0 0 0 0 0 0 0 0 0 0 0 0 0 0 0 0 0 0 0 0 0 0 0 0 0 0 0 0
0 0 0 0 0 0 0 0 0 0 0 0 0 0 0 0 0 0 0 0 0 0 0 0 0 0 0 0 0 0 0 0 0
0 0 0 0 0 0 0 0 0 0 0 0 0 0 0 0 0 0 0 0 0 0 0 0 0 0 0 0 0 0 0 0 0
0 0 0 0 0 0 139 68 32 139 68 32 139 68 32 139 68 32 139 68 32
139 68 32 139 68 32 139 68 32 139 68 32 139 68 32 205 125 74
205 125 74 205 125 74 205 125 74 205 125 74 205 125 74 205 125 74
205 125 74 205 125 74 205 125 74 139 68 32 139 68 32 139 68 32
139 68 32 139 68 32 139 68 32 139 68 32 139 68 32 139 68 32 139 68 32
172 93 49 172 93 49 172 93 49 172 93 49 172 93 49 172 93 49 172 93 49
172 93 49 172 93 49 172 93 49 139 68 32 139 68 32 139 68 32 139 68 32
139 68 32 139 68 32 139 68 32 139 68 32 139 68 32 139 68 32
230 190 164 230 190 164 230 190 164 230 190 164 230 190 164
230 190 164 230 190 164 230 190 164 230 190 164 230 190 164
230 190 164 230 190 164 230 190 164 230 190 164 230 190 164
230 190 164 230 190 164 230 190 164 230 190 164 230 190 164
222 157 123 222 157 123 222 157 123 222 157 123 222 157 123
222 157 123 222 157 123 222 157 123 222 157 123 222 157 123 172 93 49
172 93 49 172 93 49 172 93 49 172 93 49 172 93 49 172 93 49 172 93 49
172 93 49 172 93 49 139 68 32 139 68 32 139 68 32 139 68 32 139 68 32
139 68 32 139 68 32 139 68 32 139 68 32 139 68 32 172 93 49 172 93 49
172 93 49 172 93 49 172 93 49 172 93 49 172 93 49 172 93 49 172 93 49
172 93 49 90 44 16 90 44 16 90 44 16 90 44 16 90 44 16 90 44 16
90 44 16 90 44 16 90 44 16 90 44 16 0 0 0 0 0 0 0 0 0 0 0 0 0 0 0
0 0 0 0 0 0 0 0 0 0 0 0 0 0 0 0 0 0 0 0 0 0 0 0 0 0 0 0 0 0 0 0 0
0 0 0 0 0 0 0 0 0 0 0 0 0 0 0 0 0 0 0 0 0 0 0 0 0 0 0 0 0 0 0 0 0
0 0 0 0 0 0 0 0 0 0 0 0 0 0 0 0 0 0 0 0 0 0 0 0 0 0 0 0 0 0 0 0 0
0 0 0 0 0 0 139 68 32 139 68 32 139 68 32 139 68 32 139 68 32
139 68 32 139 68 32 139 68 32 139 68 32 139 68 32 205 125 74
205 125 74 205 125 74 205 125 74 205 125 74 205 125 74 205 125 74
205 125 74 205 125 74 205 125 74 139 68 32 139 68 32 139 68 32
139 68 32 139 68 32 139 68 32 139 68 32 139 68 32 139 68 32 139 68 32
172 93 49 172 93 49 172 93 49 172 93 49 172 93 49 172 93 49 172 93 49
172 93 49 172 93 49 172 93 49 139 68 32 139 68 32 139 68 32 139 68 32
139 68 32 139 68 32 139 68 32 139 68 32 139 68 32 139 68 32
230 190 164 230 190 164 230 190 164 230 190 164 230 190 164
230 190 164 230 190 164 230 190 164 230 190 164 230 190 164
230 190 164 230 190 164 230 190 164 230 190 164 230 190 164
230 190 164 230 190 164 230 190 164 230 190 164 230 190 164
222 157 123 222 157 123 222 157 123 222 157 123 222 157 123
222 157 123 222 157 123 222 157 123 222 157 123 222 157 123 172 93 49
172 93 49 172 93 49 172 93 49 172 93 49 172 93 49 172 93 49 172 93 49
172 93 49 172 93 49 139 68 32 139 68 32 139 68 32 139 68 32 139 68 32
139 68 32 139 68 32 139 68 32 139 68 32 139 68 32 172 93 49 172 93 49
172 93 49 172 93 49 172 93 49 172 93 49 172 93 49 172 93 49 172 93 49
172 93 49 90 44 16 90 44 16 90 44 16 90 44 16 90 44 16 90 44 16
90 44 16 90 44 16 90 44 16 90 44 16 0 0 0 0 0 0 0 0 0 0 0 0 0 0 0
0 0 0 0 0 0 0 0 0 0 0 0 0 0 0 0 0 0 0 0 0 0 0 0 0 0 0 0 0 0 0 0 0
0 0 0 0 0 0 0 0 0 0 0 0 0 0 0 0 0 0 0 0 0 0 0 0 0 0 0 0 0 0 0 0 0
0 0 0 0 0 0 0 0 0 0 0 0 0 0 0 0 0 0 0 0 0 0 0 0 0 0 0 0 0 0 0 0 0
0 0 0 0 0 0 139 68 32 139 68 32 139 68 32 139 68 32 139 68 32
139 68 32 139 68 32 139 68 32 139 68 32 139 68 32 205 125 74
205 125 74 205 125 74 205 125 74 205 125 74 205 125 74 205 125 74
205 125 74 205 125 74 205 125 74 139 68 32 139 68 32 139 68 32
139 68 32 139 68 32 139 68 32 139 68 32 139 68 32 139 68 32 139 68 32
172 93 49 172 93 49 172 93 49 172 93 49 172 93 49 172 93 49 172 93 49
172 93 49 172 93 49 172 93 49 139 68 32 139 68 32 139 68 32 139 68 32
139 68 32 139 68 32 139 68 32 139 68 32 139 68 32 139 68 32
230 190 164 230 190 164 230 190 164 230 190 164 230 190 164
230 190 164 230 190 164 230 190 164 230 190 164 230 190 164
230 190 164 230 190 164 230 190 164 230 190 164 230 190 164
230 190 164 230 190 164 230 190 164 230 190 164 230 190 164
222 157 123 222 157 123 222 157 123 222 157 123 222 157 123
222 157 123 222 157 123 222 157 123 222 157 123 222 157 123 172 93 49
172 93 49 172 93 49 172 93 49 172 93 49 172 93 49 172 93 49 172 93 49
172 93 49 172 93 49 139 68 32 139 68 32 139 68 32 139 68 32 139 68 32
139 68 32 139 68 32 139 68 32 139 68 32 139 68 32 172 93 49 172 93 49
172 93 49 172 93 49 172 93 49 172 93 49 172 93 49 172 93 49 172 93 49
172 93 49 90 44 16 90 44 16 90 44 16 90 44 16 90 44 16 90 44 16
90 44 16 90 44 16 90 44 16 90 44 16 0 0 0 0 0 0 0 0 0 0 0 0 0 0 0
0 0 0 0 0 0 0 0 0 0 0 0 0 0 0 0 0 0 0 0 0 0 0 0 0 0 0 0 0 0 0 0 0
0 0 0 0 0 0 0 0 0 0 0 0 0 0 0 0 0 0 0 0 0 0 0 0 0 0 0 0 0 0 0 0 0
0 0 0 0 0 0 0 0 0 0 0 0 0 0 0 0 0 0 0 0 0 0 0 0 0 0 0 0 0 0 0 0 0
0 0 0 0 0 0 139 68 32 139 68 32 139 68 32 139 68 32 139 68 32
139 68 32 139 68 32 139 68 32 139 68 32 139 68 32 205 125 74
205 125 74 205 125 74 205 125 74 205 125 74 205 125 74 205 125 74
205 125 74 205 125 74 205 125 74 139 68 32 139 68 32 139 68 32
139 68 32 139 68 32 139 68 32 139 68 32 139 68 32 139 68 32 139 68 32
172 93 49 172 93 49 172 93 49 172 93 49 172 93 49 172 93 49 172 93 49
172 93 49 172 93 49 172 93 49 139 68 32 139 68 32 139 68 32 139 68 32
139 68 32 139 68 32 139 68 32 139 68 32 139 68 32 139 68 32
230 190 164 230 190 164 230 190 164 230 190 164 230 190 164
230 190 164 230 190 164 230 190 164 230 190 164 230 190 164
230 190 164 230 190 164 230 190 164 230 190 164 230 190 164
230 190 164 230 190 164 230 190 164 230 190 164 230 190 164
222 157 123 222 157 123 222 157 123 222 157 123 222 157 123
222 157 123 222 157 123 222 157 123 222 157 123 222 157 123 172 93 49
172 93 49 172 93 49 172 93 49 172 93 49 172 93 49 172 93 49 172 93 49
172 93 49 172 93 49 139 68 32 139 68 32 139 68 32 139 68 32 139 68 32
139 68 32 139 68 32 139 68 32 139 68 32 139 68 32 172 93 49 172 93 49
172 93 49 172 93 49 172 93 49 172 93 49 172 93 49 172 93 49 172 93 49
172 93 49 90 44 16 90 44 16 90 44 16 90 44 16 90 44 16 90 44 16
90 44 16 90 44 16 90 44 16 90 44 16 0 0 0 0 0 0 0 0 0 0 0 0 0 0 0
0 0 0 0 0 0 0 0 0 0 0 0 0 0 0 0 0 0 0 0 0 0 0 0 0 0 0 0 0 0 0 0 0
0 0 0 0 0 0 0 0 0 0 0 0 0 0 0 0 0 0 0 0 0 0 0 0 0 0 0 0 0 0 0 0 0
0 0 0 0 0 0 0 0 0 0 0 0 0 0 0 0 0 0 0 0 0 0 0 0 0 0 0 0 0 0 0 0 0
0 0 0 0 0 0 139 68 32 139 68 32 139 68 32 139 68 32 139 68 32
139 68 32 139 68 32 139 68 32 139 68 32 139 68 32 205 125 74
205 125 74 205 125 74 205 125 74 205 125 74 205 125 74 205 125 74
205 125 74 205 125 74 205 125 74 139 68 32 139 68 32 139 68 32
139 68 32 139 68 32 139 68 32 139 68 32 139 68 32 139 68 32 139 68 32
172 93 49 172 93 49 172 93 49 172 93 49 172 93 49 172 93 49 172 93 49
172 93 49 172 93 49 172 93 49 139 68 32 139 68 32 139 68 32 139 68 32
139 68 32 139 68 32 139 68 32 139 68 32 139 68 32 139 68 32
230 190 164 230 190 164 230 190 164 230 190 164 230 190 164
230 190 164 230 190 164 230 190 164 230 190 164 230 190 164
230 190 164 230 190 164 230 190 164 230 190 164 230 190 164
230 190 164 230 190 164 230 190 164 230 190 164 230 190 164
222 157 123 222 157 123 222 157 123 222 157 123 222 157 123
222 157 123 222 157 123 222 157 123 222 157 123 222 157 123 172 93 49
172 93 49 172 93 49 172 93 49 172 93 49 172 93 49 172 93 49 172 93 49
172 93 49 172 93 49 139 68 32 139 68 32 139 68 32 139 68 32 139 68 32
139 68 32 139 68 32 139 68 32 139 68 32 139 68 32 172 93 49 172 93 49
172 93 49 172 93 49 172 93 49 172 93 49 172 93 49 172 93 49 172 93 49
172 93 49 90 44 16 90 44 16 90 44 16 90 44 16 90 44 16 90 44 16
90 44 16 90 44 16 90 44 16 90 44 16 0 0 0 0 0 0 0 0 0 0 0 0 0 0 0
0 0 0 0 0 0 0 0 0 0 0 0 0 0 0 0 0 0 0 0 0 0 0 0 0 0 0 0 0 0 0 0 0
0 0 0 0 0 0 0 0 0 0 0 0 0 0 0 0 0 0 0 0 0 0 0 0 0 0 0 0 0 0 0 0 0
0 0 0 0 0 0 0 0 0 0 0 0 0 0 0 0 0 0 0 0 0 0 0 0 0 0 0 0 0 0 0 0 0
0 0 0 0 0 0 139 68 32 139 68 32 139 68 32 139 68 32 139 68 32
139 68 32 139 68 32 139 68 32 139 68 32 139 68 32 205 125 74
205 125 74 205 125 74 205 125 74 205 125 74 205 125 74 205 125 74
205 125 74 205 125 74 205 125 74 139 68 32 139 68 32 139 68 32
139 68 32 139 68 32 139 68 32 139 68 32 139 68 32 139 68 32 139 68 32
172 93 49 172 93 49 172 93 49 172 93 49 172 93 49 172 93 49 172 93 49
172 93 49 172 93 49 172 93 49 139 68 32 139 68 32 139 68 32 139 68 32
139 68 32 139 68 32 139 68 32 139 68 32 139 68 32 139 68 32
230 190 164 230 190 164 230 190 164 230 190 164 230 190 164
230 190 164 230 190 164 230 190 164 230 190 164 230 190 164
230 190 164 230 190 164 230 190 164 230 190 164 230 190 164
230 190 164 230 190 164 230 190 164 230 190 164 230 190 164
222 157 123 222 157 123 222 157 123 222 157 123 222 157 123
222 157 123 222 157 123 222 157 123 222 157 123 222 157 123 172 93 49
172 93 49 172 93 49 172 93 49 172 93 49 172 93 49 172 93 49 172 93 49
172 93 49 172 93 49 139 68 32 139 68 32 139 68 32 139 68 32 139 68 32
139 68 32 139 68 32 139 68 32 139 68 32 139 68 32 172 93 49 172 93 49
172 93 49 172 93 49 172 93 49 172 93 49 172 93 49 172 93 49 172 93 49
172 93 49 90 44 16 90 44 16 90 44 16 90 44 16 90 44 16 90 44 16
90 44 16 90 44 16 90 44 16 90 44 16 0 0 0 0 0 0 0 0 0 0 0 0 0 0 0
0 0 0 0 0 0 0 0 0 0 0 0 0 0 0 0 0 0 0 0 0 0 0 0 0 0 0 0 0 0 0 0 0
0 0 0 0 0 0 0 0 0 0 0 0 0 0 0 0 0 0 0 0 0 0 0 0 0 0 0 0 0 0 0 0 0
0 0 0 0 0 0 0 0 0 0 0 0 0 0 0 0 0 0 0 0 0 0 0 0 0 0 0 0 0 0 0 0 0
0 0 0 0 0 0 139 68 32 139 68 32 139 68 32 139 68 32 139 68 32
139 68 32 139 68 32 139 68 32 139 68 32 139 68 32 205 125 74
205 125 74 205 125 74 205 125 74 205 125 74 205 125 74 205 125 74
205 125 74 205 125 74 205 125 74 139 68 32 139 68 32 139 68 32
139 68 32 139 68 32 139 68 32 139 68 32 139 68 32 139 68 32 139 68 32
172 93 49 172 93 49 172 93 49 172 93 49 172 93 49 172 93 49 172 93 49
172 93 49 172 93 49 172 93 49 139 68 32 139 68 32 139 68 32 139 68 32
139 68 32 139 68 32 139 68 32 139 68 32 139 68 32 139 68 32
230 190 164 230 190 164 230 190 164 230 190 164 230 190 164
230 190 164 230 190 164 230 190 164 230 190 164 230 190 164
230 190 164 230 190 164 230 190 164 230 190 164 230 190 164
230 190 164 230 190 164 230 190 164 230 190 164 230 190 164
222 157 123 222 157 123 222 157 123 222 157 123 222 157 123
222 157 123 222 157 123 222 157 123 222 157 123 222 157 123 172 93 49
172 93 49 172 93 49 172 93 49 172 93 49 172 93 49 172 93 49 172 93 49
172 93 49 172 93 49 139 68 32 139 68 32 139 68 32 139 68 32 139 68 32
139 68 32 139 68 32 139 68 32 139 68 32 139 68 32 172 93 49 172 93 49
172 93 49 172 93 49 172 93 49 172 93 49 172 93 49 172 93 49 172 93 49
172 93 49 90 44 16 90 44 16 90 44 16 90 44 16 90 44 16 90 44 16
90 44 16 90 44 16 90 44 16 90 44 16 0 0 0 0 0 0 0 0 0 0 0 0 0 0 0
0 0 0 0 0 0 0 0 0 0 0 0 0 0 0 0 0 0 0 0 0 0 0 0 0 0 0 0 0 0 0 0 0
0 0 0 0 0 0 0 0 0 0 0 0 0 0 0 0 0 0 0 0 0 0 0 0 0 0 0 0 0 0 0 0 0
0 0 0 0 0 0 0 0 0 0 0 0 0 0 0 0 0 0 0 0 0 0 0 0 0 0 0 0 0 0 0 0 0
0 0 0 0 0 0 222 170 131 222 170 131 222 170 131 222 170 131
222 170 131 222 170 131 222 170 131 222 170 131 222 170 131
222 170 131 139 68 32 139 68 32 139 68 32 139 68 32 139 68 32
139 68 32 139 68 32 139 68 32 139 68 32 139 68 32 172 93 49 172 93 49
172 93 49 172 93 49 172 93 49 172 93 49 172 93 49 172 93 49 172 93 49
172 93 49 139 68 32 139 68 32 139 68 32 139 68 32 139 68 32 139 68 32
139 68 32 139 68 32 139 68 32 139 68 32 205 125 74 205 125 74
205 125 74 205 125 74 205 125 74 205 125 74 205 125 74 205 125 74
205 125 74 205 125 74 222 157 123 222 157 123 222 157 123 222 157 123
222 157 123 222 157 123 222 157 123 222 157 123 222 157 123
222 157 123 222 157 123 222 157 123 222 157 123 222 157 123
222 157 123 222 157 123 222 157 123 222 157 123 222 157 123
222 157 123 205 125 74 205 125 74 205 125 74 205 125 74 205 125 74
205 125 74 205 125 74 205 125 74 205 125 74 205 125 74 139 68 32
139 68 32 139 68 32 139 68 32 139 68 32 139 68 32 139 68 32 139 68 32
139 68 32 139 68 32 90 44 16 90 44 16 90 44 16 90 44 16 90 44 16
90 44 16 90 44 16 90 44 16 90 44 16 90 44 16 90 44 16 90 44 16
90 44 16 90 44 16 90 44 16 90 44 16 90 44 16 90 44 16 90 44 16
90 44 16 0 0 0 0 0 0 0 0 0 0 0 0 0 0 0 0 0 0 0 0 0 0 0 0 0 0 0 0 0 0
0 0 0 0 0 0 0 0 0 0 0 0 0 0 0 0 0 0 0 0 0 0 0 0 0 0 0 0 0 0 0 0 0
0 0 0 0 0 0 0 0 0 0 0 0 0 0 0 0 0 0 0 0 0 0 0 0 0 0 0 0 0 0 0 0 0
0 0 0 0 0 0 0 0 0 0 0 0 0 0 0 0 0 0 0 0 0 0 0 0 0 0 0 0 0 0 0 0 0
0 0 0 0 0 0 0 0 0 0 0 0 0 0 0 0 0 0 0 0 0 222 170 131 222 170 131
222 170 131 222 170 131 222 170 131 222 170 131 222 170 131
222 170 131 222 170 131 222 170 131 139 68 32 139 68 32 139 68 32
139 68 32 139 68 32 139 68 32 139 68 32 139 68 32 139 68 32 139 68 32
172 93 49 172 93 49 172 93 49 172 93 49 172 93 49 172 93 49 172 93 49
172 93 49 172 93 49 172 93 49 139 68 32 139 68 32 139 68 32 139 68 32
139 68 32 139 68 32 139 68 32 139 68 32 139 68 32 139 68 32
205 125 74 205 125 74 205 125 74 205 125 74 205 125 74 205 125 74
205 125 74 205 125 74 205 125 74 205 125 74 222 157 123 222 157 123
222 157 123 222 157 123 222 157 123 222 157 123 222 157 123
222 157 123 222 157 123 222 157 123 222 157 123 222 157 123
222 157 123 222 157 123 222 157 123 222 157 123 222 157 123
222 157 123 222 157 123 222 157 123 205 125 74 205 125 74 205 125 74
205 125 74 205 125 74 205 125 74 205 125 74 205 125 74 205 125 74
205 125 74 139 68 32 139 68 32 139 68 32 139 68 32 139 68 32
139 68 32 139 68 32 139 68 32 139 68 32 139 68 32 90 44 16 90 44 16
90 44 16 90 44 16 90 44 16 90 44 16 90 44 16 90 44 16 90 44 16
90 44 16 90 44 16 90 44 16 90 44 16 90 44 16 90 44 16 90 44 16
90 44 16 90 44 16 90 44 16 90 44 16 0 0 0 0 0 0 0 0 0 0 0 0 0 0 0
0 0 0 0 0 0 0 0 0 0 0 0 0 0 0 0 0 0 0 0 0 0 0 0 0 0 0 0 0 0 0 0 0
0 0 0 0 0 0 0 0 0 0 0 0 0 0 0 0 0 0 0 0 0 0 0 0 0 0 0 0 0 0 0 0 0
0 0 0 0 0 0 0 0 0 0 0 0 0 0 0 0 0 0 0 0 0 0 0 0 0 0 0 0 0 0 0 0 0
0 0 0 0 0 0 0 0 0 0 0 0 0 0 0 0 0 0 0 0 0 0 0 0 0 0 0 0 0 0 0 0 0
0 0 0 222 170 131 222 170 131 222 170 131 222 170 131 222 170 131
222 170 131 222 170 131 222 170 131 222 170 131 222 170 131 139 68 32
139 68 32 139 68 32 139 68 32 139 68 32 139 68 32 139 68 32 139 68 32
139 68 32 139 68 32 172 93 49 172 93 49 172 93 49 172 93 49 172 93 49
172 93 49 172 93 49 172 93 49 172 93 49 172 93 49 139 68 32 139 68 32
139 68 32 139 68 32 139 68 32 139 68 32 139 68 32 139 68 32 139 68 32
139 68 32 205 125 74 205 125 74 205 125 74 205 125 74 205 125 74
205 125 74 205 125 74 205 125 74 205 125 74 205 125 74 222 157 123
222 157 123 222 157 123 222 157 123 222 157 123 222 157 123
222 157 123 222 157 123 222 157 123 222 157 123 222 157 123
222 157 123 222 157 123 222 157 123 222 157 123 222 157 123
222 157 123 222 157 123 222 157 123 222 157 123 205 125 74 205 125 74
205 125 74 205 125 74 205 125 74 205 125 74 205 125 74 205 125 74
205 125 74 205 125 74 139 68 32 139 68 32 139 68 32 139 68 32
139 68 32 139 68 32 139 68 32 139 68 32 139 68 32 139 68 32 90 44 16
90 44 16 90 44 16 90 44 16 90 44 16 90 44 16 90 44 16 90 44 16
90 44 16 90 44 16 90 44 16 90 44 16 90 44 16 90 44 16 90 44 16
90 44 16 90 44 16 90 44 16 90 44 16 90 44 16 0 0 0 0 0 0 0 0 0 0 0 0
0 0 0 0 0 0 0 0 0 0 0 0 0 0 0 0 0 0 0 0 0 0 0 0 0 0 0 0 0 0 0 0 0
0 0 0 0 0 0 0 0 0 0 0 0 0 0 0 0 0 0 0 0 0 0 0 0 0 0 0 0 0 0 0 0 0
0 0 0 0 0 0 0 0 0 0 0 0 0 0 0 0 0 0 0 0 0 0 0 0 0 0 0 0 0 0 0 0 0
0 0 0 0 0 0 0 0 0 0 0 0 0 0 0 0 0 0 0 0 0 0 0 0 0 0 0 0 0 0 0 0 0
0 0 0 0 0 0 222 170 131 222 170 131 222 170 131 222 170 131
222 170 131 222 170 131 222 170 131 222 170 131 222 170 131
222 170 131 139 68 32 139 68 32 139 68 32 139 68 32 139 68 32
139 68 32 139 68 32 139 68 32 139 68 32 139 68 32 172 93 49 172 93 49
172 93 49 172 93 49 172 93 49 172 93 49 172 93 49 172 93 49 172 93 49
172 93 49 139 68 32 139 68 32 139 68 32 139 68 32 139 68 32 139 68 32
139 68 32 139 68 32 139 68 32 139 68 32 205 125 74 205 125 74
205 125 74 205 125 74 205 125 74 205 125 74 205 125 74 205 125 74
205 125 74 205 125 74 222 157 123 222 157 123 222 157 123 222 157 123
222 157 123 222 157 123 222 157 123 222 157 123 222 157 123
222 157 123 222 157 123 222 157 123 222 157 123 222 157 123
222 157 123 222 157 123 222 157 123 222 157 123 222 157 123
222 157 123 205 125 74 205 125 74 205 125 74 205 125 74 205 125 74
205 125 74 205 125 74 205 125 74 205 125 74 205 125 74 139 68 32
139 68 32 139 68 32 139 68 32 139 68 32 139 68 32 139 68 32 139 68 32
139 68 32 139 68 32 90 44 16 90 44 16 90 44 16 90 44 16 90 44 16
90 44 16 90 44 16 90 44 16 90 44 16 90 44 16 90 44 16 90 44 16
90 44 16 90 44 16 90 44 16 90 44 16 90 44 16 90 44 16 90 44 16
90 44 16 0 0 0 0 0 0 0 0 0 0 0 0 0 0 0 0 0 0 0 0 0 0 0 0 0 0 0 0 0 0
0 0 0 0 0 0 0 0 0 0 0 0 0 0 0 0 0 0 0 0 0 0 0 0 0 0 0 0 0 0 0 0 0
0 0 0 0 0 0 0 0 0 0 0 0 0 0 0 0 0 0 0 0 0 0 0 0 0 0 0 0 0 0 0 0 0
0 0 0 0 0 0 0 0 0 0 0 0 0 0 0 0 0 0 0 0 0 0 0 0 0 0 0 0 0 0 0 0 0
0 0 0 0 0 0 0 0 0 0 0 0 0 0 0 0 0 0 0 0 0 222 170 131 222 170 131
222 170 131 222 170 131 222 170 131 222 170 131 222 170 131
222 170 131 222 170 131 222 170 131 139 68 32 139 68 32 139 68 32
139 68 32 139 68 32 139 68 32 139 68 32 139 68 32 139 68 32 139 68 32
172 93 49 172 93 49 172 93 49 172 93 49 172 93 49 172 93 49 172 93 49
172 93 49 172 93 49 172 93 49 139 68 32 139 68 32 139 68 32 139 68 32
139 68 32 139 68 32 139 68 32 139 68 32 139 68 32 139 68 32
205 125 74 205 125 74 205 125 74 205 125 74 205 125 74 205 125 74
205 125 74 205 125 74 205 125 74 205 125 74 222 157 123 222 157 123
222 157 123 222 157 123 222 157 123 222 157 123 222 157 123
222 157 123 222 157 123 222 157 123 222 157 123 222 157 123
222 157 123 222 157 123 222 157 123 222 157 123 222 157 123
222 157 123 222 157 123 222 157 123 205 125 74 205 125 74 205 125 74
205 125 74 205 125 74 205 125 74 205 125 74 205 125 74 205 125 74
205 125 74 139 68 32 139 68 32 139 68 32 139 68 32 139 68 32
139 68 32 139 68 32 139 68 32 139 68 32 139 68 32 90 44 16 90 44 16
90 44 16 90 44 16 90 44 16 90 44 16 90 44 16 90 44 16 90 44 16
90 44 16 90 44 16 90 44 16 90 44 16 90 44 16 90 44 16 90 44 16
90 44 16 90 44 16 90 44 16 90 44 16 0 0 0 0 0 0 0 0 0 0 0 0 0 0 0
0 0 0 0 0 0 0 0 0 0 0 0 0 0 0 0 0 0 0 0 0 0 0 0 0 0 0 0 0 0 0 0 0
0 0 0 0 0 0 0 0 0 0 0 0 0 0 0 0 0 0 0 0 0 0 0 0 0 0 0 0 0 0 0 0 0
0 0 0 0 0 0 0 0 0 0 0 0 0 0 0 0 0 0 0 0 0 0 0 0 0 0 0 0 0 0 0 0 0
0 0 0 0 0 0 0 0 0 0 0 0 0 0 0 0 0 0 0 0 0 0 0 0 0 0 0 0 0 0 0 0 0
0 0 0 222 170 131 222 170 131 222 170 131 222 170 131 222 170 131
222 170 131 222 170 131 222 170 131 222 170 131 222 170 131 139 68 32
139 68 32 139 68 32 139 68 32 139 68 32 139 68 32 139 68 32 139 68 32
139 68 32 139 68 32 172 93 49 172 93 49 172 93 49 172 93 49 172 93 49
172 93 49 172 93 49 172 93 49 172 93 49 172 93 49 139 68 32 139 68 32
139 68 32 139 68 32 139 68 32 139 68 32 139 68 32 139 68 32 139 68 32
139 68 32 205 125 74 205 125 74 205 125 74 205 125 74 205 125 74
205 125 74 205 125 74 205 125 74 205 125 74 205 125 74 222 157 123
222 157 123 222 157 123 222 157 123 222 157 123 222 157 123
222 157 123 222 157 123 222 157 123 222 157 123 222 157 123
222 157 123 222 157 123 222 157 123 222 157 123 222 157 123
222 157 123 222 157 123 222 157 123 222 157 123 205 125 74 205 125 74
205 125 74 205 125 74 205 125 74 205 125 74 205 125 74 205 125 74
205 125 74 205 125 74 139 68 32 139 68 32 139 68 32 139 68 32
139 68 32 139 68 32 139 68 32 139 68 32 139 68 32 139 68 32 90 44 16
90 44 16 90 44 16 90 44 16 90 44 16 90 44 16 90 44 16 90 44 16
90 44 16 90 44 16 90 44 16 90 44 16 90 44 16 90 44 16 90 44 16
90 44 16 90 44 16 90 44 16 90 44 16 90 44 16 0 0 0 0 0 0 0 0 0 0 0 0
0 0 0 0 0 0 0 0 0 0 0 0 0 0 0 0 0 0 0 0 0 0 0 0 0 0 0 0 0 0 0 0 0
0 0 0 0 0 0 0 0 0 0 0 0 0 0 0 0 0 0 0 0 0 0 0 0 0 0 0 0 0 0 0 0 0
0 0 0 0 0 0 0 0 0 0 0 0 0 0 0 0 0 0 0 0 0 0 0 0 0 0 0 0 0 0 0 0 0
0 0 0 0 0 0 0 0 0 0 0 0 0 0 0 0 0 0 0 0 0 0 0 0 0 0 0 0 0 0 0 0 0
0 0 0 0 0 0 222 170 131 222 170 131 222 170 131 222 170 131
222 170 131 222 170 131 222 170 131 222 170 131 222 170 131
222 170 131 139 68 32 139 68 32 139 68 32 139 68 32 139 68 32
139 68 32 139 68 32 139 68 32 139 68 32 139 68 32 172 93 49 172 93 49
172 93 49 172 93 49 172 93 49 172 93 49 172 93 49 172 93 49 172 93 49
172 93 49 139 68 32 139 68 32 139 68 32 139 68 32 139 68 32 139 68 32
139 68 32 139 68 32 139 68 32 139 68 32 205 125 74 205 125 74
205 125 74 205 125 74 205 125 74 205 125 74 205 125 74 205 125 74
205 125 74 205 125 74 222 157 123 222 157 123 222 157 123 222 157 123
222 157 123 222 157 123 222 157 123 222 157 123 222 157 123
222 157 123 222 157 123 222 157 123 222 157 123 222 157 123
222 157 123 222 157 123 222 157 123 222 157 123 222 157 123
222 157 123 205 125 74 205 125 74 205 125 74 205 125 74 205 125 74
205 125 74 205 125 74 205 125 74 205 125 74 205 125 74 139 68 32
139 68 32 139 68 32 139 68 32 139 68 32 139 68 32 139 68 32 139 68 32
139 68 32 139 68 32 90 44 16 90 44 16 90 44 16 90 44 16 90 44 16
90 44 16 90 44 16 90 44 16 90 44 16 90 44 16 90 44 16 90 44 16
90 44 16 90 44 16 90 44 16 90 44 16 90 44 16 90 44 16 90 44 16
90 44 16 0 0 0 0 0 0 0 0 0 0 0 0 0 0 0 0 0 0 0 0 0 0 0 0 0 0 0 0 0 0
0 0 0 0 0 0 0 0 0 0 0 0 0 0 0 0 0 0 0 0 0 0 0 0 0 0 0 0 0 0 0 0 0
0 0 0 0 0 0 0 0 0 0 0 0 0 0 0 0 0 0 0 0 0 0 0 0 0 0 0 0 0 0 0 0 0
0 0 0 0 0 0 0 0 0 0 0 0 0 0 0 0 0 0 0 0 0 0 0 0 0 0 0 0 0 0 0 0 0
0 0 0 0 0 0 0 0 0 0 0 0 0 0 0 0 0 0 0 0 0 222 170 131 222 170 131
222 170 131 222 170 131 222 170 131 222 170 131 222 170 131
222 170 131 222 170 131 222 170 131 139 68 32 139 68 32 139 68 32
139 68 32 139 68 32 139 68 32 139 68 32 139 68 32 139 68 32 139 68 32
172 93 49 172 93 49 172 93 49 172 93 49 172 93 49 172 93 49 172 93 49
172 93 49 172 93 49 172 93 49 139 68 32 139 68 32 139 68 32 139 68 32
139 68 32 139 68 32 139 68 32 139 68 32 139 68 32 139 68 32
205 125 74 205 125 74 205 125 74 205 125 74 205 125 74 205 125 74
205 125 74 205 125 74 205 125 74 205 125 74 222 157 123 222 157 123
222 157 123 222 157 123 222 157 123 222 157 123 222 157 123
222 157 123 222 157 123 222 157 123 222 157 123 222 157 123
222 157 123 222 157 123 222 157 123 222 157 123 222 157 123
222 157 123 222 157 123 222 157 123 205 125 74 205 125 74 205 125 74
205 125 74 205 125 74 205 125 74 205 125 74 205 125 74 205 125 74
205 125 74 139 68 32 139 68 32 139 68 32 139 68 32 139 68 32
139 68 32 139 68 32 139 68 32 139 68 32 139 68 32 90 44 16 90 44 16
90 44 16 90 44 16 90 44 16 90 44 16 90 44 16 90 44 16 90 44 16
90 44 16 90 44 16 90 44 16 90 44 16 90 44 16 90 44 16 90 44 16
90 44 16 90 44 16 90 44 16 90 44 16 0 0 0 0 0 0 0 0 0 0 0 0 0 0 0
0 0 0 0 0 0 0 0 0 0 0 0 0 0 0 0 0 0 0 0 0 0 0 0 0 0 0 0 0 0 0 0 0
0 0 0 0 0 0 0 0 0 0 0 0 0 0 0 0 0 0 0 0 0 0 0 0 0 0 0 0 0 0 0 0 0
0 0 0 0 0 0 0 0 0 0 0 0 0 0 0 0 0 0 0 0 0 0 0 0 0 0 0 0 0 0 0 0 0
0 0 0 0 0 0 0 0 0 0 0 0 0 0 0 0 0 0 0 0 0 0 0 0 0 0 0 0 0 0 0 0 0
0 0 0 222 170 131 222 170 131 222 170 131 222 170 131 222 170 131
222 170 131 222 170 131 222 170 131 222 170 131 222 170 131 139 68 32
139 68 32 139 68 32 139 68 32 139 68 32 139 68 32 139 68 32 139 68 32
139 68 32 139 68 32 172 93 49 172 93 49 172 93 49 172 93 49 172 93 49
172 93 49 172 93 49 172 93 49 172 93 49 172 93 49 139 68 32 139 68 32
139 68 32 139 68 32 139 68 32 139 68 32 139 68 32 139 68 32 139 68 32
139 68 32 205 125 74 205 125 74 205 125 74 205 125 74 205 125 74
205 125 74 205 125 74 205 125 74 205 125 74 205 125 74 222 157 123
222 157 123 222 157 123 222 157 123 222 157 123 222 157 123
222 157 123 222 157 123 222 157 123 222 157 123 222 157 123
222 157 123 222 157 123 222 157 123 222 157 123 222 157 123
222 157 123 222 157 123 222 157 123 222 157 123 205 125 74 205 125 74
205 125 74 205 125 74 205 125 74 205 125 74 205 125 74 205 125 74
205 125 74 205 125 74 139 68 32 139 68 32 139 68 32 139 68 32
139 68 32 139 68 32 139 68 32 139 68 32 139 68 32 139 68 32 90 44 16
90 44 16 90 44 16 90 44 16 90 44 16 90 44 16 90 44 16 90 44 16
90 44 16 90 44 16 90 44 16 90 44 16 90 44 16 90 44 16 90 44 16
90 44 16 90 44 16 90 44 16 90 44 16 90 44 16 0 0 0 0 0 0 0 0 0 0 0 0
0 0 0 0 0 0 0 0 0 0 0 0 0 0 0 0 0 0 0 0 0 0 0 0 0 0 0 0 0 0 0 0 0
0 0 0 0 0 0 0 0 0 0 0 0 0 0 0 0 0 0 0 0 0 0 0 0 0 0 0 0 0 0 0 0 0
0 0 0 0 0 0 0 0 0 0 0 0 0 0 0 0 0 0 0 0 0 0 0 0 0 0 0 0 0 0 0 0 0
0 0 0 0 0 0 0 0 0 0 0 0 0 0 0 0 0 0 0 0 0 0 0 0 0 0 0 0 0 0 0 0 0
0 0 0 0 0 0 222 170 131 222 170 131 222 170 131 222 170 131
222 170 131 222 170 131 222 170 131 222 170 131 222 170 131
222 170 131 139 68 32 139 68 32 139 68 32 139 68 32 139 68 32
139 68 32 139 68 32 139 68 32 139 68 32 139 68 32 172 93 49 172 93 49
172 93 49 172 93 49 172 93 49 172 93 49 172 93 49 172 93 49 172 93 49
172 93 49 139 68 32 139 68 32 139 68 32 139 68 32 139 68 32 139 68 32
139 68 32 139 68 32 139 68 32 139 68 32 205 125 74 205 125 74
205 125 74 205 125 74 205 125 74 205 125 74 205 125 74 205 125 74
205 125 74 205 125 74 222 157 123 222 157 123 222 157 123 222 157 123
222 157 123 222 157 123 222 157 123 222 157 123 222 157 123
222 157 123 222 157 123 222 157 123 222 157 123 222 157 123
222 157 123 222 157 123 222 157 123 222 157 123 222 157 123
222 157 123 205 125 74 205 125 74 205 125 74 205 125 74 205 125 74
205 125 74 205 125 74 205 125 74 205 125 74 205 125 74 139 68 32
139 68 32 139 68 32 139 68 32 139 68 32 139 68 32 139 68 32 139 68 32
139 68 32 139 68 32 90 44 16 90 44 16 90 44 16 90 44 16 90 44 16
90 44 16 90 44 16 90 44 16 90 44 16 90 44 16 90 44 16 90 44 16
90 44 16 90 44 16 90 44 16 90 44 16 90 44 16 90 44 16 90 44 16
90 44 16 0 0 0 0 0 0 0 0 0 0 0 0 0 0 0 0 0 0 0 0 0 0 0 0 0 0 0 0 0 0
0 0 0 0 0 0 0 0 0 0 0 0 0 0 0 0 0 0 0 0 0 0 0 0 0 0 0 0 0 0 0 0 0
0 0 0 0 0 0 0 0 0 0 0 0 0 0 0 0 0 0 0 0 0 0 0 0 0 0 0 0 0 0 0 0 0
0 0 0 0 0 0 0 0 0 0 0 0 0 0 0 0 0 0 0 0 0 0 0 0 0 0 0 0 0 0 0 0 0
0 0 0 0 0 0 0 0 0 0 0 0 0 0 0 0 0 0 0 0 0 238 202 172 238 202 172
238 202 172 238 202 172 238 202 172 238 202 172 238 202 172
238 202 172 238 202 172 238 202 172 90 44 16 90 44 16 90 44 16
90 44 16 90 44 16 90 44 16 90 44 16 90 44 16 90 44 16 90 44 16
139 68 32 139 68 32 139 68 32 139 68 32 139 68 32 139 68 32 139 68 32
139 68 32 139 68 32 139 68 32 139 68 32 139 68 32 139 68 32 139 68 32
139 68 32 139 68 32 139 68 32 139 68 32 139 68 32 139 68 32
222 157 123 222 157 123 222 157 123 222 157 123 222 157 123
222 157 123 222 157 123 222 157 123 222 157 123 222 157 123
222 157 123 222 157 123 222 157 123 222 157 123 222 157 123
222 157 123 222 157 123 222 157 123 222 157 123 222 157 123
205 125 74 205 125 74 205 125 74 205 125 74 205 125 74 205 125 74
205 125 74 205 125 74 205 125 74 205 125 74 139 68 32 139 68 32
139 68 32 139 68 32 139 68 32 139 68 32 139 68 32 139 68 32 139 68 32
139 68 32 90 44 16 90 44 16 90 44 16 90 44 16 90 44 16 90 44 16
90 44 16 90 44 16 90 44 16 90 44 16 0 0 0 0 0 0 0 0 0 0 0 0 0 0 0
0 0 0 0 0 0 0 0 0 0 0 0 0 0 0 0 0 0 0 0 0 0 0 0 0 0 0 0 0 0 0 0 0
0 0 0 0 0 0 0 0 0 0 0 0 0 0 0 0 0 0 0 0 0 0 0 0 0 0 0 0 0 0 0 0 0
0 0 0 0 0 0 0 0 0 0 0 0 0 0 0 0 0 0 0 0 0 0 0 0 0 0 0 0 0 0 0 0 0
0 0 0 0 0 0 0 0 0 0 0 0 0 0 0 0 0 0 0 0 0 0 0 0 0 0 0 0 0 0 0 0 0
0 0 0 0 0 0 0 0 0 0 0 0 0 0 0 0 0 0 0 0 0 0 0 0 0 0 0 0 0 0 0 0 0
0 0 0 0 0 0 0 0 0 0 0 0 0 0 0 0 0 0 0 0 0 0 0 0 0 0 0 0 0 0
238 202 172 238 202 172 238 202 172 238 202 172 238 202 172
238 202 172 238 202 172 238 202 172 238 202 172 238 202 172 90 44 16
90 44 16 90 44 16 90 44 16 90 44 16 90 44 16 90 44 16 90 44 16
90 44 16 90 44 16 139 68 32 139 68 32 139 68 32 139 68 32 139 68 32
139 68 32 139 68 32 139 68 32 139 68 32 139 68 32 139 68 32 139 68 32
139 68 32 139 68 32 139 68 32 139 68 32 139 68 32 139 68 32 139 68 32
139 68 32 222 157 123 222 157 123 222 157 123 222 157 123 222 157 123
222 157 123 222 157 123 222 157 123 222 157 123 222 157 123
222 157 123 222 157 123 222 157 123 222 157 123 222 157 123
222 157 123 222 157 123 222 157 123 222 157 123 222 157 123
205 125 74 205 125 74 205 125 74 205 125 74 205 125 74 205 125 74
205 125 74 205 125 74 205 125 74 205 125 74 139 68 32 139 68 32
139 68 32 139 68 32 139 68 32 139 68 32 139 68 32 139 68 32 139 68 32
139 68 32 90 44 16 90 44 16 90 44 16 90 44 16 90 44 16 90 44 16
90 44 16 90 44 16 90 44 16 90 44 16 0 0 0 0 0 0 0 0 0 0 0 0 0 0 0
0 0 0 0 0 0 0 0 0 0 0 0 0 0 0 0 0 0 0 0 0 0 0 0 0 0 0 0 0 0 0 0 0
0 0 0 0 0 0 0 0 0 0 0 0 0 0 0 0 0 0 0 0 0 0 0 0 0 0 0 0 0 0 0 0 0
0 0 0 0 0 0 0 0 0 0 0 0 0 0 0 0 0 0 0 0 0 0 0 0 0 0 0 0 0 0 0 0 0
0 0 0 0 0 0 0 0 0 0 0 0 0 0 0 0 0 0 0 0 0 0 0 0 0 0 0 0 0 0 0 0 0
0 0 0 0 0 0 0 0 0 0 0 0 0 0 0 0 0 0 0 0 0 0 0 0 0 0 0 0 0 0 0 0 0
0 0 0 0 0 0 0 0 0 0 0 0 0 0 0 0 0 0 0 0 0 0 0 0 0 0 0 0 0 0
238 202 172 238 202 172 238 202 172 238 202 172 238 202 172
238 202 172 238 202 172 238 202 172 238 202 172 238 202 172 90 44 16
90 44 16 90 44 16 90 44 16 90 44 16 90 44 16 90 44 16 90 44 16
90 44 16 90 44 16 139 68 32 139 68 32 139 68 32 139 68 32 139 68 32
139 68 32 139 68 32 139 68 32 139 68 32 139 68 32 139 68 32 139 68 32
139 68 32 139 68 32 139 68 32 139 68 32 139 68 32 139 68 32 139 68 32
139 68 32 222 157 123 222 157 123 222 157 123 222 157 123 222 157 123
222 157 123 222 157 123 222 157 123 222 157 123 222 157 123
222 157 123 222 157 123 222 157 123 222 157 123 222 157 123
222 157 123 222 157 123 222 157 123 222 157 123 222 157 123
205 125 74 205 125 74 205 125 74 205 125 74 205 125 74 205 125 74
205 125 74 205 125 74 205 125 74 205 125 74 139 68 32 139 68 32
139 68 32 139 68 32 139 68 32 139 68 32 139 68 32 139 68 32 139 68 32
139 68 32 90 44 16 90 44 16 90 44 16 90 44 16 90 44 16 90 44 16
90 44 16 90 44 16 90 44 16 90 44 16 0 0 0 0 0 0 0 0 0 0 0 0 0 0 0
0 0 0 0 0 0 0 0 0 0 0 0 0 0 0 0 0 0 0 0 0 0 0 0 0 0 0 0 0 0 0 0 0
0 0 0 0 0 0 0 0 0 0 0 0 0 0 0 0 0 0 0 0 0 0 0 0 0 0 0 0 0 0 0 0 0
0 0 0 0 0 0 0 0 0 0 0 0 0 0 0 0 0 0 0 0 0 0 0 0 0 0 0 0 0 0 0 0 0
0 0 0 0 0 0 0 0 0 0 0 0 0 0 0 0 0 0 0 0 0 0 0 0 0 0 0 0 0 0 0 0 0
0 0 0 0 0 0 0 0 0 0 0 0 0 0 0 0 0 0 0 0 0 0 0 0 0 0 0 0 0 0 0 0 0
0 0 0 0 0 0 0 0 0 0 0 0 0 0 0 0 0 0 0 0 0 0 0 0 0 0 0 0 0 0
238 202 172 238 202 172 238 202 172 238 202 172 238 202 172
238 202 172 238 202 172 238 202 172 238 202 172 238 202 172 90 44 16
90 44 16 90 44 16 90 44 16 90 44 16 90 44 16 90 44 16 90 44 16
90 44 16 90 44 16 139 68 32 139 68 32 139 68 32 139 68 32 139 68 32
139 68 32 139 68 32 139 68 32 139 68 32 139 68 32 139 68 32 139 68 32
139 68 32 139 68 32 139 68 32 139 68 32 139 68 32 139 68 32 139 68 32
139 68 32 222 157 123 222 157 123 222 157 123 222 157 123 222 157 123
222 157 123 222 157 123 222 157 123 222 157 123 222 157 123
222 157 123 222 157 123 222 157 123 222 157 123 222 157 123
222 157 123 222 157 123 222 157 123 222 157 123 222 157 123
205 125 74 205 125 74 205 125 74 205 125 74 205 125 74 205 125 74
205 125 74 205 125 74 205 125 74 205 125 74 139 68 32 139 68 32
139 68 32 139 68 32 139 68 32 139 68 32 139 68 32 139 68 32 139 68 32
139 68 32 90 44 16 90 44 16 90 44 16 90 44 16 90 44 16 90 44 16
90 44 16 90 44 16 90 44 16 90 44 16 0 0 0 0 0 0 0 0 0 0 0 0 0 0 0
0 0 0 0 0 0 0 0 0 0 0 0 0 0 0 0 0 0 0 0 0 0 0 0 0 0 0 0 0 0 0 0 0
0 0 0 0 0 0 0 0 0 0 0 0 0 0 0 0 0 0 0 0 0 0 0 0 0 0 0 0 0 0 0 0 0
0 0 0 0 0 0 0 0 0 0 0 0 0 0 0 0 0 0 0 0 0 0 0 0 0 0 0 0 0 0 0 0 0
0 0 0 0 0 0 0 0 0 0 0 0 0 0 0 0 0 0 0 0 0 0 0 0 0 0 0 0 0 0 0 0 0
0 0 0 0 0 0 0 0 0 0 0 0 0 0 0 0 0 0 0 0 0 0 0 0 0 0 0 0 0 0 0 0 0
0 0 0 0 0 0 0 0 0 0 0 0 0 0 0 0 0 0 0 0 0 0 0 0 0 0 0 0 0 0
238 202 172 238 202 172 238 202 172 238 202 172 238 202 172
238 202 172 238 202 172 238 202 172 238 202 172 238 202 172 90 44 16
90 44 16 90 44 16 90 44 16 90 44 16 90 44 16 90 44 16 90 44 16
90 44 16 90 44 16 139 68 32 139 68 32 139 68 32 139 68 32 139 68 32
139 68 32 139 68 32 139 68 32 139 68 32 139 68 32 139 68 32 139 68 32
139 68 32 139 68 32 139 68 32 139 68 32 139 68 32 139 68 32 139 68 32
139 68 32 222 157 123 222 157 123 222 157 123 222 157 123 222 157 123
222 157 123 222 157 123 222 157 123 222 157 123 222 157 123
222 157 123 222 157 123 222 157 123 222 157 123 222 157 123
222 157 123 222 157 123 222 157 123 222 157 123 222 157 123
205 125 74 205 125 74 205 125 74 205 125 74 205 125 74 205 125 74
205 125 74 205 125 74 205 125 74 205 125 74 139 68 32 139 68 32
139 68 32 139 68 32 139 68 32 139 68 32 139 68 32 139 68 32 139 68 32
139 68 32 90 44 16 90 44 16 90 44 16 90 44 16 90 44 16 90 44 16
90 44 16 90 44 16 90 44 16 90 44 16 0 0 0 0 0 0 0 0 0 0 0 0 0 0 0
0 0 0 0 0 0 0 0 0 0 0 0 0 0 0 0 0 0 0 0 0 0 0 0 0 0 0 0 0 0 0 0 0
0 0 0 0 0 0 0 0 0 0 0 0 0 0 0 0 0 0 0 0 0 0 0 0 0 0 0 0 0 0 0 0 0
0 0 0 0 0 0 0 0 0 0 0 0 0 0 0 0 0 0 0 0 0 0 0 0 0 0 0 0 0 0 0 0 0
0 0 0 0 0 0 0 0 0 0 0 0 0 0 0 0 0 0 0 0 0 0 0 0 0 0 0 0 0 0 0 0 0
0 0 0 0 0 0 0 0 0 0 0 0 0 0 0 0 0 0 0 0 0 0 0 0 0 0 0 0 0 0 0 0 0
0 0 0 0 0 0 0 0 0 0 0 0 0 0 0 0 0 0 0 0 0 0 0 0 0 0 0 0 0 0
238 202 172 238 202 172 238 202 172 238 202 172 238 202 172
238 202 172 238 202 172 238 202 172 238 202 172 238 202 172 90 44 16
90 44 16 90 44 16 90 44 16 90 44 16 90 44 16 90 44 16 90 44 16
90 44 16 90 44 16 139 68 32 139 68 32 139 68 32 139 68 32 139 68 32
139 68 32 139 68 32 139 68 32 139 68 32 139 68 32 139 68 32 139 68 32
139 68 32 139 68 32 139 68 32 139 68 32 139 68 32 139 68 32 139 68 32
139 68 32 222 157 123 222 157 123 222 157 123 222 157 123 222 157 123
222 157 123 222 157 123 222 157 123 222 157 123 222 157 123
222 157 123 222 157 123 222 157 123 222 157 123 222 157 123
222 157 123 222 157 123 222 157 123 222 157 123 222 157 123
205 125 74 205 125 74 205 125 74 205 125 74 205 125 74 205 125 74
205 125 74 205 125 74 205 125 74 205 125 74 139 68 32 139 68 32
139 68 32 139 68 32 139 68 32 139 68 32 139 68 32 139 68 32 139 68 32
139 68 32 90 44 16 90 44 16 90 44 16 90 44 16 90 44 16 90 44 16
90 44 16 90 44 16 90 44 16 90 44 16 0 0 0 0 0 0 0 0 0 0 0 0 0 0 0
0 0 0 0 0 0 0 0 0 0 0 0 0 0 0 0 0 0 0 0 0 0 0 0 0 0 0 0 0 0 0 0 0
0 0 0 0 0 0 0 0 0 0 0 0 0 0 0 0 0 0 0 0 0 0 0 0 0 0 0 0 0 0 0 0 0
0 0 0 0 0 0 0 0 0 0 0 0 0 0 0 0 0 0 0 0 0 0 0 0 0 0 0 0 0 0 0 0 0
0 0 0 0 0 0 0 0 0 0 0 0 0 0 0 0 0 0 0 0 0 0 0 0 0 0 0 0 0 0 0 0 0
0 0 0 0 0 0 0 0 0 0 0 0 0 0 0 0 0 0 0 0 0 0 0 0 0 0 0 0 0 0 0 0 0
0 0 0 0 0 0 0 0 0 0 0 0 0 0 0 0 0 0 0 0 0 0 0 0 0 0 0 0 0 0
238 202 172 238 202 172 238 202 172 238 202 172 238 202 172
238 202 172 238 202 172 238 202 172 238 202 172 238 202 172 90 44 16
90 44 16 90 44 16 90 44 16 90 44 16 90 44 16 90 44 16 90 44 16
90 44 16 90 44 16 139 68 32 139 68 32 139 68 32 139 68 32 139 68 32
139 68 32 139 68 32 139 68 32 139 68 32 139 68 32 139 68 32 139 68 32
139 68 32 139 68 32 139 68 32 139 68 32 139 68 32 139 68 32 139 68 32
139 68 32 222 157 123 222 157 123 222 157 123 222 157 123 222 157 123
222 157 123 222 157 123 222 157 123 222 157 123 222 157 123
222 157 123 222 157 123 222 157 123 222 157 123 222 157 123
222 157 123 222 157 123 222 157 123 222 157 123 222 157 123
205 125 74 205 125 74 205 125 74 205 125 74 205 125 74 205 125 74
205 125 74 205 125 74 205 125 74 205 125 74 139 68 32 139 68 32
139 68 32 139 68 32 139 68 32 139 68 32 139 68 32 139 68 32 139 68 32
139 68 32 90 44 16 90 44 16 90 44 16 90 44 16 90 44 16 90 44 16
90 44 16 90 44 16 90 44 16 90 44 16 0 0 0 0 0 0 0 0 0 0 0 0 0 0 0
0 0 0 0 0 0 0 0 0 0 0 0 0 0 0 0 0 0 0 0 0 0 0 0 0 0 0 0 0 0 0 0 0
0 0 0 0 0 0 0 0 0 0 0 0 0 0 0 0 0 0 0 0 0 0 0 0 0 0 0 0 0 0 0 0 0
0 0 0 0 0 0 0 0 0 0 0 0 0 0 0 0 0 0 0 0 0 0 0 0 0 0 0 0 0 0 0 0 0
0 0 0 0 0 0 0 0 0 0 0 0 0 0 0 0 0 0 0 0 0 0 0 0 0 0 0 0 0 0 0 0 0
0 0 0 0 0 0 0 0 0 0 0 0 0 0 0 0 0 0 0 0 0 0 0 0 0 0 0 0 0 0 0 0 0
0 0 0 0 0 0 0 0 0 0 0 0 0 0 0 0 0 0 0 0 0 0 0 0 0 0 0 0 0 0
238 202 172 238 202 172 238 202 172 238 202 172 238 202 172
238 202 172 238 202 172 238 202 172 238 202 172 238 202 172 90 44 16
90 44 16 90 44 16 90 44 16 90 44 16 90 44 16 90 44 16 90 44 16
90 44 16 90 44 16 139 68 32 139 68 32 139 68 32 139 68 32 139 68 32
139 68 32 139 68 32 139 68 32 139 68 32 139 68 32 139 68 32 139 68 32
139 68 32 139 68 32 139 68 32 139 68 32 139 68 32 139 68 32 139 68 32
139 68 32 222 157 123 222 157 123 222 157 123 222 157 123 222 157 123
222 157 123 222 157 123 222 157 123 222 157 123 222 157 123
222 157 123 222 157 123 222 157 123 222 157 123 222 157 123
222 157 123 222 157 123 222 157 123 222 157 123 222 157 123
205 125 74 205 125 74 205 125 74 205 125 74 205 125 74 205 125 74
205 125 74 205 125 74 205 125 74 205 125 74 139 68 32 139 68 32
139 68 32 139 68 32 139 68 32 139 68 32 139 68 32 139 68 32 139 68 32
139 68 32 90 44 16 90 44 16 90 44 16 90 44 16 90 44 16 90 44 16
90 44 16 90 44 16 90 44 16 90 44 16 0 0 0 0 0 0 0 0 0 0 0 0 0 0 0
0 0 0 0 0 0 0 0 0 0 0 0 0 0 0 0 0 0 0 0 0 0 0 0 0 0 0 0 0 0 0 0 0
0 0 0 0 0 0 0 0 0 0 0 0 0 0 0 0 0 0 0 0 0 0 0 0 0 0 0 0 0 0 0 0 0
0 0 0 0 0 0 0 0 0 0 0 0 0 0 0 0 0 0 0 0 0 0 0 0 0 0 0 0 0 0 0 0 0
0 0 0 0 0 0 0 0 0 0 0 0 0 0 0 0 0 0 0 0 0 0 0 0 0 0 0 0 0 0 0 0 0
0 0 0 0 0 0 0 0 0 0 0 0 0 0 0 0 0 0 0 0 0 0 0 0 0 0 0 0 0 0 0 0 0
0 0 0 0 0 0 0 0 0 0 0 0 0 0 0 0 0 0 0 0 0 0 0 0 0 0 0 0 0 0
238 202 172 238 202 172 238 202 172 238 202 172 238 202 172
238 202 172 238 202 172 238 202 172 238 202 172 238 202 172 90 44 16
90 44 16 90 44 16 90 44 16 90 44 16 90 44 16 90 44 16 90 44 16
90 44 16 90 44 16 139 68 32 139 68 32 139 68 32 139 68 32 139 68 32
139 68 32 139 68 32 139 68 32 139 68 32 139 68 32 139 68 32 139 68 32
139 68 32 139 68 32 139 68 32 139 68 32 139 68 32 139 68 32 139 68 32
139 68 32 222 157 123 222 157 123 222 157 123 222 157 123 222 157 123
222 157 123 222 157 123 222 157 123 222 157 123 222 157 123
222 157 123 222 157 123 222 157 123 222 157 123 222 157 123
222 157 123 222 157 123 222 157 123 222 157 123 222 157 123
205 125 74 205 125 74 205 125 74 205 125 74 205 125 74 205 125 74
205 125 74 205 125 74 205 125 74 205 125 74 139 68 32 139 68 32
139 68 32 139 68 32 139 68 32 139 68 32 139 68 32 139 68 32 139 68 32
139 68 32 90 44 16 90 44 16 90 44 16 90 44 16 90 44 16 90 44 16
90 44 16 90 44 16 90 44 16 90 44 16 0 0 0 0 0 0 0 0 0 0 0 0 0 0 0
0 0 0 0 0 0 0 0 0 0 0 0 0 0 0 0 0 0 0 0 0 0 0 0 0 0 0 0 0 0 0 0 0
0 0 0 0 0 0 0 0 0 0 0 0 0 0 0 0 0 0 0 0 0 0 0 0 0 0 0 0 0 0 0 0 0
0 0 0 0 0 0 0 0 0 0 0 0 0 0 0 0 0 0 0 0 0 0 0 0 0 0 0 0 0 0 0 0 0
0 0 0 0 0 0 0 0 0 0 0 0 0 0 0 0 0 0 0 0 0 0 0 0 0 0 0 0 0 0 0 0 0
0 0 0 0 0 0 0 0 0 0 0 0 0 0 0 0 0 0 0 0 0 0 0 0 0 0 0 0 0 0 0 0 0
0 0 0 0 0 0 0 0 0 0 0 0 0 0 0 0 0 0 0 0 0 0 0 0 0 0 0 0 0 0
238 202 172 238 202 172 238 202 172 238 202 172 238 202 172
238 202 172 238 202 172 238 202 172 238 202 172 238 202 172 90 44 16
90 44 16 90 44 16 90 44 16 90 44 16 90 44 16 90 44 16 90 44 16
90 44 16 90 44 16 139 68 32 139 68 32 139 68 32 139 68 32 139 68 32
139 68 32 139 68 32 139 68 32 139 68 32 139 68 32 139 68 32 139 68 32
139 68 32 139 68 32 139 68 32 139 68 32 139 68 32 139 68 32 139 68 32
139 68 32 222 157 123 222 157 123 222 157 123 222 157 123 222 157 123
222 157 123 222 157 123 222 157 123 222 157 123 222 157 123
222 157 123 222 157 123 222 157 123 222 157 123 222 157 123
222 157 123 222 157 123 222 157 123 222 157 123 222 157 123
205 125 74 205 125 74 205 125 74 205 125 74 205 125 74 205 125 74
205 125 74 205 125 74 205 125 74 205 125 74 139 68 32 139 68 32
139 68 32 139 68 32 139 68 32 139 68 32 139 68 32 139 68 32 139 68 32
139 68 32 90 44 16 90 44 16 90 44 16 90 44 16 90 44 16 90 44 16
90 44 16 90 44 16 90 44 16 90 44 16 0 0 0 0 0 0 0 0 0 0 0 0 0 0 0
0 0 0 0 0 0 0 0 0 0 0 0 0 0 0 0 0 0 0 0 0 0 0 0 0 0 0 0 0 0 0 0 0
0 0 0 0 0 0 0 0 0 0 0 0 0 0 0 0 0 0 0 0 0 0 0 0 0 0 0 0 0 0 0 0 0
0 0 0 0 0 0 0 0 0 0 0 0 0 0 0 0 0 0 0 0 0 0 0 0 0 0 0 0 0 0 0 0 0
0 0 0 0 0 0 0 0 0 0 0 0 0 0 0 0 0 0 0 0 0 0 0 0 0 0 0 0 0 0 0 0 0
0 0 0 0 0 0 0 0 0 0 0 0 0 0 0 0 0 0 0 0 0 0 0 0 0 0 0 0 0 0 0 0 0
0 0 0 0 0 0 0 0 0 0 0 0 0 0 0 0 0 0 0 0 0 0 0 0 0 0 0 0 0 0 0 0 0
0 0 0 0 0 0 0 0 0 0 0 0 0 0 0 0 0 0 0 0 0 0 0 0 0 0 0 0 0 0 0 0 0
0 0 0 0 0 0 0 0 0 0 0 0 0 0 0 0 0 0 0 0 0 0 0 0 90 44 16 90 44 16
90 44 16 90 44 16 90 44 16 90 44 16 90 44 16 90 44 16 90 44 16
90 44 16 222 170 131 222 170 131 222 170 131 222 170 131 222 170 131
222 170 131 222 170 131 222 170 131 222 170 131 222 170 131 139 68 32
139 68 32 139 68 32 139 68 32 139 68 32 139 68 32 139 68 32 139 68 32
139 68 32 139 68 32 139 68 32 139 68 32 139 68 32 139 68 32 139 68 32
139 68 32 139 68 32 139 68 32 139 68 32 139 68 32 90 44 16 90 44 16
90 44 16 90 44 16 90 44 16 90 44 16 90 44 16 90 44 16 90 44 16
90 44 16 90 44 16 90 44 16 90 44 16 90 44 16 90 44 16 90 44 16
90 44 16 90 44 16 90 44 16 90 44 16 0 0 0 0 0 0 0 0 0 0 0 0 0 0 0
0 0 0 0 0 0 0 0 0 0 0 0 0 0 0 0 0 0 0 0 0 0 0 0 0 0 0 0 0 0 0 0 0
0 0 0 0 0 0 0 0 0 0 0 0 0 0 0 0 0 0 0 0 0 0 0 0 0 0 0 0 0 0 0 0 0
0 0 0 0 0 0 0 0 0 0 0 0 0 0 0 0 0 0 0 0 0 0 0 0 0 0 0 0 0 0 0 0 0
0 0 0 0 0 0 0 0 0 0 0 0 0 0 0 0 0 0 0 0 0 0 0 0 0 0 0 0 0 0 0 0 0
0 0 0 0 0 0 0 0 0 0 0 0 0 0 0 0 0 0 0 0 0 0 0 0 0 0 0 0 0 0 0 0 0
0 0 0 0 0 0 0 0 0 0 0 0 0 0 0 0 0 0 0 0 0 0 0 0 0 0 0 0 0 0 0 0 0
0 0 0 0 0 0 0 0 0 0 0 0 0 0 0 0 0 0 0 0 0 0 0 0 0 0 0 0 0 0 0 0 0
0 0 0 0 0 0 0 0 0 0 0 0 0 0 0 0 0 0 0 0 0 0 0 0 0 0 0 0 0 0 0 0 0
0 0 0 0 0 0 0 0 0 0 0 0 0 0 0 0 0 0 0 0 0 90 44 16 90 44 16 90 44 16
90 44 16 90 44 16 90 44 16 90 44 16 90 44 16 90 44 16 90 44 16
222 170 131 222 170 131 222 170 131 222 170 131 222 170 131
222 170 131 222 170 131 222 170 131 222 170 131 222 170 131 139 68 32
139 68 32 139 68 32 139 68 32 139 68 32 139 68 32 139 68 32 139 68 32
139 68 32 139 68 32 139 68 32 139 68 32 139 68 32 139 68 32 139 68 32
139 68 32 139 68 32 139 68 32 139 68 32 139 68 32 90 44 16 90 44 16
90 44 16 90 44 16 90 44 16 90 44 16 90 44 16 90 44 16 90 44 16
90 44 16 90 44 16 90 44 16 90 44 16 90 44 16 90 44 16 90 44 16
90 44 16 90 44 16 90 44 16 90 44 16 0 0 0 0 0 0 0 0 0 0 0 0 0 0 0
0 0 0 0 0 0 0 0 0 0 0 0 0 0 0 0 0 0 0 0 0 0 0 0 0 0 0 0 0 0 0 0 0
0 0 0 0 0 0 0 0 0 0 0 0 0 0 0 0 0 0 0 0 0 0 0 0 0 0 0 0 0 0 0 0 0
0 0 0 0 0 0 0 0 0 0 0 0 0 0 0 0 0 0 0 0 0 0 0 0 0 0 0 0 0 0 0 0 0
0 0 0 0 0 0 0 0 0 0 0 0 0 0 0 0 0 0 0 0 0 0 0 0 0 0 0 0 0 0 0 0 0
0 0 0 0 0 0 0 0 0 0 0 0 0 0 0 0 0 0 0 0 0 0 0 0 0 0 0 0 0 0 0 0 0
0 0 0 0 0 0 0 0 0 0 0 0 0 0 0 0 0 0 0 0 0 0 0 0 0 0 0 0 0 0 0 0 0
0 0 0 0 0 0 0 0 0 0 0 0 0 0 0 0 0 0 0 0 0 0 0 0 0 0 0 0 0 0 0 0 0
0 0 0 0 0 0 0 0 0 0 0 0 0 0 0 0 0 0 0 0 0 0 0 0 0 0 0 0 0 0 0 0 0
0 0 0 0 0 0 0 0 0 0 0 0 0 0 0 0 0 0 0 0 0 90 44 16 90 44 16 90 44 16
90 44 16 90 44 16 90 44 16 90 44 16 90 44 16 90 44 16 90 44 16
222 170 131 222 170 131 222 170 131 222 170 131 222 170 131
222 170 131 222 170 131 222 170 131 222 170 131 222 170 131 139 68 32
139 68 32 139 68 32 139 68 32 139 68 32 139 68 32 139 68 32 139 68 32
139 68 32 139 68 32 139 68 32 139 68 32 139 68 32 139 68 32 139 68 32
139 68 32 139 68 32 139 68 32 139 68 32 139 68 32 90 44 16 90 44 16
90 44 16 90 44 16 90 44 16 90 44 16 90 44 16 90 44 16 90 44 16
90 44 16 90 44 16 90 44 16 90 44 16 90 44 16 90 44 16 90 44 16
90 44 16 90 44 16 90 44 16 90 44 16 0 0 0 0 0 0 0 0 0 0 0 0 0 0 0
0 0 0 0 0 0 0 0 0 0 0 0 0 0 0 0 0 0 0 0 0 0 0 0 0 0 0 0 0 0 0 0 0
0 0 0 0 0 0 0 0 0 0 0 0 0 0 0 0 0 0 0 0 0 0 0 0 0 0 0 0 0 0 0 0 0
0 0 0 0 0 0 0 0 0 0 0 0 0 0 0 0 0 0 0 0 0 0 0 0 0 0 0 0 0 0 0 0 0
0 0 0 0 0 0 0 0 0 0 0 0 0 0 0 0 0 0 0 0 0 0 0 0 0 0 0 0 0 0 0 0 0
0 0 0 0 0 0 0 0 0 0 0 0 0 0 0 0 0 0 0 0 0 0 0 0 0 0 0 0 0 0 0 0 0
0 0 0 0 0 0 0 0 0 0 0 0 0 0 0 0 0 0 0 0 0 0 0 0 0 0 0 0 0 0 0 0 0
0 0 0 0 0 0 0 0 0 0 0 0 0 0 0 0 0 0 0 0 0 0 0 0 0 0 0 0 0 0 0 0 0
0 0 0 0 0 0 0 0 0 0 0 0 0 0 0 0 0 0 0 0 0 0 0 0 0 0 0 0 0 0 0 0 0
0 0 0 0 0 0 0 0 0 0 0 0 0 0 0 0 0 0 0 0 0 90 44 16 90 44 16 90 44 16
90 44 16 90 44 16 90 44 16 90 44 16 90 44 16 90 44 16 90 44 16
222 170 131 222 170 131 222 170 131 222 170 131 222 170 131
222 170 131 222 170 131 222 170 131 222 170 131 222 170 131 139 68 32
139 68 32 139 68 32 139 68 32 139 68 32 139 68 32 139 68 32 139 68 32
139 68 32 139 68 32 139 68 32 139 68 32 139 68 32 139 68 32 139 68 32
139 68 32 139 68 32 139 68 32 139 68 32 139 68 32 90 44 16 90 44 16
90 44 16 90 44 16 90 44 16 90 44 16 90 44 16 90 44 16 90 44 16
90 44 16 90 44 16 90 44 16 90 44 16 90 44 16 90 44 16 90 44 16
90 44 16 90 44 16 90 44 16 90 44 16 0 0 0 0 0 0 0 0 0 0 0 0 0 0 0
0 0 0 0 0 0 0 0 0 0 0 0 0 0 0 0 0 0 0 0 0 0 0 0 0 0 0 0 0 0 0 0 0
0 0 0 0 0 0 0 0 0 0 0 0 0 0 0 0 0 0 0 0 0 0 0 0 0 0 0 0 0 0 0 0 0
0 0 0 0 0 0 0 0 0 0 0 0 0 0 0 0 0 0 0 0 0 0 0 0 0 0 0 0 0 0 0 0 0
0 0 0 0 0 0 0 0 0 0 0 0 0 0 0 0 0 0 0 0 0 0 0 0 0 0 0 0 0 0 0 0 0
0 0 0 0 0 0 0 0 0 0 0 0 0 0 0 0 0 0 0 0 0 0 0 0 0 0 0 0 0 0 0 0 0
0 0 0 0 0 0 0 0 0 0 0 0 0 0 0 0 0 0 0 0 0 0 0 0 0 0 0 0 0 0 0 0 0
0 0 0 0 0 0 0 0 0 0 0 0 0 0 0 0 0 0 0 0 0 0 0 0 0 0 0 0 0 0 0 0 0
0 0 0 0 0 0 0 0 0 0 0 0 0 0 0 0 0 0 0 0 0 0 0 0 0 0 0 0 0 0 0 0 0
0 0 0 0 0 0 0 0 0 0 0 0 0 0 0 0 0 0 0 0 0 90 44 16 90 44 16 90 44 16
90 44 16 90 44 16 90 44 16 90 44 16 90 44 16 90 44 16 90 44 16
222 170 131 222 170 131 222 170 131 222 170 131 222 170 131
222 170 131 222 170 131 222 170 131 222 170 131 222 170 131 139 68 32
139 68 32 139 68 32 139 68 32 139 68 32 139 68 32 139 68 32 139 68 32
139 68 32 139 68 32 139 68 32 139 68 32 139 68 32 139 68 32 139 68 32
139 68 32 139 68 32 139 68 32 139 68 32 139 68 32 90 44 16 90 44 16
90 44 16 90 44 16 90 44 16 90 44 16 90 44 16 90 44 16 90 44 16
90 44 16 90 44 16 90 44 16 90 44 16 90 44 16 90 44 16 90 44 16
90 44 16 90 44 16 90 44 16 90 44 16 0 0 0 0 0 0 0 0 0 0 0 0 0 0 0
0 0 0 0 0 0 0 0 0 0 0 0 0 0 0 0 0 0 0 0 0 0 0 0 0 0 0 0 0 0 0 0 0
0 0 0 0 0 0 0 0 0 0 0 0 0 0 0 0 0 0 0 0 0 0 0 0 0 0 0 0 0 0 0 0 0
0 0 0 0 0 0 0 0 0 0 0 0 0 0 0 0 0 0 0 0 0 0 0 0 0 0 0 0 0 0 0 0 0
0 0 0 0 0 0 0 0 0 0 0 0 0 0 0 0 0 0 0 0 0 0 0 0 0 0 0 0 0 0 0 0 0
0 0 0 0 0 0 0 0 0 0 0 0 0 0 0 0 0 0 0 0 0 0 0 0 0 0 0 0 0 0 0 0 0
0 0 0 0 0 0 0 0 0 0 0 0 0 0 0 0 0 0 0 0 0 0 0 0 0 0 0 0 0 0 0 0 0
0 0 0 0 0 0 0 0 0 0 0 0 0 0 0 0 0 0 0 0 0 0 0 0 0 0 0 0 0 0 0 0 0
0 0 0 0 0 0 0 0 0 0 0 0 0 0 0 0 0 0 0 0 0 0 0 0 0 0 0 0 0 0 0 0 0
0 0 0 0 0 0 0 0 0 0 0 0 0 0 0 0 0 0 0 0 0 90 44 16 90 44 16 90 44 16
90 44 16 90 44 16 90 44 16 90 44 16 90 44 16 90 44 16 90 44 16
222 170 131 222 170 131 222 170 131 222 170 131 222 170 131
222 170 131 222 170 131 222 170 131 222 170 131 222 170 131 139 68 32
139 68 32 139 68 32 139 68 32 139 68 32 139 68 32 139 68 32 139 68 32
139 68 32 139 68 32 139 68 32 139 68 32 139 68 32 139 68 32 139 68 32
139 68 32 139 68 32 139 68 32 139 68 32 139 68 32 90 44 16 90 44 16
90 44 16 90 44 16 90 44 16 90 44 16 90 44 16 90 44 16 90 44 16
90 44 16 90 44 16 90 44 16 90 44 16 90 44 16 90 44 16 90 44 16
90 44 16 90 44 16 90 44 16 90 44 16 0 0 0 0 0 0 0 0 0 0 0 0 0 0 0
0 0 0 0 0 0 0 0 0 0 0 0 0 0 0 0 0 0 0 0 0 0 0 0 0 0 0 0 0 0 0 0 0
0 0 0 0 0 0 0 0 0 0 0 0 0 0 0 0 0 0 0 0 0 0 0 0 0 0 0 0 0 0 0 0 0
0 0 0 0 0 0 0 0 0 0 0 0 0 0 0 0 0 0 0 0 0 0 0 0 0 0 0 0 0 0 0 0 0
0 0 0 0 0 0 0 0 0 0 0 0 0 0 0 0 0 0 0 0 0 0 0 0 0 0 0 0 0 0 0 0 0
0 0 0 0 0 0 0 0 0 0 0 0 0 0 0 0 0 0 0 0 0 0 0 0 0 0 0 0 0 0 0 0 0
0 0 0 0 0 0 0 0 0 0 0 0 0 0 0 0 0 0 0 0 0 0 0 0 0 0 0 0 0 0 0 0 0
0 0 0 0 0 0 0 0 0 0 0 0 0 0 0 0 0 0 0 0 0 0 0 0 0 0 0 0 0 0 0 0 0
0 0 0 0 0 0 0 0 0 0 0 0 0 0 0 0 0 0 0 0 0 0 0 0 0 0 0 0 0 0 0 0 0
0 0 0 0 0 0 0 0 0 0 0 0 0 0 0 0 0 0 0 0 0 90 44 16 90 44 16 90 44 16
90 44 16 90 44 16 90 44 16 90 44 16 90 44 16 90 44 16 90 44 16
222 170 131 222 170 131 222 170 131 222 170 131 222 170 131
222 170 131 222 170 131 222 170 131 222 170 131 222 170 131 139 68 32
139 68 32 139 68 32 139 68 32 139 68 32 139 68 32 139 68 32 139 68 32
139 68 32 139 68 32 139 68 32 139 68 32 139 68 32 139 68 32 139 68 32
139 68 32 139 68 32 139 68 32 139 68 32 139 68 32 90 44 16 90 44 16
90 44 16 90 44 16 90 44 16 90 44 16 90 44 16 90 44 16 90 44 16
90 44 16 90 44 16 90 44 16 90 44 16 90 44 16 90 44 16 90 44 16
90 44 16 90 44 16 90 44 16 90 44 16 0 0 0 0 0 0 0 0 0 0 0 0 0 0 0
0 0 0 0 0 0 0 0 0 0 0 0 0 0 0 0 0 0 0 0 0 0 0 0 0 0 0 0 0 0 0 0 0
0 0 0 0 0 0 0 0 0 0 0 0 0 0 0 0 0 0 0 0 0 0 0 0 0 0 0 0 0 0 0 0 0
0 0 0 0 0 0 0 0 0 0 0 0 0 0 0 0 0 0 0 0 0 0 0 0 0 0 0 0 0 0 0 0 0
0 0 0 0 0 0 0 0 0 0 0 0 0 0 0 0 0 0 0 0 0 0 0 0 0 0 0 0 0 0 0 0 0
0 0 0 0 0 0 0 0 0 0 0 0 0 0 0 0 0 0 0 0 0 0 0 0 0 0 0 0 0 0 0 0 0
0 0 0 0 0 0 0 0 0 0 0 0 0 0 0 0 0 0 0 0 0 0 0 0 0 0 0 0 0 0 0 0 0
0 0 0 0 0 0 0 0 0 0 0 0 0 0 0 0 0 0 0 0 0 0 0 0 0 0 0 0 0 0 0 0 0
0 0 0 0 0 0 0 0 0 0 0 0 0 0 0 0 0 0 0 0 0 0 0 0 0 0 0 0 0 0 0 0 0
0 0 0 0 0 0 0 0 0 0 0 0 0 0 0 0 0 0 0 0 0 90 44 16 90 44 16 90 44 16
90 44 16 90 44 16 90 44 16 90 44 16 90 44 16 90 44 16 90 44 16
222 170 131 222 170 131 222 170 131 222 170 131 222 170 131
222 170 131 222 170 131 222 170 131 222 170 131 222 170 131 139 68 32
139 68 32 139 68 32 139 68 32 139 68 32 139 68 32 139 68 32 139 68 32
139 68 32 139 68 32 139 68 32 139 68 32 139 68 32 139 68 32 139 68 32
139 68 32 139 68 32 139 68 32 139 68 32 139 68 32 90 44 16 90 44 16
90 44 16 90 44 16 90 44 16 90 44 16 90 44 16 90 44 16 90 44 16
90 44 16 90 44 16 90 44 16 90 44 16 90 44 16 90 44 16 90 44 16
90 44 16 90 44 16 90 44 16 90 44 16 0 0 0 0 0 0 0 0 0 0 0 0 0 0 0
0 0 0 0 0 0 0 0 0 0 0 0 0 0 0 0 0 0 0 0 0 0 0 0 0 0 0 0 0 0 0 0 0
0 0 0 0 0 0 0 0 0 0 0 0 0 0 0 0 0 0 0 0 0 0 0 0 0 0 0 0 0 0 0 0 0
0 0 0 0 0 0 0 0 0 0 0 0 0 0 0 0 0 0 0 0 0 0 0 0 0 0 0 0 0 0 0 0 0
0 0 0 0 0 0 0 0 0 0 0 0 0 0 0 0 0 0 0 0 0 0 0 0 0 0 0 0 0 0 0 0 0
0 0 0 0 0 0 0 0 0 0 0 0 0 0 0 0 0 0 0 0 0 0 0 0 0 0 0 0 0 0 0 0 0
0 0 0 0 0 0 0 0 0 0 0 0 0 0 0 0 0 0 0 0 0 0 0 0 0 0 0 0 0 0 0 0 0
0 0 0 0 0 0 0 0 0 0 0 0 0 0 0 0 0 0 0 0 0 0 0 0 0 0 0 0 0 0 0 0 0
0 0 0 0 0 0 0 0 0 0 0 0 0 0 0 0 0 0 0 0 0 0 0 0 0 0 0 0 0 0 0 0 0
0 0 0 0 0 0 0 0 0 0 0 0 0 0 0 0 0 0 0 0 0 90 44 16 90 44 16 90 44 16
90 44 16 90 44 16 90 44 16 90 44 16 90 44 16 90 44 16 90 44 16
222 170 131 222 170 131 222 170 131 222 170 131 222 170 131
222 170 131 222 170 131 222 170 131 222 170 131 222 170 131 139 68 32
139 68 32 139 68 32 139 68 32 139 68 32 139 68 32 139 68 32 139 68 32
139 68 32 139 68 32 139 68 32 139 68 32 139 68 32 139 68 32 139 68 32
139 68 32 139 68 32 139 68 32 139 68 32 139 68 32 90 44 16 90 44 16
90 44 16 90 44 16 90 44 16 90 44 16 90 44 16 90 44 16 90 44 16
90 44 16 90 44 16 90 44 16 90 44 16 90 44 16 90 44 16 90 44 16
90 44 16 90 44 16 90 44 16 90 44 16 0 0 0 0 0 0 0 0 0 0 0 0 0 0 0
0 0 0 0 0 0 0 0 0 0 0 0 0 0 0 0 0 0 0 0 0 0 0 0 0 0 0 0 0 0 0 0 0
0 0 0 0 0 0 0 0 0 0 0 0 0 0 0 0 0 0 0 0 0 0 0 0 0 0 0 0 0 0 0 0 0
0 0 0 0 0 0 0 0 0 0 0 0 0 0 0 0 0 0 0 0 0 0 0 0 0 0 0 0 0 0 0 0 0
0 0 0 0 0 0 0 0 0 0 0 0 0 0 0 0 0 0 0 0 0 0 0 0 0 0 0 0 0 0 0 0 0
0 0 0 0 0 0 0 0 0 0 0 0 0 0 0 0 0 0 0 0 0 0 0 0 0 0 0 0 0 0 0 0 0
0 0 0 0 0 0 0 0 0 0 0 0 0 0 0 0 0 0 0 0 0 0 0 0 0 0 0 0 0 0 0 0 0
0 0 0 0 0 0 0 0 0 0 0 0 0 0 0 0 0 0 0 0 0 0 0 0 0 0 0 0 0 0 0 0 0
0 0 0 0 0 0 0 0 0 0 0 0 0 0 0 0 0 0 0 0 0 0 0 0 0 0 0 0 0 0 0 0 0
0 0 0 0 0 0 0 0 0 0 0 0 0 0 0 0 0 0 0 0 0 90 44 16 90 44 16 90 44 16
90 44 16 90 44 16 90 44 16 90 44 16 90 44 16 90 44 16 90 44 16
222 170 131 222 170 131 222 170 131 222 170 131 222 170 131
222 170 131 222 170 131 222 170 131 222 170 131 222 170 131 139 68 32
139 68 32 139 68 32 139 68 32 139 68 32 139 68 32 139 68 32 139 68 32
139 68 32 139 68 32 139 68 32 139 68 32 139 68 32 139 68 32 139 68 32
139 68 32 139 68 32 139 68 32 139 68 32 139 68 32 90 44 16 90 44 16
90 44 16 90 44 16 90 44 16 90 44 16 90 44 16 90 44 16 90 44 16
90 44 16 90 44 16 90 44 16 90 44 16 90 44 16 90 44 16 90 44 16
90 44 16 90 44 16 90 44 16 90 44 16 0 0 0 0 0 0 0 0 0 0 0 0 0 0 0
0 0 0 0 0 0 0 0 0 0 0 0 0 0 0 0 0 0 0 0 0 0 0 0 0 0 0 0 0 0 0 0 0
0 0 0 0 0 0 0 0 0 0 0 0 0 0 0 0 0 0 0 0 0 0 0 0 0 0 0 0 0 0 0 0 0
0 0 0 0 0 0 0 0 0 0 0 0 0 0 0 0 0 0 0 0 0 0 0 0 0 0 0 0 0 0 0 0 0
0 0 0 0 0 0 0 0 0 0 0 0 0 0 0 0 0 0 0 0 0 0 0 0 0 0 0 0 0 0 0 0 0
0 0 0 0 0 0 0 0 0 0 0 0 0 0 0 0 0 0 0 0 0 0 0 0 0 0 0 0 0 0 0 0 0
0 0 0 0 0 0 0 0 0 0 0 0 0 0 0 0 0 0 0 0 0 0 0 0 0 0 0 0 0 0 0 0 0
0 0 0 0 0 0 0 0 0 0 0 0 0 0 0 0 0 0 0 0 0 0 0 0 0 0 0 0 0 0 0 0 0
0 0 0 0 0 0 0 0 0 0 0 0 0 0 0 0 0 0 0 0 0 0 0 0 0 0 0 0 0 0 0 0 0
0 0 0 0 0 0 0 0 0 0 0 0 0 0 0 0 0 0 0 0 0 238 202 172 238 202 172
238 202 172 238 202 172 238 202 172 238 202 172 238 202 172
238 202 172 238 202 172 238 202 172 90 44 16 90 44 16 90 44 16
90 44 16 90 44 16 90 44 16 90 44 16 90 44 16 90 44 16 90 44 16
90 44 16 90 44 16 90 44 16 90 44 16 90 44 16 90 44 16 90 44 16
90 44 16 90 44 16 90 44 16 90 44 16 90 44 16 90 44 16 90 44 16
90 44 16 90 44 16 90 44 16 90 44 16 90 44 16 90 44 16 0 0 0 0 0 0
0 0 0 0 0 0 0 0 0 0 0 0 0 0 0 0 0 0 0 0 0 0 0 0 0 0 0 0 0 0 0 0 0
0 0 0 0 0 0 0 0 0 0 0 0 0 0 0 0 0 0 0 0 0 0 0 0 0 0 0 0 0 0 0 0 0
0 0 0 0 0 0 0 0 0 0 0 0 0 0 0 0 0 0 0 0 0 0 0 0 0 0 0 0 0 0 0 0 0
0 0 0 0 0 0 0 0 0 0 0 0 0 0 0 0 0 0 0 0 0 0 0 0 0 0 0 0 0 0 0 0 0
0 0 0 0 0 0 0 0 0 0 0 0 0 0 0 0 0 0 0 0 0 0 0 0 0 0 0 0 0 0 0 0 0
0 0 0 0 0 0 0 0 0 0 0 0 0 0 0 0 0 0 0 0 0 0 0 0 0 0 0 0 0 0 0 0 0
0 0 0 0 0 0 0 0 0 0 0 0 0 0 0 0 0 0 0 0 0 0 0 0 0 0 0 0 0 0 0 0 0
0 0 0 0 0 0 0 0 0 0 0 0 0 0 0 0 0 0 0 0 0 0 0 0 0 0 0 0 0 0 0 0 0
0 0 0 0 0 0 0 0 0 0 0 0 0 0 0 0 0 0 0 0 0 0 0 0 0 0 0 0 0 0 0 0 0
0 0 0 0 0 0 0 0 0 0 0 0 0 0 0 0 0 0 0 0 0 0 0 0 0 0 0 0 0 0 0 0 0
0 0 0 0 0 0 0 0 0 0 0 0 0 0 0 0 0 0 0 0 0 0 0 0 238 202 172
238 202 172 238 202 172 238 202 172 238 202 172 238 202 172
238 202 172 238 202 172 238 202 172 238 202 172 90 44 16 90 44 16
90 44 16 90 44 16 90 44 16 90 44 16 90 44 16 90 44 16 90 44 16
90 44 16 90 44 16 90 44 16 90 44 16 90 44 16 90 44 16 90 44 16
90 44 16 90 44 16 90 44 16 90 44 16 90 44 16 90 44 16 90 44 16
90 44 16 90 44 16 90 44 16 90 44 16 90 44 16 90 44 16 90 44 16 0 0 0
0 0 0 0 0 0 0 0 0 0 0 0 0 0 0 0 0 0 0 0 0 0 0 0 0 0 0 0 0 0 0 0 0
0 0 0 0 0 0 0 0 0 0 0 0 0 0 0 0 0 0 0 0 0 0 0 0 0 0 0 0 0 0 0 0 0
0 0 0 0 0 0 0 0 0 0 0 0 0 0 0 0 0 0 0 0 0 0 0 0 0 0 0 0 0 0 0 0 0
0 0 0 0 0 0 0 0 0 0 0 0 0 0 0 0 0 0 0 0 0 0 0 0 0 0 0 0 0 0 0 0 0
0 0 0 0 0 0 0 0 0 0 0 0 0 0 0 0 0 0 0 0 0 0 0 0 0 0 0 0 0 0 0 0 0
0 0 0 0 0 0 0 0 0 0 0 0 0 0 0 0 0 0 0 0 0 0 0 0 0 0 0 0 0 0 0 0 0
0 0 0 0 0 0 0 0 0 0 0 0 0 0 0 0 0 0 0 0 0 0 0 0 0 0 0 0 0 0 0 0 0
0 0 0 0 0 0 0 0 0 0 0 0 0 0 0 0 0 0 0 0 0 0 0 0 0 0 0 0 0 0 0 0 0
0 0 0 0 0 0 0 0 0 0 0 0 0 0 0 0 0 0 0 0 0 0 0 0 0 0 0 0 0 0 0 0 0
0 0 0 0 0 0 0 0 0 0 0 0 0 0 0 0 0 0 0 0 0 0 0 0 0 0 0 0 0 0 0 0 0
0 0 0 0 0 0 0 0 0 0 0 0 0 0 0 0 0 0 0 0 0 0 0 0 0 0 0 238 202 172
238 202 172 238 202 172 238 202 172 238 202 172 238 202 172
238 202 172 238 202 172 238 202 172 238 202 172 90 44 16 90 44 16
90 44 16 90 44 16 90 44 16 90 44 16 90 44 16 90 44 16 90 44 16
90 44 16 90 44 16 90 44 16 90 44 16 90 44 16 90 44 16 90 44 16
90 44 16 90 44 16 90 44 16 90 44 16 90 44 16 90 44 16 90 44 16
90 44 16 90 44 16 90 44 16 90 44 16 90 44 16 90 44 16 90 44 16 0 0 0
0 0 0 0 0 0 0 0 0 0 0 0 0 0 0 0 0 0 0 0 0 0 0 0 0 0 0 0 0 0 0 0 0
0 0 0 0 0 0 0 0 0 0 0 0 0 0 0 0 0 0 0 0 0 0 0 0 0 0 0 0 0 0 0 0 0
0 0 0 0 0 0 0 0 0 0 0 0 0 0 0 0 0 0 0 0 0 0 0 0 0 0 0 0 0 0 0 0 0
0 0 0 0 0 0 0 0 0 0 0 0 0 0 0 0 0 0 0 0 0 0 0 0 0 0 0 0 0 0 0 0 0
0 0 0 0 0 0 0 0 0 0 0 0 0 0 0 0 0 0 0 0 0 0 0 0 0 0 0 0 0 0 0 0 0
0 0 0 0 0 0 0 0 0 0 0 0 0 0 0 0 0 0 0 0 0 0 0 0 0 0 0 0 0 0 0 0 0
0 0 0 0 0 0 0 0 0 0 0 0 0 0 0 0 0 0 0 0 0 0 0 0 0 0 0 0 0 0 0 0 0
0 0 0 0 0 0 0 0 0 0 0 0 0 0 0 0 0 0 0 0 0 0 0 0 0 0 0 0 0 0 0 0 0
0 0 0 0 0 0 0 0 0 0 0 0 0 0 0 0 0 0 0 0 0 0 0 0 0 0 0 0 0 0 0 0 0
0 0 0 0 0 0 0 0 0 0 0 0 0 0 0 0 0 0 0 0 0 0 0 0 0 0 0 0 0 0 0 0 0
0 0 0 0 0 0 0 0 0 0 0 0 0 0 0 0 0 0 0 0 0 0 0 0 0 0 0 238 202 172
238 202 172 238 202 172 238 202 172 238 202 172 238 202 172
238 202 172 238 202 172 238 202 172 238 202 172 90 44 16 90 44 16
90 44 16 90 44 16 90 44 16 90 44 16 90 44 16 90 44 16 90 44 16
90 44 16 90 44 16 90 44 16 90 44 16 90 44 16 90 44 16 90 44 16
90 44 16 90 44 16 90 44 16 90 44 16 90 44 16 90 44 16 90 44 16
90 44 16 90 44 16 90 44 16 90 44 16 90 44 16 90 44 16 90 44 16 0 0 0
0 0 0 0 0 0 0 0 0 0 0 0 0 0 0 0 0 0 0 0 0 0 0 0 0 0 0 0 0 0 0 0 0
0 0 0 0 0 0 0 0 0 0 0 0 0 0 0 0 0 0 0 0 0 0 0 0 0 0 0 0 0 0 0 0 0
0 0 0 0 0 0 0 0 0 0 0 0 0 0 0 0 0 0 0 0 0 0 0 0 0 0 0 0 0 0 0 0 0
0 0 0 0 0 0 0 0 0 0 0 0 0 0 0 0 0 0 0 0 0 0 0 0 0 0 0 0 0 0 0 0 0
0 0 0 0 0 0 0 0 0 0 0 0 0 0 0 0 0 0 0 0 0 0 0 0 0 0 0 0 0 0 0 0 0
0 0 0 0 0 0 0 0 0 0 0 0 0 0 0 0 0 0 0 0 0 0 0 0 0 0 0 0 0 0 0 0 0
0 0 0 0 0 0 0 0 0 0 0 0 0 0 0 0 0 0 0 0 0 0 0 0 0 0 0 0 0 0 0 0 0
0 0 0 0 0 0 0 0 0 0 0 0 0 0 0 0 0 0 0 0 0 0 0 0 0 0 0 0 0 0 0 0 0
0 0 0 0 0 0 0 0 0 0 0 0 0 0 0 0 0 0 0 0 0 0 0 0 0 0 0 0 0 0 0 0 0
0 0 0 0 0 0 0 0 0 0 0 0 0 0 0 0 0 0 0 0 0 0 0 0 0 0 0 0 0 0 0 0 0
0 0 0 0 0 0 0 0 0 0 0 0 0 0 0 0 0 0 0 0 0 0 0 0 0 0 0 238 202 172
238 202 172 238 202 172 238 202 172 238 202 172 238 202 172
238 202 172 238 202 172 238 202 172 238 202 172 90 44 16 90 44 16
90 44 16 90 44 16 90 44 16 90 44 16 90 44 16 90 44 16 90 44 16
90 44 16 90 44 16 90 44 16 90 44 16 90 44 16 90 44 16 90 44 16
90 44 16 90 44 16 90 44 16 90 44 16 90 44 16 90 44 16 90 44 16
90 44 16 90 44 16 90 44 16 90 44 16 90 44 16 90 44 16 90 44 16 0 0 0
0 0 0 0 0 0 0 0 0 0 0 0 0 0 0 0 0 0 0 0 0 0 0 0 0 0 0 0 0 0 0 0 0
0 0 0 0 0 0 0 0 0 0 0 0 0 0 0 0 0 0 0 0 0 0 0 0 0 0 0 0 0 0 0 0 0
0 0 0 0 0 0 0 0 0 0 0 0 0 0 0 0 0 0 0 0 0 0 0 0 0 0 0 0 0 0 0 0 0
0 0 0 0 0 0 0 0 0 0 0 0 0 0 0 0 0 0 0 0 0 0 0 0 0 0 0 0 0 0 0 0 0
0 0 0 0 0 0 0 0 0 0 0 0 0 0 0 0 0 0 0 0 0 0 0 0 0 0 0 0 0 0 0 0 0
0 0 0 0 0 0 0 0 0 0 0 0 0 0 0 0 0 0 0 0 0 0 0 0 0 0 0 0 0 0 0 0 0
0 0 0 0 0 0 0 0 0 0 0 0 0 0 0 0 0 0 0 0 0 0 0 0 0 0 0 0 0 0 0 0 0
0 0 0 0 0 0 0 0 0 0 0 0 0 0 0 0 0 0 0 0 0 0 0 0 0 0 0 0 0 0 0 0 0
0 0 0 0 0 0 0 0 0 0 0 0 0 0 0 0 0 0 0 0 0 0 0 0 0 0 0 0 0 0 0 0 0
0 0 0 0 0 0 0 0 0 0 0 0 0 0 0 0 0 0 0 0 0 0 0 0 0 0 0 0 0 0 0 0 0
0 0 0 0 0 0 0 0 0 0 0 0 0 0 0 0 0 0 0 0 0 0 0 0 0 0 0 238 202 172
238 202 172 238 202 172 238 202 172 238 202 172 238 202 172
238 202 172 238 202 172 238 202 172 238 202 172 90 44 16 90 44 16
90 44 16 90 44 16 90 44 16 90 44 16 90 44 16 90 44 16 90 44 16
90 44 16 90 44 16 90 44 16 90 44 16 90 44 16 90 44 16 90 44 16
90 44 16 90 44 16 90 44 16 90 44 16 90 44 16 90 44 16 90 44 16
90 44 16 90 44 16 90 44 16 90 44 16 90 44 16 90 44 16 90 44 16 0 0 0
0 0 0 0 0 0 0 0 0 0 0 0 0 0 0 0 0 0 0 0 0 0 0 0 0 0 0 0 0 0 0 0 0
0 0 0 0 0 0 0 0 0 0 0 0 0 0 0 0 0 0 0 0 0 0 0 0 0 0 0 0 0 0 0 0 0
0 0 0 0 0 0 0 0 0 0 0 0 0 0 0 0 0 0 0 0 0 0 0 0 0 0 0 0 0 0 0 0 0
0 0 0 0 0 0 0 0 0 0 0 0 0 0 0 0 0 0 0 0 0 0 0 0 0 0 0 0 0 0 0 0 0
0 0 0 0 0 0 0 0 0 0 0 0 0 0 0 0 0 0 0 0 0 0 0 0 0 0 0 0 0 0 0 0 0
0 0 0 0 0 0 0 0 0 0 0 0 0 0 0 0 0 0 0 0 0 0 0 0 0 0 0 0 0 0 0 0 0
0 0 0 0 0 0 0 0 0 0 0 0 0 0 0 0 0 0 0 0 0 0 0 0 0 0 0 0 0 0 0 0 0
0 0 0 0 0 0 0 0 0 0 0 0 0 0 0 0 0 0 0 0 0 0 0 0 0 0 0 0 0 0 0 0 0
0 0 0 0 0 0 0 0 0 0 0 0 0 0 0 0 0 0 0 0 0 0 0 0 0 0 0 0 0 0 0 0 0
0 0 0 0 0 0 0 0 0 0 0 0 0 0 0 0 0 0 0 0 0 0 0 0 0 0 0 0 0 0 0 0 0
0 0 0 0 0 0 0 0 0 0 0 0 0 0 0 0 0 0 0 0 0 0 0 0 0 0 0 238 202 172
238 202 172 238 202 172 238 202 172 238 202 172 238 202 172
238 202 172 238 202 172 238 202 172 238 202 172 90 44 16 90 44 16
90 44 16 90 44 16 90 44 16 90 44 16 90 44 16 90 44 16 90 44 16
90 44 16 90 44 16 90 44 16 90 44 16 90 44 16 90 44 16 90 44 16
90 44 16 90 44 16 90 44 16 90 44 16 90 44 16 90 44 16 90 44 16
90 44 16 90 44 16 90 44 16 90 44 16 90 44 16 90 44 16 90 44 16 0 0 0
0 0 0 0 0 0 0 0 0 0 0 0 0 0 0 0 0 0 0 0 0 0 0 0 0 0 0 0 0 0 0 0 0
0 0 0 0 0 0 0 0 0 0 0 0 0 0 0 0 0 0 0 0 0 0 0 0 0 0 0 0 0 0 0 0 0
0 0 0 0 0 0 0 0 0 0 0 0 0 0 0 0 0 0 0 0 0 0 0 0 0 0 0 0 0 0 0 0 0
0 0 0 0 0 0 0 0 0 0 0 0 0 0 0 0 0 0 0 0 0 0 0 0 0 0 0 0 0 0 0 0 0
0 0 0 0 0 0 0 0 0 0 0 0 0 0 0 0 0 0 0 0 0 0 0 0 0 0 0 0 0 0 0 0 0
0 0 0 0 0 0 0 0 0 0 0 0 0 0 0 0 0 0 0 0 0 0 0 0 0 0 0 0 0 0 0 0 0
0 0 0 0 0 0 0 0 0 0 0 0 0 0 0 0 0 0 0 0 0 0 0 0 0 0 0 0 0 0 0 0 0
0 0 0 0 0 0 0 0 0 0 0 0 0 0 0 0 0 0 0 0 0 0 0 0 0 0 0 0 0 0 0 0 0
0 0 0 0 0 0 0 0 0 0 0 0 0 0 0 0 0 0 0 0 0 0 0 0 0 0 0 0 0 0 0 0 0
0 0 0 0 0 0 0 0 0 0 0 0 0 0 0 0 0 0 0 0 0 0 0 0 0 0 0 0 0 0 0 0 0
0 0 0 0 0 0 0 0 0 0 0 0 0 0 0 0 0 0 0 0 0 0 0 0 0 0 0 238 202 172
238 202 172 238 202 172 238 202 172 238 202 172 238 202 172
238 202 172 238 202 172 238 202 172 238 202 172 90 44 16 90 44 16
90 44 16 90 44 16 90 44 16 90 44 16 90 44 16 90 44 16 90 44 16
90 44 16 90 44 16 90 44 16 90 44 16 90 44 16 90 44 16 90 44 16
90 44 16 90 44 16 90 44 16 90 44 16 90 44 16 90 44 16 90 44 16
90 44 16 90 44 16 90 44 16 90 44 16 90 44 16 90 44 16 90 44 16 0 0 0
0 0 0 0 0 0 0 0 0 0 0 0 0 0 0 0 0 0 0 0 0 0 0 0 0 0 0 0 0 0 0 0 0
0 0 0 0 0 0 0 0 0 0 0 0 0 0 0 0 0 0 0 0 0 0 0 0 0 0 0 0 0 0 0 0 0
0 0 0 0 0 0 0 0 0 0 0 0 0 0 0 0 0 0 0 0 0 0 0 0 0 0 0 0 0 0 0 0 0
0 0 0 0 0 0 0 0 0 0 0 0 0 0 0 0 0 0 0 0 0 0 0 0 0 0 0 0 0 0 0 0 0
0 0 0 0 0 0 0 0 0 0 0 0 0 0 0 0 0 0 0 0 0 0 0 0 0 0 0 0 0 0 0 0 0
0 0 0 0 0 0 0 0 0 0 0 0 0 0 0 0 0 0 0 0 0 0 0 0 0 0 0 0 0 0 0 0 0
0 0 0 0 0 0 0 0 0 0 0 0 0 0 0 0 0 0 0 0 0 0 0 0 0 0 0 0 0 0 0 0 0
0 0 0 0 0 0 0 0 0 0 0 0 0 0 0 0 0 0 0 0 0 0 0 0 0 0 0 0 0 0 0 0 0
0 0 0 0 0 0 0 0 0 0 0 0 0 0 0 0 0 0 0 0 0 0 0 0 0 0 0 0 0 0 0 0 0
0 0 0 0 0 0 0 0 0 0 0 0 0 0 0 0 0 0 0 0 0 0 0 0 0 0 0 0 0 0 0 0 0
0 0 0 0 0 0 0 0 0 0 0 0 0 0 0 0 0 0 0 0 0 0 0 0 0 0 0 238 202 172
238 202 172 238 202 172 238 202 172 238 202 172 238 202 172
238 202 172 238 202 172 238 202 172 238 202 172 90 44 16 90 44 16
90 44 16 90 44 16 90 44 16 90 44 16 90 44 16 90 44 16 90 44 16
90 44 16 90 44 16 90 44 16 90 44 16 90 44 16 90 44 16 90 44 16
90 44 16 90 44 16 90 44 16 90 44 16 90 44 16 90 44 16 90 44 16
90 44 16 90 44 16 90 44 16 90 44 16 90 44 16 90 44 16 90 44 16 0 0 0
0 0 0 0 0 0 0 0 0 0 0 0 0 0 0 0 0 0 0 0 0 0 0 0 0 0 0 0 0 0 0 0 0
0 0 0 0 0 0 0 0 0 0 0 0 0 0 0 0 0 0 0 0 0 0 0 0 0 0 0 0 0 0 0 0 0
0 0 0 0 0 0 0 0 0 0 0 0 0 0 0 0 0 0 0 0 0 0 0 0 0 0 0 0 0 0 0 0 0
0 0 0 0 0 0 0 0 0 0 0 0 0 0 0 0 0 0 0 0 0 0 0 0 0 0 0 0 0 0 0 0 0
0 0 0 0 0 0 0 0 0 0 0 0 0 0 0 0 0 0 0 0 0 0 0 0 0 0 0 0 0 0 0 0 0
0 0 0 0 0 0 0 0 0 0 0 0 0 0 0 0 0 0 0 0 0 0 0 0 0 0 0 0 0 0 0 0 0
0 0 0 0 0 0 0 0 0 0 0 0 0 0 0 0 0 0 0 0 0 0 0 0 0 0 0 0 0 0 0 0 0
0 0 0 0 0 0 0 0 0 0 0 0 0 0 0 0 0 0 0 0 0 0 0 0 0 0 0 0 0 0 0 0 0
0 0 0 0 0 0 0 0 0 0 0 0 0 0 0 0 0 0 0 0 0 0 0 0 0 0 0 0 0 0 0 0 0
0 0 0 0 0 0 0 0 0 0 0 0 0 0 0 0 0 0 0 0 0 0 0 0 0 0 0 0 0 0 0 0 0
0 0 0 0 0 0 0 0 0 0 0 0 0 0 0 0 0 0 0 0 0 0 0 0 0 0 0 238 202 172
238 202 172 238 202 172 238 202 172 238 202 172 238 202 172
238 202 172 238 202 172 238 202 172 238 202 172 90 44 16 90 44 16
90 44 16 90 44 16 90 44 16 90 44 16 90 44 16 90 44 16 90 44 16
90 44 16 90 44 16 90 44 16 90 44 16 90 44 16 90 44 16 90 44 16
90 44 16 90 44 16 90 44 16 90 44 16 90 44 16 90 44 16 90 44 16
90 44 16 90 44 16 90 44 16 90 44 16 90 44 16 90 44 16 90 44 16 0 0 0
0 0 0 0 0 0 0 0 0 0 0 0 0 0 0 0 0 0 0 0 0 0 0 0 0 0 0 0 0 0 0 0 0
0 0 0 0 0 0 0 0 0 0 0 0 0 0 0 0 0 0 0 0 0 0 0 0 0 0 0 0 0 0 0 0 0
0 0 0 0 0 0 0 0 0 0 0 0 0 0 0 0 0 0 0 0 0 0 0 0 0 0 0 0 0 0 0 0 0
0 0 0 0 0 0 0 0 0 0 0 0 0 0 0 0 0 0 0 0 0 0 0 0 0 0 0 0 0 0 0 0 0
0 0 0 0 0 0 0 0 0 0 0 0 0 0 0 0 0 0 0 0 0 0 0 0 0 0 0 0 0 0 0 0 0
0 0 0 0 0 0 0 0 0 0 0 0 0 0 0 0 0 0 0 0 0 0 0 0 0 0 0 0 0 0 0 0 0
0 0 0 0 0 0 0 0 0 0 0 0 0 0 0 0 0 0 0 0 0 0 0 0 0 0 0 0 0 0 0 0 0
0 0 0 0 0 0 0 0 0 0 0 0 0 0 0 0 0 0 0 0 0 0 0 0 0 0 0 0 0 0 0 0 0
0 0 0 0 0 0 0 0 0 0 0 0 0 0 0 0 0 0 0 0 0 0 0 0 0 0 0 0 0 0 0 0 0
0 0 0 0 0 0 0 0 0 0 0 0 0 0 0 0 0 0 0 0 0 0 0 0 0 0 0 0 0 0 0 0 0
0 0 0 0 0 0 0 0 0 0 0 0 0 0 0 0 0 0 0 0 0 0 0 0 0 0 0 0 0 0 0 0 0
0 0 0 0 0 0 0 0 0 0 0 0 0 0 0 0 0 0 0 0 0 0 0 0 0 0 0 0 0 0 0 0 0
0 0 0 0 0 0 0 0 0 0 0 0 0 0 0 0 0 0 0 0 0 0 0 0 0 0 0 0 0 0 0 0 0
0 0 0 0 0 0 0 0 0 0 0 0 0 0 0 0 0 0 0 0 0 0 0 0 0 0 0 0 0 0 0 0 0
0 0 0 0 0 0 0 0 0 0 0 0 0 0 0 0 0 0 0 0 0 0 0 0 0 0 0 0 0 0 0 0 0
0 0 0 0 0 0 0 0 0 0 0 0 0 0 0 0 0 0 0 0 0 0 0 0 0 0 0 0 0 0 0 0 0
0 0 0 0 0 0 0 0 0 0 0 0 0 0 0 0 0 0 0 0 0 0 0 0 0 0 0 0 0 0 0 0 0
0 0 0 0 0 0 0 0 0 0 0 0 0 0 0 0 0 0 0 0 0 0 0 0 0 0 0 0 0 0 0 0 0
0 0 0 0 0 0 0 0 0 0 0 0 0 0 0 0 0 0 0 0 0 0 0 0 0 0 0 0 0 0 0 0 0
0 0 0 0 0 0 0 0 0 0 0 0 0 0 0 0 0 0 0 0 0 0 0 0 0 0 0 0 0 0 0 0 0
0 0 0 0 0 0 0 0 0 0 0 0 0 0 0 0 0 0 0 0 0 0 0 0 0 0 0 0 0 0 0 0 0
0 0 0 0 0 0 0 0 0 0 0 0 0 0 0 0 0 0 0 0 0 0 0 0 0 0 0 0 0 0 0 0 0
0 0 0 0 0 0 0 0 0 0 0 0 0 0 0 0 0 0 0 0 0 0 0 0 0 0 0 0 0 0 0 0 0
0 0 0 0 0 0 0 0 0 0 0 0 0 0 0 0 0 0 0 0 0 0 0 0 0 0 0 0 0 0 0 0 0
0 0 0 0 0 0 0 0 0 0 0 0 0 0 0 0 0 0 0 0 0 0 0 0 0 0 0 0 0 0 0 0 0
0 0 0 0 0 0 0 0 0 0 0 0 0 0 0 0 0 0 0 0 0 0 0 0 0 0 0 0 0 0 0 0 0
0 0 0 0 0 0 0 0 0 0 0 0 0 0 0 0 0 0 0 0 0 0 0 0 0 0 0 0 0 0 0 0 0
0 0 0 0 0 0 0 0 0 0 0 0 0 0 0 0 0 0 0 0 0 0 0 0 0 0 0 0 0 0 0 0 0
0 0 0 0 0 0 0 0 0 0 0 0 0 0 0 0 0 0 0 0 0 0 0 0 0 0 0 0 0 0 0 0 0
0 0 0 0 0 0 0 0 0 0 0 0 0 0 0 0 0 0 0 0 0 0 0 0 0 0 0 0 0 0 0 0 0
0 0 0 0 0 0 0 0 0 0 0 0 0 0 0 0 0 0 0 0 0 0 0 0 0 0 0 0 0 0 0 0 0
0 0 0 0 0 0 0 0 0 0 0 0 0 0 0 0 0 0 0 0 0 0 0 0 0 0 0 0 0 0 0 0 0
0 0 0 0 0 0 0 0 0 0 0 0 0 0 0 0 0 0 0 0 0 0 0 0 0 0 0 0 0 0 0 0 0
0 0 0 0 0 0 0 0 0 0 0 0 0 0 0 0 0 0 0 0 0 0 0 0 0 0 0 0 0 0 0 0 0
0 0 0 0 0 0 0 0 0 0 0 0 0 0 0 0 0 0 0 0 0 0 0 0 0 0 0 0 0 0 0 0 0
0 0 0 0 0 0 0 0 0 0 0 0 0 0 0 0 0 0 0 0 0 0 0 0 0 0 0 0 0 0 0 0 0
0 0 0 0 0 0 0 0 0 0 0 0 0 0 0 0 0 0 0 0 0 0 0 0 0 0 0 0 0 0 0 0 0
0 0 0 0 0 0 0 0 0 0 0 0 0 0 0 0 0 0 0 0 0 0 0 0 0 0 0 0 0 0 0 0 0
0 0 0 0 0 0 0 0 0 0 0 0 0 0 0 0 0 0 0 0 0 0 0 0 0 0 0 0 0 0 0 0 0
0 0 0 0 0 0 0 0 0 0 0 0 0 0 0 0 0 0 0 0 0 0 0 0 0 0 0 0 0 0 0 0 0
0 0 0 0 0 0 0 0 0 0 0 0 0 0 0 0 0 0 0 0 0 0 0 0 0 0 0 0 0 0 0 0 0
0 0 0 0 0 0 0 0 0 0 0 0 0 0 0 0 0 0 0 0 0 0 0 0 0 0 0 0 0 0 0 0 0
0 0 0 0 0 0 0 0 0 0 0 0 0 0 0 0 0 0 0 0 0 0 0 0 0 0 0 0 0 0 0 0 0
0 0 0 0 0 0 0 0 0 0 0 0 0 0 0 0 0 0 0 0 0 0 0 0 0 0 0 0 0 0 0 0 0
0 0 0 0 0 0 0 0 0 0 0 0 0 0 0 0 0 0 0 0 0 0 0 0 0 0 0 0 0 0 0 0 0
0 0 0 0 0 0 0 0 0 0 0 0 0 0 0 0 0 0 0 0 0 0 0 0 0 0 0 0 0 0 0 0 0
0 0 0 0 0 0 0 0 0 0 0 0 0 0 0 0 0 0 0 0 0 0 0 0 0 0 0 0 0 0 0 0 0
0 0 0 0 0 0 0 0 0 0 0 0 0 0 0 0 0 0 0 0 0 0 0 0 0 0 0 0 0 0 0 0 0
0 0 0 0 0 0 0 0 0 0 0 0 0 0 0 0 0 0 0 0 0 0 0 0 0 0 0 0 0 0 0 0 0
0 0 0 0 0 0 0 0 0 0 0 0 0 0 0 0 0 0 0 0 0 0 0 0 0 0 0 0 0 0 0 0 0
0 0 0 0 0 0 0 0 0 0 0 0 0 0 0 0 0 0 0 0 0 0 0 0 0 0 0 0 0 0 0 0 0
0 0 0 0 0 0 0 0 0 0 0 0 0 0 0 0 0 0 0 0 0 0 0 0 0 0 0 0 0 0 0 0 0
0 0 0 0 0 0 0 0 0 0 0 0 0 0 0 0 0 0 0 0 0 0 0 0 0 0 0 0 0 0 0 0 0
0 0 0 0 0 0 0 0 0 0 0 0 0 0 0 0 0 0 0 0 0 0 0 0 0 0 0 0 0 0 0 0 0
0 0 0 0 0 0 0 0 0 0 0 0 0 0 0 0 0 0 0 0 0 0 0 0 0 0 0 0 0 0 0 0 0
0 0 0 0 0 0 0 0 0 0 0 0 0 0 0 0 0 0 0 0 0 0 0 0 0 0 0 0 0 0 0 0 0
0 0 0 0 0 0 0 0 0 0 0 0 0 0 0 0 0 0 0 0 0 0 0 0 0 0 0 0 0 0 0 0 0
0 0 0 0 0 0 0 0 0 0 0 0 0 0 0 0 0 0 0 0 0 0 0 0 0 0 0 0 0 0 0 0 0
0 0 0 0 0 0 0 0 0 0 0 0 0 0 0 0 0 0 0 0 0 0 0 0 0 0 0 0 0 0 0 0 0
0 0 0 0 0 0 0 0 0 0 0 0 0 0 0 0 0 0 0 0 0 0 0 0 0 0 0 0 0 0 0 0 0
0 0 0 0 0 0 0 0 0 0 0 0 0 0 0 0 0 0 0 0 0 0 0 0 0 0 0 0 0 0 0 0 0
0 0 0 0 0 0 0 0 0 0 0 0 0 0 0 0 0 0 0 0 0 0 0 0 0 0 0 0 0 0 0 0 0
0 0 0 0 0 0 0 0 0 0 0 0 0 0 0 0 0 0 0 0 0 0 0 0 0 0 0 0 0 0 0 0 0
0 0 0 0 0 0 0 0 0 0 0 0 0 0 0 0 0 0 0 0 0 0 0 0 0 0 0 0 0 0 0 0 0
0 0 0 0 0 0 0 0 0 0 0 0 0 0 0 0 0 0 0 0 0 0 0 0 0 0 0 0 0 0 0 0 0
0 0 0 0 0 0 0 0 0 0 0 0 0 0 0 0 0 0 0 0 0 0 0 0 0 0 0 0 0 0 0 0 0
0 0 0 0 0 0 0 0 0 0 0 0 0 0 0 0 0 0 0 0 0 0 0 0 0 0 0 0 0 0 0 0 0
0 0 0 0 0 0 0 0 0 0 0 0 0 0 0 0 0 0 0 0 0 0 0 0 0 0 0 0 0 0 0 0 0
0 0 0 0 0 0 0 0 0 0 0 0 0 0 0 0 0 0 0 0 0 0 0 0 0 0 0 0 0 0 0 0 0
0 0 0 0 0 0 0 0 0 0 0 0 0 0 0 0 0 0 0 0 0 0 0 0 0 0 0 0 0 0 0 0 0
0 0 0 0 0 0 0 0 0 0 0 0 0 0 0 0 0 0 0 0 0 0 0 0 0 0 0 0 0 0 0 0 0
0 0 0 0 0 0 0 0 0 0 0 0 0 0 0 0 0 0 0 0 0 0 0 0 0 0 0 0 0 0 0 0 0
0 0 0 0 0 0 0 0 0 0 0 0 0 0 0 0 0 0 0 0 0 0 0 0 0 0 0 0 0 0 0 0 0
0 0 0 0 0 0 0 0 0 0 0 0 0 0 0 0 0 0 0 0 0 0 0 0 0 0 0 0 0 0 0 0 0
0 0 0 0 0 0 0 0 0 0 0 0 0 0 0 0 0 0 0 0 0 0 0 0 0 0 0 0 0 0 0 0 0
0 0 0 0 0 0 0 0 0 0 0 0 0 0 0 0 0 0 0 0 0 0 0 0 0 0 0 0 0 0 0 0 0
0 0 0 0 0 0 0 0 0 0 0 0 0 0 0 0 0 0 0 0 0 0 0 0 0 0 0 0 0 0 0 0 0
0 0 0 0 0 0 0 0 0 0 0 0 0 0 0 0 0 0 0 0 0 0 0 0 0 0 0 0 0 0 0 0 0
0 0 0 0 0 0 0 0 0 0 0 0 0 0 0 0 0 0 0 0 0 0 0 0 0 0 0 0 0 0 0 0 0
0 0 0 0 0 0 0 0 0 0 0 0 0 0 0 0 0 0 0 0 0 0 0 0 0 0 0 0 0 0 0 0 0
0 0 0 0 0 0 0 0 0 0 0 0 0 0 0 0 0 0 0 0 0 0 0 0 0 0 0 0 0 0 0 0 0
0 0 0 0 0 0 0 0 0 0 0 0 0 0 0 0 0 0 0 0 0 0 0 0 0 0 0 0 0 0 0 0 0
0 0 0 0 0 0 0 0 0 0 0 0 0 0 0 0 0 0 0 0 0 0 0 0 0 0 0 0 0 0 0 0 0
0 0 0 0 0 0 0 0 0 0 0 0 0 0 0 0 0 0 0 0 0 0 0 0 0 0 0 0 0 0 0 0 0
0 0 0 0 0 0 0 0 0 0 0 0 0 0 0 0 0 0 0 0 0 0 0 0 0 0 0 0 0 0 0 0 0
0 0 0 0 0 0 0 0 0 0 0 0 0 0 0 0 0 0 0 0 0 0 0 0 0 0 0 0 0 0 0 0 0
0 0 0 0 0 0 0 0 0 0 0 0 0 0 0 0 0 0 0 0 0 0 0 0 0 0 0 0 0 0 0 0 0
0 0 0 0 0 0 0 0 0 0 0 0 0 0 0 0 0 0 0 0 0 0 0 0 0 0 0 0 0 0 0 0 0
0 0 0 0 0 0 0 0 0 0 0 0 0 0 0 0 0 0 0 0 0 0 0 0 0 0 0 0 0 0 0 0 0
0 0 0 0 0 0 0 0 0 0 0 0 0 0 0 0 0 0 0 0 0 0 0 0 0 0 0 0 0 0 0 0 0
0 0 0 0 0 0 0 0 0 0 0 0 0 0 0 0 0 0 0 0 0 0 0 0 0 0 0 0 0 0 0 0 0
0 0 0 0 0 0 0 0 0 0 0 0 0 0 0 0 0 0 0 0 0 0 0 0 0 0 0 0 0 0 0 0 0
0 0 0 0 0 0 0 0 0 0 0 0 0 0 0 0 0 0 0 0 0 0 0 0 0 0 0 0 0 0 0 0 0
0 0 0 0 0 0 0 0 0 0 0 0 0 0 0 0 0 0 0 0 0 0 0 0 0 0 0 0 0 0 0 0 0
0 0 0 0 0 0 0 0 0 0 0 0 0 0 0 0 0 0 0 0 0 0 0 0 0 0 0 0 0 0 0 0 0
0 0 0 0 0 0 0 0 0 0 0 0 0 0 0 0 0 0 0 0 0 0 0 0 0 0 0 0 0 0 0 0 0
0 0 0 0 0 0 0 0 0 0 0 0 0 0 0 0 0 0 0 0 0 0 0 0 0 0 0 0 0 0 0 0 0
0 0 0 0 0 0 0 0 0 0 0 0 0 0 0 0 0 0 0 0 0 0 0 0 0 0 0 0 0 0 0 0 0
0 0 0 0 0 0 0 0 0 0 0 0 0 0 0 0 0 0 0 0 0 0 0 0 0 0 0 0 0 0 0 0 0
0 0 0 0 0 0 0 0 0 0 0 0 0 0 0 0 0 0 0 0 0 0 0 0 0 0 0 0 0 0 0 0 0
0 0 0 0 0 0 0 0 0 0 0 0 0 0 0 0 0 0 0 0 0 0 0 0 0 0 0 0 0 0 0 0 0
0 0 0 0 0 0 0 0 0 0 0 0 0 0 0 0 0 0 0 0 0 0 0 0 0 0 0 0 0 0 0 0 0
0 0 0 0 0 0 0 0 0 0 0 0 0 0 0 0 0 0 0 0 0 0 0 0 0 0 0 0 0 0 0 0 0
0 0 0 0 0 0 0 0 0 0 0 0 0 0 0 0 0 0 0 0 0 0 0 0 0 0 0 0 0 0 0 0 0
0 0 0 0 0 0 0 0 0 0 0 0 0 0 0 0 0 0 0 0 0 0 0 0 0 0 0 0 0 0 0 0 0
0 0 0 0 0 0 0 0 0 0 0 0 0 0 0 0 0 0 0 0 0 0 0 0 0 0 0 0 0 0 0 0 0
0 0 0 0 0 0 0 0 0 0 0 0 0 0 0 0 0 0 0 0 0 0 0 0 0 0 0 0 0 0 0 0 0
0 0 0 0 0 0 0 0 0 0 0 0 0 0 0 0 0 0 0 0 0 0 0 0 0 0 0 0 0 0 0 0 0
0 0 0 0 0 0 0 0 0 0 0 0 0 0 0 0 0 0 0 0 0 0 0 0 0 0 0 0 0 0 0 0 0
0 0 0 0 0 0 0 0 0 0 0 0 0 0 0 0 0 0 0 0 0 0 0 0 0 0 0 0 0 0 0 0 0
0 0 0 0 0 0 0 0 0 0 0 0 0 0 0 0 0 0 0 0 0 0 0 0 0 0 0 0 0 0 0 0 0
0 0 0 0 0 0 0 0 0 0 0 0 0 0 0 0 0 0 0 0 0 0 0 0 0 0 0 0 0 0 0 0 0
0 0 0 0 0 0 0 0 0 0 0 0 0 0 0 0 0 0 0 0 0 0 0 0 0 0 0 0 0 0 0 0 0
0 0 0 0 0 0 0 0 0 0 0 0 0 0 0 0 0 0 0 0 0 0 0 0 0 0 0 0 0 0 0 0 0
0 0 0 0 0 0 0 0 0 0 0 0 0 0 0 0 0 0 0 0 0 0 0 0 0 0 0 0 0 0 0 0 0
0 0 0 0 0 0 0 0 0 0 0 0 0 0 0 0 0 0 0 0 0 0 0 0 0 0 0 0 0 0 0 0 0
0 0 0 0 0 0 0 0 0 0 0 0 0 0 0 0 0 0 0 0 0 0 0 0 0 0 0 0 0 0 0 0 0
0 0 0 0 0 0 0 0 0 0 0 0 0 0 0 0 0 0 0 0 0 0 0 0 0 0 0 0 0 0 0 0 0
0 0 0 0 0 0 0 0 0 0 0 0 0 0 0 0 0 0 0 0 0 0 0 0 0 0 0 0 0 0 0 0 0
0 0 0 0 0 0 0 0 0 0 0 0 0 0 0 0 0 0 0 0 0 0 0 0 0 0 0 0 0 0 0 0 0
0 0 0 0 0 0 0 0 0 0 0 0 0 0 0 0 0 0 0 0 0 0 0 0 0 0 0 0 0 0 0 0 0
0 0 0 0 0 0 0 0 0 0 0 0 0 0 0 0 0 0 0 0 0 0 0 0 0 0 0 0 0 0 0 0 0
0 0 0 0 0 0 0 0 0 0 0 0 0 0 0 0 0 0 0 0 0 0 0 0 0 0 0 0 0 0 0 0 0
0 0 0 0 0 0 0 0 0 0 0 0 0 0 0 0 0 0 0 0 0 0 0 0 0 0 0 0 0 0 0 0 0
0 0 0 0 0 0 0 0 0 0 0 0 0 0 0 0 0 0 0 0 0 0 0 0 0 0 0 0 0 0 0 0 0
0 0 0 0 0 0 0 0 0 0 0 0 0 0 0 0 0 0 0 0 0 0 0 0 0 0 0 0 0 0 0 0 0
0 0 0 0 0 0 0 0 0 0 0 0 0 0 0 0 0 0 0 0 0 0 0 0 0 0 0 0 0 0 0 0 0
0 0 0 0 0 0 0 0 0 0 0 0 0 0 0 0 0 0 0 0 0 0 0 0 0 0 0 0 0 0 0 0 0
0 0 0 0 0 0 0 0 0 0 0 0 0 0 0 0 0 0 0 0 0 0 0 0 0 0 0 0 0 0 0 0 0
0 0 0 0 0 0 0 0 0 0 0 0 0 0 0 0 0 0 0 0 0 0 0 0 0 0 0 0 0 0 0 0 0
0 0 0 0 0 0 0 0 0 0 0 0 0 0 0 0 0 0 0 0 0 0 0 0 0 0 0 0 0 0 0 0 0
0 0 0 0 0 0 0 0 0 0 0 0 0 0 0 0 0 0 0 0 0 0 0 0 0 0 0 0 0 0 0 0 0
0 0 0 0 0 0 0 0 0 0 0 0 0 0 0 0 0 0 0 0 0 0 0 0 0 0 0 0 0 0 0 0 0
0 0 0 0 0 0 0 0 0 0 0 0 0 0 0 0 0 0 0 0 0 0 0 0 0 0 0 0 0 0 0 0 0
0 0 0 0 0 0 0 0 0 0 0 0 0 0 0 0 0 0 0 0 0 0 0 0 0 0 0 0 0 0 0 0 0
0 0 0 0 0 0 0 0 0 0 0 0 0 0 0 0 0 0 0 0 0 0 0 0 0 0 0 0 0 0 0 0 0
0 0 0 0 0 0 0 0 0 0 0 0 0 0 0 0 0 0 0 0 0 0 0 0 0 0 0 0 0 0 0 0 0
0 0 0 0 0 0 0 0 0 0 0 0 0 0 0 0 0 0 0 0 0 0 0 0 0 0 0 0 0 0 0 0 0
0 0 0 0 0 0 0 0 0 0 0 0 0 0 0 0 0 0 0 0 0 0 0 0 0 0 0 0 0 0 0 0 0
0 0 0 0 0 0 0 0 0 0 0 0 0 0 0 0 0 0 0 0 0 0 0 0 0 0 0 0 0 0 0 0 0
0 0 0 0 0 0 0 0 0 0 0 0 0 0 0 0 0 0 0 0 0 0 0 0 0 0 0 0 0 0 0 0 0
0 0 0 0 0 0 0 0 0 0 0 0 0 0 0 0 0 0 0 0 0 0 0 0 0 0 0 0 0 0 0 0 0
0 0 0 0 0 0 0 0 0 0 0 0 0 0 0 0 0 0 0 0 0 0 0 0 0 0 0 0 0 0 0 0 0
0 0 0 0 0 0 0 0 0 0 0 0 0 0 0 0 0 0 0 0 0 0 0 0 0 0 0 0 0 0 0 0 0
0 0 0 0 0 0 0 0 0 0 0 0 0 0 0 0 0 0 0 0 0 0 0 0 0 0 0 0 0 0 0 0 0
0 0 0 0 0 0 0 0 0 0 0 0 0 0 0 0 0 0 0 0 0 0 0 0 0 0 0 0 0 0 0 0 0
0 0 0 0 0 0 0 0 0 0 0 0 0 0 0 0 0 0 0 0 0 0 0 0 0 0 0 0 0 0 0 0 0
0 0 0 0 0 0 0 0 0 0 0 0 0 0 0 0 0 0 0 0 0 0 0 0 0 0 0 0 0 0 0 0 0
0 0 0 0 0 0 0 0 0 0 0 0 0 0 0 0 0 0 0 0 0 0 0 0 0 0 0 0 0 0 0 0 0
0 0 0 0 0 0 0 0 0 0 0 0 0 0 0 0 0 0 0 0 0 0 0 0 0 0 0 0 0 0 0 0 0
0 0 0 0 0 0 0 0 0 0 0 0 0 0 0 0 0 0 0 0 0 0 0 0 0 0 0 0 0 0 0 0 0
0 0 0 0 0 0 0 0 0 0 0 0 0 0 0 0 0 0 0 0 0 0 0 0 0 0 0 0 0 0 0 0 0
0 0 0 0 0 0 0 0 0 0 0 0 0 0 0 0 0 0 0 0 0
