P3
# Converted to P3 by scripts/convert_to_p3.py
64 64
255
53 46 28 40 39 35 44 37 17 44 41 32
45 35 10 43 34 10 42 39 30 44 41 33
46 39 19 53 43 15 51 43 26 36 38 23
44 37 22 40 39 37 43 37 22 41 38 31
44 37 14 46 44 41 47 40 28 42 39 28
50 45 35 48 45 35 41 37 23 44 41 34
50 39 16 41 33 10 44 41 34 48 39 18
45 36 12 45 41 26 38 40 31 45 41 31
45 43 37 44 43 41 43 36 16 46 43 33
55 44 17 45 37 10 44 41 28 47 45 38
45 39 21 44 40 26 46 40 23 41 40 37
44 37 18 45 43 41 48 44 35 44 41 34
53 45 26 40 39 35 44 37 17 44 41 32
45 35 10 43 34 10 42 39 30 44 41 33
46 39 19 53 43 15 51 43 26 36 38 23
44 37 22 40 39 37 43 37 21 41 39 33
35 34 30 41 41 41 44 37 17 40 39 36
37 33 25 46 42 25 45 37 13 41 40 37
38 37 34 49 43 25 48 39 12 45 42 34
37 37 38 40 39 38 45 37 15 42 42 40
35 36 38 49 45 38 51 40 12 44 41 31
34 36 41 49 43 30 47 37 12 39 39 37
39 34 23 45 41 26 44 37 16 42 41 38
34 34 29 42 41 28 48 41 26 42 40 32
37 37 36 43 42 38 44 37 16 45 42 36
45 38 26 45 40 16 38 37 19 42 39 33
35 33 29 48 44 31 50 41 15 44 40 28
38 35 27 49 46 36 48 39 14 44 40 27
36 35 32 41 40 40 45 37 17 40 39 36
37 33 25 46 42 25 45 37 13 41 40 37
38 37 34 49 43 25 48 39 12 45 42 34
37 37 38 40 39 38 44 37 15 43 43 43
28 26 23 47 44 34 49 43 22 27 25 19
24 24 19 45 41 29 44 39 24 31 26 14
25 24 22 43 41 36 45 40 26 29 26 17
25 23 17 48 42 28 47 43 31 28 28 25
26 24 20 43 41 33 57 46 19 32 27 14
27 25 20 47 44 35 50 45 31 28 26 20
26 24 20 51 44 29 47 42 28 30 28 16
24 24 21 44 40 23 46 43 30 29 28 26
25 23 20 45 40 25 47 42 29 28 28 27
24 25 26 43 38 25 54 44 21 38 32 21
24 23 23 44 42 37 53 45 26 31 29 16
26 24 21 50 43 30 47 41 23 32 29 18
25 24 23 47 44 34 49 43 22 27 25 19
24 24 19 45 41 29 44 39 24 31 26 14
25 24 22 43 41 36 45 40 26 29 26 17
25 23 17 48 42 28 47 43 31 29 28 25
42 38 29 47 42 26 48 40 18 43 37 22
44 39 16 44 39 24 42 38 27 46 42 29
47 40 18 41 39 31 47 40 20 42 37 22
44 36 16 43 39 18 43 38 24 42 40 31
36 36 22 42 37 27 49 42 20 39 36 16
38 35 11 41 40 34 44 39 25 47 41 21
47 42 27 50 45 38 44 41 35 39 38 18
42 38 22 43 40 34 44 38 20 44 40 30
45 40 25 42 40 33 44 38 21 42 40 32
46 43 32 43 40 31 48 41 20 49 42 32
51 43 29 50 43 33 46 42 34 37 38 27
44 41 29 52 46 40 45 42 30 42 40 34
42 39 30 47 42 26 49 41 18 43 37 22
44 39 17 45 39 24 42 39 27 46 42 29
48 41 18 42 39 31 47 40 20 42 37 22
43 36 16 43 39 17 42 38 24 44 40 31
45 45 44 46 44 37 39 42 32 40 41 33
50 44 34 42 42 38 51 43 22 46 38 19
48 42 25 47 43 29 47 46 39 50 46 40
47 40 23 43 38 20 44 43 39 44 44 43
48 42 26 48 44 30 46 42 29 44 38 16
41 39 28 42 36 15 45 40 26 42 40 36
44 41 33 43 44 46 47 45 38 46 43 37
48 41 24 50 44 24 48 46 43 39 39 24
44 38 20 48 45 34 42 38 25 42 40 33
47 43 28 48 44 29 46 40 23 44 39 21
45 41 27 44 42 38 47 42 25 47 42 29
42 43 45 46 42 26 44 41 30 41 39 30
45 44 44 45 44 36 37 41 32 39 40 32
48 43 34 41 41 39 50 41 22 44 38 19
46 41 24 46 42 29 47 45 40 50 46 38
47 40 23 42 38 20 44 43 39 43 43 42
38 35 26 38 32 14 35 34 27 36 33 23
36 33 24 30 28 23 31 30 26 34 30 19
36 29 9 36 30 14 34 30 14 44 36 17
38 34 24 33 31 24 42 36 19 31 32 30
32 33 16 30 30 20 37 32 21 43 34 9
44 37 19 46 37 13 43 37 19 45 38 23
37 33 25 33 31 26 34 32 26 42 36 21
45 37 19 36 33 21 43 39 31 31 31 23
34 33 13 35 32 29 35 33 28 42 36 17
40 35 19 39 34 20 40 35 16 42 34 19
41 36 21 41 35 22 33 30 23 39 33 9
40 33 20 42 32 12 40 36 30 38 34 30
41 37 23 38 34 17 41 36 24 39 35 22
45 40 25 38 30 14 42 36 25 42 33 14
46 35 11 45 36 13 36 31 9 43 37 23
41 35 22 39 34 22 44 38 22 41 36 25
98 76 55 85 65 43 91 70 50 91 70 50
90 70 51 98 77 58 75 59 40 73 58 38
85 65 45 88 68 49 88 70 49 65 52 31
89 69 52 80 65 47 70 61 44 70 59 47
27 27 21 29 24 13 30 25 12 37 29 9
37 29 7 40 31 6 39 30 5 42 33 7
77 59 37 88 68 47 85 66 46 82 74 65
75 75 76 66 71 71 55 53 46 68 69 63
74 79 67 79 78 77 60 60 56 76 75 69
79 80 71 86 91 68 80 83 71 84 83 63
94 85 61 92 84 65 98 96 90 98 98 82
117 101 80 115 100 81 133 110 87 93 95 66
102 101 78 109 97 78 115 100 77 117 104 80
142 123 105 118 95 73 115 96 74 120 106 91
119 103 85 123 109 94 107 113 103 68 69 61
28 24 16 31 25 11 31 25 10 38 29 6
159 133 109 174 149 125 165 139 116 167 142 118
162 136 112 165 138 114 163 137 113 156 131 107
156 130 105 150 124 99 163 137 111 152 128 106
139 118 99 148 128 107 158 135 115 115 94 73
41 34 16 53 44 25 50 41 20 47 41 27
54 42 18 56 45 20 57 45 20 53 43 19
106 84 63 133 106 83 132 107 85 143 119 95
131 113 94 124 112 100 101 90 79 79 77 69
83 82 74 89 93 89 72 74 77 66 68 71
90 90 93 98 99 96 91 91 92 88 91 87
105 101 95 117 111 94 135 123 98 119 121 99
124 129 116 133 134 124 124 126 97 109 115 90
137 122 102 149 132 106 135 128 107 131 122 97
144 138 127 146 139 117 152 139 121 139 133 111
125 115 88 144 122 98 151 146 134 109 95 79
37 32 14 54 44 26 50 41 21 48 42 28
167 140 112 165 140 115 167 142 118 166 142 117
155 132 106 159 134 109 168 143 117 156 130 105
166 142 118 149 125 100 149 124 98 175 150 125
165 136 110 172 138 116 169 142 116 119 97 77
39 32 16 54 46 30 52 44 28 55 46 33
69 51 22 63 48 23 65 50 29 59 46 25
59 48 32 50 42 28 84 64 44 102 81 61
112 90 66 127 101 77 137 111 84 137 114 90
120 98 78 103 90 78 100 87 75 78 69 58
71 71 64 75 74 68 80 78 76 56 58 61
79 76 66 106 89 66 101 94 81 99 94 89
102 97 84 120 114 93 108 110 85 104 103 74
130 112 91 150 128 104 145 124 97 103 104 73
120 119 97 107 114 84 117 121 101 137 128 111
125 104 84 133 107 83 143 117 89 91 70 45
38 32 14 55 46 31 53 44 28 54 45 33
161 147 134 154 129 106 167 142 117 169 141 115
187 156 131 150 126 101 167 144 122 146 126 105
159 131 106 164 139 115 157 131 106 159 138 110
122 113 97 163 115 94 182 151 121 125 103 86
38 32 15 48 42 29 52 44 31 47 42 32
49 40 29 70 53 28 60 48 29 59 48 25
55 43 28 41 32 15 59 47 20 78 61 40
82 64 47 90 72 51 104 80 63 110 85 67
113 88 68 115 88 69 120 93 71 124 99 75
121 99 76 128 104 82 122 99 78 101 89 77
104 85 69 87 81 60 85 82 67 95 87 65
103 94 67 89 88 59 84 90 66 116 110 81
121 107 81 115 104 78 106 109 79 98 96 69
104 102 84 124 109 88 119 107 85 129 106 84
128 106 82 112 89 58 94 78 64 51 42 28
37 31 11 48 43 30 52 44 30 48 44 33
143 147 152 154 140 125 168 142 116 151 133 116
176 153 129 163 147 130 153 127 103 161 140 118
150 131 105 166 138 113 126 105 81 137 85 69
39 8 12 74 13 3 169 135 105 115 96 77
36 29 10 48 40 21 55 45 27 26 25 19
25 23 19 69 53 28 68 51 25 62 46 23
109 87 65 116 91 65 78 61 34 74 56 29
88 67 45 91 75 51 101 79 59 106 81 65
104 80 64 104 80 63 103 79 63 102 79 62
109 85 65 104 80 61 111 86 68 119 91 71
121 96 74 121 100 77 122 100 75 115 106 78
116 105 77 102 95 70 114 103 77 130 120 90
128 112 84 124 106 79 126 103 80 130 106 82
128 106 79 118 93 72 105 85 58 103 82 55
92 69 47 72 56 29 38 32 13 33 27 13
41 34 12 47 39 20 54 45 27 27 26 19
152 144 136 152 143 134 159 146 132 173 155 136
143 124 101 159 141 124 170 146 123 162 141 121
135 124 106 159 141 123 128 106 76 107 60 47
156 54 51 121 43 27 110 87 67 112 93 74
37 31 11 53 43 20 56 45 28 43 35 11
59 46 21 65 49 25 66 50 25 59 44 19
92 72 49 129 104 81 110 88 64 102 80 55
107 81 62 102 80 61 115 91 69 117 91 71
106 82 65 104 81 63 108 83 66 106 82 65
113 88 69 111 86 67 105 80 64 104 80 64
100 80 57 99 79 54 110 87 63 110 85 60
104 81 54 119 94 67 112 91 60 105 83 54
100 77 51 103 82 52 96 76 50 91 67 42
94 75 51 96 76 46 92 76 46 92 72 39
89 66 34 83 60 33 116 86 58 90 71 48
34 29 8 54 43 20 56 45 28 43 35 10
132 106 82 160 152 145 141 135 130 155 148 140
148 139 130 147 129 111 153 136 120 177 149 124
164 141 118 148 126 103 142 114 88 103 78 52
81 60 40 78 65 45 115 95 70 125 105 86
42 34 11 49 40 19 51 40 20 45 40 26
65 50 24 62 47 22 63 49 28 57 45 26
74 56 35 96 77 57 114 89 69 111 86 68
115 90 71 106 83 63 114 89 69 119 94 73
117 91 71 111 86 68 104 80 63 108 83 66
110 85 67 104 81 62 108 83 66 107 82 65
106 82 64 105 82 63 103 82 59 100 80 57
99 76 56 100 80 57 102 83 59 96 76 54
94 74 52 92 75 48 95 78 51 93 76 50
99 79 51 109 86 60 118 93 68 119 88 58
113 88 64 127 100 76 126 101 81 77 60 39
42 33 8 49 40 20 52 40 20 43 39 26
127 122 117 143 133 123 137 121 104 146 137 122
156 153 149 146 125 98 163 141 120 140 127 104
178 165 151 136 125 99 127 116 90 142 118 92
125 102 78 101 80 60 127 105 79 121 101 82
38 30 12 48 41 27 51 45 36 39 41 43
49 41 29 67 50 26 61 50 30 56 44 21
78 59 38 100 78 62 110 86 66 104 83 61
110 86 67 122 96 74 121 95 73 120 96 75
108 84 65 107 82 65 104 81 63 104 82 62
105 82 63 99 78 58 103 79 63 105 81 64
108 82 66 107 82 66 107 83 64 108 83 66
107 83 66 108 84 64 105 81 63 112 87 64
116 92 64 110 86 64 116 91 66 116 91 69
121 96 74 126 101 78 128 103 76 132 109 83
137 113 87 128 103 79 89 70 50 60 46 25
44 35 16 47 41 26 51 44 36 40 42 45
139 141 142 133 133 133 123 116 109 132 116 98
173 159 143 153 129 104 168 145 121 150 129 102
149 136 119 170 155 140 142 123 95 151 127 100
159 133 107 163 138 111 140 114 86 106 89 73
38 33 15 54 45 24 55 48 37 28 28 26
24 23 19 68 51 26 59 47 26 53 43 24
77 58 38 106 83 64 96 78 53 115 90 69
116 90 71 115 89 70 117 91 71 107 82 65
100 79 59 106 82 64 103 80 62 104 80 63
81 63 41 105 81 63 102 80 62 107 82 66
104 81 63 106 81 64 108 83 66 106 82 65
105 81 64 118 93 70 108 85 64 100 78 59
108 84 64 111 86 68 116 91 69 124 98 75
118 93 68 127 103 77 136 112 87 126 102 79
122 98 73 100 79 58 103 81 62 94 74 57
43 36 17 53 44 23 55 48 37 29 29 26
120 120 119 137 136 136 164 161 159 96 94 91
140 127 102 161 141 119 152 129 106 153 136 115
148 134 111 157 139 115 150 129 103 144 132 113
132 122 97 137 123 97 166 146 127 96 79 62
39 33 14 56 47 27 56 47 33 44 42 35
55 45 27 64 49 25 51 44 33 54 43 21
76 58 36 103 81 62 91 72 52 110 85 67
99 77 60 101 79 61 117 91 71 106 81 65
112 86 68 110 85 67 100 78 61 105 81 63
87 68 47 100 79 59 96 77 54 104 81 62
100 78 59 109 85 66 107 82 64 111 86 65
110 85 68 106 81 65 109 85 66 107 83 65
98 77 58 117 92 70 115 89 70 114 89 69
120 95 69 121 95 72 121 96 72 119 93 71
98 76 57 108 85 63 147 122 95 124 99 79
42 35 16 55 46 27 57 47 32 42 41 36
113 113 113 86 87 88 123 119 114 139 122 104
130 118 105 162 151 140 154 136 120 137 121 94
155 139 122 128 123 98 139 130 109 142 128 109
142 123 101 134 113 86 156 137 119 107 95 82
37 31 14 50 45 31 51 44 28 43 41 30
60 50 35 63 47 20 48 42 27 54 44 21
72 58 42 97 78 58 121 95 74 110 85 68
98 76 59 104 82 62 116 90 71 104 80 63
110 86 67 104 80 63 105 81 64 99 77 59
98 78 57 93 75 52 93 74 53 93 74 53
107 82 66 107 83 66 110 85 67 113 88 68
120 95 73 117 92 71 107 82 66 110 85 68
109 84 66 111 86 65 115 89 70 114 89 67
119 93 71 126 100 75 121 96 69 106 82 62
111 86 68 132 108 81 142 119 92 104 83 63
42 35 18 49 44 30 51 44 29 44 40 27
116 116 116 93 93 93 92 93 94 124 124 125
121 119 110 132 123 109 164 148 130 142 124 104
154 131 111 144 135 121 140 118 94 150 129 108
147 127 100 136 117 96 133 126 117 123 110 98
39 32 15 46 43 32 43 40 29 44 39 23
43 38 32 58 47 28 45 41 26 56 44 23
77 60 40 102 79 62 105 82 63 96 77 56
111 86 68 108 83 66 104 82 62 120 94 72
111 87 67 99 77 59 102 79 61 104 81 63
92 75 51 94 75 54 94 74 55 91 73 52
100 78 59 111 88 64 112 86 66 112 89 69
116 92 68 117 91 70 102 79 62 108 85 65
112 87 67 115 91 71 121 96 72 114 89 70
112 87 65 119 93 68 117 92 71 118 92 72
128 103 79 136 112 85 122 98 76 69 52 34
42 35 16 46 42 32 43 39 29 46 40 23
121 121 121 143 144 144 104 103 103 114 114 114
125 128 125 119 113 88 149 142 135 151 129 107
144 131 116 158 140 121 138 118 91 154 130 107
144 134 119 132 119 93 122 121 114 115 109 102
42 35 18 51 46 38 40 38 16 30 28 16
24 23 20 47 42 29 46 42 23 39 39 24
98 78 59 131 106 83 112 87 69 103 79 63
108 83 66 105 81 63 103 80 61 110 86 67
106 82 65 111 86 68 94 74 55 102 79 62
96 75 56 95 74 56 107 82 66 103 80 63
98 77 58 108 83 65 107 82 65 111 86 67
111 86 67 108 83 66 98 76 59 110 87 64
109 83 64 108 85 65 111 87 65 117 92 70
113 88 67 116 91 70 118 92 70 124 98 74
115 90 70 118 92 71 125 99 77 87 66 46
46 38 18 50 45 38 40 38 16 31 29 16
129 129 129 131 131 130 116 116 116 108 108 108
134 136 136 126 120 102 144 136 129 140 121 94
143 124 100 148 131 110 144 132 109 134 127 105
137 123 96 155 134 113 136 127 101 90 87 74
40 36 32 47 44 32 43 41 31 46 41 24
50 45 34 55 48 36 45 43 36 48 44 31
49 42 31 54 45 32 121 94 68 111 87 68
100 78 60 100 78 58 108 83 67 106 81 65
108 84 66 110 84 68 96 76 56 97 76 56
102 79 61 100 79 59 108 83 67 106 82 64
102 80 59 112 86 69 116 91 67 115 90 69
119 93 72 109 85 65 100 79 58 109 83 68
111 86 67 116 90 71 112 87 69 118 93 72
114 89 69 109 84 67 115 90 68 125 100 74
108 84 65 107 84 64 127 103 80 72 58 36
38 36 30 47 44 33 43 41 31 45 41 26
96 96 96 183 182 185 133 132 133 118 121 120
118 111 99 120 113 93 144 129 109 147 122 94
125 112 84 153 131 105 131 125 101 153 134 109
120 116 86 141 127 105 150 136 121 96 81 55
40 35 23 46 44 39 41 41 31 42 37 19
47 44 37 45 43 39 46 45 42 43 40 28
75 58 34 84 66 43 73 54 30 106 81 60
108 84 67 105 81 64 103 80 61 93 73 55
99 78 59 102 79 60 103 80 62 83 66 43
106 81 64 98 78 57 100 78 61 107 82 66
106 82 63 110 86 65 112 88 64 119 94 66
121 95 71 106 82 64 102 79 60 113 88 68
115 91 65 116 91 66 120 95 71 113 88 67
115 90 70 119 93 71 113 89 69 114 89 70
116 91 70 126 101 78 78 64 43 12 14 9
40 35 23 47 44 39 41 41 31 42 36 17
127 127 126 124 126 111 124 124 124 130 129 128
121 120 116 128 118 103 130 121 98 140 121 93
132 115 89 151 125 99 138 115 88 152 128 103
141 123 102 142 122 96 153 144 134 94 92 74
40 34 16 45 37 13 43 40 29 43 39 27
44 40 35 47 44 35 47 41 23 44 40 27
73 58 34 110 88 67 90 72 52 79 60 37
104 78 60 99 79 59 88 72 47 97 77 56
102 80 61 95 76 55 87 71 48 91 74 49
95 75 56 88 71 50 100 79 59 107 82 65
113 88 68 108 85 60 117 89 62 122 97 70
124 99 73 115 90 67 113 88 69 107 84 60
113 87 63 122 96 69 121 96 72 111 86 66
114 89 64 115 90 68 123 97 74 115 90 67
111 86 68 113 87 64 78 59 34 55 40 17
44 36 17 44 36 13 43 39 28 43 40 29
135 136 135 83 83 66 113 98 84 121 117 113
115 107 98 123 114 91 120 115 89 149 130 111
120 108 83 140 121 99 131 111 90 145 119 93
143 127 102 118 115 85 142 134 116 107 105 100
41 33 9 38 36 20 49 42 26 31 29 21
23 22 20 46 43 36 47 42 28 45 39 13
63 49 28 88 70 50 92 72 52 86 70 48
95 74 56 107 82 66 95 76 54 94 75 54
97 77 56 104 81 63 88 71 49 98 78 57
102 79 60 93 73 54 105 81 64 103 80 61
102 79 60 116 90 68 123 96 72 120 94 70
123 98 72 114 89 67 105 82 63 114 88 64
121 93 66 121 96 70 125 99 72 119 93 68
120 94 70 109 85 66 119 94 68 126 100 76
112 89 66 89 68 45 98 76 58 82 64 44
46 37 12 37 36 20 48 42 26 32 29 20
100 101 101 114 113 115 129 126 126 98 97 95
114 105 95 101 100 98 120 119 104 143 137 130
123 115 98 139 120 100 146 122 98 150 124 99
134 116 90 126 116 89 142 133 109 96 96 74
36 34 24 47 42 33 44 41 33 45 40 29
43 39 33 44 45 46 46 43 34 45 39 15
74 58 38 91 71 52 82 65 43 101 80 60
105 81 64 92 73 53 101 79 61 89 71 51
94 75 52 89 71 50 89 72 48 94 76 54
96 79 66 91 75 58 105 81 63 106 82 64
101 80 59 110 84 68 111 87 69 117 91 71
115 89 71 110 86 66 100 79 58 114 88 70
118 93 73 118 93 71 118 92 72 115 91 69
120 95 72 116 91 67 122 96 72 118 93 71
97 77 57 100 79 60 105 81 64 78 61 43
41 37 26 45 41 32 44 41 32 46 41 32
102 95 75 148 137 122 93 99 95 99 93 87
119 109 100 130 119 106 127 109 90 149 127 104
151 130 107 145 125 102 120 116 86 144 127 103
155 135 107 114 103 77 132 116 90 92 95 70
37 34 22 45 43 36 43 35 15 44 35 12
44 39 23 46 44 41 51 42 28 41 38 24
65 52 27 103 80 63 94 76 54 105 81 63
108 83 66 94 73 56 101 79 61 94 75 53
88 72 51 90 71 54 91 72 52 87 69 50
88 71 53 93 75 55 106 82 65 102 79 61
103 80 62 107 84 62 110 85 65 110 86 62
118 93 66 101 80 60 97 77 57 108 83 66
109 84 66 115 90 67 113 88 66 114 89 69
108 84 66 111 86 67 106 83 63 117 93 70
113 88 68 113 87 68 111 87 68 74 57 39
41 37 24 44 42 36 43 35 14 43 35 15
92 92 91 88 86 85 102 99 88 118 111 103
121 102 83 139 128 113 123 112 92 139 122 103
144 132 115 149 140 134 118 99 74 144 124 98
164 141 120 141 123 105 117 97 74 105 83 63
43 34 9 49 42 19 45 40 24 42 36 21
36 36 35 45 42 34 47 40 16 44 38 15
59 46 21 92 74 50 104 80 63 106 83 63
106 82 65 105 82 63 106 82 65 94 74 53
94 78 62 95 77 58 86 69 47 94 74 55
91 72 53 94 74 54 96 75 56 106 82 65
102 79 62 105 81 63 109 83 66 106 81 65
110 86 66 107 82 66 106 82 64 114 91 66
109 85 65 105 82 61 117 92 65 121 95 74
118 92 72 111 86 67 113 88 68 112 87 68
107 83 64 107 84 62 111 87 68 73 56 36
44 34 8 49 42 19 44 39 24 43 37 21
129 120 114 121 113 105 119 105 89 139 134 127
111 108 94 120 118 97 116 107 90 127 119 95
141 128 104 134 130 113 150 138 117 122 113 85
150 128 103 161 142 123 112 110 82 97 79 58
45 38 26 48 41 25 43 40 32 28 28 28
26 23 17 43 41 37 39 39 32 41 38 12
73 56 36 100 78 60 105 82 62 102 80 60
106 83 64 111 86 67 107 82 65 108 84 65
108 83 64 96 75 55 95 75 56 98 77 58
95 76 53 91 72 52 84 65 47 104 81 63
99 78 58 107 82 65 97 77 57 105 81 63
107 82 66 106 82 65 106 82 65 114 88 70
107 84 64 100 78 60 100 78 61 107 83 61
117 92 67 107 82 65 117 91 71 122 96 74
105 81 64 108 84 66 115 90 71 73 56 36
42 37 22 49 42 26 43 40 31 29 29 28
127 124 108 148 145 145 136 139 130 130 124 97
136 125 101 155 137 114 155 127 104 117 94 71
132 111 86 135 124 98 166 155 140 138 129 100
133 114 87 148 128 108 141 138 123 84 77 61
40 38 33 46 43 34 41 36 23 46 41 28
43 36 19 43 42 38 52 43 20 51 42 16
73 57 36 104 80 62 121 95 75 109 84 67
104 81 62 104 81 63 107 82 65 108 85 65
107 82 66 105 81 63 106 82 64 107 82 66
94 76 54 94 76 53 93 75 53 96 75 56
95 76 54 98 78 57 97 76 57 103 80 62
103 80 62 101 79 60 103 81 62 103 79 63
116 90 71 113 87 68 109 85 66 118 93 67
121 96 70 121 96 71 122 96 72 111 86 67
113 88 69 112 87 67 118 93 73 76 58 36
41 38 29 45 43 35 41 36 23 46 40 26
120 122 97 121 123 105 141 141 142 115 120 98
122 114 85 136 126 100 158 145 127 130 108 92
127 100 75 156 131 103 144 131 114 139 130 115
115 98 79 131 115 91 153 145 140 97 87 79
33 32 31 48 43 29 47 40 18 49 42 22
47 40 22 47 44 33 50 43 27 48 42 25
74 58 39 99 79 58 107 84 64 105 82 63
103 80 62 103 80 62 104 81 63 103 80 62
105 82 64 105 82 66 106 81 65 105 81 64
96 76 55 95 76 54 92 75 52 99 78 58
95 75 55 103 80 62 109 84 67 104 81 63
104 80 63 105 81 63 100 77 60 113 88 69
108 84 65 113 88 69 115 89 70 118 92 72
122 96 74 126 100 75 118 93 70 108 83 64
105 81 63 111 86 65 109 84 67 74 57 37
35 35 34 48 43 29 47 40 18 50 42 24
134 120 100 127 119 90 152 149 144 137 140 126
113 117 97 142 133 123 151 146 138 133 121 109
137 113 89 137 123 102 129 125 114 145 139 132
159 138 116 144 127 105 126 128 106 97 100 80
35 33 25 53 45 31 49 42 20 45 41 28
37 35 27 44 40 26 45 41 31 55 47 34
72 57 40 104 80 62 89 72 50 109 86 65
112 86 68 107 82 66 104 80 63 105 80 63
102 82 62 97 79 64 100 78 59 113 88 69
107 82 65 105 81 63 100 79 59 104 81 62
94 75 53 105 81 64 99 78 59 105 82 64
107 82 66 111 86 66 111 86 67 107 82 65
100 79 59 109 85 67 109 84 67 112 87 68
114 89 69 112 87 68 118 92 71 117 92 71
111 87 66 116 91 70 116 90 70 81 63 45
40 38 30 52 44 30 49 42 19 46 42 30
148 128 103 142 127 102 167 145 122 124 126 94
131 129 109 137 126 112 138 126 106 148 135 111
174 155 137 139 117 95 142 125 105 150 134 116
152 134 111 151 138 125 133 138 126 81 81 69
43 35 20 45 41 29 41 39 21 35 29 19
25 25 25 44 39 25 52 42 18 56 47 32
68 53 35 114 89 68 123 97 74 114 89 70
115 90 70 115 90 70 115 89 70 118 93 72
100 78 58 106 81 63 108 83 66 101 79 60
103 80 63 107 82 65 102 79 62 104 80 63
107 82 66 104 81 62 109 85 63 112 87 69
106 82 64 115 92 67 111 86 66 101 78 61
112 87 66 109 84 66 106 82 65 110 85 67
109 84 67 109 84 66 104 80 64 107 82 65
109 84 67 108 84 66 124 99 78 120 97 74
51 41 24 43 40 29 41 38 21 36 30 19
119 124 110 128 129 120 117 120 90 103 110 85
132 117 97 144 127 100 131 123 102 126 117 91
138 133 122 142 135 114 148 134 115 132 115 97
110 100 77 142 120 94 144 141 130 100 93 78
36 31 19 50 44 33 46 45 44 42 38 26
45 42 35 43 40 31 48 40 19 52 47 39
59 46 26 105 85 63 123 98 76 102 79 61
109 84 67 118 92 72 121 95 73 120 97 75
117 92 72 109 84 67 106 81 65 107 83 65
108 84 65 100 78 59 106 81 65 107 82 65
107 82 66 97 76 58 114 88 68 104 82 63
95 75 56 107 83 65 107 82 65 113 88 69
110 86 66 106 81 65 115 90 70 120 94 72
111 86 67 107 82 65 114 89 70 104 81 63
101 79 61 121 95 73 94 73 49 33 31 27
40 36 24 49 43 32 46 44 45 43 38 24
101 98 87 121 115 93 109 112 86 106 105 75
130 113 91 150 128 104 146 125 98 105 105 74
120 120 96 105 114 82 118 121 101 133 122 107
113 92 76 136 110 86 158 139 109 101 87 63
37 29 8 46 42 28 43 39 27 46 44 37
42 40 35 41 39 37 42 36 16 53 49 40
36 30 20 31 28 16 117 94 69 119 94 73
115 89 70 102 79 62 113 89 68 113 89 67
111 86 67 104 81 63 107 82 65 107 82 66
108 83 66 106 82 65 107 82 66 103 80 62
102 80 61 99 77 59 108 83 66 108 85 65
101 79 59 113 87 69 116 91 67 115 89 68
120 94 72 115 90 70 112 87 68 120 94 72
110 85 67 110 85 67 114 89 69 106 82 64
111 86 67 89 66 43 74 56 31 84 66 48
43 36 15 44 41 26 44 40 28 45 43 36
103 93 67 89 87 59 82 90 65 111 110 80
126 109 84 123 113 85 107 111 81 99 97 68
105 106 82 125 118 91 129 116 92 145 123 100
149 126 101 143 117 89 119 100 83 57 48 33
33 34 22 46 42 34 45 41 28 45 44 39
37 37 38 40 39 37 44 36 14 47 46 44
54 42 20 65 48 24 96 73 48 117 91 71
110 85 68 105 81 63 110 87 66 111 86 68
104 80 63 102 79 61 107 82 65 105 81 64
105 81 64 103 80 62 110 85 69 86 66 45
90 70 50 105 82 63 105 81 64 110 85 67
106 82 63 110 86 65 112 88 64 119 94 67
120 95 70 116 91 70 108 83 66 116 91 70
105 81 65 110 85 67 111 86 68 109 83 67
90 67 46 78 61 41 106 85 63 94 75 54
38 39 28 45 41 33 45 41 28 45 44 40
117 104 76 103 95 71 113 104 76 129 120 89
141 116 89 129 106 80 125 103 78 132 107 83
135 113 84 132 110 82 128 105 77 114 90 62
87 66 37 63 49 22 33 27 9 31 24 10
39 37 27 47 43 33 55 47 26 34 30 21
26 24 21 43 42 39 43 36 17 44 44 40
67 53 32 96 75 57 91 70 49 99 78 53
114 89 70 102 79 61 102 80 61 105 80 65
106 82 65 106 82 65 106 81 64 103 80 62
109 85 66 103 80 61 107 83 66 98 77 56
97 76 56 105 82 62 105 81 64 110 85 67
114 89 69 108 84 60 117 89 62 122 97 70
124 98 73 113 88 69 113 88 69 125 99 75
109 84 65 104 80 63 108 84 66 101 78 61
89 71 50 89 71 51 92 72 51 77 62 44
40 37 30 46 43 32 55 47 27 35 31 21
104 83 55 115 89 64 111 84 61 111 87 63
106 85 60 100 80 51 93 70 44 92 67 43
92 73 48 92 73 42 90 73 43 85 60 27
76 57 29 80 57 30 124 95 65 91 72 47
41 33 11 51 43 22 50 41 24 48 42 28
46 42 29 42 39 33 44 39 23 45 41 29
69 53 30 95 74 58 104 81 64 96 76 56
108 84 64 103 80 62 115 91 69 117 91 71
106 82 64 104 81 62 107 82 66 107 82 65
107 82 65 107 82 65 106 81 64 108 83 66
104 81 62 106 81 65 111 86 68 111 87 67
101 78 60 116 90 68 123 96 72 120 95 70
122 97 71 123 97 73 120 95 72 117 92 69
105 82 61 104 81 64 102 79 61 93 75 53
101 79 60 95 75 55 81 64 42 91 70 53
48 38 17 49 42 21 50 41 24 49 42 27
93 74 52 90 73 49 92 74 51 92 74 51
95 76 54 99 80 53 97 80 53 92 76 50
98 80 49 108 87 54 116 92 65 120 89 59
114 88 64 132 105 80 137 112 90 77 60 38
41 36 17 47 44 39 48 42 22 42 40 28
48 42 23 42 37 25 47 39 16 48 41 23
67 51 30 95 74 56 115 90 69 111 85 68
113 88 69 106 83 63 114 89 69 119 94 73
117 91 71 111 86 68 104 80 63 108 83 66
109 84 66 102 79 61 108 83 66 107 82 65
106 81 65 98 76 58 112 87 68 104 82 62
99 78 57 110 84 68 111 87 68 117 91 71
114 88 70 124 98 74 123 97 75 113 88 69
113 87 68 118 93 67 107 82 65 102 79 61
106 81 64 96 77 55 100 80 60 88 67 47
43 37 19 47 44 38 48 43 22 42 40 28
107 82 66 108 84 65 108 83 65 110 86 62
115 91 62 112 87 65 117 92 66 116 91 69
120 96 73 125 101 76 127 102 74 133 109 84
136 113 87 128 103 80 89 70 51 60 45 23
43 36 16 47 44 32 50 44 26 43 41 35
36 33 25 43 41 34 46 42 27 48 45 37
64 49 27 95 74 56 113 89 65 108 85 64
110 86 66 122 95 74 120 95 73 120 96 75
108 84 65 107 82 65 104 81 63 104 82 62
105 82 63 100 78 59 103 79 63 105 81 64
107 82 65 103 79 62 113 88 69 102 80 62
101 79 60 110 86 64 110 85 66 112 87 63
114 90 62 111 87 65 118 93 67 116 91 67
103 80 61 112 87 62 114 88 66 111 86 68
106 82 65 106 81 64 103 81 61 76 60 36
41 34 14 47 44 33 50 43 25 44 42 38
106 82 65 119 93 72 107 84 63 101 78 60
109 84 64 110 85 67 116 91 69 124 98 75
119 93 68 127 103 78 136 112 87 126 101 79
122 98 74 99 78 56 84 64 40 92 70 52
43 37 20 51 44 22 53 43 16 29 28 25
27 25 20 43 40 31 46 41 31 49 44 35
76 58 39 104 82 62 94 76 52 112 88 67
115 90 70 115 89 70 116 91 71 107 82 65
100 79 59 106 82 64 103 80 62 104 80 63
81 63 41 105 81 63 102 80 62 107 82 66
106 82 64 107 82 66 107 82 65 109 83 67
107 82 65 118 92 70 107 84 63 100 78 59
109 84 64 110 86 67 116 90 69 114 89 69
100 78 60 100 78 61 104 82 63 116 91 71
106 82 64 107 82 66 107 82 64 80 63 48
43 36 19 52 44 22 53 43 16 30 29 24
106 82 65 106 81 65 109 85 66 107 83 65
98 77 58 117 92 70 115 89 70 114 89 69
120 95 69 121 95 72 121 96 72 118 93 71
101 78 57 100 80 55 135 112 84 125 100 79
46 38 22 49 42 23 43 36 17 43 39 27
49 39 18 43 40 33 44 39 26 47 39 22
77 60 41 103 80 62 92 73 53 111 85 68
99 77 60 101 79 61 117 91 71 106 81 65
112 86 68 110 85 67 100 78 61 105 81 63
87 68 47 100 78 59 96 76 54 103 80 62
92 74 53 102 79 62 108 83 67 102 79 61
106 81 64 106 81 65 109 85 66 107 83 65
98 77 58 117 92 70 116 91 71 109 84 66
111 85 68 114 90 69 113 89 68 115 89 70
101 79 61 115 90 69 114 89 70 75 58 39
46 39 21 49 42 23 43 36 16 43 39 28
106 81 65 110 85 67 109 84 67 110 85 67
109 84 66 110 85 64 114 89 70 114 89 67
119 93 71 126 100 75 121 96 69 107 82 63
112 87 68 133 109 82 145 121 94 103 82 64
38 35 29 48 41 18 44 41 34 42 40 32
44 40 27 42 41 38 43 39 29 49 41 20
74 57 35 98 78 57 120 95 74 110 85 68
98 76 59 104 82 62 116 90 71 104 80 63
110 86 67 104 80 63 105 81 64 98 77 59
98 79 57 93 75 52 94 75 54 94 75 54
102 80 61 100 79 59 100 79 59 103 80 62
106 81 65 111 85 68 108 83 66 110 85 67
109 84 66 110 85 65 114 89 70 114 89 69
108 83 66 124 98 75 120 95 73 105 81 65
110 85 66 112 87 66 111 86 68 78 61 43
39 36 29 48 41 18 44 41 33 41 40 35
90 73 49 104 81 62 103 80 62 109 84 66
111 86 68 118 93 73 122 96 74 114 88 70
112 87 65 119 93 68 117 92 71 116 91 70
123 99 76 136 112 86 120 96 74 67 52 32
36 37 27 49 42 23 44 40 20 34 38 34
39 38 36 45 40 22 42 37 23 47 43 33
73 57 39 102 78 60 105 82 64 96 77 56
111 86 68 108 83 66 104 82 62 120 94 72
111 87 67 99 77 59 102 79 61 105 81 63
91 74 50 94 75 53 91 73 52 87 71 48
89 72 49 93 75 53 97 77 56 103 80 62
91 73 50 101 79 60 105 81 63 108 84 65
111 86 68 118 93 73 122 96 74 114 89 69
110 86 67 117 91 70 116 91 71 118 93 72
117 92 71 121 96 75 114 89 70 67 52 32
36 37 27 49 42 23 44 40 19 35 40 35
89 72 47 112 87 67 105 81 65 110 85 67
107 82 65 120 95 73 124 98 74 118 92 71
113 88 66 116 90 70 122 95 74 117 94 65
120 95 69 118 93 72 107 83 65 85 65 44
44 38 18 48 43 29 50 45 27 27 27 19
27 25 21 46 41 29 45 40 24 46 43 32
89 71 51 129 104 83 112 87 69 103 79 63
108 83 66 105 81 63 103 80 61 110 86 67
106 82 65 111 86 68 94 74 55 102 79 61
92 74 53 90 71 51 93 75 53 87 70 49
84 67 49 87 69 49 91 74 51 97 77 56
89 71 48 90 71 51 94 75 55 100 78 60
108 83 66 120 94 73 124 98 74 118 92 71
113 88 66 116 91 70 120 95 73 124 98 74
113 88 69 121 96 74 118 93 72 71 54 33
44 38 18 48 43 29 50 45 27 28 28 19
92 75 51 99 78 57 102 79 61 111 86 68
109 85 66 107 84 64 112 87 68 117 92 71
115 90 71 108 84 66 118 93 72 126 101 74
118 93 71 111 86 68 127 103 81 76 61 39
42 33 7 45 40 26 39 40 24 52 43 20
51 44 33 45 42 31 45 40 25 52 45 25
50 42 29 55 45 32 121 94 68 111 87 68
100 78 60 100 78 58 108 83 67 106 81 65
108 84 66 110 84 67 98 77 58 86 69 48
87 70 49 91 74 50 83 66 48 81 63 44
83 65 48 83 65 47 80 63 44 88 71 50
93 76 52 103 81 62 77 61 39 99 77 57
111 86 68 107 83 64 112 87 68 117 92 71
114 89 70 108 83 66 118 93 72 127 101 75
107 83 65 107 84 64 126 102 80 73 58 37
43 34 8 44 40 26 39 40 23 50 42 22
86 70 47 97 77 56 107 82 66 106 82 65
108 84 66 110 85 67 111 86 68 113 88 68
118 93 72 122 96 74 112 88 68 97 79 48
105 80 58 127 100 78 75 62 39 22 24 19
42 34 13 47 42 28 36 39 32 47 42 28
55 44 18 45 36 8 44 41 25 46 44 36
74 58 36 84 66 43 73 54 30 106 81 60
108 84 67 105 81 64 103 80 61 93 73 55
99 78 59 102 79 60 104 81 62 77 61 38
90 72 49 95 76 54 86 68 50 79 62 43
75 59 34 82 64 46 75 59 34 82 64 47
88 71 50 97 77 56 83 67 43 97 77 56
110 85 68 109 85 66 111 86 68 113 88 69
115 90 69 121 96 73 112 87 68 113 87 69
119 94 72 133 108 83 76 62 41 15 15 10
42 34 14 47 42 28 36 39 32 45 41 28
87 70 49 97 77 57 106 82 65 104 80 62
104 80 63 114 89 69 112 87 68 111 86 66
113 88 63 119 93 72 123 98 74 110 87 59
114 89 69 94 74 48 42 39 14 65 51 34
42 36 19 42 41 28 47 40 25 46 42 34
44 38 26 45 40 16 38 37 21 44 41 33
73 59 39 110 88 66 90 72 52 79 60 37
104 78 60 100 79 59 88 72 47 97 77 56
102 80 61 95 76 55 88 71 49 91 74 49
91 73 51 87 69 49 87 71 49 84 66 49
83 65 48 83 65 49 77 60 36 82 64 46
88 70 50 102 80 61 106 82 65 103 80 62
104 80 63 114 89 69 112 87 68 111 86 66
114 89 64 119 93 71 125 99 75 112 87 65
127 103 80 115 90 66 84 63 42 67 51 32
35 31 13 43 43 29 46 40 24 46 43 34
86 69 49 94 76 53 102 80 61 105 81 64
107 82 65 107 82 65 108 83 66 118 93 68
120 95 70 107 82 64 118 93 67 127 100 77
112 88 65 76 58 32 103 80 60 99 77 55
47 38 16 41 39 27 41 40 23 35 29 18
24 24 25 44 39 25 52 42 19 51 45 32
62 50 33 88 70 49 91 72 52 86 70 48
95 74 56 106 81 65 95 76 54 94 75 54
97 77 56 103 80 62 91 73 51 92 75 52
89 71 51 90 73 51 90 74 49 84 67 48
84 66 49 83 65 49 81 63 44 82 65 48
86 68 49 95 76 54 103 80 61 105 81 64
107 82 65 107 82 65 108 83 66 118 93 68
120 95 70 107 83 64 117 93 67 131 105 80
115 93 69 94 71 49 126 101 79 85 66 45
48 38 17 41 39 27 41 39 23 36 30 19
85 67 49 89 72 50 96 76 56 102 80 61
107 82 66 104 80 64 102 79 62 118 92 72
122 96 73 116 91 67 122 96 72 117 93 71
97 75 55 100 77 59 107 83 65 78 61 44
40 35 23 49 44 33 46 44 43 42 38 26
45 42 35 43 40 31 48 41 20 48 44 35
73 59 41 91 71 51 86 67 47 103 81 62
104 80 63 87 69 50 101 79 61 89 71 50
94 76 53 91 73 52 88 72 48 92 76 52
82 63 42 80 63 40 91 74 51 95 76 55
91 74 50 84 67 48 84 66 49 83 66 49
83 66 48 87 70 49 96 77 56 102 79 61
107 82 66 104 80 64 102 79 62 118 92 72
122 96 73 116 91 67 122 96 72 114 89 69
98 77 57 123 100 78 120 95 73 76 60 43
41 36 23 49 44 33 46 44 44 43 38 24
87 70 49 87 71 48 92 74 52 103 80 62
107 82 66 112 87 67 111 86 67 106 82 65
108 84 66 110 86 67 106 83 63 117 93 70
113 88 69 113 87 69 111 87 67 74 57 42
42 34 13 45 41 26 43 39 27 46 44 37
42 40 35 40 39 36 44 37 17 43 43 36
66 53 33 102 79 60 89 72 51 104 80 63
104 81 63 94 74 56 105 81 64 95 76 54
87 71 48 83 66 44 92 72 53 92 73 53
89 70 50 86 67 47 95 75 57 92 74 52
87 70 49 96 76 55 91 73 52 87 70 49
92 73 53 88 71 50 94 75 54 101 79 61
107 82 66 112 87 67 111 86 67 106 82 65
108 84 66 110 86 67 105 82 63 112 88 67
117 92 70 115 90 70 112 87 68 74 57 42
42 34 13 45 41 26 43 39 28 45 43 36
101 79 60 92 74 52 96 77 55 106 82 65
103 80 63 106 83 61 112 87 67 102 79 62
111 86 67 110 86 67 116 90 70 113 88 69
107 83 64 106 84 61 113 88 68 71 55 34
35 37 25 45 42 34 45 41 28 44 43 39
36 36 38 40 39 37 45 37 15 43 43 40
59 48 28 90 73 51 97 77 57 106 82 65
103 80 61 100 79 59 108 85 65 93 73 55
86 68 51 87 68 51 89 72 50 91 72 54
86 69 49 92 73 53 100 79 58 99 78 59
91 72 52 97 77 56 102 80 61 92 73 53
105 81 62 92 72 54 94 74 55 107 82 65
103 80 63 106 83 61 112 87 67 102 79 62
111 86 67 110 86 67 114 89 68 114 89 69
106 83 64 106 83 60 112 88 68 71 55 34
35 37 25 45 42 34 45 41 28 45 44 40
98 77 57 107 82 65 104 81 63 100 79 59
107 82 66 104 82 63 108 84 66 111 86 68
118 93 71 107 82 66 101 78 58 115 90 68
107 82 65 104 81 62 109 85 66 74 58 41
38 36 28 47 43 32 55 47 27 36 31 21
34 29 21 42 41 39 43 36 17 44 43 39
62 53 36 98 78 58 95 76 53 94 75 54
95 76 54 95 75 55 85 68 47 98 79 56
88 69 50 72 57 38 84 67 48 76 59 39
90 73 51 83 66 47 89 71 51 93 75 51
96 77 55 96 76 56 99 78 58 98 76 59
97 77 56 106 82 65 104 81 63 100 79 59
107 82 66 104 82 63 108 84 66 111 86 68
117 92 71 107 83 66 111 86 68 116 91 70
107 82 65 104 82 63 109 85 66 74 58 41
38 36 28 47 43 32 55 47 27 35 31 21
103 80 62 98 77 57 92 74 53 105 81 63
104 80 64 109 84 67 105 81 64 108 83 66
103 80 62 103 81 59 106 82 58 106 82 64
106 82 65 108 83 66 108 83 67 85 65 43
47 37 15 50 43 22 50 41 24 49 42 28
49 43 29 41 39 33 44 39 24 45 41 28
68 54 36 87 70 51 86 69 46 90 72 51
94 75 55 88 71 48 87 70 49 89 71 50
88 70 49 73 57 38 84 67 49 73 56 36
95 75 55 82 65 48 87 70 49 88 71 48
93 74 53 105 82 64 107 82 66 106 82 64
103 80 62 98 77 57 92 73 53 105 81 63
104 80 64 109 84 67 105 81 64 108 83 66
103 80 62 104 81 59 108 83 63 106 82 65
106 82 65 108 83 66 108 83 67 85 65 43
47 37 15 50 43 22 50 41 24 49 42 27
103 80 62 105 81 64 104 81 63 101 79 60
105 82 63 108 83 66 102 79 62 109 85 66
107 82 66 109 85 65 108 83 66 111 86 68
109 85 66 108 84 65 126 100 80 83 71 57
38 33 16 48 45 39 48 42 22 42 40 28
47 41 23 42 37 24 47 38 14 45 40 21
64 53 32 119 96 77 104 81 61 88 69 50
88 70 51 92 74 52 86 69 44 78 61 42
80 63 41 85 67 50 89 70 52 89 71 52
89 69 53 85 67 49 89 71 52 86 67 47
94 74 54 97 77 56 94 74 54 104 80 62
103 80 61 105 81 64 104 81 63 101 79 60
105 82 63 108 83 66 102 79 62 109 85 66
107 82 66 109 85 65 108 83 65 111 86 68
109 85 66 108 84 65 126 100 80 83 71 57
38 33 16 48 45 39 48 42 22 42 40 28
97 77 57 104 80 63 107 84 64 105 81 63
102 80 60 99 78 57 109 83 68 100 78 60
97 77 57 111 85 69 102 80 60 95 74 54
100 78 60 114 90 69 98 78 56 30 26 10
38 32 14 48 45 33 50 43 26 42 40 35
35 33 26 43 40 32 45 39 20 43 42 34
77 62 43 43 39 34 85 68 46 109 86 65
80 63 46 84 66 48 86 68 47 86 69 50
85 68 49 84 67 48 86 69 49 85 69 48
92 72 54 89 72 51 78 61 40 87 70 49
90 71 52 98 78 57 100 78 59 101 79 60
97 76 56 104 80 63 107 84 64 105 81 63
102 80 60 99 78 57 109 83 68 100 78 60
97 77 57 111 85 69 102 80 60 95 74 55
100 78 60 114 90 69 98 78 56 30 26 10
38 32 14 48 45 33 50 43 25 44 42 38
90 72 52 101 78 61 86 71 47 102 80 61
79 63 41 93 73 53 101 80 60 98 77 58
105 81 64 98 78 55 107 83 64 97 76 56
95 74 54 100 78 56 71 56 33 58 46 24
40 34 16 52 45 23 52 42 16 31 30 25
35 30 20 42 39 31 47 42 32 45 42 33
74 61 40 80 59 40 53 41 15 93 75 50
96 76 56 74 57 35 83 66 47 88 71 49
84 66 49 83 65 48 82 64 47 86 68 50
81 65 45 82 65 46 85 68 47 84 68 46
70 55 30 97 78 56 93 73 55 92 73 52
92 73 53 100 78 61 86 71 47 102 80 61
79 63 41 93 73 53 101 80 60 98 77 58
105 81 64 98 78 55 107 83 64 97 76 56
95 74 54 100 78 56 71 56 33 58 46 24
40 34 16 52 45 23 53 43 16 30 29 24
94 76 53 99 78 58 91 71 54 97 77 56
98 77 57 102 79 61 104 81 63 96 77 55
103 80 62 101 79 59 101 79 60 105 81 64
99 79 58 100 78 59 107 84 67 67 52 32
42 36 18 50 42 24 42 36 16 47 41 29
57 45 21 40 38 31 45 39 27 46 39 23
65 53 28 100 80 57 88 66 44 67 52 27
90 71 49 91 72 53 82 65 47 87 70 50
84 67 49 88 70 50 76 59 37 83 65 47
74 57 40 79 62 42 85 68 51 88 70 50
83 66 45 87 69 50 87 70 47 94 76 53
95 76 55 99 78 58 91 71 54 97 77 56
98 77 57 102 79 61 104 81 63 96 77 55
103 80 62 101 79 59 101 79 60 105 81 64
99 79 58 100 78 59 107 84 67 67 52 32
42 36 18 50 42 24 43 36 16 43 39 28
95 75 55 92 73 52 97 77 55 103 80 61
90 71 49 96 74 55 104 80 62 106 81 64
102 79 60 102 79 60 96 75 56 108 83 65
90 72 49 98 76 57 104 79 60 46 40 20
34 33 25 50 42 19 44 41 33 42 40 33
45 41 30 43 42 39 43 36 22 43 37 15
52 45 22 91 70 50 96 75 56 88 71 47
83 66 44 88 70 51 89 71 52 79 61 43
82 64 47 90 70 54 79 60 39 79 62 41
86 67 50 84 65 48 82 64 47 86 68 49
92 74 52 82 63 41 90 70 49 86 68 49
94 74 55 92 73 52 97 76 56 103 80 61
90 71 49 96 74 55 104 81 62 105 81 64
102 80 60 102 79 60 96 75 56 108 83 66
90 71 49 99 76 57 105 79 60 46 40 20
34 33 26 50 42 18 44 41 33 41 40 35
91 76 53 88 71 53 85 70 50 89 74 50
87 70 51 96 75 57 99 80 58 101 81 61
105 83 68 98 79 60 101 81 63 97 78 60
75 61 38 73 58 36 49 53 24 12 20 8
33 34 29 45 39 20 41 38 20 31 35 30
44 40 28 42 37 23 40 35 19 37 37 23
21 35 14 44 46 22 67 64 37 82 66 43
84 69 49 86 71 50 85 70 45 75 60 40
81 66 43 80 65 45 83 67 53 82 66 51
72 57 34 78 63 40 77 63 40 86 70 53
83 67 51 85 70 52 85 67 51 82 66 51
92 75 51 88 71 53 85 71 47 89 75 50
89 72 52 96 76 58 99 79 61 101 80 62
105 81 67 98 78 59 102 81 61 97 79 59
75 61 39 73 58 35 49 52 25 11 20 8
33 34 27 46 39 23 41 38 20 31 35 30
49 48 37 53 52 45 54 52 42 51 51 52
50 47 43 53 51 38 53 54 42 54 54 35
53 49 29 53 51 31 55 54 37 54 52 32
48 47 39 48 45 35 46 51 35 45 46 37
47 46 40 50 50 40 52 51 30 46 46 34
49 48 32 48 47 44 47 50 40 48 50 31
45 47 40 42 46 33 41 44 22 48 44 35
51 46 31 52 54 37 52 52 38 51 49 37
51 53 36 50 50 41 51 48 32 51 47 37
51 51 41 52 55 42 52 53 37 52 49 41
50 47 33 55 51 28 50 51 45 51 48 43
53 49 33 53 52 37 53 56 41 51 53 44
51 49 40 54 53 46 56 53 44 53 52 54
51 48 44 50 49 36 51 54 40 52 53 34
50 46 26 50 49 28 47 51 33 49 49 29
47 47 39 47 44 37 51 50 36 47 45 36
40 37 31 41 38 31 45 37 15 41 40 33
45 39 18 42 37 22 41 39 36 40 37 29
43 37 22 44 38 21 43 39 27 43 40 29
42 39 31 40 37 31 45 41 36 43 36 13
37 36 21 46 45 47 45 40 24 52 42 20
46 43 37 45 43 37 42 42 44 42 40 38
45 41 34 46 40 26 47 39 18 44 40 29
43 34 10 43 37 23 39 39 22 47 40 20
40 40 43 45 43 37 42 37 23 45 40 24
50 43 32 43 39 29 45 39 24 43 38 20
43 36 18 45 39 29 38 36 28 45 42 32
36 38 31 34 38 33 41 39 32 45 43 40
41 38 32 41 38 30 44 37 15 41 39 33
45 39 18 43 37 23 41 39 36 40 37 29
44 38 23 45 38 22 45 40 28 44 41 29
43 39 31 40 37 31 43 41 35 45 37 15
53 46 30 40 39 36 44 37 17 44 41 31
46 36 9 43 34 11 43 39 30 44 42 35
45 40 21 52 43 16 50 43 28 38 38 24
45 38 22 40 40 39 42 38 23 42 39 31
45 37 16 46 44 42 46 40 29 44 40 27
50 45 34 47 44 37 41 37 23 45 42 35
51 41 19 41 34 11 45 42 33 48 39 19
45 36 12 45 41 27 36 40 32 45 41 30
45 44 37 45 44 40 43 37 19 46 43 36
55 44 18 45 37 8 44 41 26 47 44 35
45 39 22 44 40 29 46 40 23 41 40 37
45 38 20 46 44 43 48 44 34 44 42 34
53 46 29 40 40 37 44 37 17 44 41 31
46 36 9 43 34 11 42 39 30 44 42 35
45 40 21 52 43 16 50 43 28 37 38 24
45 38 21 40 40 39 42 37 23 42 40 33
35 34 29 41 40 40 45 37 17 40 39 37
37 33 25 47 42 24 45 37 13 41 40 36
38 37 34 49 43 24 48 39 12 45 42 34
37 37 38 40 39 37 45 37 15 42 42 41
35 36 38 49 45 38 51 40 12 43 40 31
34 37 41 49 43 29 47 37 12 39 38 36
39 33 23 45 41 26 44 37 16 42 41 38
35 34 29 42 41 28 48 41 25 43 40 32
37 37 36 43 42 38 44 37 15 45 42 35
45 38 26 45 40 16 38 37 20 42 39 34
35 34 29 48 44 31 50 41 15 44 40 28
38 35 27 49 46 36 48 39 14 44 40 27
36 35 31 41 40 40 45 37 17 40 39 37
37 33 25 47 42 24 45 37 13 41 40 36
38 37 34 49 43 24 48 39 12 45 42 34
37 37 38 40 39 37 44 37 15 43 43 43
28 26 23 47 44 35 49 43 22 27 25 19
24 24 19 45 41 30 44 39 24 31 26 14
25 24 22 43 41 36 45 40 27 29 26 17
25 23 18 48 42 27 47 43 31 29 27 25
26 24 20 43 41 33 57 46 19 32 27 14
27 25 20 47 43 35 50 46 31 28 26 20
26 24 20 51 44 29 47 42 28 30 28 16
24 23 21 44 40 23 46 43 30 29 28 26
25 23 21 45 40 24 47 42 29 28 28 27
24 25 25 43 38 25 54 44 20 37 31 20
24 23 23 44 42 38 53 45 26 31 29 16
26 24 21 50 43 30 47 41 23 32 29 18
25 24 23 47 45 35 49 43 22 27 25 19
24 24 19 45 41 30 44 39 24 31 26 14
25 24 22 43 41 36 45 40 27 29 26 17
25 23 18 48 42 27 47 43 31 29 28 24
42 39 29 46 41 24 47 40 18 42 37 23
45 39 16 44 39 22 42 39 30 47 43 29
47 40 18 42 39 31 47 40 19 43 37 22
45 37 16 43 40 19 43 39 25 42 41 33
36 36 23 42 36 24 49 42 20 38 36 17
37 36 13 43 42 36 44 38 25 47 41 20
47 42 27 51 45 38 45 42 35 39 39 21
43 39 22 43 40 34 44 38 21 43 40 30
45 40 22 42 39 34 44 38 21 42 40 33
45 43 36 43 39 30 48 41 21 49 44 36
51 43 29 50 44 32 46 42 34 37 39 26
44 41 27 52 46 39 46 41 27 43 41 35
42 39 30 46 41 23 47 40 18 42 37 23
45 39 16 44 39 22 42 39 30 47 43 29
47 40 18 42 39 31 47 40 19 43 37 22
45 37 16 43 40 19 43 39 25 44 41 33
