P3
# Converted to P3 by scripts/convert_to_p3.py
64 64
255
38 37 32 41 40 37 41 34 13 40 37 27
55 44 18 46 37 10 41 38 25 43 41 34
42 36 17 39 35 22 45 39 22 33 32 29
41 35 16 39 38 35 44 40 31 37 35 27
53 45 26 32 31 27 43 36 15 37 34 26
45 35 9 43 34 10 36 33 24 37 35 27
43 37 17 54 44 16 49 41 23 32 33 19
41 34 18 32 31 28 39 34 18 34 31 24
42 35 13 40 38 35 43 36 24 36 33 22
46 41 31 47 44 34 36 32 19 37 34 27
49 38 15 41 33 9 37 34 27 47 37 17
44 35 11 41 37 22 34 36 27 40 36 25
38 37 31 41 40 37 41 34 13 40 37 27
55 44 18 46 37 10 41 38 25 44 41 35
42 36 17 39 35 22 45 39 22 33 32 29
41 35 16 39 38 35 45 40 31 35 33 25
31 31 30 37 36 32 41 34 14 41 38 32
43 37 24 44 39 15 35 34 16 39 36 30
32 30 25 46 43 30 51 43 16 42 38 26
35 32 25 48 44 35 47 39 13 43 39 25
31 30 27 31 31 31 43 35 15 35 35 32
35 31 23 43 38 21 45 36 12 36 35 31
34 33 30 48 42 24 48 39 12 42 39 31
33 33 34 31 30 28 43 36 14 36 36 34
29 30 32 45 41 34 52 41 13 41 38 28
27 30 34 46 40 27 46 37 12 35 35 33
38 32 22 41 37 22 42 35 15 35 34 31
30 30 25 38 36 23 45 38 22 39 37 28
33 32 31 37 36 32 41 34 14 41 38 32
43 37 24 44 39 15 36 34 17 38 34 28
31 30 25 46 43 30 51 43 16 42 38 26
35 32 25 48 44 35 47 38 13 43 40 27
27 25 20 43 38 22 41 37 23 25 25 24
23 24 25 40 35 22 52 42 19 38 32 22
22 22 21 37 36 31 50 42 23 32 29 16
25 24 20 45 38 25 44 38 19 32 29 18
24 23 22 45 42 32 47 41 20 26 24 18
24 24 19 40 36 24 40 35 20 32 28 15
24 23 21 36 35 29 40 35 21 29 26 17
25 23 17 44 38 24 42 38 25 25 24 22
26 23 20 37 35 26 57 46 19 33 28 15
27 25 20 42 39 30 48 43 28 26 25 21
24 23 20 47 40 25 42 38 23 30 28 16
24 23 21 42 38 21 41 37 24 26 25 23
25 23 20 43 38 22 41 37 23 25 25 24
23 24 25 40 35 22 52 42 19 38 32 21
22 22 21 37 36 31 50 42 23 32 29 16
25 24 20 45 38 25 43 38 19 33 30 18
42 36 20 35 32 27 41 35 18 35 33 26
42 39 28 39 36 26 46 39 18 43 37 26
47 39 25 44 37 27 40 35 27 33 34 23
40 37 25 47 41 35 40 37 25 36 34 27
36 32 24 45 40 24 47 39 17 39 34 18
43 38 16 41 35 21 37 34 23 44 40 27
46 39 17 34 32 24 45 39 19 39 34 19
42 34 14 42 38 16 39 35 21 39 37 28
31 31 18 37 32 22 48 41 19 37 34 14
37 35 11 37 36 30 43 37 22 39 35 24
34 32 29 47 41 32 36 33 28 37 36 16
38 34 18 37 34 28 40 35 17 38 34 24
41 36 21 36 34 27 41 35 18 35 33 26
42 39 28 39 36 26 46 39 18 43 37 26
47 40 25 44 38 27 40 35 27 33 34 23
40 37 25 47 41 35 40 37 25 37 35 27
45 40 21 32 32 32 35 31 23 37 34 26
45 40 26 46 42 27 44 39 22 44 38 21
41 36 23 38 36 33 43 38 23 45 39 25
35 35 37 47 42 24 43 40 30 39 36 29
38 38 37 42 41 33 35 38 28 34 35 27
47 42 32 34 34 30 49 40 20 43 36 16
45 40 22 44 40 26 43 42 35 44 40 33
44 37 20 39 35 17 40 39 34 38 37 37
43 38 23 46 42 28 42 38 25 44 38 15
39 37 25 43 36 14 41 36 21 35 34 29
37 35 28 34 35 38 42 40 33 42 39 33
45 39 23 49 44 24 46 44 40 34 35 21
41 36 18 44 41 31 37 32 21 38 35 27
45 41 26 46 42 27 44 39 22 44 38 21
41 37 23 38 36 33 43 38 23 45 39 25
35 35 37 47 42 24 43 40 31 38 35 26
39 34 20 30 28 26 35 30 21 34 31 23
37 32 17 34 29 13 38 31 13 37 31 15
34 29 14 38 33 17 37 31 13 35 31 14
32 29 17 32 28 15 35 30 15 34 30 20
36 33 24 35 30 12 29 28 21 32 29 18
33 30 21 27 25 20 28 27 24 31 28 18
35 29 10 36 31 15 35 30 15 43 34 16
34 30 20 30 28 22 40 35 20 26 27 25
32 32 12 28 28 15 32 28 16 41 32 8
38 32 18 43 35 13 40 34 17 45 39 24
42 37 24 38 33 21 31 30 27 40 34 21
47 37 16 34 30 13 33 31 29 33 28 15
40 33 11 28 27 22 31 27 17 31 29 20
37 32 16 34 29 13 37 30 12 37 31 14
33 28 13 40 34 16 39 32 13 36 31 14
33 29 17 31 27 14 34 29 15 36 31 20
35 29 11 40 31 6 40 31 6 39 30 8
55 42 16 56 43 19 47 37 12 58 44 18
57 43 17 61 46 20 58 45 19 57 44 22
57 43 20 53 41 20 59 45 19 56 42 16
56 42 18 57 43 18 57 43 18 58 43 19
56 43 19 55 43 21 54 42 19 56 44 23
65 52 31 59 46 26 58 45 22 64 51 25
56 43 20 52 40 17 59 46 20 58 45 22
60 47 26 61 47 26 59 45 21 51 39 14
28 23 13 29 24 11 31 26 11 37 28 8
38 30 8 41 31 5 38 30 7 41 32 7
71 54 31 85 68 53 78 65 50 71 65 56
75 59 40 87 67 46 85 66 44 85 65 47
88 66 44 88 67 45 88 67 46 88 68 46
91 69 47 82 65 47 89 70 51 89 69 50
84 64 44 88 69 51 94 73 50 94 71 52
52 41 19 56 45 20 56 44 20 55 45 19
73 57 34 96 74 47 110 87 65 108 84 66
95 75 54 101 79 60 94 75 53 96 76 54
102 80 60 106 82 63 108 83 66 106 82 65
107 82 65 107 82 66 106 82 65 107 82 66
104 81 62 107 82 64 111 86 67 113 88 68
121 95 71 124 98 74 120 94 72 117 91 69
104 81 61 109 85 66 109 86 65 102 80 61
104 81 60 117 92 67 129 103 80 97 76 53
37 31 11 51 42 23 49 40 19 43 37 24
54 42 19 56 44 21 57 45 19 54 43 19
126 99 78 158 130 115 159 130 116 150 136 126
152 123 105 158 125 108 156 127 106 154 122 104
158 125 108 157 123 107 156 122 107 158 130 108
166 141 116 161 134 116 161 132 110 167 140 116
163 138 114 154 125 103 174 149 126 166 140 117
66 50 24 64 48 23 64 49 28 59 45 25
52 43 26 41 35 17 88 66 39 124 98 78
111 86 67 106 83 63 112 88 68 113 89 69
115 90 70 111 86 68 104 80 63 108 83 67
109 84 66 102 79 61 108 83 66 107 82 65
106 81 65 98 76 58 112 87 68 105 82 64
109 85 67 125 99 75 123 97 75 114 89 69
114 88 69 114 89 67 108 83 67 111 86 68
104 80 63 132 106 84 148 119 94 90 69 46
37 32 14 51 43 27 49 41 25 50 41 28
70 52 23 63 48 24 65 49 28 56 44 25
128 100 82 178 150 127 169 150 122 189 145 125
182 151 127 157 126 109 158 127 108 157 128 108
153 121 103 158 125 108 155 125 103 154 123 103
163 136 113 168 140 115 159 141 122 152 140 130
166 144 124 162 132 111 163 136 112 175 150 123
46 37 26 70 53 28 60 48 29 58 47 24
57 45 30 44 34 18 58 45 19 89 68 47
126 100 78 122 96 74 120 95 73 119 93 73
108 84 65 107 82 65 104 81 63 104 82 61
105 82 63 100 78 58 103 79 63 105 81 64
107 82 65 103 79 62 112 87 68 106 82 63
111 86 62 112 87 65 118 93 67 116 91 67
104 80 61 111 87 65 107 83 66 108 83 66
112 89 68 113 89 59 92 76 62 51 42 28
37 31 12 45 40 27 48 40 27 44 40 29
48 39 28 69 53 28 62 50 30 49 40 19
119 100 80 178 145 122 73 40 28 51 46 48
168 116 107 164 136 112 149 121 100 160 130 108
159 128 108 161 131 111 153 130 117 162 132 112
154 125 110 155 130 113 161 139 119 147 130 121
149 137 129 176 164 150 155 130 113 164 149 135
26 24 19 69 52 27 68 51 25 62 46 23
108 86 64 116 90 64 79 61 34 69 53 26
102 79 57 116 91 71 116 91 70 107 83 65
100 79 59 106 82 64 103 80 62 104 80 63
81 63 41 105 81 63 102 80 62 107 82 66
106 82 64 107 82 66 107 82 65 108 82 66
108 84 64 110 86 67 116 90 69 114 89 69
100 79 60 100 78 60 104 81 62 113 89 69
96 79 50 74 58 30 39 32 14 33 27 13
41 34 12 46 38 19 52 42 24 24 23 17
25 23 19 69 53 27 68 51 26 62 46 22
109 88 67 147 117 95 122 47 41 78 0 1
110 65 50 139 114 94 145 112 92 150 130 113
148 126 113 160 124 103 151 130 115 147 139 131
154 131 116 153 126 107 157 133 114 160 145 133
152 136 126 161 142 129 153 138 127 147 136 130
60 46 22 65 49 25 66 50 25 59 44 19
92 71 49 127 102 80 110 88 64 103 80 55
80 60 38 102 79 61 117 91 71 106 81 65
111 86 68 110 85 67 100 78 61 105 81 63
87 68 47 100 79 59 96 76 54 103 81 62
92 73 52 102 79 62 108 83 67 102 80 60
97 76 57 117 92 70 116 90 71 109 84 66
111 85 68 114 90 68 114 90 71 110 83 56
89 65 33 90 64 37 115 86 58 89 69 46
34 29 8 55 44 21 54 43 26 43 35 10
60 46 21 66 49 25 65 49 24 62 46 22
126 98 80 131 105 86 93 75 53 106 73 57
84 68 48 131 103 84 156 121 105 137 111 95
147 131 123 157 132 117 141 133 126 129 124 122
143 131 125 141 127 115 145 138 131 149 149 147
156 149 143 141 128 117 175 154 129 146 126 105
65 49 23 62 47 22 63 48 27 55 43 24
74 56 35 96 77 57 114 89 69 110 85 68
102 77 59 104 81 62 115 90 70 104 81 63
111 86 68 104 80 63 105 81 64 99 77 59
98 78 57 92 75 52 93 75 53 93 75 54
103 80 62 100 78 59 101 79 60 103 80 62
108 83 66 111 86 65 115 90 70 114 88 69
108 83 66 124 98 74 119 94 73 109 80 58
114 87 63 125 97 75 124 98 79 77 60 39
42 34 9 47 38 18 49 38 18 42 37 23
65 50 25 62 47 22 63 48 27 54 43 25
132 102 85 147 116 97 125 100 80 121 98 79
92 71 50 140 113 95 155 123 104 140 111 91
154 130 115 148 118 101 133 123 117 148 126 112
127 128 129 149 142 136 132 119 102 147 130 118
141 131 122 119 119 113 151 135 121 168 142 119
46 38 26 67 50 26 62 50 30 55 44 21
78 59 38 100 78 61 110 86 66 104 83 61
110 86 68 108 84 66 106 83 64 119 94 72
109 86 65 99 78 59 103 80 62 104 81 63
93 75 52 95 76 54 91 73 52 89 72 50
106 82 65 105 81 63 102 80 61 107 82 66
111 86 68 115 90 71 119 93 72 115 90 70
112 87 69 116 91 71 118 92 72 119 95 73
132 106 82 126 101 78 88 69 50 59 45 25
45 36 16 45 38 24 45 39 30 32 34 36
48 39 28 67 49 25 62 50 30 55 43 22
134 108 87 151 121 100 144 112 94 149 118 98
139 112 88 131 108 90 139 118 101 132 108 86
137 107 81 135 116 99 127 121 115 130 124 118
117 117 116 125 125 125 129 121 112 123 112 98
140 124 114 122 121 121 123 120 116 131 127 122
25 24 20 68 51 26 58 46 25 51 41 22
77 59 38 106 83 64 96 78 53 115 90 69
116 90 71 115 90 70 114 89 69 109 84 66
101 79 59 107 83 65 102 79 61 104 80 63
80 63 41 105 81 63 103 80 62 106 81 65
104 81 63 106 82 65 107 82 66 105 81 65
107 83 64 114 89 70 116 91 70 123 97 75
120 95 69 124 99 76 130 104 81 125 99 77
119 94 70 98 78 55 98 77 58 91 71 55
44 36 17 52 44 23 51 44 33 25 25 23
24 22 18 68 52 26 58 46 24 51 40 23
130 105 83 162 135 113 147 120 102 134 108 88
160 135 111 140 112 90 135 116 103 135 119 108
130 112 96 138 123 113 121 116 111 117 119 121
135 135 135 123 123 123 100 101 103 121 124 127
166 168 167 121 117 111 100 100 99 122 117 113
54 44 24 63 48 25 46 39 28 53 42 20
76 58 36 103 81 62 91 72 52 110 85 67
99 77 60 101 79 61 118 92 71 106 81 65
111 86 68 110 85 67 101 78 61 105 81 63
87 68 47 100 78 59 95 76 54 104 81 62
100 78 59 109 85 66 107 82 65 110 86 64
99 77 58 116 91 69 115 89 70 114 89 69
120 95 69 120 95 72 121 96 73 118 93 70
95 75 55 106 84 62 144 117 92 124 99 79
42 34 15 54 45 25 56 46 32 38 36 29
53 43 25 64 48 25 46 39 28 53 42 21
132 104 85 164 136 115 154 122 105 147 120 107
142 116 95 140 112 91 116 100 86 130 127 125
111 109 107 117 112 107 105 107 108 108 107 107
113 113 113 135 135 135 134 134 132 77 78 71
129 128 129 120 121 121 110 110 110 105 106 106
60 50 36 64 48 20 44 39 24 53 43 20
72 59 42 97 78 58 121 95 74 110 85 68
98 76 59 104 82 62 116 90 71 104 81 63
110 86 67 104 80 63 105 81 64 99 77 59
98 78 57 93 75 52 93 74 53 93 74 53
107 82 66 107 83 66 110 85 67 112 87 68
109 84 66 111 86 65 115 89 71 114 89 67
119 93 71 126 100 75 121 96 69 106 82 62
109 85 67 128 102 77 138 113 88 103 81 62
41 35 17 47 42 28 49 42 26 38 36 25
60 50 34 64 48 21 46 39 24 47 40 18
121 103 81 168 136 118 149 121 102 152 125 105
156 127 105 143 114 94 119 97 80 135 108 83
117 106 97 109 112 114 107 106 105 118 118 118
104 104 104 120 120 120 163 163 162 84 84 82
99 98 98 95 95 95 92 93 94 130 130 130
40 35 28 56 44 26 41 37 22 55 44 22
77 60 40 102 79 62 105 82 64 96 77 56
111 86 68 108 83 66 104 82 62 120 94 72
111 87 67 99 77 59 102 79 61 104 81 63
92 75 51 94 75 54 94 74 55 91 73 52
100 78 59 111 88 64 112 87 66 109 86 66
110 86 66 114 89 70 120 95 72 114 89 70
112 87 65 119 93 68 117 91 71 118 93 72
125 100 77 131 105 81 120 95 74 69 53 34
42 35 17 43 39 29 38 34 24 43 38 22
40 35 29 56 44 26 41 37 22 53 44 23
112 94 72 160 124 106 160 133 110 133 115 99
147 133 127 149 122 110 124 98 75 125 111 99
103 104 105 92 91 91 103 103 103 141 141 141
124 124 124 87 87 87 92 91 91 90 90 91
97 99 100 90 90 91 77 71 64 106 106 105
26 25 18 42 37 25 45 41 22 39 39 24
99 79 60 130 104 82 111 86 68 104 80 63
108 83 66 105 81 63 103 80 61 110 86 67
106 82 65 111 86 68 94 74 55 102 79 62
96 75 56 95 74 56 107 82 66 103 80 63
98 77 58 108 83 65 107 82 65 111 87 67
108 83 63 108 84 65 111 87 65 117 92 71
113 88 67 116 91 70 120 95 73 124 99 74
115 89 70 118 92 71 126 100 77 86 66 46
47 39 19 46 41 34 38 35 14 31 29 16
24 23 19 43 38 25 45 40 20 42 43 31
106 98 89 145 125 110 144 126 117 132 113 97
140 126 114 160 144 131 109 94 81 115 115 116
103 105 106 92 93 94 105 105 105 124 124 124
121 121 121 96 96 96 93 94 95 81 79 78
88 80 75 101 82 68 94 85 79 87 88 88
49 44 33 55 48 36 41 38 31 44 41 27
52 44 33 54 44 31 119 92 67 111 87 68
100 78 60 100 78 58 108 83 67 106 81 65
108 84 66 110 84 68 96 76 56 97 76 56
102 79 61 100 79 59 108 83 67 106 82 64
102 80 59 112 86 69 116 90 67 117 91 70
112 87 69 116 90 71 112 87 69 118 93 72
114 89 70 108 83 66 118 93 72 126 101 75
108 84 65 108 84 65 127 103 80 72 58 36
37 35 29 44 40 29 38 36 26 43 37 21
49 44 33 55 48 36 41 38 31 41 40 30
127 109 94 139 118 106 155 133 119 147 123 105
119 109 97 146 134 121 109 102 93 116 111 105
109 106 104 97 91 88 98 99 99 122 122 121
86 86 86 129 130 131 102 96 90 116 108 101
134 117 104 79 67 57 101 101 98 120 121 120
41 38 32 40 38 34 41 40 37 39 35 24
75 58 35 84 66 43 73 54 30 106 81 60
108 84 67 105 81 64 103 80 61 93 73 55
99 78 59 102 79 60 103 80 62 83 66 43
106 81 64 98 78 57 100 78 61 107 82 66
106 82 63 110 86 65 113 89 64 118 93 67
116 91 66 116 91 66 120 95 71 113 88 68
115 90 70 121 96 73 112 87 68 113 88 69
117 92 71 124 98 76 77 63 42 13 14 9
40 35 23 40 38 33 37 37 27 39 33 15
41 38 31 40 39 34 40 39 37 42 37 26
133 104 82 135 111 89 152 130 111 140 135 130
127 115 106 148 117 101 126 114 99 104 99 92
127 120 115 99 96 94 88 89 89 113 113 112
123 123 123 99 99 100 98 94 89 123 105 88
121 104 87 112 102 94 105 107 100 155 156 154
40 37 32 44 42 33 45 39 21 41 38 25
73 58 34 110 88 67 90 72 52 79 60 37
104 78 60 99 79 59 88 72 47 97 77 56
102 80 61 95 76 55 87 71 48 91 74 49
95 75 56 88 71 50 100 79 59 107 82 65
113 88 68 108 84 60 117 89 62 121 96 70
115 89 65 121 96 68 121 96 72 111 87 66
113 89 63 119 93 71 125 99 75 115 90 67
110 85 66 102 80 53 78 58 33 53 40 14
43 36 17 45 37 13 37 34 23 40 36 25
42 38 33 44 41 32 45 39 21 43 38 27
128 103 83 146 125 102 148 127 114 151 137 128
128 125 114 136 123 108 143 120 100 94 89 85
110 111 112 98 99 99 111 111 111 101 101 101
112 112 112 125 125 124 104 106 109 122 117 112
103 95 87 137 135 132 179 178 178 101 101 101
24 23 19 42 39 33 46 42 27 46 39 13
63 49 28 88 70 50 92 72 52 86 70 48
95 74 56 107 82 66 95 76 54 94 75 54
97 77 56 104 81 63 88 71 49 98 78 57
102 79 60 93 73 54 105 81 64 103 80 61
102 79 60 116 90 68 123 97 72 120 93 68
122 93 66 121 96 69 125 99 72 119 93 68
120 95 70 107 82 64 118 93 67 127 101 76
102 82 57 87 67 43 100 77 59 78 59 33
44 35 10 35 33 17 45 39 22 30 28 20
22 21 18 43 40 33 45 41 27 48 39 14
128 107 93 147 137 123 131 110 94 148 131 124
140 130 120 128 117 95 145 131 113 112 100 93
93 93 93 95 95 94 110 110 110 108 108 108
108 107 108 108 109 108 110 109 107 121 120 117
99 102 96 78 78 80 138 138 138 138 138 138
34 32 25 39 39 40 41 38 29 44 38 14
74 58 38 91 71 52 82 65 43 101 80 60
105 81 64 92 73 53 101 79 61 89 71 51
94 75 52 89 71 50 89 72 48 94 76 55
98 81 67 93 77 59 105 81 63 106 82 64
101 80 59 110 84 68 111 86 68 119 93 72
119 94 73 118 93 72 118 93 72 115 91 69
120 95 72 116 91 68 122 96 72 119 93 72
99 79 57 100 79 60 105 82 65 73 57 38
39 35 24 40 36 27 37 34 26 40 35 24
36 33 26 38 39 40 40 38 28 47 40 17
121 97 80 164 136 118 134 108 86 137 121 109
150 127 112 131 107 87 141 125 116 130 118 113
112 112 111 100 100 101 93 93 94 107 107 107
97 97 97 91 93 93 94 85 67 107 88 74
99 100 100 84 84 83 99 99 99 99 99 99
41 35 19 40 38 35 47 38 24 37 34 20
65 52 28 103 80 63 94 76 54 105 81 63
108 83 66 94 73 56 101 79 61 94 75 53
88 72 51 90 71 54 91 72 52 87 70 50
88 71 54 93 75 55 106 82 65 102 79 61
103 80 62 107 84 62 110 85 65 111 87 62
111 86 66 115 90 67 113 88 66 114 89 69
108 84 66 111 86 67 106 83 63 119 94 73
114 89 70 112 87 68 111 87 67 75 58 40
40 36 24 37 36 30 42 34 13 43 33 11
40 35 19 40 38 35 47 38 24 38 33 20
104 96 87 139 141 139 136 116 99 133 109 84
155 130 106 136 119 99 148 129 115 111 102 92
97 99 99 105 108 101 96 98 89 133 133 133
94 94 94 81 81 82 85 82 80 93 86 79
92 94 95 76 76 75 89 89 89 86 87 86
29 29 29 39 36 28 47 39 16 43 38 14
59 46 21 91 74 50 104 80 63 106 83 63
106 82 65 105 82 63 106 82 65 94 74 53
94 78 62 95 77 58 86 69 47 94 74 55
91 72 52 94 74 54 96 75 56 106 82 65
102 79 62 105 81 63 108 83 66 108 83 65
108 84 64 106 82 61 117 92 65 121 95 74
118 92 72 111 86 67 113 88 68 112 87 68
106 83 64 107 84 62 111 87 68 73 56 36
43 34 8 50 43 20 42 36 21 41 35 20
30 30 30 39 36 28 46 39 16 46 39 15
103 86 69 129 119 99 143 118 100 131 117 91
123 119 95 133 126 102 157 147 139 114 112 93
99 96 83 99 96 93 94 96 95 122 123 113
120 120 119 113 113 113 95 95 94 141 141 140
82 82 82 89 89 89 102 102 103 104 103 104
28 25 17 34 32 28 33 32 25 41 38 12
73 56 36 100 78 60 105 82 62 102 80 60
106 83 63 111 86 67 107 82 65 108 84 65
108 83 64 96 75 55 95 75 56 98 77 58
95 76 53 91 72 52 84 65 47 104 81 63
99 78 58 107 82 65 97 76 56 106 82 65
106 83 63 101 78 60 100 78 61 107 83 61
117 92 67 107 82 65 117 91 71 122 96 74
105 81 64 108 84 66 115 90 71 73 56 36
42 36 22 46 39 23 35 33 24 24 24 23
26 24 17 35 33 28 33 32 24 42 39 16
98 95 93 121 103 89 137 107 80 146 120 102
121 102 77 119 118 92 146 131 119 135 123 99
111 111 96 123 116 115 89 89 81 95 96 91
102 103 105 125 125 124 102 102 92 93 93 92
98 98 98 104 104 105 117 118 114 114 115 109
42 35 18 38 37 32 51 41 19 52 42 17
73 57 36 104 81 62 120 94 74 108 83 67
104 81 62 104 81 63 107 82 65 108 85 65
107 82 66 105 81 63 106 82 64 107 82 66
94 76 54 94 76 53 93 75 53 96 75 56
95 76 54 98 78 57 97 76 57 101 78 61
116 90 71 113 87 68 109 85 66 118 93 67
121 96 70 121 96 71 122 96 72 111 86 67
113 88 69 112 87 67 118 93 73 75 58 36
42 38 30 40 38 30 37 32 19 44 39 25
41 34 17 38 37 33 51 42 19 49 40 15
113 100 89 129 106 88 111 101 83 139 122 107
124 103 89 99 92 84 116 114 104 124 125 105
122 126 112 114 116 106 129 125 112 103 92 75
103 97 83 104 106 105 114 114 113 93 93 93
97 97 98 101 101 102 116 115 111 112 116 106
43 37 20 45 41 30 46 39 23 47 42 24
74 58 39 99 79 58 106 83 63 105 82 63
103 80 62 103 80 62 104 81 63 103 80 62
105 82 64 106 82 67 106 81 65 105 81 64
96 76 55 95 76 54 92 75 52 99 78 58
95 75 55 103 80 62 109 84 67 104 80 62
104 81 63 114 89 69 115 89 70 118 92 72
122 96 74 126 100 75 118 93 70 108 83 64
105 81 63 111 86 65 108 84 67 74 57 37
32 32 31 44 39 25 47 40 18 47 39 20
44 38 20 44 41 31 46 39 23 46 39 24
96 92 73 111 111 107 94 91 81 115 117 91
127 116 99 103 88 82 100 98 81 114 119 88
128 126 115 99 104 81 118 123 112 109 103 93
115 101 87 102 102 102 95 94 95 101 100 100
105 101 98 99 96 93 121 104 91 125 120 115
34 31 21 39 35 21 39 35 25 55 47 34
72 57 40 104 80 62 89 72 50 109 86 65
112 86 68 107 82 65 104 80 63 105 80 64
103 82 62 99 80 66 100 77 59 113 88 69
107 82 65 105 81 63 100 79 59 104 81 62
94 75 53 105 81 64 100 78 59 105 81 63
100 78 59 110 85 67 109 84 66 112 87 68
114 89 69 112 87 68 118 92 71 117 92 71
111 87 66 116 91 70 116 91 71 84 65 47
39 37 29 49 42 27 49 42 20 43 39 26
34 31 24 39 35 21 39 35 25 54 46 35
81 89 76 102 107 92 91 83 66 95 94 84
100 99 100 93 93 93 87 84 69 96 95 82
111 107 99 93 97 85 89 91 72 109 114 104
92 92 91 105 105 95 97 96 78 100 101 97
125 116 96 147 122 105 126 118 111 120 101 81
27 26 25 41 36 23 51 41 17 56 48 33
68 53 35 114 89 68 123 97 74 114 89 70
115 90 70 115 90 70 115 89 70 117 92 71
100 78 58 106 81 63 108 83 66 101 79 60
103 80 63 107 82 65 102 79 62 104 80 63
107 82 66 104 81 62 109 85 63 112 87 69
114 89 67 108 84 65 106 82 65 110 85 67
109 84 67 109 84 66 104 80 64 107 82 65
109 84 67 109 84 67 121 96 75 106 85 60
48 39 21 39 35 24 38 35 17 34 28 18
24 24 24 42 37 23 50 41 16 57 47 33
91 88 66 103 106 86 106 85 69 101 93 84
95 94 94 86 91 88 79 74 72 88 87 83
92 97 84 96 95 97 78 78 73 95 95 90
98 99 92 113 117 95 104 108 94 100 100 78
116 104 77 122 112 93 131 126 120 130 124 107
38 37 33 38 35 26 45 38 17 50 45 37
59 47 26 105 85 62 124 98 76 102 79 61
109 84 67 118 93 72 120 95 73 118 93 72
117 91 72 109 84 67 106 81 65 107 83 65
108 84 65 100 78 59 106 81 65 107 82 65
107 82 66 97 76 58 113 88 68 108 84 65
107 83 64 107 82 65 115 90 70 120 94 72
111 86 67 107 82 65 114 89 70 104 81 63
101 79 61 121 95 73 92 70 47 31 29 24
39 34 22 44 38 27 40 39 39 37 33 21
40 38 31 38 35 27 45 38 17 50 45 38
112 89 69 122 96 75 126 101 80 138 113 90
127 109 90 120 107 96 101 90 78 83 81 72
84 83 75 87 90 86 75 77 81 69 70 73
89 89 91 93 94 91 89 89 90 88 90 87
101 97 92 111 104 88 124 111 88 114 116 97
35 33 27 32 31 28 40 34 14 50 46 37
36 30 21 31 28 16 116 92 68 119 94 73
115 90 70 102 79 62 114 89 68 113 89 67
111 86 67 104 81 63 107 82 65 107 82 66
108 83 66 106 82 65 107 82 66 103 80 62
102 80 61 99 78 59 108 83 65 109 84 66
118 92 71 116 90 70 112 87 68 120 94 72
110 85 67 110 85 67 114 89 69 106 82 64
111 86 67 89 66 43 74 57 31 85 66 48
44 37 16 39 36 21 40 36 23 41 39 32
34 32 27 32 31 28 41 35 15 44 41 33
64 54 41 63 51 34 87 67 46 102 80 61
111 88 66 125 97 75 133 106 81 136 111 89
120 96 77 107 94 83 103 90 78 80 70 59
79 79 72 83 81 76 83 82 79 65 67 70
81 79 69 104 90 66 102 95 83 101 95 88
32 32 33 31 30 28 42 35 13 43 42 39
54 42 21 65 48 24 96 72 48 117 91 71
110 86 68 105 81 63 110 87 66 111 85 68
104 80 63 102 79 61 107 82 65 105 81 64
105 81 64 103 80 62 110 85 69 86 66 45
90 70 50 105 82 63 104 81 63 113 88 69
119 94 69 116 91 70 108 83 66 116 91 70
105 81 65 110 85 67 111 86 68 109 84 67
90 67 46 79 62 42 106 85 63 94 75 54
37 38 27 40 37 28 42 39 26 43 42 38
32 32 33 31 30 28 42 34 12 46 44 40
53 43 30 43 33 15 67 51 25 79 61 41
83 65 48 90 73 52 104 80 63 109 84 66
112 87 68 114 88 68 119 92 70 120 95 72
123 100 79 127 103 81 121 98 77 105 92 80
98 85 66 82 82 60 87 83 68 94 86 64
27 26 21 37 35 32 40 33 14 40 40 36
67 53 32 96 75 56 91 70 49 99 78 53
114 89 70 102 79 61 102 80 61 105 80 65
106 82 65 106 82 65 106 81 64 103 80 62
109 85 66 103 80 61 107 83 66 98 77 56
97 76 56 105 82 62 105 81 64 112 87 68
123 98 72 113 88 69 113 88 69 125 99 75
109 84 65 104 80 63 107 83 65 101 78 61
89 71 49 92 73 54 93 73 52 76 61 44
40 37 30 44 40 29 55 47 27 34 30 22
25 24 20 37 36 32 40 33 14 40 39 36
109 88 67 116 89 63 83 61 32 73 57 29
85 63 41 91 73 49 100 80 59 106 81 65
104 80 64 104 80 64 103 79 63 102 79 61
110 85 66 103 80 61 111 85 68 118 91 70
121 94 73 121 99 77 123 101 75 111 103 75
40 36 25 36 33 26 40 35 19 41 37 25
70 54 31 95 74 58 104 81 64 96 76 56
108 84 64 103 80 62 115 91 69 117 91 71
106 82 64 104 81 62 107 82 66 107 82 65
107 82 65 107 82 65 106 81 64 108 83 66
104 81 62 106 81 65 111 86 68 113 88 69
120 95 70 123 97 74 120 95 72 117 92 69
105 82 61 105 81 65 110 86 66 94 76 53
100 79 59 94 74 54 81 63 42 91 71 53
47 38 17 48 41 19 48 39 22 44 38 24
42 37 25 35 33 26 41 36 20 37 34 22
92 72 48 128 102 80 111 87 63 101 79 55
106 80 60 102 79 61 115 91 69 117 91 71
106 82 65 104 81 63 108 83 66 107 82 65
113 88 69 111 86 67 105 80 64 105 81 64
96 77 55 93 74 53 99 80 55 108 85 62
44 39 20 38 33 20 46 39 15 48 41 22
67 51 30 95 74 56 115 90 69 111 85 68
113 88 69 106 83 63 114 89 69 118 93 72
117 91 71 111 86 68 104 80 63 108 83 66
109 84 66 102 79 61 108 83 66 107 82 65
106 81 65 98 76 58 112 87 68 105 82 64
109 85 67 125 99 75 123 97 75 114 88 69
113 88 68 118 92 67 114 89 66 104 81 62
106 82 64 96 77 55 101 80 60 88 68 47
42 36 18 40 38 32 47 41 21 37 35 23
44 38 20 38 33 20 47 39 16 46 40 21
72 56 38 97 77 56 114 89 70 111 86 68
115 90 71 106 83 63 114 89 69 118 93 72
117 91 71 111 86 68 104 80 63 108 83 66
110 85 67 104 81 62 107 83 66 107 83 66
102 80 60 102 80 61 100 78 59 92 74 51
33 29 20 37 35 28 43 39 25 44 41 33
65 49 27 95 74 56 113 89 65 108 85 64
110 86 66 122 95 74 120 95 73 118 93 73
108 84 65 107 82 65 104 81 63 104 82 62
105 82 63 100 78 59 103 79 63 105 81 64
107 82 65 103 79 62 112 87 68 106 82 63
111 87 62 112 87 65 118 93 67 116 91 67
103 80 61 112 87 62 112 87 65 107 82 66
111 86 68 107 82 65 101 79 60 76 60 36
41 34 14 44 41 30 48 41 24 38 36 30
33 30 22 36 34 28 44 40 25 42 39 31
77 60 40 100 77 61 110 86 66 104 83 61
110 86 67 122 96 74 120 95 73 118 93 73
108 84 65 107 82 65 104 81 63 104 82 62
105 82 63 99 78 58 103 79 63 105 81 64
108 83 67 107 82 66 111 85 68 107 82 65
30 27 20 37 33 24 40 35 24 45 41 32
76 59 40 104 81 62 94 76 52 112 88 67
115 90 70 115 89 70 117 91 71 107 83 65
101 79 59 106 82 64 103 80 62 104 80 63
81 63 41 105 81 64 103 80 62 107 82 66
106 82 64 107 82 66 107 82 65 108 82 66
108 84 64 110 86 67 116 90 69 114 89 69
100 78 60 100 78 61 104 81 63 116 90 71
120 95 72 118 93 72 113 88 68 81 63 48
43 36 19 52 45 23 52 42 16 26 25 22
28 25 20 37 34 24 40 35 25 45 40 32
77 59 40 106 83 63 96 78 53 115 90 69
116 90 71 115 89 70 117 91 71 107 83 65
101 79 59 106 82 64 103 80 62 104 80 63
81 63 41 105 81 63 102 80 62 107 82 66
105 82 64 106 82 65 107 83 65 108 83 66
48 39 16 36 33 27 41 36 23 46 38 21
77 60 41 103 80 62 92 73 53 111 85 68
99 77 60 101 79 61 117 91 71 106 81 65
112 86 68 110 85 67 101 78 61 104 80 62
86 68 46 99 78 59 94 76 53 102 80 61
91 73 52 102 79 61 108 83 67 101 79 60
97 76 57 117 92 70 116 90 71 109 84 66
111 85 68 114 90 69 113 89 68 115 90 70
102 80 61 117 92 70 115 90 71 75 58 39
47 40 22 47 40 21 42 35 15 39 35 23
47 38 16 36 33 27 41 36 23 46 38 21
77 59 40 102 80 61 91 72 52 110 85 67
99 77 60 101 79 61 117 91 71 106 81 65
112 86 68 110 85 67 100 78 61 105 81 63
87 68 47 100 78 59 96 76 54 103 80 62
92 74 53 102 80 62 108 83 67 101 79 60
42 37 23 36 35 33 40 36 27 47 40 19
74 57 35 98 77 56 120 95 74 110 85 68
98 76 59 104 82 62 116 90 71 104 80 63
110 86 67 104 80 63 105 81 64 100 78 60
101 81 59 96 77 56 101 79 60 102 80 61
106 81 65 101 79 60 102 80 61 104 81 63
107 82 65 110 85 64 114 89 70 114 89 69
108 83 66 124 98 75 120 95 73 105 81 65
110 85 66 111 86 65 115 90 70 79 62 43
39 36 29 48 41 17 39 37 29 35 34 26
41 36 24 37 35 33 40 36 27 48 39 18
72 58 41 97 78 58 121 95 74 110 85 68
98 76 59 104 82 62 116 90 71 104 80 63
110 86 67 104 80 63 105 81 64 98 77 59
98 79 57 93 75 52 94 75 54 94 75 54
102 80 61 100 79 59 100 79 59 103 80 62
32 31 29 43 37 20 39 33 19 46 43 32
73 57 39 102 78 60 105 82 64 96 77 56
111 86 68 108 83 66 104 82 62 120 94 72
111 87 67 99 78 59 102 79 61 108 84 65
105 82 63 108 82 66 108 83 66 107 82 66
107 82 66 106 82 64 102 80 61 102 79 61
110 85 66 117 92 72 121 96 73 114 89 69
110 86 67 117 91 70 116 91 71 118 93 72
117 92 71 119 94 73 119 93 73 68 54 33
35 37 27 48 40 22 41 37 17 29 34 29
34 33 31 43 37 19 39 34 20 46 42 32
75 60 43 102 79 61 105 82 64 96 77 56
111 86 68 108 83 66 104 82 62 120 94 72
111 87 67 99 77 59 102 79 61 105 81 63
91 74 50 94 75 53 91 73 52 87 71 48
89 72 49 93 75 53 97 77 56 103 80 62
29 27 21 42 38 26 42 37 21 45 42 31
90 72 52 127 102 82 111 86 68 103 80 63
108 83 66 105 81 63 103 80 61 110 86 67
106 82 65 111 86 68 94 74 55 102 79 61
102 79 62 107 82 65 105 81 64 105 81 64
103 80 62 111 85 69 86 66 46 89 70 48
112 87 65 120 94 73 124 98 74 117 92 71
113 89 66 116 91 70 120 95 73 124 98 74
114 88 69 120 95 73 124 98 75 73 55 33
43 38 18 45 41 26 48 43 25 26 26 17
27 25 22 43 39 26 42 37 21 44 41 30
98 78 57 130 104 83 111 86 68 104 80 63
108 83 66 105 81 63 103 80 61 110 86 67
106 82 65 111 86 68 94 74 55 102 79 61
92 74 53 90 71 51 93 75 53 87 70 49
84 67 49 87 69 49 91 74 51 97 77 56
49 41 28 42 39 28 44 39 23 49 42 23
52 44 32 54 44 32 119 91 66 111 87 68
100 78 60 100 78 58 108 83 67 106 81 65
108 84 66 110 84 68 96 76 56 97 77 57
108 83 66 105 81 64 103 80 62 109 85 66
103 80 61 107 83 65 98 77 56 98 77 56
105 83 59 107 84 64 112 87 68 117 92 71
113 88 69 107 82 65 119 93 72 126 101 75
108 84 65 107 84 64 127 103 80 76 61 40
42 33 8 41 36 22 36 37 21 51 42 20
47 40 29 42 39 28 44 38 23 50 42 23
51 43 31 54 44 32 119 92 66 111 87 68
100 78 60 100 78 58 108 83 67 106 81 65
108 84 66 110 84 67 98 77 58 86 69 48
87 70 49 91 74 50 83 66 47 81 63 44
82 65 47 83 65 47 80 63 44 89 72 50
55 45 19 46 37 9 41 38 22 46 43 35
74 58 35 84 66 43 73 54 30 106 81 60
108 84 67 105 81 64 103 80 61 93 73 55
99 78 59 102 80 61 101 79 60 96 76 56
106 82 64 107 82 66 107 82 65 107 82 65
107 82 65 106 81 64 108 83 66 103 80 61
114 89 66 112 87 68 110 85 67 114 89 69
111 86 67 117 92 71 113 88 69 113 88 69
116 91 70 124 98 76 80 66 45 21 22 17
41 33 13 42 38 24 31 34 27 43 38 24
55 44 18 46 37 9 41 38 22 46 43 35
74 58 36 85 66 43 73 54 30 106 81 60
108 84 67 105 81 64 103 80 61 93 73 55
99 78 59 102 79 60 104 81 62 77 61 38
90 72 49 95 76 54 86 68 50 79 62 42
77 61 38 82 65 47 75 58 33 82 65 47
42 36 24 44 39 16 35 34 17 41 38 31
73 59 39 110 88 66 90 72 52 79 60 37
104 78 60 100 79 59 88 72 47 97 77 56
102 80 61 96 76 55 86 70 47 105 83 61
113 87 69 104 80 63 108 83 66 109 84 66
102 79 61 108 83 66 106 82 65 107 82 66
106 81 65 114 89 69 112 87 68 111 86 66
114 89 64 119 94 72 125 99 75 114 90 67
111 86 68 113 86 64 78 58 33 53 39 18
37 33 15 38 38 24 43 37 21 43 39 30
43 37 25 44 39 15 35 34 17 41 38 31
73 59 39 110 88 66 90 72 52 79 60 37
104 78 60 100 79 59 88 72 47 97 77 56
102 80 61 95 76 55 88 71 49 91 74 49
91 73 51 87 69 49 87 71 49 84 66 49
83 65 48 84 66 50 78 61 40 82 64 46
26 25 25 41 36 23 50 40 18 51 45 32
62 50 33 88 70 49 91 72 52 86 70 48
95 74 56 106 81 65 95 76 54 94 75 54
97 77 56 103 80 62 90 72 50 97 77 56
107 82 65 104 81 63 104 82 61 105 82 63
99 78 58 104 79 63 105 81 64 107 82 65
106 83 62 107 82 66 108 83 66 118 93 68
120 95 70 107 82 64 118 93 67 126 100 76
112 89 66 89 68 45 98 76 58 83 64 43
47 37 16 37 35 23 37 36 20 34 29 18
23 23 24 41 36 23 50 40 18 51 45 32
62 50 33 88 70 49 91 72 52 86 70 48
95 74 56 106 81 65 95 76 54 94 75 54
97 77 56 103 80 62 91 73 51 92 75 52
89 71 51 90 73 51 90 74 49 84 67 48
83 66 48 83 65 49 81 64 45 82 65 47
39 37 33 38 35 26 46 39 18 46 42 33
74 59 42 91 71 51 86 67 47 103 81 62
104 80 63 87 69 50 101 79 61 89 71 50
94 76 53 91 73 52 89 73 49 87 71 48
91 72 52 105 81 63 104 80 63 81 63 41
106 82 64 102 79 61 106 82 65 105 81 64
116 92 70 106 82 65 102 79 61 118 92 72
122 96 73 116 91 67 122 96 72 118 93 71
97 77 57 100 79 60 105 81 64 78 61 44
38 34 21 44 38 28 41 39 38 37 33 21
40 38 31 38 35 26 46 39 18 46 42 33
74 59 42 91 71 51 86 67 47 103 81 62
104 80 63 87 69 50 101 79 61 89 71 50
94 76 53 91 73 52 88 72 48 92 76 52
82 63 42 80 63 40 91 74 51 95 76 55
91 74 50 84 67 48 84 66 49 83 66 49
36 33 27 32 31 28 42 35 15 41 40 33
66 54 34 101 79 60 89 72 51 104 80 63
104 81 63 94 74 56 105 81 64 95 76 54
87 71 48 83 66 44 93 73 54 88 69 51
83 66 47 93 74 55 104 80 62 85 67 45
92 72 55 101 79 59 108 83 66 92 74 53
105 80 64 113 88 68 110 86 67 106 82 65
108 84 66 110 86 67 106 83 63 117 93 70
113 88 68 113 87 68 111 87 67 74 57 42
43 35 14 40 36 21 40 36 23 41 39 32
34 32 27 32 31 28 42 35 15 41 40 33
66 54 34 101 79 60 89 72 51 104 80 63
104 81 63 94 74 56 105 81 64 95 76 54
87 71 48 83 66 44 92 72 53 92 73 53
89 70 50 86 67 47 95 75 57 92 74 52
87 70 49 96 77 55 91 73 52 88 70 50
31 31 33 31 31 30 42 35 14 40 39 34
60 49 28 90 72 51 97 77 57 106 82 65
103 80 61 100 79 59 108 85 65 93 73 55
86 68 51 87 68 51 89 71 50 92 73 54
87 69 49 91 72 52 99 79 58 101 79 60
90 72 51 96 77 56 102 80 61 91 72 52
101 79 61 106 83 61 112 87 67 102 79 62
111 86 67 110 86 67 114 89 68 113 88 68
107 83 65 107 84 61 113 88 68 71 55 34
34 35 24 41 37 29 42 39 26 43 42 38
31 31 33 31 30 28 43 35 13 39 39 36
59 49 28 90 72 51 97 77 57 106 82 65
103 80 61 100 79 59 108 85 65 93 73 55
86 68 51 87 68 51 89 72 50 91 72 54
86 69 49 92 73 53 100 79 58 99 78 59
91 72 52 97 77 56 102 80 61 91 73 52
39 32 19 34 33 26 40 35 25 44 40 30
63 53 36 98 78 58 95 76 53 94 75 54
95 76 54 95 75 55 85 68 47 98 79 56
88 69 50 72 57 38 84 67 48 76 59 39
90 73 51 83 66 48 90 72 51 92 75 51
97 77 56 96 76 57 99 78 58 99 77 60
105 81 64 105 82 63 108 84 66 111 86 68
117 92 71 107 83 66 111 86 68 116 91 70
106 82 65 104 81 62 109 85 66 74 58 41
38 36 28 44 40 30 55 47 27 36 32 22
33 29 20 36 35 32 41 33 14 39 39 34
63 53 36 98 78 58 95 76 53 94 75 54
95 76 54 95 75 55 85 68 47 98 79 56
88 69 50 72 57 38 84 67 48 76 59 39
90 73 51 83 66 47 89 71 51 93 75 51
96 77 55 96 76 56 99 78 58 99 77 60
58 45 20 33 31 24 41 36 24 47 39 22
69 56 40 87 70 50 86 70 46 90 72 51
94 75 55 88 71 48 87 70 49 89 71 50
88 70 49 73 57 38 84 67 49 73 56 36
95 75 55 82 65 48 87 70 49 88 71 48
93 74 53 105 82 64 107 82 66 106 82 65
104 80 64 109 84 67 105 81 64 108 83 66
103 80 62 104 81 59 108 83 63 106 82 65
106 82 65 108 83 66 108 83 67 85 65 43
46 36 14 48 41 20 48 39 21 44 38 24
44 39 25 35 33 27 40 35 20 41 36 24
69 55 36 87 70 51 86 70 46 90 72 51
94 75 55 88 71 48 87 70 49 89 71 50
88 70 49 73 57 38 84 67 49 73 56 36
95 75 55 82 65 48 87 70 49 88 71 48
93 74 53 105 82 64 107 82 66 106 82 65
42 38 27 37 36 33 39 34 19 43 37 15
65 53 30 118 95 77 103 80 60 88 69 50
88 70 51 92 74 52 86 69 44 78 61 42
80 63 41 85 67 50 89 70 52 89 71 52
89 69 53 85 67 49 89 71 52 86 67 47
94 74 54 97 77 56 94 75 54 102 79 61
105 82 64 108 83 66 102 79 62 109 85 66
107 82 66 109 85 65 108 83 65 111 86 68
109 85 66 108 84 65 126 100 80 83 71 57
37 32 15 42 39 33 46 41 21 37 35 23
44 38 20 37 33 19 47 38 13 44 39 21
64 53 32 119 95 76 103 80 60 88 69 50
88 70 51 92 74 52 86 69 44 78 61 42
80 63 41 85 67 50 89 70 52 89 71 52
89 69 53 85 67 49 89 71 52 86 67 47
94 74 54 97 77 56 94 74 54 104 81 62
40 34 19 40 34 20 38 32 17 30 27 13
75 60 43 45 41 36 84 67 45 109 86 65
80 63 46 84 66 48 86 68 47 86 69 50
85 68 49 84 67 48 86 69 49 85 69 48
92 72 54 89 72 51 78 61 40 87 70 49
90 71 52 98 78 57 99 78 59 102 79 61
101 79 59 99 78 58 109 83 68 100 78 60
97 77 57 111 85 69 102 80 60 95 74 55
100 78 60 114 90 69 98 78 56 31 27 11
38 32 13 45 42 30 47 41 24 38 36 30
32 30 23 36 33 25 43 37 18 39 38 30
78 63 44 44 40 35 84 67 45 109 86 65
80 63 46 84 66 48 86 68 47 86 69 50
85 68 49 84 67 48 86 69 49 85 69 48
92 72 54 89 72 51 78 61 40 87 70 49
90 71 52 98 78 57 100 78 59 101 79 60
42 34 14 50 43 24 51 41 18 23 22 15
69 56 37 81 60 41 53 41 15 93 75 50
96 76 56 74 57 35 83 66 47 88 71 49
84 66 49 83 65 48 82 64 47 86 68 50
81 65 45 82 65 46 85 68 47 84 68 46
70 55 30 98 78 56 92 73 54 96 76 56
79 63 41 93 73 53 101 80 60 98 77 58
105 81 64 98 78 55 107 83 64 97 76 56
95 74 54 100 78 56 71 56 33 58 46 24
40 35 16 53 45 23 52 42 16 29 27 22
36 30 20 35 33 25 41 36 26 42 39 30
75 61 40 80 59 40 53 41 15 93 75 50
96 76 56 74 57 35 83 66 47 88 71 49
84 66 49 83 65 48 82 64 47 86 68 50
81 65 45 82 65 46 85 68 47 84 68 46
70 55 30 98 78 56 92 73 54 93 74 53
45 39 22 48 40 21 42 35 15 37 33 22
63 50 26 101 80 58 88 66 44 67 52 27
90 71 49 91 72 53 82 65 47 87 70 50
84 67 49 88 70 50 76 59 37 82 65 47
73 57 40 79 62 42 85 68 51 88 70 50
83 66 45 87 69 50 86 70 47 94 76 53
96 77 56 102 79 61 104 81 63 96 77 55
103 80 62 101 79 59 101 79 60 105 81 64
99 79 58 100 78 59 107 84 67 67 52 32
42 36 18 48 40 22 41 34 15 43 37 24
55 44 20 33 31 25 42 36 24 45 38 22
65 53 29 100 80 57 88 66 44 67 52 27
90 71 49 91 72 53 82 65 47 87 70 50
84 67 49 88 70 50 76 59 37 83 65 47
73 57 40 79 62 42 85 68 51 88 70 50
83 66 45 87 69 50 86 70 47 95 76 54
38 35 30 49 41 17 40 37 29 30 31 24
50 43 22 92 71 51 96 75 56 88 71 48
84 66 44 89 70 51 89 71 52 79 61 42
82 64 47 90 71 55 80 61 42 79 62 42
85 67 50 84 66 48 82 64 46 86 68 49
92 74 53 82 64 41 89 69 48 89 70 52
87 69 47 96 75 55 104 81 62 106 81 64
102 79 60 101 79 60 96 75 56 108 83 65
90 72 49 99 76 58 105 79 61 46 40 20
34 33 26 49 42 18 39 36 29 35 34 27
41 37 26 37 36 33 40 33 19 41 35 12
52 45 21 91 70 51 96 75 56 88 71 48
84 66 45 88 70 50 89 71 51 79 61 42
82 64 46 91 71 55 79 61 41 79 62 41
86 67 50 84 66 48 82 64 47 86 68 49
92 74 53 82 63 41 90 70 49 86 69 50
32 36 24 44 38 20 40 37 20 26 31 27
21 34 13 43 46 18 66 62 35 82 65 43
82 68 47 82 67 48 85 69 44 75 60 41
82 65 43 80 64 44 78 63 40 82 66 47
73 57 35 78 62 42 77 62 42 87 71 52
82 66 49 84 68 50 84 68 50 82 67 49
87 71 51 95 75 57 98 79 59 100 80 61
106 83 66 99 79 62 101 80 62 97 78 60
75 60 40 72 57 33 48 52 23 11 20 7
30 32 25 45 38 22 40 36 16 27 31 24
41 37 24 40 36 21 37 33 18 35 33 23
20 33 16 44 47 20 65 61 34 82 66 41
83 69 44 86 70 51 86 70 48 76 61 42
80 65 44 79 64 41 79 64 42 82 65 50
72 57 35 77 62 43 78 62 40 85 70 52
84 67 48 85 68 51 83 67 49 83 67 49
43 46 27 42 43 36 46 43 27 46 43 34
45 46 36 38 46 30 40 45 26 48 44 35
42 39 25 53 50 26 41 43 35 50 48 42
48 44 28 49 48 32 48 51 34 44 46 37
46 45 35 49 49 41 53 50 40 46 45 49
46 45 36 46 45 30 43 45 32 46 47 26
52 48 28 53 50 31 55 53 36 53 50 30
48 46 38 49 45 36 52 52 36 46 45 35
45 42 36 48 48 35 45 49 26 41 42 28
45 45 30 45 45 43 40 43 31 42 43 24
41 41 32 44 43 30 41 42 21 47 44 35
48 45 31 38 44 26 43 47 31 44 42 28
44 47 29 47 46 38 46 43 26 50 46 35
48 48 37 46 49 33 45 47 29 51 48 39
46 43 29 53 50 26 44 45 39 50 47 42
48 45 29 49 48 33 48 52 35 45 46 40
33 32 35 42 40 34 38 33 19 42 36 21
47 40 28 43 38 27 45 38 23 42 36 19
41 34 16 40 34 24 32 29 22 41 38 28
31 33 26 29 33 28 36 34 27 40 38 36
36 34 28 37 34 26 43 36 14 34 33 26
44 38 17 40 34 20 36 34 31 34 31 23
41 35 20 41 35 19 38 34 22 39 37 25
35 32 24 31 29 23 36 33 28 41 35 11
33 32 18 41 40 43 43 37 22 52 43 21
42 39 33 40 38 32 34 34 37 36 34 32
41 38 32 41 36 21 45 38 17 41 37 25
43 34 11 41 35 21 38 37 20 46 39 18
32 32 35 41 39 33 38 33 19 41 36 20
46 39 28 41 37 27 44 38 23 41 36 18
40 33 15 40 34 24 31 29 22 41 38 28
31 33 26 28 33 28 36 34 27 41 39 36
38 37 32 42 41 36 39 33 16 39 37 29
55 44 18 46 38 9 41 38 23 44 41 32
41 35 18 38 35 23 45 39 22 33 32 29
42 35 17 39 37 36 44 39 30 38 35 28
51 44 27 31 31 28 43 35 15 38 35 25
46 36 9 43 34 10 36 33 24 37 35 27
42 36 18 52 43 16 47 40 25 33 34 20
42 35 19 32 31 30 39 34 20 36 33 25
43 35 14 39 38 35 42 36 24 38 35 22
45 40 30 44 42 34 37 32 19 38 35 29
50 40 18 41 33 11 38 35 27 46 37 17
44 35 12 40 36 23 32 35 27 40 36 24
39 37 31 42 41 37 39 33 16 40 37 29
55 44 18 46 38 9 42 38 23 45 42 33
41 35 18 38 35 23 45 39 22 33 32 29
42 35 17 39 37 36 45 40 30 36 34 26
31 31 30 37 36 32 42 35 13 41 38 31
43 37 24 44 39 15 35 34 17 39 36 31
32 30 25 47 43 30 51 43 16 42 38 26
35 32 24 48 45 34 47 39 14 43 39 25
32 31 27 32 31 31 43 36 15 35 35 33
35 31 23 43 38 21 45 36 12 36 35 31
34 33 30 48 43 24 48 39 12 41 39 31
33 33 34 31 30 28 43 36 14 36 36 34
29 30 32 45 41 34 52 41 13 40 37 28
27 30 34 46 40 27 46 37 12 35 34 32
38 32 21 41 37 22 42 35 15 35 34 31
30 30 25 38 36 23 45 38 22 39 37 29
33 32 31 37 35 32 42 35 14 41 38 31
43 37 24 44 39 15 35 34 17 37 35 29
32 30 25 47 43 30 51 43 16 42 38 26
35 32 24 48 45 35 47 39 13 43 40 27
27 25 21 43 37 22 41 37 24 25 24 23
23 24 24 40 35 23 52 42 19 38 32 21
22 22 21 37 35 31 50 42 23 32 29 17
25 24 21 45 38 25 43 38 20 32 29 18
23 23 22 45 42 33 47 41 20 26 24 18
24 24 19 40 36 25 40 35 19 32 27 15
24 23 21 36 34 29 40 35 21 29 26 17
25 23 18 44 38 23 42 38 25 25 24 21
26 23 20 37 35 27 57 46 19 33 28 15
28 25 20 42 39 30 48 43 28 26 25 21
25 23 20 47 39 25 42 37 23 30 28 16
24 23 20 43 38 22 40 37 24 26 25 23
25 23 20 43 38 22 41 37 24 25 24 23
23 24 24 40 35 23 52 42 19 38 32 20
22 22 21 37 35 31 50 42 23 32 29 17
25 24 21 45 38 25 43 38 20 33 30 18
43 37 19 35 33 28 41 35 18 36 33 26
41 38 31 38 35 25 46 39 19 43 38 30
47 40 25 45 38 27 40 36 28 33 34 22
40 37 24 47 41 34 41 37 23 36 34 28
36 33 24 44 39 21 46 39 17 39 34 19
44 39 16 41 35 19 37 34 24 45 40 27
46 39 17 35 32 25 45 39 18 39 34 19
43 35 15 42 38 17 40 35 22 38 37 29
31 32 18 38 32 20 48 41 19 36 34 15
36 35 12 38 38 31 43 37 22 40 36 23
33 32 30 48 42 33 37 34 28 37 36 19
40 36 20 36 33 27 41 35 18 38 34 24
43 37 20 35 33 27 41 35 18 36 33 26
41 38 31 38 35 25 46 39 19 43 38 30
47 40 25 45 38 27 40 36 28 33 34 22
40 37 24 47 41 34 41 37 23 36 34 27
