P3
# Converted to P3 by scripts/convert_to_p3.py
64 64
255
24 24 24 24 24 24 41 32 8 24 16 8
24 16 8 24 16 8 24 16 8 24 24 24
24 16 8 24 16 8 24 16 8 24 16 8
24 24 24 24 16 8 24 24 24 24 16 8
24 16 8 24 16 8 24 24 24 24 16 8
24 24 24 24 16 8 41 32 8 24 24 24
41 32 8 24 16 8 24 24 24 24 16 8
24 16 8 41 32 8 24 16 8 24 24 24
24 24 24 24 24 24 41 32 8 24 16 8
24 16 8 24 16 8 24 16 8 24 24 24
24 16 8 24 16 8 24 24 24 24 24 24
24 16 8 24 24 24 24 16 8 24 24 24
16 32 8 24 16 8 24 24 24 24 24 24
24 24 24 24 16 8 24 16 8 24 16 8
24 16 8 16 32 8 24 24 24 24 24 24
24 16 8 24 24 24 24 24 24 16 16 16
24 24 24 41 41 41 41 41 41 41 41 41
49 41 16 49 41 16 41 41 41 41 41 41
41 41 41 41 32 8 41 41 41 49 41 16
49 41 16 41 41 41 41 32 8 41 41 41
41 32 8 41 41 41 49 41 16 49 41 16
41 41 41 41 41 41 41 41 41 41 32 8
41 41 41 49 41 16 49 41 16 41 41 41
41 32 8 41 41 41 41 32 8 41 41 41
41 32 8 41 41 41 49 41 16 49 41 16
41 41 41 41 41 41 41 41 41 41 32 8
41 41 41 49 41 16 49 41 16 41 41 41
41 32 8 41 41 41 41 32 8 41 41 41
49 41 16 49 41 16 41 41 41 41 41 41
41 41 41 41 32 8 41 41 41 49 41 16
49 41 16 41 41 41 41 32 8 41 41 41
41 32 8 41 32 8 49 41 16 24 24 24
24 16 8 49 41 16 41 41 41 41 41 41
49 41 16 41 41 41 49 41 16 41 41 41
41 41 41 49 41 16 41 32 8 49 41 16
49 41 16 41 32 8 41 32 8 49 41 16
49 41 16 41 41 41 49 41 16 41 41 41
49 41 16 41 41 41 41 41 41 49 41 16
41 32 8 49 41 16 49 41 16 41 32 8
41 32 8 49 41 16 49 41 16 41 41 41
41 32 8 41 41 41 49 41 16 41 41 41
49 41 16 41 41 41 41 41 41 49 41 16
41 32 8 49 41 16 49 41 16 41 32 8
41 32 8 49 41 16 49 41 16 41 41 41
49 41 16 41 41 41 49 41 16 41 41 41
41 41 41 49 41 16 41 32 8 49 41 16
49 41 16 41 32 8 41 32 8 49 41 16
49 41 16 49 41 16 41 41 41 24 24 24
24 16 8 41 41 41 41 41 41 49 41 16
41 32 8 49 41 16 41 32 8 49 41 16
49 49 49 41 41 41 49 41 16 41 41 41
41 32 8 41 41 41 41 32 8 41 32 8
16 32 8 49 41 16 41 32 8 49 41 16
41 32 8 49 41 16 49 49 49 41 41 41
49 41 16 41 41 41 41 32 8 41 41 41
41 32 8 41 32 8 16 32 8 41 41 41
41 32 8 49 41 16 41 32 8 49 41 16
41 32 8 49 41 16 49 49 49 41 41 41
49 41 16 41 41 41 41 32 8 41 41 41
41 32 8 41 32 8 16 32 8 49 41 16
41 32 8 49 41 16 41 32 8 49 41 16
49 49 49 41 41 41 49 41 16 41 41 41
41 32 8 41 41 41 41 32 8 41 32 8
16 32 8 41 41 41 16 32 8 24 16 8
24 16 8 41 41 41 49 49 49 49 49 49
74 49 24 41 32 8 41 41 41 24 24 24
0 0 0 0 0 0 24 24 24 41 41 41
41 32 8 49 41 16 41 41 41 41 41 41
57 41 16 49 41 16 41 32 8 24 24 24
0 0 0 0 0 0 24 24 24 49 41 16
49 41 16 41 32 8 49 41 16 49 41 16
49 41 16 49 49 49 41 41 41 24 24 24
0 0 0 0 0 0 24 24 24 41 41 41
74 49 24 49 41 16 41 41 41 41 41 41
49 49 49 49 41 16 41 41 41 24 24 24
0 0 0 0 0 0 24 24 24 41 41 41
41 32 8 41 32 8 49 41 16 41 32 8
41 32 8 41 41 41 24 24 24 0 0 0
0 0 0 24 24 24 49 41 16 49 41 16
74 49 24 41 41 41 41 41 41 24 16 8
16 32 8 49 41 16 49 49 49 41 41 41
74 49 24 41 41 41 41 41 41 0 0 0
24 24 24 41 41 41 0 0 0 41 41 41
41 32 8 49 41 16 41 41 41 49 41 16
49 41 16 49 41 16 49 41 16 0 0 0
41 41 41 24 24 24 0 0 0 41 41 41
49 41 16 41 41 41 41 41 41 41 41 41
49 41 16 41 32 8 41 41 41 0 0 0
24 24 24 41 41 41 0 0 0 41 41 41
49 49 49 41 41 41 41 41 41 49 41 16
74 49 24 49 41 16 41 41 41 0 0 0
41 41 41 24 24 24 0 0 0 49 41 16
41 32 8 49 41 16 41 32 8 41 32 8
41 41 41 41 41 41 0 0 0 24 24 24
41 41 41 0 0 0 49 41 16 49 41 16
74 49 24 49 41 16 41 41 41 24 24 24
24 16 8 49 49 49 41 41 41 41 41 41
41 41 41 41 41 41 49 41 16 24 24 24
49 49 49 57 57 57 24 24 24 49 41 16
41 41 41 41 41 41 41 41 41 41 41 41
57 41 16 41 41 41 49 41 16 24 24 24
49 49 49 57 57 57 24 24 24 41 32 8
41 32 8 41 41 41 41 41 41 41 41 41
41 32 8 41 41 41 41 41 41 24 24 24
49 49 49 57 57 57 24 24 24 41 41 41
41 41 41 49 41 16 41 41 41 49 49 49
41 41 41 41 41 41 41 41 41 24 24 24
49 49 49 57 57 57 24 24 24 49 41 16
49 41 16 49 41 16 41 32 8 41 41 41
49 41 16 41 41 41 24 24 24 49 49 49
57 57 57 24 24 24 41 41 41 41 32 8
41 41 41 49 41 16 49 41 16 24 16 8
24 16 8 49 49 49 49 49 49 49 41 16
49 41 16 49 41 16 49 41 16 49 49 49
41 41 41 41 41 41 49 49 49 41 41 41
49 41 16 49 41 16 49 41 16 49 41 16
57 41 16 41 41 41 49 49 49 41 41 41
49 41 16 49 49 49 41 41 41 49 41 16
41 32 8 49 41 16 74 49 24 41 32 8
41 41 41 41 41 41 49 41 16 49 49 49
41 41 41 16 32 8 49 49 49 16 32 8
41 41 41 49 41 16 41 41 41 49 49 49
41 41 41 41 32 8 49 49 49 41 32 8
49 41 16 49 41 16 41 41 41 41 41 41
41 41 41 49 41 16 49 41 16 41 41 41
49 49 49 41 32 8 41 41 41 49 41 16
49 41 16 49 49 49 49 41 16 49 41 16
49 41 16 49 41 16 41 32 8 24 24 24
24 16 8 49 49 49 49 41 16 49 41 16
49 49 49 49 41 16 49 41 16 49 41 16
41 32 8 49 49 49 41 41 41 41 32 8
41 41 41 41 32 8 41 32 8 41 41 41
41 41 41 49 41 16 49 49 49 41 41 41
49 41 16 41 41 41 49 41 16 49 41 16
41 41 41 41 32 8 49 41 16 49 41 16
41 41 41 41 41 41 49 49 49 41 32 8
41 41 41 49 41 16 41 41 41 49 41 16
49 49 49 49 49 49 41 41 41 41 41 41
49 41 16 16 32 8 49 49 49 41 41 41
49 41 16 49 49 49 41 41 41 41 41 41
49 49 49 41 32 8 41 41 41 49 41 16
41 41 41 41 41 41 41 41 41 49 41 16
41 32 8 41 32 8 41 32 8 49 41 16
49 49 49 41 41 41 41 41 41 24 24 24
24 16 8 49 49 49 49 41 16 49 41 16
41 32 8 49 41 16 49 41 16 41 41 41
41 41 41 41 32 8 41 32 8 41 41 41
49 41 16 16 32 8 49 41 16 16 32 8
41 41 41 49 49 49 49 49 49 41 41 41
41 32 8 49 41 16 41 41 41 41 41 41
49 41 16 49 49 49 41 41 41 49 41 16
49 49 49 49 41 16 49 41 16 49 41 16
49 41 16 49 41 16 49 41 16 41 32 8
49 49 49 41 32 8 49 41 16 49 41 16
49 41 16 49 41 16 49 41 16 41 32 8
41 32 8 41 32 8 41 32 8 41 41 41
41 41 41 49 41 16 41 41 41 41 41 41
41 41 41 41 41 41 41 41 41 41 41 41
49 41 16 41 41 41 49 41 16 41 32 8
41 41 41 41 32 8 49 41 16 24 16 8
16 32 8 49 41 16 49 41 16 49 41 16
49 41 16 41 32 8 49 41 16 16 32 8
41 41 41 49 41 16 41 32 8 41 32 8
41 41 41 41 32 8 41 41 41 41 32 8
41 41 41 49 41 16 41 41 41 41 41 41
41 32 8 41 41 41 41 41 41 49 41 16
16 32 8 49 41 16 41 41 41 49 41 16
49 41 16 41 41 41 49 41 16 49 41 16
41 32 8 49 41 16 49 41 16 49 41 16
74 49 24 49 41 16 49 41 16 41 32 8
16 32 8 41 32 8 41 32 8 41 32 8
41 41 41 41 32 8 49 41 16 41 41 41
41 41 41 41 32 8 41 41 41 41 41 41
49 41 16 41 41 41 41 41 41 49 41 16
49 41 16 49 41 16 41 41 41 49 41 16
41 41 41 41 41 41 41 41 41 24 24 24
24 16 8 41 41 41 49 41 16 49 41 16
41 41 41 41 32 8 49 49 49 49 49 49
49 49 49 49 49 49 74 49 24 49 49 49
57 41 16 74 49 24 57 41 16 49 49 49
74 49 24 49 49 49 49 49 49 49 49 49
74 49 24 74 49 24 49 49 49 74 49 24
57 41 16 49 49 49 74 49 24 74 49 24
49 49 49 49 49 49 74 49 24 74 49 24
74 49 24 49 49 49 57 41 16 74 49 24
57 41 16 49 49 49 74 49 24 74 49 24
49 49 49 57 41 16 49 49 49 74 49 24
57 41 16 74 49 24 49 49 49 74 49 24
74 49 24 49 49 49 49 49 49 74 49 24
74 49 24 74 49 24 57 57 57 49 49 49
49 49 49 49 49 49 49 49 49 49 41 16
41 41 41 49 41 16 49 41 16 16 32 8
24 16 8 41 41 41 49 41 16 49 41 16
74 49 24 41 41 41 49 49 49 57 57 57
57 57 57 65 65 65 65 65 65 82 57 41
82 57 41 65 65 65 82 57 41 65 65 65
65 65 65 82 57 41 82 57 41 82 57 41
82 57 41 82 57 41 82 57 41 65 65 65
82 57 41 65 65 65 82 57 41 82 57 41
90 74 49 65 65 65 82 57 41 82 57 41
82 57 41 65 65 65 82 57 41 82 57 41
90 74 49 82 57 41 65 65 65 82 57 41
82 57 41 82 57 41 65 65 65 65 65 65
65 65 65 82 57 41 82 57 41 82 57 41
65 65 65 82 57 41 82 57 41 65 65 65
65 65 65 82 57 41 65 65 65 65 65 65
57 57 57 57 57 57 49 49 49 41 41 41
49 41 16 49 41 16 49 41 16 24 24 24
24 16 8 49 41 16 49 41 16 49 41 16
74 49 24 41 41 41 49 49 49 57 57 57
24 16 8 16 16 16 24 16 8 24 24 24
41 32 8 24 16 8 24 16 8 24 16 8
24 24 24 24 16 8 24 16 8 24 16 8
24 24 24 24 16 8 24 24 24 24 16 8
24 16 8 24 24 24 24 24 24 24 16 8
41 32 8 24 24 24 24 24 24 16 32 8
24 24 24 24 16 8 24 24 24 24 24 24
24 16 8 24 24 24 24 16 8 24 24 24
24 24 24 24 16 8 41 32 8 24 16 8
24 16 8 24 24 24 24 24 24 24 24 24
24 24 24 24 16 8 41 32 8 24 16 8
24 16 8 24 24 24 24 24 24 24 16 8
24 16 8 57 57 57 49 49 49 49 41 16
41 41 41 49 41 16 49 41 16 24 16 8
24 24 24 41 41 41 49 41 16 49 41 16
49 41 16 41 32 8 49 49 49 65 65 65
24 16 8 49 41 16 49 41 16 49 41 16
41 41 41 49 41 16 49 41 16 49 41 16
49 41 16 49 41 16 41 32 8 24 24 24
24 24 24 41 41 41 41 41 41 49 41 16
41 41 41 41 41 41 49 49 49 41 41 41
49 41 16 41 41 41 49 41 16 41 32 8
41 41 41 49 41 16 41 41 41 74 49 24
41 41 41 41 41 41 74 49 24 49 49 49
41 41 41 49 41 16 74 49 24 24 24 24
24 24 24 41 41 41 41 41 41 49 49 49
41 41 41 49 41 16 74 49 24 41 41 41
49 49 49 41 41 41 41 41 41 49 41 16
16 16 16 65 65 65 49 49 49 49 41 16
41 41 41 41 41 41 49 41 16 24 24 24
24 16 8 49 41 16 49 49 49 49 41 16
49 41 16 49 49 49 74 49 24 82 57 41
16 16 16 49 41 16 49 41 16 41 32 8
49 41 16 49 41 16 49 41 16 49 49 49
41 41 41 49 41 16 24 24 24 0 0 0
0 0 0 24 24 24 41 41 41 49 41 16
41 41 41 41 41 41 41 32 8 41 41 41
49 49 49 41 41 41 74 49 24 49 41 16
41 41 41 41 41 41 49 49 49 49 41 16
41 41 41 41 41 41 41 32 8 49 49 49
41 41 41 49 41 16 24 24 24 0 0 0
0 0 0 24 24 24 41 41 41 49 41 16
49 41 16 49 41 16 41 41 41 49 41 16
49 41 16 49 41 16 74 49 24 49 41 16
24 16 8 82 57 41 49 49 49 41 41 41
41 32 8 49 41 16 49 41 16 24 24 24
24 24 24 49 49 49 74 49 24 49 41 16
49 41 16 49 41 16 74 49 24 65 65 65
16 16 16 41 41 41 49 41 16 41 41 41
41 41 41 41 41 41 49 41 16 41 41 41
16 32 8 49 41 16 0 0 0 41 41 41
24 24 24 0 0 0 49 41 16 49 41 16
41 41 41 49 41 16 49 41 16 41 32 8
41 41 41 41 41 41 49 49 49 41 41 41
41 41 41 49 41 16 74 49 24 49 41 16
41 41 41 41 41 41 41 32 8 41 41 41
16 32 8 49 41 16 0 0 0 41 41 41
24 24 24 0 0 0 49 41 16 49 41 16
41 41 41 41 41 41 41 32 8 49 41 16
49 41 16 49 41 16 74 49 24 41 41 41
24 16 8 82 57 41 49 49 49 49 41 16
41 41 41 41 41 41 41 41 41 24 24 24
24 24 24 49 49 49 41 41 41 49 41 16
41 41 41 49 41 16 74 49 24 65 65 65
16 16 16 41 32 8 41 32 8 41 41 41
41 41 41 41 41 41 41 32 8 16 32 8
49 41 16 74 49 24 24 24 24 90 90 90
57 57 57 24 24 24 41 41 41 41 41 41
41 41 41 49 49 49 41 41 41 41 41 41
41 41 41 41 41 41 41 41 41 49 41 16
41 41 41 49 49 49 41 41 41 41 41 41
41 41 41 41 41 41 49 41 16 16 32 8
49 41 16 74 49 24 24 24 24 90 90 90
57 57 57 24 24 24 41 41 41 41 41 41
41 41 41 41 41 41 41 32 8 41 41 41
41 41 41 41 32 8 41 41 41 41 41 41
24 16 8 65 65 65 57 57 57 41 41 41
49 41 16 41 32 8 41 41 41 24 24 24
24 16 8 41 41 41 57 41 16 49 41 16
41 41 41 41 41 41 49 49 49 65 65 65
16 16 16 49 41 16 41 32 8 49 41 16
74 49 24 57 65 41 57 57 57 57 65 41
57 65 41 57 65 41 49 41 16 57 57 57
49 49 49 41 41 41 57 65 41 57 65 41
57 57 57 57 57 57 57 57 57 57 57 57
57 57 57 57 57 57 57 57 57 57 65 41
57 57 57 57 57 57 57 57 57 57 65 41
57 57 57 57 65 41 57 65 41 57 65 41
57 65 41 57 65 41 49 41 16 57 57 57
49 49 49 41 41 41 57 65 41 57 65 41
57 57 57 57 65 41 57 65 41 57 57 57
57 65 41 49 41 16 49 41 16 49 41 16
24 16 8 82 57 41 57 41 16 49 49 49
49 41 16 41 32 8 49 41 16 16 32 8
24 16 8 41 41 41 49 49 49 49 41 16
49 41 16 41 41 41 74 49 24 65 65 65
16 16 16 49 41 16 49 41 16 41 32 8
49 41 16 57 65 41 57 65 41 65 65 65
65 65 65 65 65 65 57 65 41 65 65 65
65 65 65 65 65 65 90 74 49 57 65 41
65 65 65 65 65 65 57 65 41 65 65 65
65 65 65 65 65 65 90 74 49 57 65 41
65 65 65 65 65 65 65 65 65 57 65 41
65 65 65 65 65 65 57 65 41 57 65 41
65 65 65 65 65 65 57 65 41 57 65 41
57 65 41 57 65 41 57 65 41 65 65 65
57 65 41 57 65 41 65 65 65 57 65 41
57 65 41 49 41 16 57 41 16 49 41 16
24 16 8 65 65 65 57 41 16 41 41 41
41 41 41 41 32 8 41 32 8 24 16 8
24 16 8 74 49 24 49 49 49 49 41 16
41 41 41 41 41 41 49 49 49 65 65 65
16 16 16 41 41 41 41 41 41 41 41 41
49 41 16 57 65 41 65 65 65 115 90 74
98 98 98 98 98 98 115 90 74 115 90 74
98 98 98 98 98 98 98 98 98 98 98 98
98 98 98 115 90 74 115 90 74 115 90 74
98 98 98 98 98 98 98 98 98 98 98 98
98 98 98 115 90 74 98 98 98 115 90 74
98 98 98 98 98 98 115 90 74 115 90 74
98 98 98 115 90 74 115 90 74 115 90 74
115 90 74 115 90 74 98 98 98 98 98 98
98 98 98 90 90 90 74 74 74 65 65 65
74 57 32 41 41 41 74 49 24 41 41 41
24 16 8 82 57 41 74 49 24 49 41 16
41 41 41 41 41 41 41 32 8 24 24 24
24 16 8 74 49 24 41 41 41 49 41 16
41 41 41 41 41 41 49 49 49 65 65 65
16 16 16 74 49 24 41 41 41 49 41 16
41 32 8 57 65 41 57 65 41 98 98 98
213 213 213 213 213 213 156 156 156 74 74 74
106 106 106 98 98 98 156 156 156 213 213 213
213 213 213 213 213 213 156 156 156 74 74 74
106 106 106 98 98 98 156 156 156 213 213 213
213 213 213 213 213 213 156 156 156 98 98 98
106 106 106 74 74 74 156 156 156 213 213 213
213 213 213 213 213 213 156 156 156 98 98 98
106 106 106 74 74 74 156 156 156 213 213 213
213 213 213 213 213 213 98 98 98 65 65 65
57 57 57 41 32 8 41 41 41 74 49 24
24 16 8 82 57 41 57 41 16 49 49 49
41 32 8 49 41 16 41 41 41 24 24 24
24 16 8 41 41 41 41 41 41 49 41 16
74 49 24 41 41 41 49 49 49 90 74 49
16 16 16 74 49 24 49 41 16 41 41 41
41 41 41 57 65 41 57 65 41 98 98 98
238 238 238 238 238 238 139 139 139 49 49 49
74 74 74 57 57 57 139 139 139 238 238 238
238 238 238 238 238 238 139 139 139 49 49 49
65 65 65 57 57 57 139 139 139 238 238 238
238 238 238 238 238 238 139 139 139 57 57 57
74 74 74 49 49 49 139 139 139 238 238 238
238 238 238 238 238 238 139 139 139 57 57 57
74 74 74 49 49 49 139 139 139 238 238 238
238 238 238 238 238 238 98 98 98 65 65 65
57 57 57 41 41 41 41 41 41 74 49 24
24 16 8 82 57 41 57 41 16 41 41 41
41 41 41 41 41 41 49 41 16 24 24 24
16 32 8 41 41 41 49 49 49 49 41 16
41 41 41 49 41 16 57 57 57 65 65 65
16 16 16 74 57 32 41 41 41 41 32 8
41 41 41 57 65 41 65 65 65 115 90 74
238 238 238 238 238 238 139 139 139 49 49 49
74 74 74 57 57 57 139 139 139 238 238 238
238 238 238 238 238 238 139 139 139 49 49 49
65 65 65 65 65 65 139 139 139 238 238 238
238 238 238 238 238 238 139 139 139 57 57 57
74 74 74 49 49 49 139 139 139 238 238 238
238 238 238 238 238 238 139 139 139 57 57 57
74 74 74 49 49 49 139 139 139 238 238 238
238 238 238 238 238 238 115 90 74 90 74 49
57 65 41 41 41 41 41 41 41 74 57 32
24 16 8 65 65 65 49 49 49 49 41 16
16 32 8 41 32 8 49 49 49 24 16 8
24 16 8 49 49 49 49 49 49 49 41 16
49 41 16 49 41 16 74 49 24 65 65 65
16 16 16 74 57 32 41 41 41 41 41 41
41 41 41 57 65 41 57 65 41 98 98 98
238 238 238 238 238 238 139 139 139 49 49 49
74 74 74 57 57 57 139 139 139 238 238 238
238 238 238 238 238 238 139 139 139 49 49 49
65 65 65 57 57 57 139 139 139 238 238 238
238 238 238 238 238 238 139 139 139 57 57 57
74 74 74 49 49 49 139 139 139 238 238 238
238 238 238 238 238 238 139 139 139 57 57 57
74 74 74 49 49 49 139 139 139 238 238 238
238 238 238 238 238 238 98 98 98 65 65 65
57 65 41 41 41 41 41 41 41 74 57 32
24 16 8 65 65 65 74 49 24 49 41 16
41 41 41 49 41 16 41 32 8 24 24 24
24 16 8 49 49 49 41 41 41 49 41 16
49 49 49 49 41 16 74 49 24 82 57 41
24 16 8 74 49 24 49 41 16 41 41 41
41 41 41 57 65 41 57 65 41 98 98 98
238 238 238 238 238 238 139 139 139 49 49 49
74 74 74 57 57 57 139 139 139 238 238 238
238 238 238 238 238 238 139 139 139 49 49 49
74 74 74 65 65 65 139 139 139 238 238 238
238 238 238 238 238 238 139 139 139 82 57 41
90 74 49 49 49 49 139 139 139 238 238 238
238 238 238 238 238 238 139 139 139 57 57 57
74 74 74 41 41 41 139 139 139 238 238 238
238 238 238 238 238 238 98 98 98 65 65 65
57 57 57 57 41 16 41 41 41 74 49 24
24 16 8 82 57 41 57 41 16 49 41 16
49 49 49 49 41 16 49 41 16 24 16 8
16 32 8 49 41 16 49 49 49 49 41 16
49 41 16 49 41 16 74 49 24 65 65 65
16 16 16 74 57 32 49 41 16 41 41 41
41 41 41 57 65 41 57 65 41 98 98 98
238 238 238 238 238 238 139 139 139 49 49 49
74 74 74 57 57 57 139 139 139 238 238 238
238 238 238 238 238 238 139 139 139 49 49 49
74 74 74 65 65 65 139 139 139 238 238 238
238 238 238 238 238 238 139 139 139 57 57 57
90 74 49 49 49 49 139 139 139 238 238 238
238 238 238 238 238 238 139 139 139 57 57 57
74 74 74 49 49 49 139 139 139 238 238 238
238 238 238 238 238 238 98 98 98 65 65 65
57 65 41 49 41 16 49 41 16 74 57 32
24 16 8 65 65 65 74 49 24 49 41 16
49 41 16 49 41 16 41 41 41 24 24 24
24 16 8 41 41 41 49 49 49 41 41 41
41 41 41 41 41 41 74 49 24 90 74 49
16 16 16 74 49 24 41 41 41 57 41 16
41 41 41 57 65 41 57 65 41 115 90 74
238 238 238 238 238 238 139 139 139 74 49 24
90 74 49 57 57 57 139 139 139 238 238 238
238 238 238 238 238 238 139 139 139 49 49 49
74 74 74 65 65 65 139 139 139 238 238 238
238 238 238 238 238 238 139 139 139 57 57 57
74 74 74 49 49 49 139 139 139 238 238 238
238 238 238 238 238 238 139 139 139 57 57 57
74 74 74 49 49 49 139 139 139 238 238 238
238 238 238 238 238 238 115 90 74 90 74 49
57 57 57 57 41 16 49 41 16 74 49 24
24 16 8 65 65 65 49 49 49 41 32 8
41 41 41 41 41 41 41 41 41 24 16 8
24 16 8 41 41 41 41 41 41 41 41 41
74 49 24 41 41 41 49 49 49 82 57 41
16 16 16 57 57 57 49 41 16 49 41 16
49 41 16 57 65 41 57 65 41 98 98 98
238 238 238 238 238 238 139 139 139 49 49 49
90 74 49 57 57 57 139 139 139 238 238 238
238 238 238 238 238 238 139 139 139 74 49 24
90 74 49 65 65 65 139 139 139 238 238 238
238 238 238 238 238 238 139 139 139 57 57 57
74 74 74 49 49 49 139 139 139 238 238 238
238 238 238 238 238 238 139 139 139 57 57 57
74 74 74 49 49 49 139 139 139 238 238 238
238 238 238 238 238 238 98 98 98 65 65 65
57 65 41 49 41 16 41 41 41 57 57 57
24 16 8 82 57 41 74 49 24 49 41 16
74 49 24 41 41 41 16 32 8 24 16 8
24 16 8 49 41 16 41 41 41 49 49 49
74 49 24 41 32 8 49 49 49 57 57 57
16 16 16 57 57 57 49 41 16 41 41 41
41 41 41 57 57 57 65 65 65 115 90 74
238 238 238 238 238 238 139 139 139 49 49 49
74 74 74 57 57 57 139 139 139 238 238 238
238 238 238 238 238 238 139 139 139 49 49 49
90 74 49 57 57 57 139 139 139 238 238 238
238 238 238 238 238 238 139 139 139 90 74 49
90 74 49 74 49 24 139 139 139 238 238 238
238 238 238 238 238 238 139 139 139 57 57 57
74 74 74 49 49 49 139 139 139 238 238 238
238 238 238 238 238 238 115 90 74 65 65 65
57 57 57 41 41 41 41 32 8 57 57 57
24 16 8 82 57 41 74 49 24 49 41 16
74 49 24 49 41 16 41 41 41 24 24 24
24 24 24 41 41 41 41 41 41 74 49 24
49 41 16 41 32 8 74 49 24 57 57 57
16 16 16 57 57 57 41 32 8 49 41 16
41 41 41 57 65 41 65 65 65 90 90 90
238 238 238 238 238 238 139 139 139 49 49 49
74 74 74 57 57 57 139 139 139 238 238 238
238 238 238 238 238 238 139 139 139 57 57 57
65 65 65 82 57 41 139 139 139 238 238 238
238 238 238 238 238 238 139 139 139 90 74 49
74 74 74 57 57 57 139 139 139 238 238 238
238 238 238 238 238 238 139 139 139 82 57 41
90 74 49 49 49 49 139 139 139 238 238 238
238 238 238 238 238 238 90 90 90 65 65 65
57 57 57 49 49 49 41 41 41 57 57 57
24 16 8 82 57 41 74 49 24 49 41 16
49 41 16 41 32 8 49 41 16 24 24 24
24 16 8 49 41 16 49 49 49 41 41 41
49 41 16 49 41 16 74 49 24 65 65 65
24 16 8 82 57 41 41 41 41 41 41 41
41 32 8 57 57 57 57 65 41 115 90 74
238 238 238 238 238 238 139 139 139 74 49 24
90 74 49 82 57 41 139 139 139 238 238 238
238 238 238 238 238 238 139 139 139 49 49 49
74 74 74 57 57 57 139 139 139 238 238 238
238 238 238 238 238 238 139 139 139 57 57 57
90 74 49 49 49 49 139 139 139 238 238 238
238 238 238 238 238 238 139 139 139 57 57 57
90 74 49 49 49 49 139 139 139 238 238 238
238 238 238 238 238 238 115 90 74 65 65 65
57 57 57 41 41 41 41 41 41 82 57 41
24 16 8 82 57 41 57 57 57 49 41 16
49 41 16 49 41 16 49 41 16 24 24 24
24 24 24 49 49 49 74 49 24 49 41 16
49 41 16 49 41 16 74 49 24 65 65 65
8 8 8 74 57 32 41 41 41 49 49 49
41 41 41 57 57 57 65 65 65 98 98 98
238 238 238 238 238 238 139 139 139 74 49 24
74 74 74 65 65 65 139 139 139 238 238 238
238 238 238 238 238 238 139 139 139 74 49 24
90 74 49 57 57 57 139 139 139 238 238 238
238 238 238 238 238 238 139 139 139 57 57 57
65 65 65 49 49 49 139 139 139 238 238 238
238 238 238 238 238 238 139 139 139 57 57 57
74 74 74 49 49 49 139 139 139 238 238 238
238 238 238 238 238 238 98 98 98 57 65 41
57 65 41 41 32 8 41 41 41 74 57 32
24 16 8 57 65 41 49 49 49 41 41 41
41 32 8 41 41 41 41 41 41 24 24 24
24 24 24 49 49 49 41 41 41 41 41 41
41 41 41 41 41 41 74 49 24 82 57 41
24 16 8 74 49 24 41 41 41 41 41 41
41 41 41 74 57 32 57 65 41 98 98 98
238 238 238 238 238 238 139 139 139 49 49 49
90 74 49 57 57 57 139 139 139 238 238 238
238 238 238 238 238 238 139 139 139 49 49 49
74 74 74 57 57 57 139 139 139 238 238 238
238 238 238 238 238 238 139 139 139 57 57 57
65 65 65 57 57 57 139 139 139 238 238 238
238 238 238 238 238 238 139 139 139 57 57 57
74 74 74 49 49 49 139 139 139 238 238 238
238 238 238 238 238 238 98 98 98 65 65 65
57 57 57 49 41 16 41 41 41 74 49 24
24 16 8 82 57 41 74 49 24 41 41 41
41 41 41 49 41 16 41 32 8 24 24 24
24 16 8 41 41 41 74 49 24 74 49 24
41 41 41 41 41 41 74 49 24 57 65 41
16 16 16 74 49 24 49 41 16 41 32 8
41 41 41 57 65 41 57 65 41 115 90 74
238 238 238 238 238 238 139 139 139 49 49 49
65 65 65 57 57 57 139 139 139 238 238 238
238 238 238 238 238 238 139 139 139 74 49 24
74 74 74 57 57 57 139 139 139 238 238 238
238 238 238 238 238 238 139 139 139 57 57 57
90 74 49 74 49 24 139 139 139 238 238 238
238 238 238 238 238 238 139 139 139 90 74 49
90 74 49 74 49 24 139 139 139 238 238 238
238 238 238 238 238 238 115 90 74 65 65 65
57 57 57 41 32 8 41 41 41 74 49 24
24 16 8 65 65 65 49 49 49 41 41 41
49 41 16 41 32 8 49 41 16 24 16 8
24 16 8 41 41 41 49 49 49 41 41 41
49 41 16 41 41 41 74 49 24 65 65 65
16 16 16 74 49 24 41 41 41 49 41 16
41 41 41 57 65 41 57 65 41 98 98 98
238 238 238 238 238 238 139 139 139 49 49 49
65 65 65 65 65 65 139 139 139 238 238 238
238 238 238 238 238 238 139 139 139 49 49 49
74 74 74 57 57 57 139 139 139 238 238 238
238 238 238 238 238 238 139 139 139 57 57 57
90 74 49 74 49 24 139 139 139 238 238 238
238 238 238 238 238 238 139 139 139 90 74 49
74 74 74 57 57 57 139 139 139 238 238 238
238 238 238 238 238 238 98 98 98 57 65 41
57 57 57 49 41 16 41 32 8 74 49 24
24 16 8 82 57 41 57 41 16 41 41 41
49 41 16 49 41 16 41 41 41 16 16 16
24 16 8 74 49 24 49 49 49 41 41 41
41 41 41 41 41 41 49 49 49 65 65 65
24 16 8 74 57 32 41 41 41 41 32 8
41 41 41 57 65 41 57 65 41 98 98 98
238 238 238 238 238 238 139 139 139 49 49 49
90 74 49 90 74 49 139 139 139 238 238 238
238 238 238 238 238 238 139 139 139 49 49 49
74 74 74 57 57 57 139 139 139 238 238 238
238 238 238 238 238 238 139 139 139 82 57 41
90 74 49 74 49 24 139 139 139 238 238 238
238 238 238 238 238 238 139 139 139 57 57 57
90 74 49 49 49 49 139 139 139 238 238 238
238 238 238 238 238 238 98 98 98 65 65 65
57 65 41 41 41 41 41 41 41 74 57 32
24 16 8 82 57 41 57 41 16 41 41 41
49 41 16 41 41 41 49 41 16 24 24 24
24 16 8 74 49 24 49 41 16 41 41 41
41 41 41 41 41 41 49 49 49 65 65 65
16 16 16 74 49 24 41 41 41 49 41 16
41 32 8 57 65 41 57 65 41 98 98 98
238 238 238 238 238 238 139 139 139 49 49 49
90 74 49 90 74 49 139 139 139 238 238 238
238 238 238 238 238 238 139 139 139 74 49 24
90 74 49 57 57 57 139 139 139 238 238 238
238 238 238 238 238 238 139 139 139 57 57 57
65 65 65 49 49 49 139 139 139 238 238 238
238 238 238 238 238 238 139 139 139 57 57 57
65 65 65 49 49 49 139 139 139 238 238 238
238 238 238 238 238 238 98 98 98 65 65 65
57 57 57 41 32 8 41 41 41 74 49 24
24 16 8 82 57 41 49 49 49 49 41 16
41 32 8 49 41 16 41 32 8 24 16 8
24 16 8 41 41 41 49 41 16 41 41 41
74 49 24 41 41 41 49 49 49 90 74 49
16 16 16 74 49 24 49 41 16 41 41 41
41 41 41 57 65 41 57 65 41 98 98 98
238 238 238 238 238 238 139 139 139 74 49 24
90 74 49 82 57 41 139 139 139 238 238 238
238 238 238 238 238 238 139 139 139 74 49 24
90 74 49 57 57 57 139 139 139 238 238 238
238 238 238 238 238 238 139 139 139 57 57 57
65 65 65 49 49 49 139 139 139 238 238 238
238 238 238 238 238 238 139 139 139 57 57 57
65 65 65 57 57 57 139 139 139 238 238 238
238 238 238 238 238 238 98 98 98 65 65 65
57 57 57 41 41 41 41 41 41 74 49 24
24 16 8 82 57 41 49 49 49 49 41 16
41 41 41 49 41 16 49 41 16 24 16 8
16 32 8 41 41 41 49 41 16 49 49 49
41 41 41 49 41 16 57 57 57 82 57 41
16 16 16 74 57 32 41 41 41 41 32 8
41 41 41 57 65 41 65 65 65 115 90 74
238 238 238 238 238 238 139 139 139 49 49 49
65 65 65 57 57 57 139 139 139 238 238 238
238 238 238 238 238 238 139 139 139 74 49 24
90 74 49 82 57 41 139 139 139 238 238 238
238 238 238 238 238 238 139 139 139 65 65 65
74 74 74 57 57 57 139 139 139 238 238 238
238 238 238 238 238 238 139 139 139 57 57 57
90 74 49 74 49 24 139 139 139 238 238 238
238 238 238 238 238 238 115 90 74 90 74 49
57 65 41 41 41 41 41 41 41 74 57 32
24 16 8 82 57 41 49 49 49 41 41 41
41 32 8 49 41 16 49 41 16 24 24 24
24 16 8 49 49 49 49 41 16 49 41 16
49 41 16 49 41 16 74 49 24 65 65 65
16 16 16 74 57 32 41 41 41 41 41 41
41 41 41 57 65 41 57 65 41 98 98 98
238 238 238 238 238 238 139 139 139 49 49 49
65 65 65 57 57 57 139 139 139 238 238 238
238 238 238 238 238 238 139 139 139 49 49 49
74 74 74 57 57 57 139 139 139 238 238 238
238 238 238 238 238 238 139 139 139 82 57 41
74 74 74 49 49 49 139 139 139 238 238 238
238 238 238 238 238 238 139 139 139 57 57 57
90 74 49 74 49 24 139 139 139 238 238 238
238 238 238 238 238 238 98 98 98 65 65 65
57 65 41 41 41 41 41 41 41 74 57 32
24 16 8 65 65 65 57 41 16 41 41 41
41 41 41 41 41 41 41 41 41 24 24 24
24 16 8 49 49 49 49 41 16 49 41 16
41 32 8 49 41 16 74 49 24 65 65 65
24 16 8 74 49 24 49 41 16 41 41 41
41 41 41 57 65 41 57 65 41 98 98 98
238 238 238 238 238 238 139 139 139 57 57 57
74 74 74 65 65 65 139 139 139 238 238 238
238 238 238 238 238 238 139 139 139 49 49 49
74 74 74 57 57 57 139 139 139 238 238 238
238 238 238 238 238 238 139 139 139 82 57 41
65 65 65 49 49 49 139 139 139 238 238 238
238 238 238 238 238 238 139 139 139 82 57 41
90 74 49 74 49 24 139 139 139 238 238 238
238 238 238 238 238 238 98 98 98 65 65 65
57 57 57 57 41 16 41 41 41 74 49 24
24 16 8 65 65 65 74 49 24 41 32 8
41 41 41 41 32 8 49 41 16 24 16 8
16 32 8 49 41 16 49 41 16 49 41 16
49 41 16 41 32 8 74 49 24 57 65 41
16 16 16 74 57 32 49 41 16 41 41 41
41 41 41 57 65 41 57 65 41 98 98 98
238 238 238 238 238 238 139 139 139 74 49 24
74 74 74 57 57 57 139 139 139 238 238 238
238 238 238 238 238 238 139 139 139 49 49 49
74 74 74 65 65 65 139 139 139 238 238 238
238 238 238 238 238 238 139 139 139 82 57 41
65 65 65 57 57 57 139 139 139 238 238 238
238 238 238 238 238 238 139 139 139 57 57 57
65 65 65 49 49 49 139 139 139 238 238 238
238 238 238 238 238 238 98 98 98 65 65 65
57 65 41 49 41 16 49 41 16 74 57 32
24 16 8 82 57 41 49 49 49 49 41 16
41 41 41 41 41 41 41 41 41 24 24 24
24 16 8 41 41 41 49 41 16 49 41 16
41 41 41 41 32 8 74 49 24 82 57 41
16 16 16 74 49 24 41 41 41 57 41 16
41 41 41 57 65 41 57 65 41 115 90 74
238 238 238 238 238 238 139 139 139 74 49 24
65 65 65 57 57 57 139 139 139 238 238 238
238 238 238 238 238 238 139 139 139 49 49 49
74 74 74 57 57 57 139 139 139 238 238 238
238 238 238 238 238 238 139 139 139 57 57 57
90 74 49 49 49 49 139 139 139 238 238 238
238 238 238 238 238 238 139 139 139 57 57 57
65 65 65 49 49 49 139 139 139 238 238 238
238 238 238 238 238 238 115 90 74 90 74 49
57 57 57 57 41 16 49 41 16 74 49 24
24 16 8 65 65 65 49 49 49 49 41 16
41 41 41 49 41 16 49 41 16 16 32 8
24 16 8 41 41 41 74 49 24 49 41 16
74 49 24 41 41 41 49 49 49 82 57 41
16 16 16 57 57 57 49 41 16 49 41 16
49 41 16 57 65 41 57 65 41 98 98 98
238 238 238 238 238 238 139 139 139 74 49 24
65 65 65 65 65 65 139 139 139 238 238 238
238 238 238 238 238 238 139 139 139 49 49 49
90 74 49 65 65 65 139 139 139 238 238 238
238 238 238 238 238 238 139 139 139 57 57 57
74 74 74 49 49 49 139 139 139 238 238 238
238 238 238 238 238 238 139 139 139 65 65 65
74 74 74 57 57 57 139 139 139 238 238 238
238 238 238 238 238 238 98 98 98 65 65 65
57 65 41 49 41 16 41 41 41 57 57 57
24 16 8 90 74 49 49 49 49 41 41 41
49 41 16 49 41 16 49 41 16 24 24 24
24 16 8 49 41 16 74 49 24 49 41 16
74 49 24 41 41 41 57 41 16 82 57 41
24 16 8 74 49 24 41 41 41 57 41 16
49 41 16 57 65 41 57 65 41 98 98 98
213 213 213 213 213 213 156 156 156 74 74 74
131 106 82 98 98 98 156 156 156 213 213 213
213 213 213 213 213 213 156 156 156 74 74 74
106 106 106 98 98 98 156 156 156 213 213 213
213 213 213 213 213 213 156 156 156 98 98 98
106 106 106 74 74 74 156 156 156 213 213 213
213 213 213 213 213 213 156 156 156 98 98 98
106 106 106 74 74 74 156 156 156 213 213 213
213 213 213 213 213 213 98 98 98 65 65 65
57 57 57 41 41 41 41 41 41 74 49 24
24 16 8 82 57 41 74 49 24 49 41 16
41 41 41 49 41 16 49 41 16 24 16 8
24 24 24 41 41 41 74 49 24 49 41 16
49 41 16 41 32 8 57 41 16 82 57 41
16 16 16 57 41 16 41 41 41 41 41 41
41 41 41 57 65 41 57 65 41 90 90 90
115 90 74 98 98 98 98 98 98 115 90 74
115 90 74 98 98 98 98 98 98 98 98 98
98 98 98 98 98 98 115 90 74 115 90 74
115 90 74 98 98 98 98 98 98 98 98 98
98 98 98 98 98 98 115 90 74 90 90 90
115 90 74 98 98 98 98 98 98 98 98 98
98 98 98 98 98 98 115 90 74 115 90 74
115 90 74 115 90 74 115 90 74 98 98 98
98 98 98 98 98 98 90 90 90 65 65 65
57 57 57 57 41 16 41 41 41 74 49 24
24 16 8 65 65 65 74 49 24 49 41 16
41 41 41 41 41 41 49 41 16 24 24 24
24 16 8 49 41 16 57 57 57 49 41 16
49 41 16 49 49 49 74 49 24 82 57 41
16 16 16 41 41 41 49 41 16 49 41 16
41 32 8 57 65 41 57 65 41 57 65 41
65 65 65 65 65 65 65 65 65 57 65 41
65 65 65 65 65 65 65 65 65 90 74 49
57 65 41 65 65 65 65 65 65 57 65 41
65 65 65 65 65 65 65 65 65 90 74 49
57 65 41 65 65 65 65 65 65 65 65 65
57 65 41 65 65 65 65 65 65 57 65 41
57 65 41 65 65 65 65 65 65 57 65 41
57 65 41 57 65 41 57 65 41 57 65 41
65 65 65 57 65 41 57 65 41 65 65 65
57 65 41 49 41 16 49 41 16 57 41 16
24 16 8 82 57 41 49 49 49 41 41 41
41 32 8 49 41 16 49 41 16 24 24 24
24 24 24 49 49 49 74 57 32 49 41 16
49 41 16 49 41 16 74 49 24 65 65 65
16 16 16 41 41 41 49 41 16 41 32 8
49 41 16 74 49 24 57 65 41 57 57 57
57 65 41 57 65 41 57 65 41 49 41 16
57 57 57 49 49 49 41 41 41 57 65 41
57 65 41 57 57 57 57 57 57 57 57 57
41 41 41 57 57 57 41 41 41 57 57 57
57 65 41 57 57 57 57 57 57 57 57 57
57 65 41 57 57 57 57 65 41 57 65 41
57 65 41 57 65 41 57 65 41 49 41 16
57 57 57 49 49 49 57 57 57 57 65 41
57 65 41 57 57 57 57 65 41 57 65 41
57 57 57 49 41 16 49 41 16 49 41 16
24 16 8 82 57 41 49 49 49 49 41 16
41 41 41 41 41 41 41 41 41 24 24 24
24 24 24 49 49 49 49 49 49 49 41 16
41 41 41 49 41 16 74 49 24 65 65 65
8 8 8 49 41 16 41 32 8 41 32 8
41 41 41 41 41 41 41 41 41 41 32 8
16 32 8 49 41 16 74 49 24 24 24 24
90 90 90 57 57 57 24 24 24 41 41 41
41 41 41 41 41 41 49 49 49 41 41 41
41 41 41 41 41 41 41 41 41 41 41 41
49 41 16 41 41 41 49 49 49 41 41 41
41 41 41 41 41 41 41 41 41 49 41 16
16 32 8 49 41 16 74 49 24 24 24 24
90 90 90 57 57 57 24 24 24 41 41 41
41 41 41 41 41 41 41 41 41 41 32 8
41 41 41 41 41 41 41 32 8 41 41 41
24 16 8 65 65 65 57 57 57 41 41 41
49 41 16 41 32 8 41 41 41 24 24 24
24 16 8 41 41 41 74 49 24 49 41 16
41 41 41 41 41 41 49 49 49 65 65 65
24 16 8 49 49 49 41 41 41 49 41 16
41 41 41 41 41 41 41 41 41 49 41 16
41 41 41 16 32 8 49 41 16 0 0 0
41 41 41 24 24 24 0 0 0 49 41 16
49 41 16 41 41 41 49 41 16 49 41 16
41 32 8 41 41 41 41 41 41 49 49 49
41 41 41 41 41 41 49 41 16 74 49 24
49 41 16 41 41 41 41 41 41 41 32 8
41 41 41 16 32 8 49 41 16 0 0 0
41 41 41 24 24 24 0 0 0 49 41 16
49 41 16 41 41 41 41 41 41 41 32 8
49 41 16 49 41 16 49 41 16 74 49 24
24 16 8 82 57 41 57 41 16 49 49 49
49 41 16 41 32 8 49 41 16 16 32 8
24 16 8 41 41 41 57 57 57 49 41 16
49 41 16 41 41 41 74 49 24 65 65 65
24 16 8 49 49 49 49 41 16 49 41 16
41 32 8 49 41 16 49 41 16 49 41 16
49 49 49 41 41 41 49 41 16 24 24 24
0 0 0 0 0 0 24 24 24 41 41 41
49 41 16 41 41 41 41 41 41 41 32 8
41 41 41 49 49 49 41 41 41 74 49 24
49 41 16 41 41 41 41 41 41 49 49 49
49 41 16 41 41 41 41 41 41 41 32 8
49 49 49 41 41 41 49 41 16 24 24 24
0 0 0 0 0 0 24 24 24 41 41 41
49 41 16 49 41 16 49 41 16 41 41 41
49 41 16 49 41 16 49 41 16 74 49 24
24 16 8 65 65 65 57 41 16 41 41 41
41 41 41 41 32 8 41 32 8 24 16 8
24 16 8 74 49 24 57 57 57 49 41 16
41 41 41 41 41 41 49 49 49 65 65 65
16 16 16 49 41 16 41 32 8 49 41 16
49 41 16 41 41 41 49 41 16 49 41 16
49 41 16 49 41 16 49 41 16 41 32 8
24 24 24 24 24 24 41 41 41 41 41 41
49 41 16 41 41 41 41 41 41 49 49 49
41 41 41 49 41 16 41 41 41 49 41 16
41 32 8 41 41 41 49 41 16 41 41 41
74 49 24 41 41 41 41 41 41 74 49 24
49 49 49 41 41 41 49 41 16 74 49 24
24 24 24 24 24 24 41 41 41 41 41 41
49 49 49 41 41 41 49 41 16 74 49 24
41 41 41 49 49 49 41 41 41 49 41 16
24 16 8 65 65 65 49 49 49 49 41 16
41 41 41 41 41 41 41 32 8 24 24 24
24 16 8 74 49 24 49 49 49 49 41 16
41 41 41 41 41 41 49 49 49 57 57 57
24 16 8 24 16 8 24 16 8 24 16 8
24 24 24 41 32 8 24 16 8 24 16 8
24 16 8 24 24 24 24 16 8 24 16 8
24 16 8 24 24 24 24 16 8 24 24 24
24 16 8 24 16 8 24 24 24 24 24 24
24 16 8 41 32 8 24 24 24 24 24 24
16 32 8 24 24 24 24 16 8 24 24 24
24 24 24 24 16 8 24 24 24 24 16 8
24 24 24 24 24 24 24 16 8 41 32 8
24 16 8 24 16 8 24 24 24 24 24 24
24 24 24 24 24 24 24 16 8 41 32 8
24 16 8 24 16 8 24 24 24 16 16 16
24 16 8 57 57 57 49 49 49 49 49 49
41 32 8 49 41 16 41 41 41 24 24 24
24 16 8 41 41 41 41 41 41 49 41 16
74 49 24 41 41 41 49 49 49 57 57 57
57 57 57 65 65 65 65 65 65 65 65 65
65 65 65 65 65 65 82 57 41 82 57 41
57 57 57 65 65 65 82 57 41 57 57 57
82 57 41 65 65 65 82 57 41 65 65 65
82 57 41 65 65 65 57 65 41 65 65 65
82 57 41 82 57 41 82 57 41 82 57 41
82 57 41 65 65 65 90 74 49 65 65 65
65 65 65 82 57 41 65 65 65 90 74 49
65 65 65 65 65 65 65 65 65 82 57 41
82 57 41 65 65 65 82 57 41 82 57 41
82 57 41 65 65 65 57 57 57 65 65 65
82 57 41 65 65 65 65 65 65 65 65 65
57 57 57 57 57 57 49 49 49 41 41 41
41 41 41 41 41 41 49 41 16 24 24 24
16 32 8 41 41 41 49 49 49 49 41 16
41 41 41 49 41 16 49 49 49 49 49 49
49 49 49 49 49 49 74 49 24 74 49 24
57 57 57 49 49 49 49 49 49 49 49 49
74 49 24 74 49 24 74 49 24 49 49 49
74 49 24 49 49 49 74 49 24 49 49 49
57 41 16 49 49 49 74 49 24 49 49 49
74 49 24 74 49 24 49 49 49 74 49 24
49 49 49 74 49 24 57 57 57 49 49 49
49 49 49 49 49 49 57 41 16 49 49 49
49 49 49 74 57 32 74 49 24 74 49 24
74 49 24 49 49 49 57 57 57 49 49 49
57 41 16 57 41 16 74 49 24 49 49 49
74 49 24 49 49 49 74 49 24 49 49 49
49 49 49 49 49 49 49 49 49 49 41 16
16 32 8 41 32 8 49 49 49 24 16 8
24 16 8 49 49 49 49 49 49 49 41 16
49 49 49 49 41 16 49 41 16 49 41 16
41 32 8 49 49 49 41 41 41 41 32 8
41 41 41 41 32 8 41 32 8 41 41 41
41 41 41 49 41 16 49 49 49 41 41 41
49 41 16 41 41 41 49 41 16 49 41 16
41 41 41 41 32 8 49 41 16 49 41 16
41 41 41 41 41 41 49 49 49 41 32 8
41 41 41 49 41 16 41 41 41 49 41 16
49 49 49 49 49 49 41 41 41 41 41 41
49 41 16 16 32 8 49 49 49 41 41 41
49 41 16 49 49 49 41 41 41 41 41 41
49 49 49 41 32 8 41 41 41 49 41 16
41 41 41 41 41 41 41 41 41 49 41 16
41 32 8 41 32 8 41 32 8 49 41 16
49 49 49 49 41 16 41 32 8 24 24 24
24 16 8 49 49 49 41 41 41 49 41 16
49 41 16 49 41 16 49 41 16 49 49 49
41 41 41 41 41 41 49 49 49 41 41 41
49 41 16 49 41 16 49 41 16 49 41 16
57 41 16 41 41 41 49 49 49 41 41 41
49 41 16 49 49 49 41 41 41 49 41 16
41 32 8 49 41 16 74 49 24 41 32 8
41 41 41 41 41 41 49 41 16 49 49 49
41 41 41 16 32 8 49 49 49 16 32 8
41 41 41 49 41 16 41 41 41 49 49 49
41 41 41 41 32 8 49 49 49 41 32 8
49 41 16 49 41 16 41 41 41 41 41 41
41 41 41 49 41 16 49 41 16 41 41 41
49 49 49 41 32 8 41 41 41 49 41 16
49 41 16 49 49 49 49 41 16 49 41 16
49 41 16 49 41 16 49 41 16 24 16 8
16 32 8 49 41 16 49 49 49 41 41 41
41 41 41 41 41 41 49 41 16 24 24 24
49 49 49 57 57 57 24 24 24 49 41 16
41 41 41 41 41 41 41 41 41 41 41 41
57 41 16 41 41 41 49 41 16 24 24 24
49 49 49 57 57 57 24 24 24 41 32 8
41 32 8 41 41 41 41 41 41 41 41 41
41 32 8 41 41 41 41 41 41 24 24 24
49 49 49 57 57 57 24 24 24 41 41 41
41 41 41 49 41 16 41 41 41 49 49 49
41 41 41 41 41 41 41 41 41 24 24 24
49 49 49 57 57 57 24 24 24 49 41 16
49 41 16 49 41 16 41 32 8 41 41 41
49 41 16 41 41 41 24 24 24 49 49 49
57 57 57 24 24 24 41 41 41 41 32 8
41 41 41 49 41 16 41 41 41 24 24 24
24 16 8 41 41 41 49 49 49 41 41 41
74 49 24 41 41 41 41 41 41 0 0 0
24 24 24 41 41 41 0 0 0 41 41 41
41 32 8 49 41 16 41 41 41 49 41 16
49 41 16 49 41 16 49 41 16 0 0 0
41 41 41 24 24 24 0 0 0 41 41 41
49 41 16 41 41 41 41 41 41 41 41 41
49 41 16 41 32 8 41 41 41 0 0 0
24 24 24 41 41 41 0 0 0 41 41 41
49 49 49 41 41 41 41 41 41 49 41 16
74 49 24 49 41 16 41 41 41 0 0 0
41 41 41 24 24 24 0 0 0 49 41 16
41 32 8 49 41 16 41 32 8 41 32 8
41 41 41 41 41 41 0 0 0 24 24 24
41 41 41 0 0 0 49 41 16 49 41 16
74 49 24 41 41 41 41 41 41 24 16 8
24 16 8 41 41 41 41 41 41 49 49 49
74 49 24 41 32 8 41 41 41 24 24 24
0 0 0 0 0 0 24 24 24 41 41 41
41 32 8 49 41 16 41 41 41 41 41 41
57 41 16 49 41 16 41 32 8 24 24 24
0 0 0 0 0 0 24 24 24 49 41 16
49 41 16 41 32 8 49 41 16 49 41 16
49 41 16 49 49 49 41 41 41 24 24 24
0 0 0 0 0 0 24 24 24 41 41 41
74 49 24 49 41 16 41 41 41 41 41 41
49 49 49 49 41 16 41 41 41 24 24 24
0 0 0 0 0 0 24 24 24 41 41 41
41 32 8 41 32 8 49 41 16 41 32 8
41 32 8 41 41 41 24 24 24 0 0 0
0 0 0 24 24 24 49 41 16 49 41 16
74 49 24 41 41 41 16 32 8 24 16 8
24 16 8 49 41 16 41 41 41 74 49 24
49 41 16 41 32 8 49 41 16 41 41 41
41 41 41 41 41 41 49 49 49 41 41 41
41 32 8 49 41 16 41 41 41 49 41 16
57 41 16 49 41 16 49 41 16 49 41 16
16 32 8 49 41 16 41 32 8 41 41 41
41 41 41 41 32 8 41 41 41 49 41 16
49 41 16 41 32 8 49 41 16 41 41 41
41 32 8 49 41 16 49 41 16 49 49 49
49 41 16 41 32 8 41 41 41 49 41 16
41 32 8 41 41 41 41 41 41 41 41 41
41 32 8 49 41 16 41 41 41 41 41 41
41 32 8 49 41 16 41 41 41 49 41 16
49 41 16 49 41 16 41 41 41 41 41 41
41 41 41 49 41 16 49 41 16 49 41 16
49 41 16 49 41 16 41 41 41 24 24 24
24 24 24 41 41 41 41 41 41 74 49 24
49 41 16 41 32 8 49 41 16 41 41 41
41 41 41 41 41 41 49 49 49 41 41 41
41 32 8 49 41 16 41 41 41 49 41 16
57 41 16 49 41 16 49 41 16 49 41 16
16 32 8 49 41 16 41 32 8 41 41 41
41 41 41 41 32 8 41 41 41 49 41 16
49 41 16 41 32 8 49 41 16 41 41 41
41 32 8 49 41 16 49 41 16 49 49 49
49 41 16 41 32 8 41 41 41 49 41 16
41 32 8 41 41 41 41 41 41 41 41 41
41 32 8 49 41 16 41 41 41 41 41 41
41 32 8 49 41 16 41 41 41 49 41 16
49 41 16 49 41 16 41 41 41 41 41 41
41 41 41 49 41 16 49 41 16 49 41 16
49 41 16 41 32 8 49 41 16 24 24 24
24 16 8 24 16 8 24 24 24 24 24 24
24 16 8 24 16 8 24 16 8 24 24 24
24 24 24 24 16 8 24 24 24 24 24 24
24 16 8 24 16 8 24 24 24 24 24 24
41 32 8 24 24 24 24 16 8 24 16 8
24 16 8 24 24 24 24 24 24 24 24 24
24 16 8 24 24 24 24 24 24 24 24 24
24 16 8 24 16 8 24 16 8 24 24 24
24 16 8 24 16 8 24 24 24 24 24 24
24 16 8 24 16 8 24 16 8 24 24 24
24 24 24 24 16 8 24 24 24 24 24 24
24 16 8 24 16 8 24 24 24 24 24 24
24 16 8 24 16 8 24 16 8 24 16 8
24 16 8 24 16 8 24 24 24 24 24 24
24 16 8 24 16 8 24 24 24 24 16 8
24 16 8 24 16 8 24 16 8 24 24 24
