P3
# Converted to P3 by scripts/convert_to_p3.py
64 64
255
131 106 74 90 65 32 106 82 65 41 32 8
41 32 8 131 106 74 90 65 41 123 98 74
131 106 82 106 82 65 123 98 74 123 98 74
123 98 74 123 98 74 131 106 74 131 106 74
123 98 74 139 115 82 106 82 65 123 98 74
123 98 74 123 98 74 123 98 74 123 98 74
131 106 82 131 106 82 123 98 74 148 123 98
123 98 74 131 106 74 131 106 74 123 98 74
131 106 82 123 98 74 139 115 82 139 115 82
131 106 74 123 98 74 131 106 74 131 106 74
123 98 74 139 115 82 131 106 74 131 106 74
123 98 74 131 106 74 131 106 74 131 106 74
131 106 74 148 123 98 148 123 98 139 115 82
131 106 74 139 115 82 123 98 74 131 106 74
123 98 74 123 98 74 139 115 82 131 106 74
139 115 82 139 115 82 139 115 82 139 115 82
82 65 49 82 65 49 106 82 65 49 41 16
49 41 16 106 82 65 74 74 74 98 82 57
106 82 65 57 41 16 82 65 49 82 65 49
74 49 24 98 82 57 90 65 41 90 65 41
90 65 41 74 74 74 74 49 24 82 65 49
90 65 41 74 49 24 82 65 49 74 49 24
90 65 41 106 82 65 82 65 49 131 106 82
82 65 49 90 65 41 90 65 41 90 65 41
106 82 65 82 65 49 106 82 65 90 65 41
90 65 41 90 65 41 90 65 41 90 65 41
74 49 24 123 82 41 90 65 41 106 82 65
82 65 49 90 65 41 74 49 24 90 65 32
115 74 41 82 65 49 139 90 49 106 82 65
90 65 41 90 65 41 74 49 24 90 65 41
90 65 41 74 49 24 74 49 24 123 82 41
131 106 74 90 65 41 131 106 74 90 65 41
49 41 16 82 65 49 74 49 24 74 49 24
74 49 24 57 41 16 57 41 16 57 41 16
57 41 16 24 24 24 32 32 32 41 32 8
41 32 8 74 49 24 41 32 8 57 41 16
41 32 8 49 41 16 41 32 8 41 32 8
74 49 24 41 32 8 41 32 8 41 32 8
57 41 16 74 49 24 41 32 8 82 65 49
74 49 24 49 41 16 74 49 24 49 41 16
57 41 16 41 32 8 57 41 16 74 49 24
74 49 24 57 41 16 41 32 8 57 41 16
57 41 16 57 41 16 57 41 16 57 41 16
57 41 16 49 41 16 41 32 8 57 41 16
74 49 24 57 41 16 82 65 49 74 49 24
41 32 8 57 41 16 41 32 8 49 41 16
57 41 16 41 32 8 57 41 16 90 65 32
74 49 24 57 41 16 74 49 24 57 41 16
82 57 41 82 65 49 82 65 49 82 57 41
90 65 32 82 57 41 82 65 49 82 65 49
74 49 24 49 41 16 74 49 24 49 41 16
57 41 16 82 65 49 74 49 24 74 49 24
82 57 41 74 49 24 82 57 41 57 41 16
74 49 24 82 57 41 57 41 16 74 49 24
82 57 41 57 41 16 82 57 41 82 65 49
82 57 41 82 57 41 82 57 41 74 49 24
82 65 49 82 57 41 82 57 41 82 57 41
82 65 49 82 57 41 74 49 24 82 57 41
57 41 16 82 57 41 57 41 16 82 57 41
57 41 16 57 41 16 57 41 16 74 49 24
82 65 49 74 49 24 106 82 65 82 65 49
57 41 16 82 57 41 74 49 24 74 49 24
82 57 41 57 41 16 82 57 41 82 65 49
82 65 49 82 57 41 82 65 49 82 57 41
123 98 74 139 115 82 139 115 82 57 41 16
57 41 16 131 106 74 139 115 82 139 115 82
131 106 82 106 82 65 123 98 74 123 98 74
123 98 74 139 115 82 131 106 74 123 98 74
123 98 74 123 98 74 123 98 74 123 98 74
123 98 74 123 98 74 123 98 74 123 98 74
131 106 74 123 98 74 131 106 74 156 131 98
131 106 74 131 106 74 123 98 74 131 106 74
131 106 74 131 106 82 123 98 74 131 106 74
131 106 74 131 106 74 139 115 82 123 98 74
123 98 74 131 106 74 123 98 74 139 115 82
123 98 74 123 98 74 123 98 74 123 98 74
131 106 74 123 98 74 148 123 98 139 115 82
123 98 74 131 106 74 123 98 74 123 98 74
131 106 74 123 98 74 131 106 82 156 131 98
131 106 74 131 106 74 131 106 74 131 106 74
115 90 57 123 98 74 123 98 74 41 32 8
41 32 8 131 106 82 123 98 74 123 98 74
106 82 65 98 82 57 98 82 57 98 82 57
106 82 65 123 98 74 106 82 65 98 82 57
106 82 65 123 98 74 106 82 65 106 82 65
106 82 65 106 82 65 106 82 65 106 82 65
106 82 65 106 82 65 106 82 65 131 106 74
115 90 57 115 90 57 106 82 65 106 82 65
106 82 65 106 82 65 106 82 65 131 106 74
106 82 65 106 82 65 115 90 57 106 82 65
115 90 57 106 82 65 115 90 57 131 106 74
106 82 65 106 82 65 106 82 65 106 82 65
106 82 65 106 82 65 123 98 74 123 98 74
106 82 65 106 82 65 106 82 65 106 82 65
123 98 74 123 98 74 123 98 74 131 106 82
115 90 57 106 82 65 115 90 57 106 82 65
123 98 74 90 65 32 115 90 57 41 32 8
41 32 8 106 82 65 90 65 32 115 90 57
74 49 24 49 41 16 41 32 8 49 41 16
49 41 16 74 49 24 57 41 16 49 41 16
57 41 16 74 49 24 49 41 16 57 41 16
57 41 16 49 41 16 49 41 16 49 41 16
49 41 16 49 41 16 57 41 16 74 49 24
57 41 16 49 41 16 57 41 16 49 41 16
57 41 16 49 41 16 49 41 16 57 41 16
57 41 16 49 41 16 57 41 16 57 41 16
57 41 16 57 41 16 57 41 16 57 41 16
49 41 16 57 41 16 49 41 16 49 41 16
57 41 16 57 41 16 57 41 16 57 41 16
57 41 16 57 41 16 49 41 16 57 41 16
74 49 24 49 41 16 57 41 16 74 49 24
74 49 24 49 41 16 74 49 24 49 41 16
123 98 74 90 65 32 106 82 65 41 32 8
24 16 8 106 82 65 98 82 49 106 82 65
82 57 41 32 32 32 57 41 16 74 49 24
74 49 24 82 65 49 74 49 24 57 41 16
74 49 24 90 65 32 82 57 41 57 41 16
82 57 41 82 57 41 57 41 16 82 57 41
74 49 24 74 49 24 82 65 49 82 65 49
82 65 49 57 41 16 90 65 32 57 41 16
82 57 41 57 41 16 82 57 41 82 57 41
74 49 24 74 49 24 74 49 24 74 49 24
74 49 24 74 49 24 74 49 24 82 57 41
82 57 41 82 57 41 82 57 41 57 41 16
74 49 24 74 49 24 82 57 41 82 57 41
82 65 49 82 65 49 74 49 24 82 57 41
82 65 49 82 57 41 57 41 16 98 82 57
82 57 41 74 49 24 82 57 41 74 49 24
123 98 74 90 65 41 115 90 57 41 32 8
41 32 8 106 82 65 90 65 32 131 106 74
90 65 41 90 65 41 49 41 16 98 82 57
82 65 49 74 49 24 90 65 41 74 49 24
74 49 24 90 65 32 74 49 24 90 65 41
82 65 49 90 65 41 98 82 57 74 49 24
74 49 24 115 90 57 74 49 24 90 65 32
90 65 32 82 65 49 82 65 49 90 65 41
74 49 24 90 65 41 90 65 41 82 65 49
74 49 24 74 49 24 90 65 41 74 49 24
90 65 41 74 49 24 106 82 65 123 82 41
115 74 41 115 74 41 74 49 24 90 65 41
90 65 41 115 74 41 82 65 49 98 82 57
106 82 65 115 74 41 82 65 49 90 65 41
82 65 49 74 49 24 90 65 41 90 65 32
90 65 32 90 65 41 90 65 32 74 49 24
131 106 74 74 49 24 106 82 65 41 32 8
41 32 8 106 82 65 115 74 41 131 106 74
74 49 24 82 65 49 82 65 49 90 65 41
74 49 24 74 49 24 90 65 41 74 49 24
82 65 49 90 65 41 57 41 16 90 65 41
90 65 32 82 65 49 82 65 49 74 49 24
74 49 24 123 98 74 74 49 24 90 65 32
90 65 41 98 82 57 82 65 49 90 65 41
82 65 49 123 82 41 90 65 32 90 65 41
82 65 49 82 65 49 90 65 41 57 41 16
82 65 49 90 65 41 90 65 41 106 82 65
90 65 41 90 65 32 74 49 24 98 82 49
82 65 49 98 82 57 74 49 24 106 82 65
123 82 41 90 65 41 74 49 24 90 65 41
115 74 41 74 49 24 115 74 41 90 65 41
82 65 49 106 82 65 90 65 41 82 65 49
123 98 74 90 65 32 115 90 57 41 32 8
41 32 8 115 90 57 90 65 32 131 106 74
90 65 32 74 49 24 82 65 49 90 65 41
74 49 24 74 49 24 82 65 49 74 49 24
82 65 49 82 65 49 57 41 16 90 65 41
115 74 41 90 65 41 82 65 49 82 65 49
74 49 24 115 90 57 82 65 49 74 49 24
74 49 24 115 74 41 74 49 24 82 65 49
115 74 41 123 82 41 74 49 24 74 49 24
82 65 49 82 65 49 74 49 24 74 49 24
82 65 49 90 65 41 98 82 57 98 82 57
106 82 65 90 65 41 74 49 24 98 82 57
98 82 57 106 82 65 74 49 24 115 74 41
115 74 41 115 74 41 90 65 32 115 74 41
115 74 41 74 49 24 123 82 41 115 74 41
90 65 32 123 82 41 74 49 24 82 65 49
115 90 57 90 65 32 106 82 65 41 32 8
41 32 8 106 82 65 74 49 24 123 98 74
74 49 24 74 49 24 82 65 49 106 82 65
74 49 24 82 65 49 90 65 41 74 49 24
82 65 49 82 65 49 41 32 8 90 65 41
90 65 41 90 65 41 82 65 49 82 65 49
74 49 24 115 90 57 90 65 41 74 49 24
82 65 49 115 74 41 57 41 16 74 49 24
74 49 24 123 82 41 90 65 41 74 49 24
82 65 49 74 49 24 82 65 49 74 49 24
90 65 32 90 65 41 115 74 41 123 82 41
90 65 41 90 65 41 74 49 24 98 82 57
98 82 57 123 98 74 57 41 16 106 82 65
98 82 57 90 65 41 90 65 41 90 65 41
106 82 65 82 65 49 106 82 65 90 65 41
90 65 32 90 65 41 90 65 41 74 49 24
123 98 74 82 65 49 106 82 65 41 32 8
41 32 8 106 82 65 74 49 24 123 98 74
90 65 41 90 65 41 82 65 49 98 82 57
82 65 49 74 49 24 82 65 49 82 65 49
74 49 24 115 74 41 41 32 8 106 82 65
90 65 41 90 65 41 82 65 49 74 49 24
74 49 24 106 82 65 90 65 41 57 41 16
74 49 24 106 82 65 74 49 24 74 49 24
74 49 24 139 90 49 74 49 24 49 41 16
90 65 32 57 41 16 98 82 57 49 49 49
90 65 32 90 65 41 106 82 65 106 82 65
90 65 32 123 82 41 106 82 65 90 65 41
106 82 65 98 82 57 82 65 49 98 82 57
106 82 65 106 82 65 82 65 49 98 82 49
90 65 41 74 49 24 115 74 41 115 74 41
74 49 24 106 82 65 82 65 49 82 65 49
131 106 82 82 65 49 106 82 65 41 32 8
24 16 8 123 98 74 82 65 49 123 98 74
90 65 41 82 65 49 74 49 24 90 65 41
90 65 41 82 65 49 82 65 49 82 65 49
82 65 49 106 82 65 49 41 16 139 90 49
90 65 41 90 65 41 74 49 24 74 49 24
74 49 24 90 65 41 90 65 32 74 49 24
74 49 24 106 82 65 74 49 24 74 49 24
74 49 24 106 82 65 82 65 49 74 49 24
90 65 41 49 41 16 90 65 41 82 65 49
90 65 41 74 49 24 106 82 65 106 82 65
106 82 65 106 82 65 90 65 41 82 65 49
106 82 65 82 65 49 90 65 41 90 65 32
115 90 57 90 65 32 90 65 32 90 65 41
98 82 49 74 49 24 106 82 65 115 74 41
74 49 24 115 74 41 115 74 41 74 49 24
131 106 74 74 49 24 106 82 65 24 16 8
24 16 8 115 90 57 82 65 49 123 98 74
74 49 24 74 49 24 82 65 49 90 65 41
90 65 41 82 65 49 82 65 49 82 65 49
115 74 41 139 90 49 24 16 8 106 82 65
90 65 41 90 65 41 82 65 49 90 65 41
74 49 24 98 82 57 98 82 57 82 65 49
82 65 49 123 82 41 74 49 24 82 65 49
74 49 24 90 65 32 90 65 41 74 49 24
90 65 41 74 49 24 82 65 49 90 65 41
90 65 41 74 49 24 90 65 41 115 74 41
90 65 41 123 82 41 90 65 32 90 65 41
106 82 65 74 49 24 90 65 41 82 65 49
106 82 65 82 65 49 82 65 49 90 65 41
90 65 41 90 65 32 115 74 41 90 65 41
90 65 41 123 82 41 90 65 41 90 65 41
123 98 74 90 65 32 106 82 65 24 16 8
24 16 8 115 90 57 74 49 24 115 90 57
90 65 41 90 65 41 90 65 41 90 65 41
90 65 41 90 65 32 90 65 32 90 65 32
90 65 41 106 82 65 57 41 16 106 82 65
115 74 41 115 74 41 82 65 49 82 65 49
82 65 49 106 82 65 115 74 41 74 49 24
74 49 24 82 65 49 82 65 49 74 49 24
74 49 24 82 65 49 90 65 41 82 65 49
106 82 65 74 49 24 82 65 49 90 65 41
106 82 65 74 49 24 123 82 41 90 65 41
106 82 65 123 98 74 90 65 41 90 65 41
98 82 57 90 65 41 90 65 41 82 65 49
98 82 57 98 82 57 82 65 49 90 65 41
98 82 49 74 49 24 90 65 32 98 82 49
90 65 32 123 82 41 90 65 41 90 65 32
123 98 74 90 65 41 115 90 57 41 32 8
41 32 8 106 82 65 90 65 32 131 106 74
90 65 41 90 65 32 90 65 32 90 65 41
90 65 41 90 65 41 90 65 32 90 65 32
90 65 41 115 74 41 82 65 49 98 82 57
106 82 65 115 74 41 82 65 49 90 65 41
82 65 49 74 49 24 90 65 41 90 65 32
90 65 32 90 65 41 90 65 32 74 49 24
90 65 41 74 49 24 74 49 24 115 74 41
82 65 49 82 65 49 82 65 49 82 65 49
139 90 49 82 65 49 106 82 65 115 74 41
123 82 41 115 90 57 90 65 41 90 65 41
115 74 41 90 65 41 90 65 41 90 65 32
90 65 41 82 65 49 90 65 41 90 65 32
115 74 41 74 49 24 90 65 41 123 82 41
90 65 41 123 82 41 90 65 41 90 65 32
131 106 74 74 49 24 106 82 65 41 32 8
41 32 8 106 82 65 115 74 41 131 106 74
90 65 32 90 65 32 90 65 41 90 65 41
90 65 32 90 65 41 98 82 49 74 49 24
82 65 49 98 82 57 74 49 24 106 82 65
123 82 41 90 65 41 74 49 24 90 65 41
115 74 41 74 49 24 115 74 41 90 65 41
82 65 49 106 82 65 90 65 41 82 65 49
90 65 41 90 65 41 82 65 49 90 65 41
82 65 49 82 65 49 82 65 49 82 65 49
139 90 49 82 65 49 106 82 65 106 82 65
98 82 57 123 98 74 123 82 41 123 82 41
90 65 41 90 65 41 106 82 65 74 49 24
123 82 41 90 65 41 115 74 41 90 65 32
115 74 41 74 49 24 90 65 32 98 82 49
82 65 49 90 65 41 90 65 41 98 82 49
123 98 74 90 65 32 115 90 57 41 32 8
41 32 8 115 90 57 90 65 32 131 106 74
90 65 41 90 65 41 90 65 41 115 74 41
82 65 49 90 65 41 90 65 41 90 65 41
98 82 57 106 82 65 74 49 24 115 74 41
115 74 41 115 74 41 90 65 32 115 74 41
115 74 41 74 49 24 123 82 41 115 74 41
90 65 32 123 82 41 74 49 24 82 65 49
98 82 57 82 65 49 82 65 49 98 82 57
74 49 24 74 49 24 74 49 24 74 49 24
139 90 49 82 65 49 106 82 65 123 82 41
90 65 41 139 90 49 115 74 41 115 74 41
82 65 49 106 82 65 106 82 65 74 49 24
106 82 65 90 65 41 90 65 41 82 65 49
90 65 41 82 65 49 90 65 41 90 65 41
98 82 49 90 65 41 98 82 57 90 65 41
115 90 57 90 65 32 106 82 65 41 32 8
41 32 8 106 82 65 74 49 24 123 98 74
90 65 41 90 65 32 90 65 32 115 74 41
74 49 24 123 82 41 90 65 32 90 65 32
98 82 57 123 98 74 57 41 16 106 82 65
98 82 57 90 65 41 90 65 41 90 65 41
106 82 65 82 65 49 106 82 65 90 65 41
90 65 32 90 65 41 90 65 41 74 49 24
98 82 49 74 49 24 90 65 41 123 82 41
82 65 49 82 65 49 74 49 24 82 65 49
139 90 49 90 65 41 90 65 41 123 82 41
90 65 41 106 82 65 123 82 41 90 65 41
90 65 41 82 65 49 123 98 74 82 65 49
106 82 65 74 74 74 90 65 41 82 65 49
90 65 41 90 65 41 90 65 32 90 65 32
123 82 41 115 74 41 90 65 32 90 65 41
123 98 74 82 65 49 106 82 65 41 32 8
41 32 8 106 82 65 74 49 24 123 98 74
90 65 41 90 65 41 90 65 41 90 65 41
74 49 24 123 82 41 90 65 41 106 82 65
106 82 65 98 82 57 82 65 49 98 82 57
106 82 65 106 82 65 82 65 49 98 82 49
90 65 41 74 49 24 115 74 41 115 74 41
74 49 24 106 82 65 82 65 49 82 65 49
123 82 41 74 49 24 106 82 65 139 90 49
82 65 49 74 49 24 74 49 24 90 65 41
139 90 49 82 65 49 82 65 49 131 106 74
90 65 41 106 82 65 106 82 65 82 65 49
74 74 74 98 82 57 123 98 74 82 65 49
98 82 57 98 82 57 82 65 49 90 65 41
74 49 24 90 65 41 90 65 32 90 65 32
106 82 65 90 65 41 82 65 49 90 65 41
131 106 82 82 65 49 106 82 65 41 32 8
24 16 8 123 98 74 82 65 49 123 98 74
106 82 65 90 65 41 74 49 24 90 65 41
90 65 32 90 65 41 90 65 32 90 65 41
106 82 65 82 65 49 90 65 41 90 65 32
115 90 57 90 65 32 90 65 32 90 65 41
98 82 49 74 49 24 106 82 65 115 74 41
74 49 24 115 74 41 115 74 41 74 49 24
106 82 65 57 41 16 106 82 65 123 98 74
74 49 24 74 49 24 90 65 32 115 74 41
106 82 65 82 65 49 82 65 49 131 106 74
106 82 65 106 82 65 139 90 49 90 65 41
98 82 57 98 82 57 123 98 74 82 65 49
82 65 49 106 82 65 82 65 49 82 65 49
74 49 24 90 65 41 90 65 41 90 65 41
139 90 49 98 82 57 82 65 49 74 49 24
131 106 74 74 49 24 106 82 65 24 16 8
24 16 8 115 90 57 82 65 49 123 98 74
106 82 65 90 65 41 82 65 49 90 65 41
74 49 24 90 65 41 74 49 24 90 65 41
106 82 65 74 49 24 90 65 41 82 65 49
106 82 65 82 65 49 82 65 49 90 65 41
90 65 41 90 65 32 115 74 41 90 65 41
90 65 41 123 82 41 90 65 41 90 65 41
98 82 57 82 65 49 90 65 41 98 82 49
90 65 41 74 49 24 82 65 49 106 82 65
98 82 57 98 82 57 90 65 41 106 82 65
106 82 65 90 65 41 139 90 49 90 65 41
106 82 65 123 82 41 139 90 49 74 49 24
90 65 32 106 82 65 74 49 24 82 65 49
74 49 24 90 65 32 90 65 41 90 65 41
139 90 49 90 65 41 90 65 32 90 65 41
123 98 74 90 65 32 106 82 65 24 16 8
24 16 8 115 90 57 74 49 24 115 90 57
90 65 41 90 65 41 106 82 65 82 65 49
74 49 24 90 65 41 74 49 24 106 82 65
98 82 57 90 65 41 90 65 41 82 65 49
98 82 57 98 82 57 82 65 49 90 65 41
98 82 49 74 49 24 90 65 32 98 82 49
90 65 32 123 82 41 90 65 41 90 65 32
90 65 32 74 49 24 106 82 65 106 82 65
82 65 49 82 65 49 74 49 24 123 82 41
139 90 49 90 65 41 82 65 49 106 82 65
98 82 49 90 65 32 123 82 41 90 65 41
123 82 41 123 82 41 139 90 49 90 65 41
74 49 24 106 82 65 82 65 49 82 65 49
82 65 49 82 65 49 90 65 41 82 65 49
139 90 49 90 65 41 90 65 41 90 65 41
123 98 74 90 65 32 106 82 65 24 16 8
41 32 8 115 90 57 57 41 16 131 106 74
90 65 41 90 65 41 115 74 41 90 65 41
90 65 32 90 65 41 90 65 32 123 82 41
115 74 41 90 65 41 90 65 41 90 65 32
90 65 41 82 65 49 90 65 41 90 65 32
115 74 41 74 49 24 90 65 41 123 82 41
90 65 41 123 82 41 90 65 41 90 65 32
74 49 24 90 65 32 90 65 41 123 82 41
90 65 41 90 65 32 74 49 24 98 82 49
106 82 65 90 65 41 90 65 32 106 82 65
98 82 57 82 65 49 106 82 65 123 98 74
106 82 65 106 82 65 123 98 74 90 65 41
90 65 32 90 65 41 90 65 41 90 65 41
82 65 49 90 65 41 74 49 24 90 65 41
139 90 49 82 65 49 106 82 65 90 65 41
106 82 65 90 65 41 106 82 65 41 32 8
24 16 8 106 82 65 90 65 32 123 98 74
98 82 49 74 49 24 90 65 41 90 65 41
90 65 41 90 65 41 115 74 41 123 82 41
90 65 41 90 65 41 106 82 65 74 49 24
123 82 41 90 65 41 115 74 41 90 65 32
115 74 41 74 49 24 90 65 32 98 82 49
82 65 49 90 65 41 90 65 41 98 82 49
74 49 24 106 82 65 90 65 41 98 82 57
82 65 49 90 65 41 57 41 16 115 90 57
115 74 41 90 65 32 90 65 32 123 82 41
74 49 24 98 82 57 106 82 65 139 90 49
123 82 41 106 82 65 123 98 74 106 82 65
90 65 32 115 74 41 90 65 41 82 65 49
98 82 57 82 65 49 57 41 16 106 82 65
106 82 65 90 65 41 106 82 65 74 49 24
106 82 65 82 65 49 106 82 65 24 16 8
24 16 8 106 82 65 90 65 41 123 98 74
90 65 32 90 65 32 90 65 32 90 65 32
90 65 32 90 65 32 90 65 32 115 74 41
82 65 49 106 82 65 106 82 65 74 49 24
106 82 65 90 65 41 90 65 41 82 65 49
90 65 41 82 65 49 90 65 41 90 65 41
98 82 49 90 65 41 98 82 57 90 65 41
74 49 24 90 65 41 90 65 41 106 82 65
90 65 41 90 65 41 74 49 24 90 65 41
123 82 41 82 65 49 82 65 49 139 90 49
123 82 41 90 65 41 123 82 41 90 65 41
98 82 49 90 65 41 115 90 57 106 82 65
74 49 24 106 82 65 90 65 41 74 49 24
115 74 41 90 65 41 57 41 16 90 65 41
123 98 74 82 65 49 115 74 41 90 65 32
106 82 65 74 49 24 123 98 74 24 16 8
24 16 8 106 82 65 90 65 41 115 90 57
90 65 32 90 65 32 90 65 32 90 65 41
90 65 41 90 65 41 74 49 24 90 65 41
90 65 41 82 65 49 123 98 74 82 65 49
106 82 65 74 74 74 90 65 41 82 65 49
90 65 41 90 65 41 90 65 32 90 65 32
123 82 41 115 74 41 90 65 32 90 65 41
74 49 24 98 82 57 115 74 41 106 82 65
106 82 65 90 65 41 74 49 24 115 74 41
123 98 74 82 65 49 90 65 41 139 90 49
139 90 49 106 82 65 90 65 41 90 65 41
90 65 32 106 82 65 106 82 65 123 82 41
74 49 24 90 65 41 90 65 41 74 49 24
139 90 49 98 82 57 82 65 49 123 98 74
106 82 65 82 65 49 139 90 49 82 65 49
106 82 65 74 49 24 131 106 74 24 16 8
24 16 8 106 82 65 90 65 41 123 98 74
90 65 41 82 65 49 90 65 41 90 65 41
90 65 41 90 65 41 74 49 24 90 65 41
74 74 74 98 82 57 123 98 74 82 65 49
98 82 57 98 82 57 82 65 49 90 65 41
74 49 24 90 65 41 90 65 32 90 65 32
106 82 65 90 65 41 82 65 49 90 65 41
74 49 24 139 90 49 115 74 41 90 65 41
106 82 65 82 65 49 82 65 49 90 65 41
139 90 49 90 65 32 90 65 41 123 98 74
115 74 41 139 90 49 123 82 41 98 82 49
90 65 41 139 90 49 115 74 41 123 82 41
74 49 24 106 82 65 90 65 41 90 65 32
106 82 65 106 82 65 90 65 41 98 82 49
106 82 65 90 65 32 123 82 41 90 65 41
123 98 74 74 49 24 131 106 82 41 32 8
24 16 8 106 82 65 74 49 24 123 98 74
106 82 65 82 65 49 74 49 24 90 65 41
74 49 24 106 82 65 82 65 49 98 82 57
98 82 57 98 82 57 123 98 74 82 65 49
82 65 49 106 82 65 82 65 49 82 65 49
74 49 24 90 65 41 90 65 41 90 65 41
139 90 49 98 82 57 82 65 49 74 49 24
90 65 41 139 90 49 74 49 24 115 74 41
115 74 41 74 49 24 90 65 32 90 65 41
123 98 74 82 65 49 90 65 41 106 82 65
82 65 49 90 65 41 106 82 65 123 82 41
90 65 32 123 82 41 115 74 41 123 82 41
90 65 41 115 74 41 90 65 41 90 65 41
82 65 49 90 65 41 115 74 41 90 65 41
123 82 41 90 65 32 123 82 41 90 65 32
123 98 74 74 49 24 123 98 74 24 16 8
24 16 8 106 82 65 90 65 41 123 98 74
123 82 41 74 49 24 74 49 24 82 65 49
82 65 49 115 74 41 82 65 49 90 65 41
106 82 65 123 82 41 139 90 49 74 49 24
90 65 32 106 82 65 74 49 24 82 65 49
74 49 24 90 65 32 90 65 41 90 65 41
139 90 49 90 65 41 90 65 32 90 65 41
74 49 24 106 82 65 74 49 24 90 65 41
115 74 41 74 49 24 90 65 41 90 65 41
106 82 65 82 65 49 90 65 41 106 82 65
90 65 41 90 65 41 123 82 41 98 82 49
90 65 32 98 82 49 82 65 49 106 82 65
74 49 24 115 74 41 90 65 41 90 65 32
90 65 41 90 65 32 115 74 41 115 74 41
115 74 41 74 49 24 115 90 57 74 49 24
123 98 74 90 65 32 106 82 65 24 16 8
41 32 8 106 82 65 90 65 41 123 98 74
90 65 41 90 65 32 90 65 41 82 65 49
82 65 49 90 65 32 74 49 24 90 65 32
123 82 41 123 82 41 139 90 49 90 65 41
74 49 24 106 82 65 82 65 49 82 65 49
82 65 49 82 65 49 90 65 41 82 65 49
139 90 49 90 65 41 90 65 41 90 65 41
82 65 49 98 82 57 90 65 41 90 65 41
115 74 41 74 49 24 90 65 32 90 65 32
106 82 65 90 65 32 90 65 32 98 82 49
90 65 32 90 65 41 106 82 65 98 82 57
90 65 41 115 74 41 90 65 32 123 82 41
74 49 24 90 65 41 98 82 49 74 49 24
82 65 49 90 65 41 90 65 41 115 74 41
90 65 41 90 65 41 106 82 65 74 49 24
123 98 74 90 65 41 106 82 65 24 16 8
41 32 8 106 82 65 82 65 49 123 98 74
90 65 32 90 65 32 90 65 41 82 65 49
90 65 32 90 65 32 57 41 16 98 82 49
106 82 65 106 82 65 123 98 74 90 65 41
90 65 32 90 65 41 90 65 41 90 65 41
82 65 49 90 65 41 74 49 24 90 65 41
139 90 49 82 65 49 106 82 65 90 65 41
123 82 41 82 65 49 82 65 49 106 82 65
115 74 41 90 65 32 90 65 41 90 65 41
90 65 41 90 65 32 90 65 32 115 74 41
115 74 41 115 74 41 106 82 65 90 65 41
90 65 41 106 82 65 90 65 32 106 82 65
90 65 41 123 82 41 90 65 41 57 41 16
82 65 49 82 65 49 90 65 41 90 65 41
106 82 65 90 65 41 98 82 57 90 65 41
123 98 74 82 65 49 98 82 57 41 32 8
41 32 8 106 82 65 74 49 24 123 98 74
74 49 24 90 65 41 90 65 41 90 65 41
74 49 24 90 65 41 90 65 32 90 65 41
123 82 41 106 82 65 123 98 74 106 82 65
90 65 32 115 74 41 90 65 41 82 65 49
98 82 57 82 65 49 57 41 16 106 82 65
106 82 65 90 65 41 106 82 65 74 49 24
115 74 41 90 65 41 82 65 49 106 82 65
90 65 41 90 65 32 90 65 32 90 65 41
106 82 65 90 65 41 82 65 49 106 82 65
139 90 49 90 65 41 98 82 49 123 82 41
74 49 24 123 82 41 90 65 32 139 90 49
90 65 41 98 82 57 106 82 65 57 41 16
98 82 57 74 49 24 115 74 41 115 74 41
115 74 41 115 74 41 115 74 41 74 49 24
106 82 65 74 49 24 106 82 65 41 32 8
41 32 8 106 82 65 74 49 24 123 98 74
74 49 24 82 65 49 82 65 49 82 65 49
74 49 24 82 65 49 90 65 41 90 65 41
98 82 49 90 65 41 115 90 57 106 82 65
74 49 24 106 82 65 90 65 41 74 49 24
115 74 41 90 65 41 57 41 16 90 65 41
123 98 74 82 65 49 115 74 41 90 65 32
106 82 65 90 65 41 82 65 49 90 65 41
98 82 57 90 65 41 74 49 24 90 65 41
106 82 65 82 65 49 82 65 49 106 82 65
123 82 41 123 82 41 123 82 41 139 90 49
115 74 41 115 74 41 74 49 24 90 65 41
106 82 65 90 65 41 106 82 65 74 49 24
90 65 41 90 65 41 115 74 41 115 74 41
106 82 65 106 82 65 98 82 57 90 65 41
123 98 74 82 65 49 106 82 65 41 32 8
41 32 8 115 90 57 90 65 32 106 82 65
74 49 24 74 49 24 106 82 65 82 65 49
74 49 24 90 65 32 90 65 41 90 65 32
90 65 32 106 82 65 106 82 65 123 82 41
74 49 24 90 65 41 90 65 41 74 49 24
139 90 49 98 82 57 82 65 49 123 98 74
106 82 65 82 65 49 139 90 49 82 65 49
106 82 65 106 82 65 82 65 49 90 65 32
123 82 41 90 65 41 82 65 49 98 82 57
106 82 65 90 65 41 90 65 32 90 65 41
123 82 41 123 82 41 106 82 65 139 90 49
115 74 41 123 82 41 90 65 32 90 65 32
139 90 49 90 65 41 106 82 65 90 65 41
82 65 49 106 82 65 90 65 41 106 82 65
139 90 49 90 65 41 106 82 65 98 82 57
123 98 74 82 65 49 106 82 65 41 32 8
41 32 8 106 82 65 90 65 41 123 98 74
74 49 24 74 49 24 123 82 41 74 49 24
82 65 49 74 49 24 90 65 41 90 65 41
90 65 41 139 90 49 115 74 41 123 82 41
74 49 24 106 82 65 90 65 41 90 65 32
106 82 65 106 82 65 90 65 41 98 82 49
106 82 65 90 65 32 123 82 41 90 65 41
139 90 49 90 65 41 90 65 41 90 65 41
106 82 65 115 74 41 74 49 24 90 65 41
123 98 74 90 65 41 90 65 32 90 65 32
123 82 41 123 82 41 98 82 49 106 82 65
90 65 41 139 90 49 115 74 41 90 65 41
90 65 41 115 90 57 139 90 49 90 65 41
82 65 49 106 82 65 90 65 41 106 82 65
90 65 41 106 82 65 106 82 65 123 98 74
123 98 74 82 65 49 106 82 65 41 32 8
41 32 8 106 82 65 90 65 32 106 82 65
82 65 49 74 49 24 123 98 74 90 65 41
82 65 49 90 65 41 74 49 24 90 65 41
90 65 32 123 82 41 115 74 41 123 82 41
90 65 41 115 74 41 90 65 41 90 65 41
82 65 49 90 65 41 115 74 41 90 65 41
123 82 41 90 65 32 123 82 41 90 65 32
123 98 74 90 65 41 82 65 49 106 82 65
115 74 41 139 90 49 82 65 49 90 65 41
106 82 65 123 82 41 74 49 24 139 90 49
106 82 65 106 82 65 90 65 41 106 82 65
123 82 41 98 82 49 90 65 41 90 65 41
90 65 41 106 82 65 106 82 65 90 65 41
90 65 32 123 82 41 90 65 41 74 49 24
90 65 32 123 82 41 115 74 41 115 74 41
123 98 74 90 65 41 106 82 65 41 32 8
41 32 8 106 82 65 82 65 49 123 98 74
90 65 41 74 49 24 106 82 65 82 65 49
82 65 49 74 49 24 90 65 41 82 65 49
90 65 32 98 82 49 82 65 49 106 82 65
74 49 24 115 74 41 90 65 41 90 65 32
90 65 41 90 65 32 115 74 41 115 74 41
115 74 41 74 49 24 115 90 57 74 49 24
106 82 65 115 74 41 115 74 41 106 82 65
98 82 57 106 82 65 82 65 49 106 82 65
123 98 74 98 82 57 82 65 49 90 65 41
139 90 49 131 106 74 90 65 41 98 82 57
90 65 41 106 82 65 123 82 41 98 82 49
98 82 49 106 82 65 115 74 41 90 65 41
90 65 41 106 82 65 90 65 41 74 49 24
115 74 41 123 82 41 90 65 41 90 65 41
123 98 74 90 65 41 123 98 74 41 32 8
41 32 8 106 82 65 74 49 24 123 98 74
90 65 41 90 65 32 90 65 41 82 65 49
90 65 41 74 49 24 90 65 41 98 82 57
90 65 41 115 74 41 90 65 32 123 82 41
74 49 24 90 65 41 98 82 49 74 49 24
82 65 49 90 65 41 90 65 41 115 74 41
90 65 41 90 65 41 106 82 65 74 49 24
115 90 57 123 82 41 90 65 41 139 90 49
90 65 41 123 98 74 90 65 32 123 82 41
106 82 65 106 82 65 74 49 24 90 65 41
139 90 49 131 106 74 90 65 41 106 82 65
106 82 65 106 82 65 123 82 41 90 65 32
123 82 41 90 65 32 90 65 41 90 65 41
90 65 32 115 74 41 123 82 41 74 49 24
106 82 65 98 82 57 82 65 49 115 90 57
106 82 65 90 65 41 115 90 57 24 16 8
41 32 8 106 82 65 74 49 24 123 98 74
90 65 41 90 65 41 74 49 24 82 65 49
90 65 41 82 65 49 82 65 49 90 65 41
90 65 41 106 82 65 90 65 32 106 82 65
90 65 41 123 82 41 90 65 41 57 41 16
82 65 49 82 65 49 90 65 41 90 65 41
106 82 65 90 65 41 98 82 57 90 65 41
139 90 49 106 82 65 106 82 65 123 82 41
98 82 49 115 90 57 74 49 24 90 65 41
139 90 49 115 74 41 74 49 24 90 65 41
98 82 49 123 82 41 90 65 32 123 82 41
115 74 41 106 82 65 106 82 65 90 65 41
123 82 41 74 49 24 90 65 41 115 74 41
90 65 32 123 82 41 90 65 41 82 65 49
106 82 65 98 82 57 90 65 41 115 90 57
123 98 74 90 65 41 106 82 65 24 16 8
41 32 8 123 98 74 98 82 57 123 98 74
82 65 49 82 65 49 74 49 24 90 65 41
106 82 65 90 65 41 74 49 24 90 65 41
74 49 24 123 82 41 90 65 32 139 90 49
90 65 41 98 82 57 106 82 65 57 41 16
98 82 57 74 49 24 115 74 41 115 74 41
115 74 41 115 74 41 115 74 41 74 49 24
115 90 57 82 65 49 115 90 57 98 82 49
90 65 41 106 82 65 90 65 32 98 82 49
123 98 74 90 65 41 82 65 49 106 82 65
106 82 65 139 90 49 115 74 41 106 82 65
106 82 65 123 98 74 106 82 65 90 65 41
90 65 41 74 49 24 90 65 32 90 65 41
90 65 41 106 82 65 74 49 24 82 65 49
106 82 65 106 82 65 82 65 49 139 90 49
123 98 74 90 65 41 131 106 74 41 32 8
41 32 8 123 98 74 90 65 41 123 98 74
74 49 24 74 49 24 74 49 24 115 74 41
90 65 41 90 65 41 74 49 24 82 65 49
115 74 41 115 74 41 74 49 24 90 65 41
106 82 65 90 65 41 106 82 65 74 49 24
90 65 41 90 65 41 115 74 41 115 74 41
106 82 65 106 82 65 98 82 57 90 65 41
123 98 74 90 65 32 123 82 41 90 65 41
90 65 41 115 90 57 74 49 24 123 82 41
123 82 41 90 65 32 82 65 49 98 82 57
123 98 74 123 82 41 123 98 74 106 82 65
106 82 65 106 82 65 139 90 49 115 74 41
90 65 41 90 65 41 90 65 41 98 82 57
98 82 57 90 65 41 90 65 41 74 49 24
106 82 65 90 65 41 74 49 24 139 90 49
123 98 74 82 65 49 131 106 74 41 32 8
41 32 8 123 98 74 74 49 24 123 98 74
98 82 57 82 65 49 82 65 49 115 74 41
90 65 41 90 65 32 90 65 32 74 49 24
115 74 41 123 82 41 90 65 32 90 65 32
139 90 49 90 65 41 106 82 65 90 65 41
82 65 49 106 82 65 90 65 41 106 82 65
139 90 49 90 65 41 106 82 65 98 82 57
106 82 65 106 82 65 123 98 74 106 82 65
106 82 65 139 90 49 57 41 16 106 82 65
106 82 65 90 65 32 74 49 24 90 65 41
123 98 74 106 82 65 139 90 49 90 65 41
90 65 41 115 74 41 139 90 49 115 74 41
115 74 41 90 65 41 98 82 49 90 65 41
82 65 49 106 82 65 90 65 41 74 49 24
106 82 65 90 65 41 90 65 41 123 98 74
123 98 74 74 49 24 131 106 74 41 32 8
41 32 8 123 98 74 82 65 49 123 98 74
98 82 57 82 65 49 90 65 41 90 65 41
106 82 65 74 49 24 90 65 41 82 65 49
90 65 41 139 90 49 115 74 41 90 65 41
90 65 41 115 90 57 139 90 49 90 65 41
82 65 49 106 82 65 90 65 41 106 82 65
90 65 41 106 82 65 106 82 65 123 98 74
98 82 57 98 82 57 131 106 74 115 74 41
90 65 41 106 82 65 74 49 24 90 65 41
106 82 65 90 65 41 74 49 24 90 65 41
139 90 49 115 74 41 90 65 41 90 65 41
106 82 65 90 65 41 90 65 41 115 74 41
90 65 41 74 49 24 90 65 41 90 65 41
90 65 41 90 65 32 90 65 32 57 41 16
123 82 41 123 82 41 74 49 24 139 90 49
123 98 74 82 65 49 123 98 74 41 32 8
41 32 8 131 106 74 90 65 41 106 82 65
82 65 49 82 65 49 74 49 24 115 74 41
90 65 41 90 65 32 90 65 32 74 49 24
123 82 41 98 82 49 90 65 41 90 65 41
90 65 41 106 82 65 106 82 65 90 65 41
90 65 32 123 82 41 90 65 41 74 49 24
90 65 32 123 82 41 115 74 41 115 74 41
90 65 41 90 65 41 123 98 74 106 82 65
90 65 41 106 82 65 82 65 49 90 65 41
106 82 65 90 65 41 74 49 24 115 74 41
131 106 74 106 82 65 123 82 41 90 65 41
115 74 41 82 65 49 106 82 65 82 65 49
82 65 49 82 65 49 90 65 41 90 65 41
74 49 24 115 74 41 90 65 41 74 49 24
106 82 65 90 65 41 74 49 24 139 90 49
139 115 82 74 49 24 131 106 74 41 32 8
41 32 8 131 106 74 90 65 41 106 82 65
90 65 41 90 65 41 82 65 49 106 82 65
98 82 57 82 65 49 82 65 49 90 65 41
90 65 41 106 82 65 123 82 41 98 82 49
98 82 49 106 82 65 115 74 41 90 65 41
90 65 41 106 82 65 90 65 41 74 49 24
115 74 41 123 82 41 90 65 41 90 65 41
98 82 49 90 65 41 123 82 41 123 82 41
74 49 24 123 82 41 74 49 24 82 65 49
106 82 65 98 82 49 90 65 32 90 65 41
131 106 74 106 82 65 123 82 41 98 82 49
123 82 41 90 65 32 106 82 65 90 65 41
98 82 57 74 49 24 90 65 41 90 65 41
74 49 24 90 65 41 98 82 57 82 65 49
90 65 41 123 82 41 74 49 24 106 82 65
131 106 82 82 65 49 123 98 74 41 32 8
24 16 8 131 106 74 90 65 32 106 82 65
90 65 32 90 65 41 106 82 65 90 65 32
115 74 41 90 65 41 74 49 24 90 65 41
106 82 65 106 82 65 123 82 41 90 65 32
123 82 41 90 65 32 90 65 41 90 65 41
90 65 32 115 74 41 123 82 41 74 49 24
106 82 65 98 82 57 82 65 49 115 90 57
90 65 32 90 65 41 106 82 65 123 82 41
82 65 49 123 98 74 74 49 24 90 65 41
98 82 49 90 65 41 90 65 41 90 65 41
123 98 74 106 82 65 106 82 65 98 82 49
98 82 49 74 49 24 115 74 41 115 74 41
106 82 65 74 49 24 115 74 41 90 65 41
82 65 49 90 65 41 82 65 49 82 65 49
74 49 24 90 65 41 90 65 41 106 82 65
131 106 74 74 49 24 131 106 74 49 41 16
41 32 8 131 106 74 90 65 41 123 98 74
74 49 24 90 65 41 115 74 41 82 65 49
106 82 65 90 65 41 74 49 24 90 65 41
115 74 41 106 82 65 106 82 65 90 65 41
123 82 41 74 49 24 90 65 41 115 74 41
90 65 32 123 82 41 90 65 41 82 65 49
106 82 65 98 82 57 90 65 41 115 90 57
106 82 65 98 82 49 90 65 32 90 65 32
98 82 49 90 65 41 90 65 41 90 65 41
98 82 49 90 65 41 90 65 41 106 82 65
106 82 65 106 82 65 106 82 65 106 82 65
106 82 65 82 65 49 106 82 65 90 65 41
115 74 41 90 65 41 90 65 41 90 65 41
90 65 32 106 82 65 90 65 41 82 65 49
82 65 49 90 65 41 74 49 24 90 65 41
123 98 74 90 65 41 123 98 74 49 41 16
41 32 8 123 98 74 90 65 41 123 98 74
98 82 57 90 65 41 90 65 41 74 49 24
106 82 65 98 82 57 98 82 57 90 65 32
106 82 65 123 98 74 106 82 65 90 65 41
90 65 41 74 49 24 90 65 32 90 65 41
90 65 41 106 82 65 74 49 24 82 65 49
106 82 65 106 82 65 82 65 49 139 90 49
106 82 65 90 65 41 82 65 49 82 65 49
106 82 65 98 82 57 82 65 49 82 65 49
123 82 41 123 82 41 90 65 41 115 74 41
115 90 57 106 82 65 90 65 41 123 82 41
106 82 65 90 65 41 123 98 74 106 82 65
90 65 41 115 74 41 90 65 32 123 82 41
90 65 32 90 65 41 90 65 41 82 65 49
57 41 16 98 82 49 90 65 41 74 49 24
123 98 74 82 65 49 123 98 74 41 32 8
41 32 8 106 82 65 82 65 49 123 98 74
98 82 57 90 65 41 123 82 41 90 65 41
90 65 41 106 82 65 90 65 41 82 65 49
106 82 65 106 82 65 139 90 49 115 74 41
90 65 41 90 65 41 90 65 41 98 82 57
98 82 57 90 65 41 90 65 41 74 49 24
106 82 65 90 65 41 74 49 24 139 90 49
106 82 65 90 65 41 82 65 49 82 65 49
106 82 65 90 65 41 82 65 49 98 82 57
123 82 41 115 74 41 74 49 24 90 65 41
123 98 74 106 82 65 115 74 41 123 82 41
106 82 65 90 65 41 115 90 57 98 82 49
90 65 41 90 65 41 90 65 41 90 65 41
49 57 32 82 65 49 90 65 32 90 65 32
57 41 16 123 82 41 90 65 32 74 49 24
123 98 74 82 65 49 123 98 74 41 32 8
41 32 8 106 82 65 82 65 49 123 98 74
90 65 41 82 65 49 123 82 41 90 65 41
98 82 49 106 82 65 74 49 24 90 65 41
90 65 41 115 74 41 139 90 49 115 74 41
115 74 41 90 65 41 98 82 49 90 65 41
82 65 49 106 82 65 90 65 41 74 49 24
106 82 65 90 65 41 90 65 41 123 98 74
82 65 49 123 82 41 90 65 41 74 49 24
98 82 49 90 65 41 74 49 24 106 82 65
106 82 65 106 82 65 74 49 24 139 90 49
106 82 65 139 90 49 90 65 41 106 82 65
106 82 65 90 65 41 98 82 49 123 82 41
106 82 65 90 65 41 123 82 41 90 65 41
82 65 49 123 82 41 90 65 41 90 65 41
74 49 24 106 82 65 90 65 41 90 65 32
123 98 74 82 65 49 123 98 74 41 32 8
41 32 8 123 98 74 90 65 32 123 98 74
82 65 49 74 49 24 139 90 49 98 82 57
98 82 57 106 82 65 82 65 49 82 65 49
106 82 65 90 65 41 90 65 41 115 74 41
90 65 41 74 49 24 90 65 41 90 65 41
90 65 41 90 65 32 90 65 32 57 41 16
123 82 41 123 82 41 74 49 24 139 90 49
90 65 32 106 82 65 90 65 41 90 65 32
115 74 41 90 65 41 90 65 32 90 65 41
139 90 49 139 90 49 82 65 49 106 82 65
139 90 49 106 82 65 90 65 41 106 82 65
106 82 65 90 65 41 98 82 49 123 82 41
123 82 41 123 82 41 90 65 41 115 74 41
115 74 41 90 65 41 106 82 65 82 65 49
82 65 49 115 74 41 90 65 41 90 65 41
106 82 65 90 65 41 106 82 65 41 32 8
41 32 8 123 98 74 98 82 49 115 90 57
90 65 41 82 65 49 106 82 65 106 82 65
90 65 41 139 90 49 90 65 41 74 49 24
115 74 41 82 65 49 106 82 65 82 65 49
82 65 49 82 65 49 90 65 41 90 65 41
74 49 24 115 74 41 90 65 41 74 49 24
106 82 65 90 65 41 74 49 24 139 90 49
115 74 41 90 65 41 115 74 41 90 65 32
74 49 24 123 82 41 74 49 24 90 65 41
123 82 41 123 82 41 90 65 32 98 82 49
115 90 57 139 90 49 90 65 32 106 82 65
90 65 41 106 82 65 123 82 41 115 90 57
82 65 49 106 82 65 82 65 49 106 82 65
90 65 41 90 65 32 123 82 41 90 65 32
90 65 32 90 65 41 90 65 41 90 65 32
123 98 74 74 49 24 106 82 65 49 41 16
41 32 8 106 82 65 90 65 41 123 98 74
106 82 65 74 49 24 123 82 41 123 82 41
90 65 32 123 82 41 90 65 41 74 49 24
123 82 41 90 65 32 106 82 65 90 65 41
98 82 57 74 49 24 90 65 41 90 65 41
74 49 24 90 65 41 98 82 57 82 65 49
90 65 41 123 82 41 74 49 24 106 82 65
90 65 41 106 82 65 90 65 41 90 65 41
90 65 32 139 90 49 74 49 24 90 65 32
123 82 41 123 82 41 123 82 41 98 82 49
106 82 65 139 90 49 90 65 41 106 82 65
82 65 49 106 82 65 139 90 49 106 82 65
90 65 32 115 90 57 90 65 32 106 82 65
74 49 24 90 65 41 90 65 41 74 49 24
74 49 24 82 65 49 90 65 41 82 65 49
123 98 74 74 49 24 106 82 65 41 32 8
24 16 8 123 98 74 90 65 41 123 98 74
106 82 65 82 65 49 106 82 65 98 82 49
90 65 32 139 90 49 90 65 32 57 41 16
98 82 49 74 49 24 115 74 41 115 74 41
106 82 65 74 49 24 115 74 41 90 65 41
82 65 49 90 65 41 82 65 49 82 65 49
74 49 24 90 65 41 90 65 41 106 82 65
90 65 41 82 65 49 74 49 24 90 65 41
82 65 49 98 82 57 82 65 49 82 65 49
90 65 41 123 82 41 90 65 41 139 90 49
106 82 65 115 90 57 123 82 41 106 82 65
98 82 57 131 106 82 123 98 74 139 90 49
74 49 24 123 98 74 74 49 24 106 82 65
82 65 49 82 65 49 90 65 41 90 65 41
90 65 41 74 49 24 123 82 41 74 49 24
123 98 74 74 49 24 106 82 65 49 41 16
24 16 8 106 82 65 98 82 57 123 98 74
123 82 41 74 49 24 139 90 49 139 90 49
90 65 41 139 90 49 90 65 41 90 65 32
106 82 65 82 65 49 106 82 65 90 65 41
115 74 41 90 65 41 90 65 41 90 65 41
90 65 32 106 82 65 90 65 41 82 65 49
82 65 49 90 65 41 74 49 24 90 65 41
82 65 49 74 49 24 74 49 24 90 65 41
82 65 49 82 65 49 82 65 49 82 65 49
90 65 41 106 82 65 90 65 41 106 82 65
115 90 57 115 90 57 106 82 65 106 82 65
98 82 57 123 98 74 106 82 65 106 82 65
115 74 41 90 65 41 74 49 24 98 82 57
90 65 41 74 49 24 98 82 49 90 65 32
90 65 32 90 65 32 98 82 49 90 65 32
115 90 57 82 65 49 106 82 65 49 41 16
41 32 8 115 90 57 123 82 41 123 98 74
90 65 41 90 65 41 106 82 65 139 90 49
115 74 41 106 82 65 90 65 41 98 82 57
106 82 65 90 65 41 123 98 74 106 82 65
90 65 41 115 74 41 90 65 32 123 82 41
90 65 32 90 65 41 90 65 41 82 65 49
57 41 16 98 82 49 90 65 41 74 49 24
98 82 57 74 49 24 90 65 41 82 65 49
74 49 24 82 65 49 82 65 49 82 65 49
82 65 49 106 82 65 90 65 41 115 74 41
139 90 49 131 106 74 106 82 65 139 90 49
98 82 49 115 90 57 90 65 32 139 90 49
123 82 41 90 65 41 90 65 41 90 65 41
115 74 41 82 65 49 106 82 65 82 65 49
82 65 49 90 65 32 90 65 32 82 65 49
123 98 74 90 65 32 106 82 65 49 41 16
41 32 8 106 82 65 98 82 49 131 106 74
82 65 49 82 65 49 106 82 65 106 82 65
90 65 41 90 65 41 82 65 49 90 65 41
106 82 65 90 65 41 115 90 57 98 82 49
90 65 41 90 65 41 90 65 41 90 65 41
49 57 32 82 65 49 90 65 32 90 65 32
57 41 16 123 82 41 90 65 32 74 49 24
90 65 41 57 41 16 90 65 41 90 65 41
74 49 24 82 65 49 90 65 41 74 49 24
90 65 32 123 82 41 90 65 41 139 90 49
115 90 57 106 82 65 106 82 65 115 90 57
98 82 49 123 82 41 74 49 24 90 65 41
115 90 57 90 65 41 90 65 41 82 65 49
106 82 65 74 49 24 106 82 65 82 65 49
74 49 24 90 65 41 106 82 65 90 65 41
123 98 74 90 65 41 106 82 65 49 41 16
41 32 8 123 98 74 82 65 49 139 115 82
82 65 49 82 65 49 106 82 65 123 82 41
90 65 41 74 49 24 82 65 49 90 65 41
106 82 65 90 65 41 98 82 49 123 82 41
106 82 65 90 65 41 123 82 41 90 65 41
82 65 49 123 82 41 90 65 41 90 65 41
74 49 24 106 82 65 90 65 41 90 65 32
123 82 41 57 41 16 106 82 65 90 65 41
82 65 49 90 65 41 82 65 49 74 49 24
115 74 41 115 74 41 115 74 41 106 82 65
106 82 65 115 90 57 98 82 49 106 82 65
90 65 41 90 65 41 90 65 41 90 65 41
106 82 65 90 65 41 115 74 41 90 65 32
115 74 41 57 41 16 106 82 65 90 65 32
90 65 41 82 65 49 106 82 65 106 82 65
123 98 74 106 82 65 106 82 65 49 41 16
41 32 8 106 82 65 82 65 49 131 106 74
90 65 41 82 65 49 106 82 65 106 82 65
90 65 41 98 82 49 90 65 32 90 65 32
106 82 65 90 65 41 98 82 49 123 82 41
123 82 41 123 82 41 90 65 41 115 74 41
115 74 41 90 65 41 106 82 65 82 65 49
82 65 49 115 74 41 90 65 41 90 65 41
106 82 65 74 49 24 106 82 65 90 65 41
74 49 24 82 65 49 74 49 24 82 65 49
82 65 49 106 82 65 115 74 41 106 82 65
139 90 49 115 74 41 123 82 41 106 82 65
90 65 41 98 82 57 82 65 49 106 82 65
106 82 65 82 65 49 106 82 65 90 65 41
74 49 24 82 65 49 98 82 57 82 65 49
98 82 57 82 65 49 106 82 65 98 82 57
123 98 74 106 82 65 106 82 65 41 32 8
41 32 8 106 82 65 74 49 24 131 106 74
74 49 24 90 65 41 90 65 41 106 82 65
90 65 32 106 82 65 98 82 49 90 65 32
90 65 41 106 82 65 123 82 41 115 90 57
82 65 49 106 82 65 82 65 49 106 82 65
90 65 41 90 65 32 123 82 41 90 65 32
90 65 32 90 65 41 90 65 41 90 65 32
106 82 65 74 49 24 106 82 65 82 65 49
74 49 24 74 49 24 82 65 49 74 49 24
74 49 24 90 65 41 90 65 41 123 82 41
115 90 57 123 82 41 106 82 65 106 82 65
82 65 49 106 82 65 74 49 24 106 82 65
106 82 65 82 65 49 74 74 74 82 65 49
82 65 49 74 49 24 82 65 49 90 65 41
82 65 49 74 49 24 90 65 41 90 65 41
106 82 65 90 65 41 106 82 65 41 32 8
24 16 8 106 82 65 90 65 41 139 115 82
82 65 49 74 49 24 74 49 24 139 90 49
90 65 41 90 65 41 90 65 41 82 65 49
82 65 49 106 82 65 139 90 49 106 82 65
90 65 32 115 90 57 90 65 32 106 82 65
74 49 24 90 65 41 90 65 41 74 49 24
74 49 24 82 65 49 90 65 41 82 65 49
98 82 49 74 49 24 90 65 41 82 65 49
57 41 16 74 49 24 98 82 57 74 49 24
74 49 24 123 82 41 90 65 32 115 74 41
139 90 49 106 82 65 106 82 65 106 82 65
90 65 41 106 82 65 74 49 24 98 82 49
90 65 41 90 65 41 74 49 24 90 65 41
90 65 41 82 65 49 74 49 24 82 65 49
90 65 41 82 65 49 74 49 24 98 82 57
123 98 74 98 82 57 123 98 74 41 32 8
41 32 8 106 82 65 90 65 41 131 106 74
90 65 41 74 49 24 74 49 24 106 82 65
82 65 49 98 82 57 90 65 41 82 65 49
98 82 57 131 106 82 123 98 74 139 90 49
74 49 24 123 98 74 74 49 24 106 82 65
82 65 49 82 65 49 90 65 41 90 65 41
90 65 41 74 49 24 123 82 41 74 49 24
98 82 57 82 65 49 82 65 49 90 65 41
82 65 49 57 41 16 82 65 49 74 49 24
74 49 24 90 65 41 90 65 32 98 82 49
123 82 41 115 90 57 106 82 65 123 82 41
90 65 41 106 82 65 82 65 49 106 82 65
106 82 65 90 65 41 82 65 49 90 65 41
82 65 49 82 65 49 82 65 49 106 82 65
82 65 49 82 65 49 82 65 49 90 65 41
