P3
# Converted to P3 by scripts/convert_to_p3.py
64 64
255
66 44 28 109 84 67 107 82 66 114 90 57
114 90 57 107 82 66 107 82 66 107 82 66
83 65 49 115 90 57 115 91 57 92 75 52
115 91 57 112 88 56 103 72 58 112 88 56
115 90 57 112 88 56 103 72 58 112 88 56
115 90 57 112 88 56 103 72 58 112 87 55
110 86 53 110 86 53 103 72 58 112 88 56
115 90 57 112 88 56 103 72 58 112 88 56
93 68 46 100 79 53 98 77 53 114 90 57
114 90 57 114 90 57 83 65 49 117 96 61
112 93 59 116 88 57 116 88 57 116 88 57
108 81 65 108 81 65 108 81 65 116 88 57
105 85 67 117 96 61 83 65 49 114 90 57
114 90 57 114 90 57 114 90 57 83 65 49
107 82 66 107 82 66 107 82 66 114 90 57
114 90 57 107 82 66 109 84 67 66 44 28
46 29 13 93 69 53 104 80 63 112 88 58
112 88 58 104 80 63 103 79 63 103 79 63
83 65 49 110 86 56 110 85 55 101 77 59
110 85 55 84 59 42 77 37 28 84 59 42
110 86 56 84 59 42 77 37 28 84 59 42
110 86 56 84 59 42 77 37 28 84 63 45
77 59 38 77 59 38 77 37 28 84 59 42
110 86 56 84 59 42 77 37 28 84 59 42
109 85 52 110 86 56 81 63 48 114 90 57
114 90 57 114 90 57 83 65 49 96 48 31
90 38 30 115 18 17 115 18 17 115 18 17
115 18 17 115 18 17 115 18 17 115 18 17
90 38 30 96 48 31 83 65 49 114 90 57
114 90 57 114 90 57 114 90 57 83 65 49
103 79 62 103 79 62 104 80 63 112 88 58
112 88 58 104 80 63 93 69 53 46 29 13
52 34 16 84 59 40 101 79 59 113 88 61
113 88 61 101 80 60 98 76 59 98 76 59
83 65 49 100 78 53 99 75 50 92 67 46
99 75 50 82 57 40 84 69 52 82 57 40
100 78 53 82 57 40 84 69 52 82 57 40
100 78 53 82 57 40 84 69 52 83 65 49
84 66 50 84 66 50 84 69 52 82 57 40
100 78 53 82 57 40 84 69 52 82 57 40
115 91 58 115 90 57 84 66 49 114 90 57
114 90 57 114 90 57 83 65 49 111 83 53
98 72 49 108 46 32 108 46 32 108 46 32
105 43 35 105 43 35 105 43 35 108 46 32
95 69 53 111 83 53 83 65 49 114 90 57
114 90 57 114 90 57 114 90 57 83 65 49
98 77 61 98 77 61 101 80 60 113 88 61
113 88 61 101 79 59 84 59 40 52 34 16
34 23 10 97 76 52 97 75 59 101 80 53
102 80 53 97 72 56 97 72 55 97 72 55
83 65 49 118 93 58 118 93 58 110 86 70
118 93 58 82 58 41 83 64 48 82 58 41
118 93 58 82 58 41 83 64 48 82 58 41
118 93 58 82 58 41 83 64 48 83 65 48
83 65 48 83 65 48 83 64 48 82 58 41
118 93 58 82 58 41 83 64 48 82 58 41
114 89 57 114 89 57 83 65 49 114 90 57
114 90 57 114 90 57 83 65 49 97 51 33
92 42 32 116 24 21 116 24 21 116 24 21
116 24 22 116 24 22 116 24 22 116 24 21
91 42 33 97 51 33 83 65 49 114 90 57
114 90 57 114 90 57 114 90 57 83 65 49
94 68 47 94 68 47 97 72 56 102 80 53
101 80 53 97 75 59 97 76 52 34 23 10
34 23 10 81 64 48 104 80 63 108 85 55
105 83 55 101 77 60 104 79 62 104 79 62
83 65 49 100 78 53 100 78 53 95 70 53
100 78 53 83 58 41 84 66 49 83 58 41
100 78 53 83 58 41 84 66 49 83 58 41
100 78 53 83 58 41 84 66 49 84 66 49
84 66 50 84 66 50 84 66 50 83 58 41
100 78 53 83 58 41 84 66 49 83 58 41
115 90 57 115 90 57 84 66 49 114 90 57
114 90 57 114 90 57 83 65 48 111 83 53
98 72 49 108 45 31 108 45 31 108 45 31
105 41 34 105 41 34 105 41 35 108 45 31
94 68 53 111 83 53 83 65 49 114 90 57
114 90 57 114 90 57 114 90 57 83 65 49
103 78 60 103 78 60 101 77 60 105 83 55
108 85 55 104 80 63 81 64 48 34 23 10
51 33 15 81 64 48 104 80 64 86 68 50
101 80 53 85 60 43 104 80 63 104 80 63
83 65 48 110 87 56 110 87 56 103 79 62
110 86 55 79 55 39 80 62 47 79 55 39
110 86 55 79 55 40 83 65 48 82 58 40
112 90 58 82 58 42 83 66 50 83 66 50
81 65 48 81 65 48 81 65 48 82 58 42
112 90 59 82 58 43 83 66 50 82 58 43
112 90 59 112 90 59 83 67 51 117 93 60
117 93 60 117 93 60 85 69 52 100 56 37
94 46 36 119 27 24 119 27 24 119 27 24
119 27 24 120 27 22 119 26 21 118 24 21
89 42 33 98 53 33 82 65 48 114 90 57
114 90 57 115 91 58 115 91 58 84 66 49
105 80 64 104 80 63 85 60 43 101 80 53
86 68 50 104 80 64 81 64 48 51 33 15
51 32 15 98 76 53 99 77 54 80 63 46
116 90 58 80 55 39 96 71 54 95 70 54
84 65 49 114 89 57 114 89 57 106 82 65
116 91 58 99 74 50 99 74 51 99 74 50
116 92 60 98 71 46 88 60 45 84 55 46
101 72 47 85 56 35 85 56 36 85 56 36
74 49 30 74 49 30 74 49 30 85 56 35
102 73 41 85 56 33 85 56 34 85 56 33
87 61 37 87 61 37 86 60 37 101 72 41
101 72 41 101 72 43 72 49 33 95 60 33
87 51 31 93 28 18 93 28 18 93 28 18
90 25 25 85 23 33 92 30 34 102 43 29
102 68 51 110 78 50 86 67 50 115 90 58
112 87 55 110 86 54 110 86 54 81 63 46
94 69 52 97 72 55 79 55 38 115 90 58
80 63 46 99 77 54 98 76 53 51 32 15
38 25 11 79 57 35 78 57 35 53 35 18
75 55 34 52 34 17 76 55 35 78 57 37
76 55 35 78 57 36 78 57 36 60 42 22
68 46 29 69 48 29 69 48 29 70 48 29
68 49 31 120 88 58 185 163 59 199 182 55
193 177 94 194 177 117 193 177 117 194 178 117
194 176 134 194 176 134 194 176 134 194 177 117
191 174 130 194 177 132 194 177 132 194 177 132
193 176 131 193 176 131 193 176 131 191 174 130
191 174 131 191 175 115 190 173 130 192 177 132
194 178 132 192 181 119 193 182 119 192 181 119
191 180 97 182 180 62 178 169 74 103 87 63
94 68 36 68 49 30 65 44 28 67 46 28
84 63 45 96 72 54 95 71 53 95 70 53
85 64 48 69 48 31 53 34 18 75 55 33
53 35 17 78 57 34 79 57 35 38 25 11
46 29 14 61 46 23 62 46 22 61 45 21
45 39 13 65 48 25 49 32 14 80 63 45
103 79 62 102 79 61 102 79 61 47 29 13
45 27 12 48 31 16 47 30 14 47 29 14
45 29 14 60 44 23 112 96 51 193 182 68
215 206 129 229 219 166 231 221 168 227 218 166
230 220 172 229 220 170 230 220 172 230 220 168
231 221 173 229 219 171 229 219 171 229 219 171
229 220 171 230 220 172 231 221 172 231 221 173
229 220 171 231 221 168 230 220 171 230 220 172
227 219 173 232 221 169 228 219 168 230 220 168
231 220 143 202 189 69 115 96 50 70 52 29
47 30 15 48 30 14 48 31 14 48 31 15
83 65 49 107 82 66 111 86 69 107 83 66
82 65 48 45 27 11 80 56 39 72 47 22
71 46 21 72 47 22 61 46 23 46 29 14
50 32 15 78 57 29 77 60 36 88 66 46
65 53 31 82 57 40 65 48 25 84 66 49
107 83 66 108 83 66 107 83 66 49 37 16
58 41 20 78 56 35 82 64 47 85 68 48
98 69 43 71 54 34 87 66 51 83 60 57
89 64 56 103 75 63 91 67 55 112 83 68
95 71 54 103 75 62 95 71 54 95 71 56
95 71 54 103 76 62 103 75 62 103 75 62
103 75 62 96 72 55 91 67 54 91 67 54
103 75 62 95 71 55 103 75 62 95 71 54
111 76 50 87 59 42 107 71 50 95 66 51
95 71 59 93 66 66 76 59 44 92 71 54
86 68 47 82 64 47 82 64 47 81 60 43
83 65 48 114 88 69 105 83 63 113 88 69
83 65 48 58 41 20 83 58 41 85 64 43
96 70 53 82 60 43 78 57 29 50 32 15
49 31 15 92 67 33 69 52 28 71 49 33
70 52 29 82 57 41 66 49 25 83 65 48
106 82 65 106 82 65 107 82 66 49 42 17
67 50 26 74 48 22 84 66 49 91 75 50
118 76 40 85 67 51 111 86 69 92 77 48
95 75 56 108 83 66 81 64 47 124 99 73
89 73 48 106 82 65 89 73 48 87 72 46
89 74 48 106 82 65 106 82 65 106 82 65
106 82 65 105 82 63 81 64 47 81 64 47
106 82 65 89 73 48 106 82 65 89 73 48
124 82 39 72 47 20 116 76 41 103 69 39
89 74 47 110 86 66 84 66 50 109 84 67
91 75 50 84 66 49 84 66 49 82 57 41
83 65 49 109 84 66 110 86 66 109 84 66
83 65 49 67 50 26 82 57 41 66 51 26
69 48 31 66 50 26 92 67 33 49 31 15
49 32 15 88 64 32 65 49 25 62 45 21
64 48 24 82 57 41 66 49 25 83 65 49
106 82 65 106 82 65 104 81 63 49 41 17
65 49 25 74 49 24 83 65 48 90 73 49
114 74 40 83 65 48 96 74 57 87 70 49
95 74 57 96 75 58 84 66 49 115 90 59
91 74 50 107 82 65 91 74 50 101 80 59
94 76 56 109 84 67 107 82 65 107 82 65
107 82 65 106 81 65 84 66 49 84 66 49
107 82 65 91 74 50 107 82 65 91 74 50
124 83 42 75 50 24 97 74 56 102 70 41
88 70 50 96 75 58 83 65 48 106 82 65
90 73 49 83 65 48 83 65 48 82 57 41
83 65 49 106 81 65 106 82 65 106 81 65
83 65 49 65 49 25 82 57 41 73 52 31
69 49 28 73 52 31 88 64 32 49 32 15
49 32 15 65 49 25 64 47 23 73 48 23
47 40 15 82 57 41 66 49 25 83 65 49
106 82 65 106 82 65 99 78 58 49 41 17
66 49 25 74 49 23 83 65 49 90 73 49
115 75 40 83 65 49 103 80 63 89 72 49
95 74 57 103 80 63 83 65 49 123 97 73
90 73 49 106 82 65 90 73 49 114 89 70
80 66 53 114 89 69 106 81 64 107 82 65
106 82 65 88 70 50 83 65 49 83 65 49
106 82 65 90 73 49 106 82 65 90 73 49
139 91 50 74 49 23 111 73 40 104 71 42
89 72 49 103 80 63 83 65 49 106 82 65
90 73 49 83 65 49 83 65 49 82 57 41
83 65 49 107 82 65 107 82 65 107 82 65
83 65 49 66 49 25 82 57 41 76 50 26
75 49 25 77 50 26 65 49 25 49 32 15
49 32 15 77 57 29 77 60 36 95 70 53
65 52 31 82 57 41 66 49 25 83 65 49
106 82 65 106 82 65 108 82 66 49 41 17
66 49 25 74 49 23 83 65 49 90 73 49
115 75 40 83 65 49 107 82 65 90 74 49
95 74 57 107 82 65 83 65 49 124 98 75
90 73 50 106 82 65 90 73 49 90 73 49
98 79 54 104 80 64 109 85 69 105 81 65
106 82 65 91 74 50 83 65 49 83 65 49
106 82 65 90 73 49 106 82 65 90 73 50
131 86 46 74 49 23 115 75 40 112 75 46
90 74 49 107 82 65 83 65 49 106 82 65
90 73 49 83 65 49 83 65 49 82 57 41
83 65 49 106 82 65 106 82 65 106 82 65
83 65 49 66 49 25 82 57 41 84 64 43
95 70 52 81 60 42 77 57 29 49 32 15
49 32 15 91 67 33 68 52 29 69 48 31
69 52 29 82 57 41 66 49 25 83 65 49
106 82 65 106 82 65 106 82 65 49 41 17
66 49 25 74 49 24 83 65 49 90 73 49
114 75 40 83 65 48 108 83 66 91 74 50
95 74 57 108 83 66 83 65 48 123 97 73
90 73 49 106 82 65 90 73 49 90 74 50
88 72 48 114 89 69 105 77 51 114 89 69
106 82 65 105 81 64 83 65 49 83 65 49
106 82 65 90 73 49 106 82 65 90 73 49
122 81 41 73 48 23 115 76 44 108 72 44
91 74 50 108 83 66 83 65 48 106 82 65
90 73 49 83 65 49 83 65 48 82 57 41
83 65 49 107 82 65 107 82 65 107 82 65
83 65 49 66 49 25 82 57 41 66 51 26
69 48 31 65 50 26 91 67 33 49 32 15
49 32 15 89 65 32 68 47 22 68 48 28
64 48 23 82 57 41 66 49 25 83 65 49
106 82 65 106 82 65 106 82 65 48 41 16
64 48 23 74 48 22 83 65 48 90 73 49
115 75 40 84 66 49 96 75 58 86 69 48
94 73 56 96 75 58 84 66 50 115 90 58
91 74 50 107 82 65 90 74 49 89 73 48
91 74 50 109 84 66 129 87 59 109 84 67
107 82 65 107 82 66 83 65 48 83 65 48
107 82 65 90 74 49 107 82 65 91 74 50
124 82 41 78 52 25 99 74 53 96 65 40
86 69 48 96 75 58 85 66 50 107 82 65
90 73 49 83 65 48 83 66 49 82 57 41
83 65 49 106 82 66 106 82 65 106 81 65
83 65 49 66 49 25 82 57 41 73 52 32
68 48 28 73 52 32 89 65 32 49 32 15
49 32 15 89 65 32 78 52 27 89 63 47
68 51 28 82 57 41 66 49 25 83 65 49
106 82 65 106 82 65 106 82 65 50 42 17
75 54 34 79 56 34 86 67 50 91 74 51
114 75 40 105 81 65 104 80 63 96 76 57
104 80 64 102 79 63 105 80 64 112 89 57
105 81 64 105 82 65 91 73 50 97 77 57
88 70 50 105 81 65 104 81 66 105 81 65
106 82 65 106 81 65 83 66 49 84 65 49
105 82 65 91 73 50 105 82 65 105 81 64
122 81 42 115 76 39 110 79 52 111 73 40
96 76 57 103 79 63 104 81 64 106 81 65
90 74 50 85 66 50 83 64 47 82 57 41
83 65 49 107 81 64 108 83 66 110 85 67
82 65 48 66 49 25 82 57 41 86 61 45
89 63 47 85 60 44 89 65 32 49 32 15
49 32 15 89 65 32 77 60 36 89 65 49
73 56 36 82 57 41 66 49 25 83 65 49
106 82 65 106 82 65 106 82 65 72 48 23
79 54 33 72 51 27 66 46 29 75 58 37
64 41 20 76 58 38 68 52 31 85 63 47
75 53 34 84 63 46 76 54 34 84 63 45
76 54 34 84 62 46 75 54 34 85 63 47
74 53 34 83 62 44 76 55 35 82 61 44
82 61 44 76 55 35 82 61 43 75 54 34
84 62 46 75 54 34 84 62 46 76 54 34
80 55 33 72 46 25 83 63 48 70 45 23
85 63 47 76 55 35 84 63 46 76 54 34
83 62 45 68 47 30 71 50 26 82 57 41
83 65 49 114 75 42 122 95 72 106 84 63
98 77 56 66 49 25 82 57 41 77 60 36
89 65 49 74 56 36 89 65 32 49 32 15
49 32 15 89 65 32 65 48 24 59 41 21
65 48 24 82 57 41 66 49 25 83 65 49
106 82 65 106 82 65 106 82 65 50 42 17
65 48 23 73 48 23 66 46 21 64 48 23
78 54 26 64 47 23 61 46 21 83 65 48
92 69 50 84 65 48 81 61 43 83 64 48
80 60 43 84 65 48 81 61 43 84 65 49
81 57 39 75 50 25 84 67 46 96 74 57
96 74 57 84 68 46 77 51 26 81 58 40
84 66 49 81 61 43 84 65 48 80 60 42
81 56 38 75 49 24 84 65 48 93 61 32
83 65 48 81 61 43 84 65 48 81 61 43
83 64 47 78 61 44 80 57 40 82 57 41
83 65 49 115 74 40 115 76 42 110 85 65
89 71 51 66 49 25 82 57 41 65 48 24
59 41 21 65 48 24 89 65 32 49 32 15
49 32 15 89 65 32 73 48 22 80 56 39
65 48 24 82 57 41 66 49 25 83 65 49
106 82 65 106 82 65 106 82 65 48 41 16
66 49 25 75 49 23 76 50 24 66 49 25
92 67 33 66 49 25 79 53 32 105 81 65
116 92 60 105 81 65 106 82 66 107 83 66
109 84 67 105 81 64 86 69 47 101 77 60
80 61 45 78 53 37 82 65 49 97 75 59
97 75 59 81 64 48 108 68 32 78 59 43
101 77 60 87 70 48 104 80 64 109 85 67
117 76 42 113 74 39 105 81 65 126 84 43
105 81 65 106 82 66 105 81 65 106 82 64
110 85 68 84 66 50 82 58 41 82 57 41
83 65 49 114 75 42 114 74 40 115 74 40
82 64 48 66 49 25 82 57 41 81 56 40
80 56 39 82 57 40 89 65 32 49 32 15
49 32 15 89 65 32 81 60 35 96 70 54
73 56 36 82 57 41 66 49 25 83 65 49
106 82 65 106 82 65 106 82 65 49 41 17
66 49 25 74 49 23 74 49 23 66 49 25
89 65 32 74 49 23 83 62 46 107 82 66
113 88 55 107 82 65 107 82 65 95 74 57
113 88 68 131 105 79 140 116 93 151 126 102
134 110 88 104 79 55 96 76 50 81 64 47
81 64 47 104 83 57 147 114 82 145 122 100
152 127 102 133 108 85 134 107 81 113 87 67
95 62 32 115 75 41 107 82 65 123 82 41
107 82 65 107 82 65 107 82 65 118 92 66
98 76 53 114 89 70 82 57 41 82 57 41
83 65 49 107 81 64 115 75 40 111 78 52
83 65 49 66 49 25 82 57 41 85 64 44
96 70 54 82 61 44 89 65 32 49 32 15
49 32 15 89 65 32 67 52 27 69 48 30
68 51 28 82 57 41 66 49 25 83 65 49
106 82 65 106 82 65 106 82 65 49 41 17
66 49 25 74 49 23 74 49 23 66 49 25
89 65 32 74 49 23 83 66 49 106 81 63
118 93 60 106 82 66 106 82 65 81 64 47
83 65 49 98 77 59 114 90 64 128 108 82
155 129 104 138 113 86 125 99 69 84 66 50
84 66 50 112 91 65 132 110 81 133 109 86
124 103 81 112 87 62 81 65 43 70 50 26
71 47 22 114 75 40 106 82 65 123 82 41
107 82 65 107 82 65 105 81 64 108 83 67
107 83 63 97 76 58 82 57 41 82 57 41
83 65 49 106 82 66 114 75 42 106 83 67
83 65 49 66 49 25 82 57 41 66 51 26
69 48 30 65 50 26 89 65 32 49 32 15
49 32 15 89 65 32 73 52 31 68 48 28
64 48 23 82 57 41 66 49 25 83 65 49
106 82 65 106 82 65 106 82 65 49 41 17
66 49 25 74 49 23 74 49 23 66 49 25
89 65 32 75 49 24 90 73 49 120 96 65
109 85 59 108 84 59 106 82 65 84 66 49
83 65 48 80 63 47 76 52 36 81 64 43
105 84 62 83 64 47 110 89 67 80 62 44
80 62 44 78 61 46 83 58 25 73 49 33
79 61 45 77 52 37 43 37 12 65 49 25
75 49 24 115 75 40 107 81 64 123 82 41
106 82 65 105 81 64 110 86 68 106 81 66
107 82 66 80 63 47 82 57 41 82 57 41
83 65 49 107 82 65 107 81 64 107 82 65
83 65 49 66 49 25 82 57 41 73 52 32
68 48 28 73 52 32 89 65 32 49 32 15
49 32 15 91 67 33 86 61 45 89 63 47
68 51 28 82 57 41 66 49 25 83 65 49
106 82 65 106 82 65 106 82 65 49 41 17
66 49 25 74 49 23 74 49 23 66 49 25
89 65 32 82 57 40 90 74 49 109 85 67
116 91 61 100 79 57 106 82 65 83 65 49
83 65 49 84 66 49 83 58 41 88 70 51
81 60 43 105 74 48 79 63 45 90 65 45
90 65 45 84 66 49 117 77 41 84 59 42
96 75 58 83 58 41 50 42 18 66 49 25
74 49 23 115 75 40 114 75 42 123 82 41
90 73 49 122 97 64 112 84 59 108 84 59
107 82 65 84 66 49 82 57 41 82 57 41
83 65 49 106 82 65 106 82 66 106 82 65
83 65 49 66 49 25 82 57 41 86 61 45
89 63 47 85 60 44 91 67 33 49 32 15
49 32 15 78 57 29 77 60 36 89 65 49
73 56 36 82 57 41 66 49 25 83 65 49
106 82 65 106 82 65 106 82 65 49 42 17
66 49 25 75 49 24 75 50 24 66 50 25
90 65 33 83 58 41 91 74 50 106 82 65
114 90 57 108 83 67 107 82 65 84 66 49
83 65 49 83 65 49 82 57 41 105 81 64
83 57 41 100 66 39 87 68 52 114 88 72
114 88 72 84 67 50 99 66 41 82 57 41
105 80 62 82 57 41 49 41 17 66 49 25
75 49 24 115 75 40 115 75 40 123 82 41
98 78 57 140 93 52 147 92 53 101 80 57
107 82 65 84 66 49 83 58 41 82 58 41
83 65 49 106 82 65 107 82 65 106 82 65
83 65 49 66 49 25 82 57 41 77 60 36
89 65 49 74 56 36 78 57 29 49 32 15
49 32 15 64 48 24 65 48 24 59 41 21
65 48 24 82 57 41 66 49 25 83 65 49
106 82 65 106 82 65 106 82 65 47 41 16
64 48 23 73 47 22 71 45 20 63 46 23
87 64 32 80 55 39 88 72 48 105 81 64
113 88 55 104 80 64 105 80 64 81 64 47
83 65 48 83 65 49 82 57 41 107 82 65
82 58 41 79 56 41 66 53 33 77 56 39
77 56 39 75 57 37 79 56 41 82 58 41
123 82 43 82 57 41 49 42 17 66 49 26
73 48 23 114 74 40 113 74 40 122 81 41
106 81 66 138 90 49 137 90 49 105 80 65
104 80 64 79 62 46 80 55 39 82 57 40
83 65 49 106 82 65 106 82 65 106 82 65
83 65 49 66 49 25 82 57 41 65 48 24
59 41 21 65 48 24 64 48 24 49 32 15
49 32 15 66 49 25 81 56 40 80 56 39
65 48 24 82 57 41 66 49 25 83 65 49
106 82 65 106 82 65 106 82 65 58 46 22
74 54 34 94 70 52 94 70 41 81 66 37
105 73 36 96 71 52 106 84 61 115 90 70
121 96 67 117 92 71 115 90 70 94 72 56
83 65 49 83 65 49 82 57 41 106 82 65
83 65 48 83 58 41 46 39 14 45 27 11
68 48 28 72 48 21 83 58 41 83 65 48
125 82 39 82 57 41 48 40 15 64 47 22
81 56 27 119 78 41 122 80 42 126 84 43
115 90 69 139 91 50 141 92 50 117 92 71
117 92 71 106 84 63 94 69 52 82 58 41
83 65 49 106 82 65 106 82 65 106 82 65
83 65 49 66 49 25 82 57 41 81 56 40
80 56 39 82 57 40 66 49 25 49 32 15
49 32 15 66 49 25 85 64 44 96 70 54
73 56 35 82 57 41 66 49 25 83 65 49
106 82 65 106 82 65 106 82 65 83 65 47
113 87 68 140 111 92 142 113 91 98 83 49
138 89 48 110 86 62 131 106 78 144 120 88
151 127 98 152 127 98 144 120 88 137 111 85
112 87 68 83 65 49 82 57 41 106 82 65
83 66 49 82 57 41 49 42 17 50 32 16
85 59 43 75 49 24 82 57 41 83 66 49
115 82 53 82 57 41 73 56 36 103 79 52
140 92 48 146 95 51 159 103 55 158 102 54
144 120 88 155 99 56 158 103 56 152 127 98
152 127 98 154 129 99 136 107 88 112 87 67
83 65 49 106 82 65 106 82 65 106 82 65
83 65 49 66 49 25 82 57 41 85 64 44
96 70 54 82 61 44 66 49 25 49 32 15
49 32 15 66 49 25 66 51 26 69 48 31
69 52 29 82 57 41 66 49 25 83 65 49
106 82 65 106 82 65 106 82 65 86 67 51
114 88 70 92 72 56 98 72 40 93 68 34
98 71 36 85 60 44 114 89 71 98 82 56
93 76 55 114 89 72 98 82 56 116 91 73
112 87 70 83 65 49 82 57 41 106 82 65
90 73 49 82 58 41 49 41 17 49 32 15
82 57 40 74 49 23 82 58 41 90 73 49
105 82 67 82 57 41 88 69 53 115 89 73
122 79 45 99 71 36 120 79 42 93 66 40
98 82 56 115 88 69 115 88 69 114 89 72
114 89 72 93 75 55 92 73 57 112 87 70
83 65 49 106 82 65 106 82 65 106 82 65
83 65 49 66 49 25 82 57 41 66 51 26
69 48 31 65 50 26 66 49 25 49 32 15
49 32 15 66 49 25 72 51 29 67 47 26
62 47 22 82 57 41 66 49 25 83 65 49
106 82 65 106 82 65 106 82 65 66 53 32
77 61 40 65 48 30 69 47 22 69 48 23
68 47 23 65 44 27 77 55 39 68 50 31
64 47 30 77 55 39 68 50 31 77 56 40
86 65 45 83 65 49 82 57 41 107 82 65
90 74 49 82 57 40 49 41 17 49 32 15
82 57 41 74 49 23 82 57 40 90 74 49
107 82 65 82 57 41 66 53 32 77 61 40
66 44 27 68 48 23 70 48 24 64 43 28
68 50 31 77 55 40 77 56 40 77 55 39
76 55 39 63 45 30 64 48 31 86 65 45
83 65 49 106 82 65 106 82 65 106 82 65
83 65 49 66 49 25 82 57 41 72 51 29
67 47 26 72 51 29 66 49 25 49 32 15
49 32 15 66 49 25 83 57 37 85 59 39
61 48 25 82 57 41 66 49 25 83 65 49
106 82 65 106 82 65 106 82 65 46 39 14
44 38 13 47 39 14 43 33 13 46 32 14
46 30 14 48 30 13 44 32 12 46 33 14
49 30 13 45 33 13 46 33 13 65 44 20
79 59 41 83 65 49 82 58 41 106 83 67
90 73 50 83 61 45 49 41 17 49 32 15
82 57 41 74 49 23 83 61 45 90 73 49
106 82 65 82 57 41 46 39 14 44 38 13
47 30 13 44 27 13 45 28 13 48 30 12
46 33 14 44 32 12 46 28 11 44 32 12
53 34 14 56 38 18 67 46 22 78 58 41
83 65 49 106 82 65 106 82 65 106 82 65
83 65 49 66 49 25 82 57 41 83 57 37
85 59 39 82 56 37 66 49 25 49 32 15
49 32 15 66 49 25 77 61 37 90 66 50
74 57 36 82 57 41 66 49 25 83 65 49
106 82 65 106 82 65 106 82 65 49 42 17
51 43 18 48 41 17 65 50 26 82 59 29
101 69 36 83 61 44 94 74 55 94 74 55
80 60 43 93 74 54 93 74 56 84 62 45
82 65 49 83 65 48 82 57 40 110 78 53
92 74 49 83 66 49 49 41 17 49 32 15
82 57 41 74 49 23 83 66 49 90 73 49
106 82 65 82 57 41 49 42 17 51 43 18
48 30 15 61 41 19 83 58 28 76 52 31
94 74 55 94 74 55 83 62 45 95 74 55
101 68 34 84 60 42 81 60 42 84 67 50
84 66 49 106 82 65 106 82 65 106 82 65
83 65 49 66 49 25 82 57 41 77 61 37
90 66 50 74 57 37 66 49 25 49 32 15
49 32 15 66 49 25 65 48 25 59 41 22
66 49 24 82 57 41 66 49 25 83 65 49
106 82 65 106 82 65 106 82 65 48 41 17
63 48 24 79 57 26 100 74 52 115 90 57
126 83 42 106 82 66 117 92 61 117 92 60
99 79 57 122 96 68 110 85 68 114 90 70
96 75 58 83 65 49 81 60 44 116 74 38
121 82 42 85 66 48 49 41 17 49 32 15
82 57 41 74 49 23 83 65 48 90 73 49
106 82 65 82 57 41 48 41 16 63 48 24
79 54 28 103 70 36 123 83 42 104 71 38
117 91 60 117 91 60 106 82 66 116 92 66
151 96 54 105 80 65 98 78 60 81 63 47
81 64 47 107 82 65 106 82 65 106 82 65
83 65 49 66 49 25 82 57 41 65 48 25
59 41 22 65 49 25 66 49 25 49 32 15
49 32 15 66 49 25 78 53 32 77 53 31
57 45 20 82 57 41 66 49 25 83 65 49
106 82 65 106 82 65 107 82 65 71 51 26
104 73 38 122 89 57 109 85 62 113 88 56
122 81 41 109 84 61 120 95 71 120 95 71
117 92 66 138 114 82 120 94 72 135 109 76
130 104 72 116 91 66 95 73 56 123 82 42
124 82 41 113 74 41 49 41 17 49 32 15
82 57 41 74 49 23 83 65 49 90 73 49
106 82 65 82 57 41 72 52 28 105 74 38
123 83 41 119 78 42 123 82 41 122 81 41
121 96 72 122 96 72 108 84 60 145 103 65
174 111 67 109 85 61 130 105 78 126 103 78
95 74 57 106 81 64 106 82 65 106 82 65
83 65 49 66 49 25 82 57 41 78 53 32
77 53 31 78 53 32 66 49 25 49 32 15
49 32 15 66 49 25 84 63 42 95 69 52
71 55 34 82 57 41 66 49 25 83 65 49
106 82 65 108 83 66 105 81 65 105 80 63
110 83 65 92 76 53 84 59 40 91 66 34
115 75 40 85 67 48 84 60 43 85 67 50
86 67 51 124 98 74 86 67 50 116 77 43
115 76 42 122 82 43 119 79 43 123 82 41
123 82 41 115 75 40 49 41 17 49 32 15
82 57 41 74 49 23 83 66 49 90 73 49
106 82 65 82 57 41 117 91 63 126 98 73
115 75 42 84 59 40 123 82 41 84 59 41
107 83 66 106 82 65 96 78 51 110 86 58
102 82 55 92 74 49 89 73 49 98 81 55
108 83 67 91 74 50 106 82 65 106 82 65
83 65 49 66 49 25 82 57 41 84 63 42
95 69 52 81 60 42 66 49 25 49 32 15
49 32 15 66 49 25 66 51 26 69 48 31
69 52 29 82 57 41 66 49 25 83 65 49
106 82 65 98 78 57 113 89 63 112 88 66
108 83 65 89 73 48 82 61 45 89 65 32
114 75 40 82 65 49 81 57 40 82 65 48
83 65 48 124 98 75 82 65 48 114 74 40
119 78 40 124 82 41 131 86 45 125 83 42
123 82 41 114 75 40 49 41 17 49 32 15
82 58 41 74 49 23 90 73 49 90 73 49
106 82 65 82 57 41 114 90 56 122 97 74
107 81 64 74 49 24 123 82 41 82 57 40
106 82 65 114 89 69 107 85 68 91 75 58
110 88 71 112 88 68 98 78 57 88 71 48
106 82 65 91 74 50 107 82 65 106 82 65
83 65 49 66 49 25 82 57 41 66 51 26
69 48 31 65 50 26 66 49 25 49 32 15
49 32 15 66 49 25 73 52 32 68 48 28
64 48 23 82 57 41 66 49 25 83 65 49
106 82 65 90 73 49 118 94 68 109 85 59
103 82 54 90 74 50 83 66 49 89 65 33
115 75 40 83 65 49 82 58 41 83 65 49
90 73 49 119 94 66 84 66 49 115 75 40
124 83 41 137 89 49 139 91 50 130 86 45
123 82 41 115 75 40 49 41 17 50 30 14
84 64 48 74 49 23 90 74 50 90 73 49
106 82 65 82 57 41 110 86 61 124 98 76
106 82 66 75 50 24 123 82 41 89 65 33
107 82 65 107 83 66 106 75 46 105 67 35
104 74 45 110 85 68 107 82 66 91 74 51
106 82 65 104 80 63 106 82 65 106 82 65
83 65 49 66 49 25 82 57 41 73 52 32
68 48 28 73 52 32 66 49 25 49 32 15
49 32 15 66 49 25 86 61 45 89 63 47
68 51 28 82 57 41 66 49 25 83 65 49
106 82 65 106 82 65 105 80 65 110 86 67
104 80 63 90 73 49 83 65 48 82 58 41
114 74 40 83 65 48 82 57 41 83 65 48
91 74 50 113 89 55 90 73 49 114 75 41
122 81 41 124 82 42 122 82 42 122 81 41
123 82 41 115 75 40 49 41 17 45 37 18
77 69 50 74 49 23 89 73 48 90 73 49
106 82 65 82 58 41 106 81 66 119 94 65
106 82 65 89 64 32 123 82 41 91 66 33
106 81 65 114 89 69 109 75 36 165 105 60
141 91 48 97 77 57 90 74 50 105 81 63
107 82 65 112 87 70 107 82 65 106 82 65
83 65 49 66 49 25 82 57 41 86 61 45
89 63 47 85 60 44 66 49 25 49 32 15
49 32 15 66 49 25 77 60 36 89 65 49
73 56 35 82 57 41 66 49 25 83 65 49
106 82 65 106 82 65 107 82 65 106 81 65
108 83 66 91 74 50 84 66 49 83 65 49
116 75 41 84 66 49 83 58 41 84 66 49
106 82 65 115 91 58 91 74 50 116 75 39
121 80 41 125 83 42 92 74 49 123 82 41
123 82 41 114 75 42 49 41 17 96 20 11
98 22 12 75 49 24 98 78 57 90 73 49
106 82 65 81 56 39 108 83 66 110 86 60
107 83 66 90 66 33 124 83 42 114 75 40
109 84 67 126 100 76 87 64 32 155 98 56
139 91 51 89 74 49 91 74 50 90 73 51
127 101 79 103 81 57 127 101 78 106 82 65
83 65 49 66 49 25 82 57 41 77 60 36
89 65 49 74 56 36 66 49 25 49 32 15
49 32 15 66 49 25 65 48 25 59 41 22
66 49 24 82 57 41 66 49 25 83 65 49
105 81 64 90 73 50 106 81 64 105 80 63
105 80 63 86 70 47 81 63 47 82 64 47
111 73 39 88 71 48 81 56 40 88 71 48
104 80 63 111 87 55 88 72 48 108 76 51
119 80 40 117 77 38 89 72 49 123 82 41
126 83 41 107 81 64 49 42 17 73 17 9
72 17 8 82 57 40 108 83 66 90 73 49
106 82 65 91 67 50 102 78 62 103 78 63
104 80 63 88 64 32 120 80 40 112 73 39
119 93 71 119 94 71 88 64 32 128 84 45
134 88 48 88 71 48 86 70 47 86 68 47
97 75 57 95 75 54 97 75 58 105 81 64
83 65 49 66 49 25 82 57 41 65 48 24
59 41 21 65 48 24 66 49 25 49 32 15
49 32 15 66 49 25 78 53 32 77 53 31
57 45 20 82 57 41 66 49 25 83 65 49
111 86 69 93 77 52 109 85 69 76 50 25
76 51 26 64 42 21 52 34 17 50 32 15
51 33 15 50 32 16 49 32 15 50 32 16
51 33 16 51 33 16 50 32 16 49 33 17
54 35 17 70 47 29 83 62 45 123 82 41
107 78 45 106 82 66 47 41 16 91 23 12
91 23 12 82 58 41 106 82 65 90 73 49
106 82 65 54 46 21 61 43 23 54 35 18
50 32 15 50 33 15 51 33 15 51 33 15
52 34 17 52 34 17 50 32 15 50 32 14
53 33 16 53 35 17 64 42 21 75 51 25
72 47 23 108 83 67 91 75 50 111 86 69
83 65 49 66 49 25 82 57 41 81 56 40
80 56 39 82 57 40 66 49 25 49 32 15
49 32 15 66 49 25 84 63 42 95 69 52
71 55 34 82 57 41 66 49 25 83 65 49
79 57 41 70 53 33 90 65 44 75 50 24
75 49 23 76 50 24 73 48 23 58 40 20
57 36 19 57 40 20 58 40 20 57 40 20
57 40 20 60 40 19 57 40 20 65 44 27
72 47 23 84 59 42 83 66 49 122 82 43
87 73 50 107 82 65 57 45 21 74 17 9
74 17 9 82 57 41 106 82 65 90 73 49
106 82 65 47 40 15 66 50 25 72 47 22
65 44 27 56 35 18 59 39 18 57 36 21
56 39 20 57 39 19 57 40 21 58 40 21
57 40 20 73 48 23 76 50 24 76 49 24
76 51 25 87 66 46 71 54 33 79 57 41
83 65 49 66 49 25 82 57 41 85 64 44
96 70 54 82 61 44 66 49 25 49 32 15
49 32 15 66 49 25 66 51 26 69 48 31
69 52 29 82 57 41 66 49 25 83 65 49
42 24 8 43 26 10 45 27 9 55 38 18
69 45 20 73 47 21 74 48 21 83 58 41
75 50 25 87 70 49 83 62 45 87 70 49
87 70 49 100 78 56 88 71 50 86 67 50
75 49 23 82 57 40 83 65 48 107 82 64
91 74 49 106 82 65 67 50 25 90 24 12
90 24 12 82 57 41 106 82 65 90 73 49
106 82 65 49 42 17 66 49 25 75 49 24
86 67 50 84 58 29 104 71 37 86 61 37
90 71 51 83 62 45 87 69 49 81 58 40
83 59 41 74 48 21 72 47 21 66 45 21
55 38 18 44 27 9 43 26 10 42 24 8
83 65 49 66 49 25 82 57 41 66 51 26
69 48 30 65 50 26 66 49 25 49 32 15
49 32 15 66 49 25 73 52 32 68 48 28
64 48 23 82 57 41 66 49 25 83 65 49
69 50 34 67 46 29 68 50 33 64 43 27
71 51 32 79 58 36 79 57 36 82 58 41
100 68 34 114 89 69 84 66 49 114 89 69
91 74 50 115 90 59 106 82 65 83 65 48
75 49 24 82 57 40 83 65 49 106 82 66
90 73 49 106 82 65 66 49 26 80 13 8
80 13 8 82 57 41 106 82 65 90 73 49
106 82 65 49 41 17 66 49 25 74 49 24
83 65 48 114 75 40 125 82 42 90 66 32
97 77 55 84 66 49 114 89 69 94 73 56
82 58 41 79 57 36 75 58 37 68 50 33
64 43 27 68 50 33 67 46 29 69 50 34
83 65 49 66 49 25 82 57 41 73 52 32
68 48 28 73 52 32 66 49 25 49 32 15
49 32 15 66 49 25 86 61 45 89 63 47
68 51 28 82 57 41 66 49 25 83 65 49
108 84 67 92 75 51 108 84 67 89 71 51
138 91 52 90 74 52 84 66 51 83 65 48
93 71 42 109 84 67 89 73 49 109 84 67
90 73 49 114 90 56 107 82 65 83 65 49
82 58 40 83 61 45 83 65 49 107 82 65
90 73 49 106 82 65 82 57 40 75 66 48
75 66 48 83 58 41 106 82 65 90 73 49
106 82 65 49 41 17 66 49 25 74 49 22
83 65 49 115 75 40 123 82 41 89 65 32
97 77 56 89 73 49 109 84 67 93 76 52
83 65 48 84 66 51 91 74 52 108 84 67
89 71 51 108 84 67 92 75 51 108 84 67
83 65 49 66 49 25 82 57 41 86 61 45
89 63 47 85 60 44 66 49 25 49 32 15
49 32 15 66 49 25 77 60 36 89 65 49
73 56 36 82 57 41 66 49 25 83 65 49
107 82 65 90 74 48 105 80 64 91 74 50
138 90 49 90 73 48 84 66 47 84 66 49
89 73 49 105 81 63 91 74 50 106 81 64
91 74 50 113 88 57 105 81 64 82 64 48
80 55 39 83 66 49 83 65 49 106 82 65
90 73 49 106 82 65 79 55 40 93 71 54
93 71 54 78 55 40 106 82 65 90 73 49
106 82 65 50 42 17 66 49 25 76 51 30
82 64 48 113 74 39 121 81 40 91 66 33
108 83 66 91 74 50 105 81 63 89 72 47
84 66 49 84 66 47 90 73 48 105 80 64
91 74 50 105 80 64 90 74 48 107 82 65
83 65 49 66 49 25 82 57 41 77 60 36
89 65 49 74 56 36 66 49 25 49 32 15
49 32 15 66 49 25 65 48 24 58 40 20
64 48 23 82 58 41 65 49 25 83 65 48
126 101 73 116 92 65 132 107 79 129 104 76
202 132 82 121 97 64 117 93 65 106 81 65
123 99 66 118 93 65 114 90 57 135 111 79
114 90 57 133 108 80 133 108 80 117 92 72
96 71 53 82 63 48 82 65 48 107 83 66
91 74 50 107 82 66 103 81 55 134 109 75
134 109 75 103 81 56 107 82 66 91 74 50
107 83 66 45 39 14 65 48 25 97 72 55
117 92 72 134 88 47 134 88 47 124 83 42
135 111 79 114 90 57 118 93 65 123 99 67
106 81 65 117 93 65 121 97 64 132 107 80
129 104 76 132 107 79 116 92 65 126 101 73
83 65 48 66 50 26 82 57 40 65 48 24
58 40 20 65 48 24 66 49 25 49 32 15
49 32 15 66 49 25 82 57 40 82 58 41
67 51 27 80 56 39 66 49 25 84 66 50
145 121 88 131 105 79 154 130 97 146 122 89
242 174 129 133 109 77 133 108 78 125 100 73
153 129 96 134 109 78 131 107 74 153 129 96
130 106 74 151 127 94 151 127 94 151 126 93
143 119 88 126 101 78 93 71 53 104 79 61
88 71 48 104 80 63 122 98 71 130 106 82
130 106 82 122 98 71 104 80 63 88 71 48
104 79 61 76 59 37 125 100 76 143 119 88
151 126 93 157 101 55 157 101 54 133 87 47
153 129 96 131 107 74 134 109 78 153 129 96
125 100 73 133 108 78 134 109 77 153 128 96
146 122 89 154 130 97 131 105 79 145 121 88
83 66 49 64 47 22 82 58 42 82 57 40
82 58 41 81 57 40 66 49 25 49 32 15
49 32 15 66 49 25 82 58 41 82 58 41
82 61 43 93 68 52 62 49 25 74 58 37
111 85 68 110 84 66 109 83 66 95 76 53
92 65 48 86 68 51 87 69 51 109 84 66
94 77 52 109 84 67 101 80 59 93 75 52
95 74 57 95 71 54 94 71 53 82 60 39
96 76 58 94 72 50 80 58 37 81 58 38
92 69 51 94 73 56 96 75 57 84 66 47
83 65 46 95 75 56 92 72 55 91 68 50
80 57 37 83 59 39 93 72 50 96 76 58
82 60 39 93 61 31 94 62 34 92 60 31
93 75 52 101 80 59 109 84 67 94 77 52
109 84 66 86 68 50 86 68 50 86 60 43
95 76 53 109 83 66 110 84 66 111 85 68
82 61 40 89 64 43 82 61 44 82 58 41
82 58 41 82 58 41 66 49 25 49 32 15
49 32 15 66 49 25 82 56 40 80 55 39
82 57 40 85 61 44 90 67 50 77 44 21
104 87 69 105 87 69 105 87 69 86 78 51
77 59 41 84 66 48 82 64 48 106 81 65
89 73 49 106 81 65 85 66 50 86 69 48
100 77 61 97 75 59 100 78 62 85 66 46
100 77 61 84 65 44 94 70 54 80 60 44
96 74 58 94 72 56 82 64 48 91 75 50
94 78 52 84 66 49 101 78 62 101 79 63
84 64 48 95 71 55 85 66 45 98 76 59
86 66 46 102 66 35 104 69 41 102 67 35
86 69 48 85 66 50 106 81 65 89 73 49
106 81 65 85 66 50 86 68 52 79 62 43
86 78 51 105 87 69 105 87 69 104 87 69
92 67 49 86 61 45 82 57 40 82 56 40
80 55 39 82 57 40 66 49 25 49 32 15
49 32 15 66 49 25 85 64 44 96 70 54
82 61 44 81 57 40 81 56 39 81 13 8
116 46 40 116 46 40 116 46 40 109 42 32
99 33 25 52 35 15 83 65 49 107 82 65
89 71 48 107 82 65 83 65 48 91 74 50
88 67 47 108 83 66 88 67 47 91 75 50
88 67 47 98 78 57 114 89 69 104 83 64
119 95 75 130 104 83 103 82 62 88 70 50
70 53 33 89 71 53 86 65 45 86 65 45
74 57 37 98 76 59 87 71 50 96 74 58
88 71 49 97 63 33 101 68 40 97 63 33
88 70 49 83 65 48 107 82 65 89 71 48
107 82 65 66 53 32 60 42 26 99 36 29
109 42 32 116 46 40 116 46 40 116 46 40
81 56 40 81 56 40 82 58 41 85 64 44
96 70 54 82 61 44 66 49 25 49 32 15
49 32 15 66 49 25 66 51 26 69 48 30
65 50 26 81 57 40 83 58 41 81 20 11
76 29 17 76 29 17 76 29 17 75 28 16
66 19 10 54 36 16 83 65 49 106 82 65
87 67 46 106 82 65 83 65 49 90 73 49
78 54 36 106 82 65 78 53 36 90 73 49
77 53 35 92 74 51 101 80 59 92 73 52
94 76 55 110 88 67 131 105 81 125 99 77
115 92 71 137 111 88 91 71 53 65 49 25
68 47 22 104 80 64 89 73 49 79 55 39
89 73 49 70 46 22 112 73 40 70 46 22
90 73 50 83 65 48 106 82 65 87 67 46
106 82 65 48 40 15 52 35 14 65 17 7
75 28 16 76 29 17 76 29 17 76 29 17
83 58 41 81 57 40 82 57 41 66 51 26
69 48 30 65 50 26 66 49 25 49 32 15
49 32 15 66 49 25 73 53 32 69 49 29
74 53 33 85 59 43 80 57 39 76 23 12
112 49 40 112 49 40 112 49 40 106 46 34
93 34 25 53 36 16 83 65 49 106 82 65
89 72 49 106 82 65 83 65 49 90 73 49
81 61 45 107 82 66 82 61 44 90 73 49
85 63 46 89 73 49 107 82 66 85 60 43
95 71 53 91 67 51 93 70 53 100 74 57
103 78 60 93 69 52 100 74 58 95 71 54
86 60 43 97 75 58 87 70 49 84 62 46
87 70 49 76 50 24 101 68 40 76 50 24
86 69 48 84 66 49 106 82 65 89 72 49
106 82 65 57 45 21 54 37 16 90 30 17
105 45 33 112 49 40 112 49 40 112 49 40
80 57 39 85 59 43 83 58 41 73 53 32
69 49 29 74 53 32 66 49 25 49 32 15
49 32 15 66 49 25 83 58 42 85 59 43
83 59 42 66 49 29 52 38 18 63 50 23
77 28 17 77 28 17 77 28 17 69 20 11
67 19 10 53 36 16 83 65 49 106 82 65
87 67 46 106 82 65 83 65 49 90 73 49
104 84 56 107 83 63 100 80 59 90 73 49
105 82 65 90 73 49 106 82 65 93 72 55
95 72 56 95 73 56 84 62 45 94 72 55
93 71 54 84 62 46 94 72 55 95 73 56
93 72 56 103 80 63 89 72 49 105 82 65
89 72 49 89 65 32 109 72 40 89 64 32
95 77 55 81 64 47 106 82 65 87 67 46
106 82 65 48 41 16 53 36 16 68 19 12
76 28 16 77 28 17 77 28 17 77 28 17
52 38 18 66 49 29 81 58 40 83 58 42
84 59 43 83 58 42 66 49 25 49 32 15
49 31 14 65 49 25 82 57 40 80 56 40
46 35 13 42 33 10 63 46 23 70 46 20
112 50 41 112 50 41 112 50 41 102 44 32
93 35 25 54 36 16 83 65 48 107 82 65
90 72 49 107 82 65 83 65 48 89 73 50
114 89 67 98 76 52 114 89 69 90 74 50
107 83 66 90 74 50 107 82 66 83 65 49
94 73 56 94 73 56 94 69 52 94 73 57
94 74 57 94 69 52 94 73 57 94 73 56
83 66 49 108 83 66 91 74 50 107 82 66
91 74 50 116 75 40 122 79 41 131 87 46
106 85 61 50 42 18 107 82 65 90 73 49
107 82 65 49 41 16 54 36 16 92 34 25
104 46 34 112 50 41 112 50 41 112 50 41
63 46 23 42 33 10 48 36 14 82 57 40
82 57 40 82 57 40 65 49 25 49 31 14
50 33 17 66 50 26 81 58 41 86 60 43
75 59 40 76 62 41 73 53 33 79 58 37
77 22 12 77 22 12 77 22 12 78 22 13
68 14 7 51 34 15 83 66 49 105 81 64
85 65 45 105 81 65 84 67 49 95 75 49
93 76 53 111 86 69 91 74 51 88 72 49
103 79 62 90 73 47 105 80 62 104 80 64
103 79 63 102 79 63 80 63 46 101 78 62
101 78 62 80 62 46 101 78 62 101 78 62
103 79 63 104 80 64 88 72 49 104 80 64
88 72 48 100 68 36 101 70 36 129 85 46
75 59 36 49 41 17 104 80 64 85 65 45
104 80 64 49 41 17 51 34 15 69 15 8
77 22 13 76 21 12 76 21 11 76 21 11
73 53 33 75 61 40 64 51 32 81 58 41
80 57 40 81 58 41 65 49 26 49 32 16
84 62 45 85 64 45 86 63 47 143 90 47
91 68 50 91 68 51 90 68 51 84 63 46
82 67 48 80 67 46 82 67 49 82 68 47
84 69 49 87 66 47 84 63 47 85 64 47
86 65 48 83 63 46 85 65 45 102 71 41
103 79 57 98 74 56 98 74 56 87 67 48
88 64 46 87 63 39 90 66 40 85 63 47
84 63 46 86 64 47 88 66 48 90 68 50
89 67 50 89 68 50 89 68 50 89 67 50
89 68 50 88 67 49 87 67 48 88 67 49
89 68 50 89 68 49 86 67 48 87 66 47
90 69 51 85 65 47 88 67 49 88 68 49
89 68 50 88 68 49 89 68 48 81 66 46
82 68 49 83 69 48 85 71 50 85 71 50
90 67 50 94 71 54 90 68 50 86 64 46
89 68 49 86 64 46 88 66 47 88 67 48
94 72 55 123 99 71 96 75 55 175 120 88
107 82 58 127 102 71 139 115 84 119 94 63
98 75 55 87 68 49 97 75 55 127 101 70
141 116 84 127 101 70 104 81 58 101 77 60
99 73 56 128 92 55 112 85 68 113 88 63
127 102 71 144 119 87 145 120 87 147 121 90
146 121 89 135 107 73 123 96 72 107 83 61
92 73 51 105 82 60 112 89 63 117 95 68
149 122 90 140 114 85 146 121 88 151 124 91
146 120 88 149 122 90 149 122 90 147 121 90
138 111 79 125 103 74 139 112 80 151 124 91
149 122 90 149 123 91 148 122 91 148 122 90
143 118 88 131 106 75 115 90 67 100 78 51
116 90 63 122 95 65 142 116 87 142 116 86
142 117 86 143 118 87 118 93 63 100 79 52
135 109 82 101 81 53 107 86 59 135 110 83
81 64 47 87 69 47 99 81 56 151 121 106
106 82 66 94 72 54 105 86 57 109 85 67
89 73 49 81 62 45 98 79 55 108 84 66
100 79 58 106 83 67 101 77 55 63 48 35
44 32 21 59 45 27 61 46 37 46 37 29
56 43 30 54 41 29 58 47 32 74 56 40
55 42 29 77 53 27 60 45 35 51 40 33
52 42 31 58 45 37 59 45 36 68 52 36
65 50 36 57 45 28 58 46 29 55 42 36
60 48 30 61 47 39 65 50 39 74 56 40
62 46 33 53 42 25 59 45 33 54 42 36
62 48 40 65 49 39 68 51 35 67 51 37
98 74 54 104 80 61 106 81 65 95 78 55
107 83 64 93 71 52 113 90 64 107 83 65
108 83 65 95 73 54 111 89 63 88 72 49
105 81 64 83 65 45 97 78 55 105 81 64
85 67 51 78 57 37 73 55 35 119 92 61
109 83 67 83 62 39 74 60 38 108 83 66
91 74 50 80 59 38 77 63 39 108 83 66
109 83 68 122 86 60 124 88 61 93 73 55
65 50 35 32 20 8 40 25 3 94 66 12
93 61 29 100 66 31 117 83 24 61 42 19
28 18 8 8 6 2 36 23 8 92 65 13
126 90 25 133 96 25 117 84 24 62 43 20
27 17 7 20 12 8 23 15 6 91 64 12
99 68 33 133 95 24 116 83 23 61 42 19
28 18 8 22 13 9 36 24 9 93 65 11
124 88 19 116 82 22 92 70 45 92 72 54
106 81 58 90 73 51 125 100 76 101 79 56
125 99 77 77 57 37 72 59 37 108 83 67
108 83 67 77 56 36 73 56 33 91 75 50
109 83 67 85 63 40 73 59 39 109 83 67
77 56 35 84 66 49 79 54 38 92 72 53
94 73 55 95 75 57 85 68 48 94 73 55
86 69 48 81 60 44 86 69 48 95 74 57
96 75 57 100 76 55 94 73 59 113 87 68
130 104 80 125 100 68 144 108 44 182 130 26
117 77 37 73 48 22 56 35 9 40 22 8
62 39 12 72 46 20 172 121 20 188 132 20
167 117 17 113 77 14 58 36 10 41 23 8
61 38 11 116 79 15 120 79 38 189 133 21
119 77 37 113 77 14 57 35 9 40 22 8
61 38 11 116 79 15 173 122 21 182 130 26
157 117 44 137 109 68 125 100 77 113 87 70
109 84 68 86 70 49 91 72 53 88 69 50
91 73 52 84 66 49 81 61 44 94 73 56
94 73 56 84 67 49 79 54 38 86 66 44
94 73 55 95 75 56 82 61 44 94 73 55
52 33 15 61 44 25 60 41 24 66 48 30
60 43 23 59 43 23 68 50 28 60 43 23
60 43 23 53 35 19 67 48 28 57 40 19
54 38 18 54 38 19 72 52 31 85 61 41
95 70 52 110 86 69 120 97 77 126 101 67
70 52 38 56 43 34 100 80 57 104 83 57
151 116 53 149 113 73 160 122 54 163 126 61
108 86 57 87 70 54 95 75 54 100 79 55
158 123 61 174 134 62 123 89 57 159 123 60
88 65 45 88 70 55 99 78 57 104 83 57
158 123 61 174 134 62 156 119 53 126 101 67
115 93 76 108 84 69 106 80 65 104 80 64
96 74 57 83 63 45 72 51 32 57 40 21
54 38 19 61 44 25 68 49 27 60 43 23
60 43 23 61 44 25 61 42 24 60 42 22
60 43 23 59 43 23 67 48 27 60 43 23
81 63 46 76 54 33 84 66 42 127 98 74
101 76 59 76 54 33 86 69 41 101 76 59
86 69 45 77 55 34 83 65 42 76 51 30
65 43 26 58 39 19 49 32 14 67 49 26
75 54 32 83 62 44 93 72 54 108 85 67
111 86 67 114 88 69 128 104 76 127 103 76
117 95 73 119 98 73 115 93 73 117 96 75
125 102 75 104 87 58 96 78 57 102 85 58
119 97 75 112 90 75 91 76 52 107 85 71
97 80 54 119 94 72 125 100 76 127 103 76
119 97 75 112 90 75 104 83 69 108 85 67
104 80 62 105 81 62 95 75 56 84 64 45
73 54 32 60 41 21 48 32 14 57 39 19
65 43 26 76 54 33 86 69 41 101 76 59
101 76 59 76 54 33 87 70 42 86 69 45
101 76 59 76 54 33 83 65 42 101 76 59
39 26 13 38 24 10 32 21 7 39 26 11
41 28 15 38 24 10 31 21 8 41 28 15
40 27 14 38 24 10 32 21 8 40 27 14
41 28 15 39 27 13 21 13 4 37 25 11
36 29 12 38 29 12 37 29 13 39 30 14
38 30 14 38 30 13 35 27 12 35 27 12
37 29 13 36 28 12 38 29 13 37 28 12
36 27 12 36 28 11 35 27 11 36 28 11
37 28 12 38 29 12 38 30 13 39 30 13
37 29 12 37 28 12 36 27 12 35 27 12
37 28 12 38 29 12 40 31 13 39 30 14
40 31 15 40 31 15 36 29 12 38 29 12
36 29 11 35 22 10 21 13 4 39 27 13
41 28 15 38 24 10 31 21 8 41 28 15
41 28 15 38 24 10 31 20 8 40 27 14
41 28 15 38 24 10 32 21 8 41 28 15
