P3
# Converted to P3 by scripts/convert_to_p3.py
64 64
255
60 60 60 60 60 60 56 56 56 58 58 58
62 62 62 57 57 57 62 62 62 61 61 61
58 58 58 56 56 56 60 60 60 60 60 60
59 59 59 61 61 61 61 61 61 55 55 55
60 60 60 61 61 61 60 60 60 61 61 61
61 61 61 61 61 61 61 61 61 56 56 56
56 56 56 62 62 62 57 57 57 61 61 61
61 61 61 60 60 60 56 56 56 58 58 58
62 62 62 57 57 57 62 62 62 61 61 61
58 58 58 57 57 57 62 62 62 60 60 60
61 61 61 61 61 61 61 61 61 57 57 57
62 62 62 61 61 61 58 58 58 56 56 56
60 60 60 60 60 60 59 59 59 61 61 61
61 61 61 55 55 55 60 60 60 61 61 61
60 60 60 61 61 61 61 61 61 59 59 59
60 60 60 60 60 60 56 56 56 57 57 57
60 60 60 64 64 64 57 57 57 61 61 61
62 62 62 60 60 60 64 64 64 64 64 64
61 61 61 57 57 57 64 64 64 60 60 60
63 63 63 64 64 64 64 64 64 59 59 59
63 63 63 65 65 65 68 68 68 63 63 63
64 64 64 60 60 60 64 64 64 59 59 59
59 59 59 64 64 64 59 59 59 64 64 64
64 64 64 63 63 63 57 57 57 62 62 62
62 62 62 61 61 61 64 64 64 64 64 64
61 61 61 61 61 61 64 64 64 68 68 68
64 64 64 64 64 64 62 62 62 61 61 61
64 64 64 64 64 64 61 61 61 57 57 57
64 64 64 60 60 60 63 63 63 64 64 64
64 64 64 59 59 59 63 63 63 65 65 65
68 68 68 63 63 63 64 64 64 63 63 63
60 60 60 64 64 64 57 57 57 57 57 57
66 66 66 68 68 68 61 61 61 62 62 62
68 68 68 65 65 65 67 67 67 68 68 68
62 62 62 61 61 61 68 68 68 66 66 66
66 66 66 67 67 67 67 67 67 65 65 65
66 66 66 68 68 68 71 71 71 66 66 66
67 67 67 66 66 66 67 67 67 64 64 64
60 60 60 68 68 68 65 65 65 67 67 67
67 67 67 66 66 66 59 59 59 66 66 66
67 67 67 66 66 66 67 67 67 67 67 67
66 66 66 66 66 66 67 67 67 71 71 71
68 68 68 67 67 67 67 67 67 66 66 66
67 67 67 68 68 68 62 62 62 61 61 61
68 68 68 66 66 66 66 66 66 67 67 67
67 67 67 65 65 65 66 66 66 68 68 68
71 71 71 66 66 66 67 67 67 66 66 66
66 66 66 67 67 67 62 62 62 56 56 56
69 69 69 70 70 70 63 63 63 66 66 66
71 71 71 65 65 65 71 71 71 71 71 71
65 65 65 62 62 62 70 70 70 68 68 68
68 68 68 70 70 70 71 71 71 63 63 63
69 69 69 70 70 70 69 69 69 70 70 70
70 70 70 69 69 69 71 71 71 64 64 64
63 63 63 72 72 72 65 65 65 70 70 70
70 70 70 69 69 69 62 62 62 66 66 66
71 71 71 65 65 65 71 71 71 71 71 71
66 66 66 66 66 66 71 71 71 69 69 69
70 70 70 70 70 70 70 70 70 65 65 65
71 71 71 71 71 71 65 65 65 62 62 62
70 70 70 68 68 68 68 68 68 70 70 70
71 71 71 63 63 63 69 69 69 70 70 70
69 69 69 70 70 70 71 71 71 68 68 68
68 68 68 70 70 70 63 63 63 63 63 63
70 70 70 75 75 75 67 67 67 72 72 72
72 72 72 72 72 72 76 76 76 76 76 76
73 73 73 69 69 69 76 76 76 72 72 72
75 75 75 76 76 76 76 76 76 72 72 72
75 75 75 77 77 77 81 81 81 75 75 75
76 76 76 72 72 72 76 76 76 71 71 71
70 70 70 76 76 76 72 72 72 76 76 76
76 76 76 75 75 75 68 68 68 75 75 75
74 74 74 73 73 73 76 76 76 76 76 76
74 74 74 74 74 74 76 76 76 81 81 81
77 77 77 76 76 76 74 74 74 74 74 74
76 76 76 76 76 76 73 73 73 69 69 69
76 76 76 72 72 72 75 75 75 76 76 76
76 76 76 72 72 72 75 75 75 77 77 77
81 81 81 75 75 75 76 76 76 74 74 74
70 70 70 74 74 74 68 68 68 65 65 65
77 77 77 77 77 77 71 71 71 70 70 70
82 82 82 68 68 68 60 60 60 63 63 63
59 59 59 56 56 56 63 63 63 60 60 60
62 62 62 62 62 62 62 62 62 60 60 60
62 62 62 62 62 62 63 63 63 62 62 62
62 62 62 60 60 60 62 62 62 59 59 59
57 57 57 62 62 62 59 59 59 62 62 62
62 62 62 62 62 62 55 55 55 61 61 61
61 61 61 60 60 60 62 62 62 62 62 62
60 60 60 60 60 60 62 62 62 63 63 63
62 62 62 62 62 62 61 61 61 60 60 60
62 62 62 63 63 63 59 59 59 56 56 56
63 63 63 60 60 60 62 62 62 62 62 62
62 62 62 60 60 60 62 62 62 62 62 62
63 63 63 62 62 62 62 62 62 70 70 70
78 78 78 77 77 77 72 72 72 65 65 65
76 76 76 78 78 78 73 73 73 76 76 76
80 80 80 61 61 61 62 62 62 69 69 69
68 68 68 66 66 66 68 68 68 65 65 65
68 68 68 68 68 68 68 68 68 67 67 67
68 68 68 69 69 69 72 72 72 68 68 68
69 69 69 65 65 65 68 68 68 66 66 66
67 67 67 68 68 68 66 66 66 68 68 68
68 68 68 68 68 68 66 66 66 67 67 67
66 66 66 67 67 67 68 68 68 68 68 68
67 67 67 67 67 67 68 68 68 72 72 72
69 69 69 68 68 68 66 66 66 66 66 66
68 68 68 68 68 68 68 68 68 66 66 66
68 68 68 66 66 66 68 68 68 68 68 68
68 68 68 66 66 66 67 67 67 69 69 69
72 72 72 69 69 69 61 61 61 68 68 68
78 78 78 78 78 78 74 74 74 74 74 74
84 84 84 87 87 87 76 76 76 81 81 81
90 90 90 67 67 67 76 76 76 92 92 92
82 82 82 77 77 77 91 91 91 88 88 88
86 86 86 90 90 90 90 90 90 81 81 81
87 87 87 90 90 90 93 93 93 89 89 89
89 89 89 91 91 91 90 90 90 81 81 81
78 78 78 91 91 91 82 82 82 89 89 89
89 89 89 87 87 87 76 76 76 85 85 85
93 93 93 83 83 83 90 90 90 90 90 90
84 84 84 84 84 84 90 90 90 93 93 93
90 90 90 88 88 88 91 91 91 86 86 86
89 89 89 91 91 91 82 82 82 77 77 77
89 89 89 85 85 85 87 87 87 90 90 90
89 89 89 85 85 85 88 88 88 90 90 90
93 93 93 90 90 90 72 72 72 73 73 73
86 86 86 87 87 87 77 77 77 74 74 74
87 87 87 99 99 99 77 77 77 91 91 91
96 96 96 68 68 68 82 82 82 102 102 102
90 90 90 75 75 75 88 88 88 89 89 89
95 95 95 98 98 98 99 99 99 86 86 86
96 96 96 98 98 98 96 96 96 100 100 100
90 90 90 94 94 94 102 102 102 84 84 84
82 82 82 98 98 98 86 86 86 99 99 99
98 98 98 96 96 96 78 78 78 82 82 82
94 94 94 90 90 90 99 99 99 99 99 99
90 90 90 90 90 90 100 100 100 96 96 96
98 98 98 96 96 96 87 87 87 100 100 100
97 97 97 100 100 100 90 90 90 78 78 78
99 99 99 87 87 87 95 95 95 100 100 100
90 90 90 91 91 91 100 100 100 97 97 97
96 96 96 98 98 98 72 72 72 85 85 85
90 90 90 98 98 98 80 80 80 76 76 76
94 94 94 99 99 99 88 88 88 92 92 92
99 99 99 73 73 73 84 84 84 101 101 101
92 92 92 90 90 90 69 69 69 79 79 79
100 100 100 97 97 97 98 98 98 95 95 95
97 97 97 98 98 98 101 101 101 98 98 98
92 92 92 70 70 70 97 97 97 93 93 93
88 88 88 98 98 98 94 94 94 98 98 98
98 98 98 96 96 96 88 88 88 81 81 81
74 74 74 98 98 98 97 97 97 98 98 98
96 96 96 96 96 96 97 97 97 101 101 101
98 98 98 99 99 99 68 68 68 83 83 83
101 101 101 98 98 98 92 92 92 88 88 88
99 99 99 94 94 94 97 97 97 99 99 99
92 92 92 64 64 64 95 95 95 99 99 99
102 102 102 96 96 96 74 74 74 90 90 90
96 96 96 98 98 98 90 90 90 82 82 82
100 100 100 99 99 99 98 98 98 97 97 97
102 102 102 82 82 82 88 88 88 101 101 101
97 97 97 100 100 100 80 80 80 88 88 88
101 101 101 99 99 99 99 99 99 98 98 98
99 99 99 100 100 100 103 103 103 99 99 99
95 95 95 80 80 80 98 98 98 99 99 99
97 97 97 100 100 100 99 99 99 99 99 99
99 99 99 98 98 98 99 99 99 89 89 89
83 83 83 100 100 100 99 99 99 99 99 99
99 99 99 99 99 99 99 99 99 103 103 103
100 100 100 100 100 100 80 80 80 88 88 88
102 102 102 99 99 99 98 98 98 98 98 98
99 99 99 99 99 99 98 98 98 100 100 100
97 97 97 76 76 76 96 96 96 100 100 100
103 103 103 99 99 99 78 78 78 89 89 89
102 102 102 99 99 99 98 98 98 97 97 97
101 101 101 102 102 102 96 96 96 99 99 99
105 105 105 82 82 82 96 96 96 104 104 104
99 99 99 99 99 99 89 89 89 87 87 87
103 103 103 102 102 102 103 103 103 96 96 96
101 101 101 103 103 103 101 101 101 103 103 103
101 101 101 84 84 84 101 101 101 98 98 98
97 97 97 104 104 104 98 98 98 103 103 103
103 103 103 101 101 101 97 97 97 96 96 96
82 82 82 100 100 100 103 103 103 103 103 103
99 99 99 98 98 98 103 103 103 101 101 101
102 102 102 104 104 104 88 88 88 90 90 90
105 105 105 103 103 103 99 99 99 96 96 96
102 102 102 100 100 100 100 100 100 102 102 102
105 105 105 83 83 83 99 99 99 103 103 103
101 101 101 104 104 104 80 80 80 89 89 89
103 103 103 101 101 101 97 97 97 98 98 98
102 102 102 106 106 106 99 99 99 103 103 103
107 107 107 82 82 82 97 97 97 108 108 108
102 102 102 101 101 101 88 88 88 91 91 91
108 108 108 105 105 105 106 106 106 102 102 102
105 105 105 106 106 106 109 109 109 105 105 105
104 104 104 83 83 83 104 104 104 102 102 102
100 100 100 106 106 106 102 102 102 106 106 106
106 106 106 105 105 105 100 100 100 96 96 96
85 85 85 106 106 106 105 105 105 106 106 106
104 104 104 104 104 104 106 106 106 109 109 109
106 106 106 107 107 107 88 88 88 94 94 94
108 108 108 106 106 106 103 103 103 99 99 99
106 106 106 102 102 102 105 105 105 106 106 106
104 104 104 83 83 83 103 103 103 107 107 107
109 109 109 106 106 106 90 90 90 96 96 96
104 104 104 106 106 106 100 100 100 97 97 97
106 106 106 107 107 107 103 103 103 103 102 102
109 109 109 88 88 88 98 98 98 109 109 108
103 103 103 104 104 104 100 100 100 101 101 101
108 108 107 106 106 106 106 106 106 106 106 106
106 106 106 108 108 108 118 118 118 106 106 106
105 104 104 94 94 94 106 106 106 106 106 106
101 101 101 107 107 107 106 106 106 106 106 106
107 107 107 105 105 105 102 102 102 99 99 99
90 90 90 108 108 108 106 106 106 106 106 106
106 106 106 107 107 107 105 105 105 118 118 118
109 109 108 106 106 106 94 94 94 102 102 102
107 107 107 107 107 107 103 103 103 103 103 103
107 107 107 106 106 106 106 106 106 106 106 106
106 106 106 97 97 97 105 105 105 109 109 109
118 118 118 107 107 107 92 92 92 97 97 97
109 109 109 107 107 107 104 104 104 97 97 97
113 113 114 112 113 113 104 104 105 107 107 108
119 119 119 88 89 89 97 97 97 118 118 118
107 107 108 106 107 107 102 103 103 101 101 101
113 113 113 114 115 115 115 115 116 103 103 104
112 113 113 115 115 115 114 114 115 114 114 115
114 115 115 112 112 112 114 115 115 105 105 106
105 105 105 117 117 118 107 107 107 114 115 115
114 115 115 112 112 112 105 105 106 103 103 103
90 90 90 109 110 110 115 115 115 115 115 116
107 107 108 107 107 108 115 116 116 114 114 115
115 115 115 113 113 113 101 101 102 105 105 105
116 116 117 115 115 116 108 108 109 104 104 105
113 113 113 111 112 112 110 111 111 114 115 115
115 115 115 98 98 98 110 110 110 113 113 113
113 113 113 115 115 115 99 99 99 100 100 100
113 113 113 111 111 111 104 104 104 106 106 106
111 110 109 119 118 117 104 103 101 114 113 112
119 118 116 93 93 92 102 101 100 123 122 120
113 112 111 105 104 102 116 115 113 108 107 105
118 117 115 120 119 117 120 119 118 109 108 106
117 116 115 120 119 118 119 118 117 119 118 117
120 119 118 112 111 110 119 119 117 108 107 106
108 107 106 120 119 118 109 108 107 120 119 118
119 118 117 118 117 116 105 104 103 110 109 108
89 89 88 115 114 113 120 119 118 121 120 118
112 111 110 112 111 110 121 120 119 119 118 117
119 118 117 121 120 118 115 114 113 111 110 109
121 120 119 120 119 118 114 113 111 104 103 102
119 118 117 111 110 109 117 116 115 120 119 117
122 122 122 105 105 105 120 120 120 126 126 126
122 122 122 122 122 122 100 100 100 110 110 110
115 115 115 122 122 122 107 107 107 107 107 107
90 67 36 92 68 37 90 67 35 91 68 37
92 68 36 80 62 36 84 62 41 92 69 36
91 68 37 90 67 35 92 69 38 91 68 36
91 68 37 91 68 37 91 68 37 91 68 36
91 68 37 91 68 37 91 68 37 91 68 37
92 68 37 90 67 35 91 68 37 91 67 36
91 67 36 91 68 36 91 67 36 92 68 37
91 68 37 92 68 37 90 67 35 90 67 36
83 63 34 92 68 37 91 68 37 91 68 37
91 68 36 91 68 36 91 68 37 91 68 37
91 68 37 92 68 37 91 67 36 91 68 37
91 68 37 91 68 37 91 68 36 90 67 35
92 68 37 90 67 36 92 69 37 86 64 37
93 92 91 113 113 114 131 130 130 134 134 134
135 135 135 134 134 134 127 127 127 132 132 132
130 130 130 125 125 125 118 118 118 123 123 123
89 65 31 89 64 31 89 65 31 89 64 31
90 65 31 78 59 32 83 59 37 90 65 31
89 64 31 89 65 32 89 64 31 89 64 31
89 64 31 89 64 31 89 64 31 89 64 31
89 64 31 89 64 31 89 64 31 89 64 31
89 64 31 89 65 31 89 64 31 89 65 31
89 65 31 89 64 31 89 65 31 89 64 31
89 64 31 89 64 31 89 65 31 89 64 31
90 65 32 89 64 31 89 64 31 89 64 31
89 64 31 89 64 31 89 64 31 89 64 31
89 64 31 89 64 31 89 64 31 89 64 31
89 64 31 89 64 31 89 64 31 89 65 31
89 64 31 89 64 32 90 66 31 80 56 36
75 74 74 102 103 103 115 115 115 104 104 104
125 125 125 126 126 126 123 123 123 135 135 135
126 126 126 108 108 108 112 112 112 125 125 125
89 65 33 90 65 33 89 65 33 89 65 33
91 66 32 79 60 33 83 60 38 90 66 32
89 65 33 89 65 33 90 65 33 89 65 33
90 65 33 90 65 33 90 65 33 89 65 33
90 65 33 90 65 33 90 65 33 90 65 33
90 65 33 89 65 33 90 65 33 89 65 33
89 65 33 90 65 33 89 65 33 90 65 33
90 65 33 90 65 33 89 65 33 89 65 33
89 65 33 90 65 33 90 65 33 90 65 33
90 65 33 90 65 33 90 65 33 90 65 33
90 65 33 90 65 33 90 65 33 90 65 33
90 65 33 90 65 33 90 65 33 89 65 33
90 65 33 89 65 33 91 66 32 82 58 37
76 75 76 100 100 100 102 102 102 106 106 106
126 126 126 128 128 128 124 124 124 134 134 134
127 127 127 108 108 108 102 102 102 117 117 117
89 65 32 89 65 32 89 65 32 89 65 32
91 66 32 79 59 33 83 59 38 90 66 32
89 65 33 89 65 32 89 65 32 89 65 32
89 65 32 89 65 32 89 65 32 89 65 32
89 65 32 89 65 32 89 65 32 89 65 32
90 65 32 90 65 32 90 65 32 90 65 32
90 65 32 90 65 32 90 65 32 90 65 32
90 65 32 89 65 32 89 65 32 89 65 32
89 65 32 89 65 32 89 65 32 89 65 32
89 65 32 89 65 32 90 65 32 90 65 32
90 65 32 90 65 32 90 65 32 90 65 32
89 65 32 89 65 32 89 65 32 89 65 32
89 65 32 89 65 33 91 66 32 81 58 37
76 75 75 101 101 101 78 78 77 87 87 87
127 127 127 119 119 119 121 121 121 134 134 133
129 129 129 96 96 96 81 81 81 119 119 119
89 65 32 89 65 32 89 65 32 89 65 32
91 66 32 79 59 33 83 59 38 90 66 32
89 65 33 89 65 32 89 65 32 89 65 32
89 65 32 89 65 32 89 65 32 89 65 32
89 65 32 90 66 33 90 66 33 90 66 33
89 65 32 89 65 32 89 65 32 89 65 32
89 65 32 89 65 32 89 65 32 89 65 32
89 65 32 90 65 33 90 66 33 90 65 33
89 65 32 89 65 32 90 65 33 90 66 33
90 65 33 90 65 32 89 65 32 89 65 32
89 65 32 89 65 32 89 65 32 89 65 32
90 66 33 90 66 33 90 66 33 89 65 32
89 65 32 89 65 33 91 66 32 81 58 36
77 76 77 105 105 105 83 83 83 92 92 92
135 135 135 117 117 117 122 122 122 137 137 138
119 119 119 97 97 97 107 107 108 128 129 129
89 65 32 89 65 32 89 65 32 89 65 32
91 66 32 79 59 33 83 59 38 90 66 32
89 65 33 89 65 32 89 65 32 89 65 32
89 65 32 89 65 32 89 65 32 90 66 33
90 65 33 88 64 31 86 62 29 87 63 31
90 66 33 91 67 34 91 67 34 91 67 34
91 67 34 91 67 34 91 67 34 91 67 34
91 66 34 88 64 31 87 63 30 89 64 32
90 66 33 90 66 33 89 64 32 87 63 30
87 64 31 89 65 32 91 67 34 91 67 34
91 67 34 91 67 34 91 67 34 90 66 33
87 63 31 86 62 29 88 64 31 90 65 33
90 66 33 89 65 33 91 66 32 82 59 38
64 62 63 72 72 71 69 68 67 66 67 67
82 82 81 83 83 82 97 96 95 108 108 107
99 99 97 96 97 96 99 99 97 106 105 105
89 65 32 89 65 32 89 65 32 89 65 32
91 66 32 79 59 33 83 59 38 90 66 32
89 65 33 89 65 32 89 65 32 89 65 32
89 65 32 89 65 32 90 66 33 89 64 31
87 64 31 94 72 39 102 77 45 106 85 52
121 98 65 129 105 72 128 104 71 129 104 71
129 104 71 129 104 71 128 104 71 129 105 72
125 101 68 110 89 56 101 77 44 91 69 36
88 63 31 88 63 31 91 69 36 102 77 44
107 89 55 115 93 60 129 104 71 128 104 72
129 104 71 128 104 71 129 105 72 121 98 65
106 85 52 102 77 45 94 72 39 87 64 31
89 64 31 90 65 33 90 66 32 86 62 36
82 58 38 76 57 31 75 54 34 76 67 45
73 54 35 78 56 35 74 57 34 75 59 31
80 57 38 79 71 47 78 60 39 83 58 39
89 65 32 89 65 32 89 65 32 89 65 32
91 66 32 79 59 33 83 59 38 90 66 32
89 65 33 89 65 32 89 65 32 89 65 32
89 65 32 90 65 33 89 64 31 93 73 39
110 88 55 126 103 70 134 109 76 133 109 76
131 107 74 131 106 74 131 106 74 131 106 74
131 106 74 131 106 74 131 106 74 131 107 74
134 110 77 136 110 78 132 108 75 121 99 66
102 80 47 102 80 47 122 100 67 132 107 75
133 109 76 132 108 75 131 106 74 131 106 74
131 106 74 131 106 74 131 106 74 131 107 74
133 109 76 134 109 76 126 103 70 110 88 55
93 73 39 89 64 31 90 65 33 90 66 32
91 66 32 91 67 33 82 56 41 94 74 46
85 61 43 89 63 36 80 58 37 85 63 32
83 56 40 93 73 45 84 59 42 87 62 34
89 65 32 89 65 32 89 65 32 89 65 32
91 66 32 79 59 33 83 59 38 90 66 32
89 65 33 89 65 32 89 65 32 89 65 32
90 66 33 88 64 31 98 76 43 128 104 71
132 108 75 131 107 74 129 105 72 130 105 73
130 106 73 130 106 73 130 106 73 130 106 73
130 106 73 130 106 73 130 106 73 128 104 73
117 92 60 118 96 63 129 105 72 136 111 78
134 110 77 133 108 76 133 108 75 130 106 73
130 105 73 129 105 72 129 105 72 129 105 72
130 106 73 130 106 73 130 106 73 130 106 73
130 105 73 129 105 72 131 107 74 132 108 75
128 104 71 98 76 43 88 64 31 90 65 33
89 66 33 90 66 35 82 58 42 92 74 47
84 61 44 88 63 38 80 59 38 84 64 34
84 58 42 92 74 47 84 61 44 87 63 37
89 65 32 89 65 32 89 65 32 89 65 32
91 66 32 79 59 33 83 59 38 90 66 32
89 65 33 89 65 32 89 65 32 89 65 32
90 65 32 89 65 32 116 94 61 133 108 76
129 105 72 130 106 73 130 106 73 130 106 73
130 106 73 130 106 73 130 106 73 130 106 73
130 106 73 130 106 73 131 107 74 124 98 72
87 62 30 88 66 33 98 74 42 103 78 45
103 81 48 116 94 61 128 104 71 128 104 72
130 107 74 133 109 76 134 110 77 134 110 77
131 107 74 130 106 73 130 106 73 130 106 73
130 106 73 130 106 73 130 106 73 129 105 72
133 108 76 116 94 61 89 65 32 90 65 33
89 63 28 86 60 25 76 49 31 88 67 38
78 53 34 83 56 28 74 52 29 79 57 24
77 50 32 88 68 39 80 55 36 84 58 29
89 65 32 89 65 32 89 65 32 89 65 32
91 66 32 79 59 33 83 59 38 90 66 32
89 65 33 89 65 32 89 65 32 90 65 32
89 65 32 91 67 34 129 104 71 130 106 73
130 106 73 130 106 73 130 106 73 130 106 73
130 106 73 130 106 73 130 106 73 130 106 73
130 106 73 130 106 73 131 107 74 124 99 72
91 67 35 90 65 32 88 64 31 87 63 30
87 63 30 89 65 32 91 66 33 90 67 34
97 76 43 111 87 54 114 90 57 113 89 56
125 101 68 131 107 74 130 106 73 130 106 73
130 106 73 130 106 73 130 106 73 130 106 73
130 106 73 129 104 71 91 67 34 88 64 31
93 76 53 106 90 68 104 88 77 121 104 86
106 90 78 104 87 70 100 85 71 102 88 67
105 88 77 117 100 82 97 81 69 98 82 63
89 65 32 89 65 32 89 65 32 89 65 32
91 66 32 79 59 33 83 59 38 90 66 32
89 65 33 89 65 32 89 65 32 90 65 32
89 65 32 91 67 34 129 104 71 130 106 73
130 106 73 130 106 73 130 106 73 130 106 73
130 106 73 130 106 73 130 106 73 130 106 73
130 106 73 130 106 73 131 107 74 124 99 72
91 67 35 90 65 32 88 64 31 87 63 30
87 63 30 89 65 32 91 66 33 90 67 34
97 76 43 111 87 54 114 90 57 113 89 56
125 101 68 131 107 74 130 106 73 130 106 73
130 106 73 130 106 73 130 106 73 130 106 73
130 106 73 128 104 71 92 68 34 82 59 34
83 84 86 131 134 137 133 135 137 122 124 126
135 137 139 132 134 137 133 135 137 137 139 141
138 141 142 125 127 129 125 127 129 127 129 132
89 65 32 89 65 32 89 65 32 89 65 32
91 66 32 79 59 33 83 59 38 90 66 32
89 65 33 89 65 32 89 65 32 89 65 32
90 65 32 89 65 32 116 94 61 133 108 76
129 105 72 130 106 73 130 106 73 130 106 73
130 106 73 130 106 73 130 106 73 130 106 73
130 106 73 130 106 73 131 107 74 124 98 72
87 62 30 88 66 33 98 74 42 103 78 45
103 81 48 116 94 61 128 104 71 128 104 72
130 107 74 133 109 76 134 110 77 134 110 77
131 107 74 130 106 73 130 106 73 130 106 73
130 106 73 130 106 73 130 106 73 129 105 72
133 108 76 116 94 61 90 66 31 82 58 37
73 71 71 115 115 114 115 114 114 106 106 105
119 119 119 122 121 121 123 122 122 132 132 132
123 122 122 108 108 107 121 121 120 121 121 120
89 65 32 89 65 32 89 65 32 89 65 32
91 66 32 79 59 33 83 59 38 90 66 32
89 65 33 89 65 32 89 65 32 89 65 32
90 66 33 88 64 31 98 76 43 128 104 71
132 108 75 131 107 74 129 105 72 130 105 73
130 106 73 130 106 73 130 106 73 130 106 73
130 106 73 130 106 73 130 106 73 128 104 73
117 92 60 118 96 63 129 105 72 136 111 78
134 110 77 133 108 76 133 108 75 130 106 73
130 105 73 130 105 72 129 105 72 129 105 72
130 106 73 130 106 73 130 106 73 130 106 73
130 105 73 129 105 72 131 107 74 132 108 75
128 104 71 98 76 44 89 65 31 82 59 37
74 73 73 119 119 119 92 92 91 94 94 94
125 125 125 122 122 122 117 117 117 135 135 135
128 128 128 106 106 106 89 89 89 116 116 116
89 65 32 89 65 32 89 65 32 89 65 32
91 66 32 79 59 33 83 59 38 90 66 32
89 65 33 89 65 32 89 65 32 89 65 32
89 65 32 90 65 33 89 64 31 93 73 39
110 88 55 126 103 70 134 109 76 133 109 76
131 107 74 131 106 74 131 106 74 131 106 74
131 106 74 131 106 74 131 106 74 131 107 74
134 110 77 136 110 78 132 108 75 121 99 66
102 80 47 102 80 47 122 100 67 132 107 75
133 108 76 131 107 74 131 106 74 131 106 74
131 106 74 131 106 74 131 106 74 131 107 74
133 109 76 134 109 76 126 103 70 110 88 55
93 73 39 89 64 31 91 66 32 82 58 37
75 74 74 116 116 116 73 73 72 89 89 88
128 128 127 122 122 121 110 110 109 141 141 140
129 128 128 87 87 87 74 74 74 124 124 123
89 65 32 89 65 32 89 65 32 89 65 32
91 66 32 79 59 33 83 59 38 90 66 32
89 65 33 89 65 32 89 65 32 89 65 32
89 65 32 89 65 32 90 66 33 90 64 32
88 65 32 95 72 39 102 77 45 106 85 52
121 98 65 130 106 73 129 105 72 129 105 72
129 104 72 129 104 71 128 104 71 129 105 72
125 101 68 110 89 56 101 77 44 91 69 36
88 64 31 88 64 31 91 70 36 101 77 44
110 90 57 126 101 69 129 105 72 128 104 71
129 104 71 128 104 71 130 105 73 122 99 66
106 86 53 103 78 46 95 72 40 88 65 32
89 64 31 89 65 33 91 66 32 82 58 37
73 74 75 103 105 106 81 82 84 92 92 94
123 123 125 119 121 122 111 112 114 136 138 139
115 116 118 93 93 94 92 93 94 128 130 131
89 65 32 89 65 32 89 65 32 89 65 32
91 66 32 79 59 33 83 59 38 90 66 32
89 65 33 89 65 32 89 65 32 89 65 32
89 65 32 90 65 33 88 64 31 86 62 29
86 62 29 87 63 30 87 62 30 87 63 30
90 66 33 89 65 32 87 63 30 88 64 31
91 67 34 91 67 34 91 67 34 91 67 34
91 66 34 88 64 31 87 63 30 89 63 31
87 63 30 86 62 29 86 61 29 86 61 28
88 64 31 91 66 34 91 67 34 91 67 34
91 67 34 91 67 34 90 65 33 87 62 30
83 60 27 82 58 25 84 60 27 86 61 28
87 63 30 90 65 33 90 66 31 83 59 39
65 57 53 67 59 55 67 59 52 60 62 53
65 62 52 75 68 62 84 79 70 93 86 80
91 84 76 88 89 82 90 85 77 94 85 81
89 65 32 89 65 32 89 65 32 89 65 32
91 66 32 79 59 33 83 59 38 90 66 32
89 65 33 89 65 32 89 65 32 89 65 32
90 66 33 87 63 30 98 74 41 119 94 62
119 95 62 99 74 42 88 64 31 91 67 34
87 63 30 107 83 50 119 95 62 115 91 58
90 66 33 89 64 32 89 65 32 89 65 32
89 65 32 90 66 33 89 64 31 94 73 40
110 86 54 121 97 64 115 90 57 99 78 45
89 66 33 89 65 32 89 65 32 89 65 32
89 64 31 88 65 32 98 77 44 115 90 58
121 96 63 120 96 63 120 96 63 122 98 65
110 86 53 87 63 30 90 66 33 88 63 34
89 62 34 89 62 34 82 55 36 84 72 43
80 59 36 85 58 33 76 55 30 80 57 28
80 53 33 82 69 41 78 56 35 84 57 32
89 65 32 89 65 32 89 65 32 89 65 32
91 66 32 79 59 33 83 59 38 90 66 32
89 65 33 89 65 32 89 65 32 89 65 32
90 66 33 86 62 29 104 79 47 136 112 79
136 112 79 104 79 47 86 62 29 91 67 34
86 62 29 119 95 62 137 113 80 131 106 74
91 67 34 89 65 32 90 65 33 90 65 32
90 66 33 88 63 31 102 77 45 128 104 72
130 107 74 120 97 64 132 107 75 130 107 74
98 78 45 88 64 31 90 66 33 90 65 33
87 65 32 110 87 54 132 108 75 130 106 73
122 100 67 120 95 62 119 95 62 122 98 65
110 86 53 87 63 30 90 66 33 90 66 32
90 66 33 90 67 34 82 57 42 94 74 48
85 61 45 89 64 38 81 60 40 85 65 35
84 59 43 94 75 48 85 61 45 88 64 37
89 65 32 89 65 32 89 65 32 89 65 32
91 66 32 79 59 33 83 59 38 90 66 32
89 65 33 89 65 32 89 65 32 89 65 32
90 66 33 87 62 30 102 78 45 132 108 75
132 108 75 103 78 46 87 62 30 91 67 34
86 62 29 117 92 60 133 109 76 127 103 70
91 67 34 89 65 32 90 65 32 90 66 33
89 64 31 93 73 39 127 104 71 134 109 76
109 87 54 86 64 31 128 103 70 133 109 76
115 90 57 86 62 29 90 66 33 88 64 31
94 71 38 126 103 70 134 109 76 109 89 56
86 65 32 86 61 28 86 61 29 85 61 28
87 62 30 90 66 33 89 65 32 89 65 33
89 63 28 86 60 26 77 50 33 88 68 39
78 53 34 82 55 27 74 51 28 78 56 23
78 50 33 88 68 39 80 55 36 84 58 29
89 65 32 89 65 32 89 65 32 89 65 32
91 66 32 79 59 33 83 59 38 90 66 32
89 65 33 89 65 32 89 65 32 89 65 32
90 66 33 86 62 29 103 79 46 133 109 76
133 108 76 102 78 45 87 62 30 92 67 35
86 61 29 117 92 59 133 109 76 129 104 71
91 67 34 89 65 32 90 65 33 90 65 33
87 64 31 110 88 55 133 109 76 123 99 66
107 86 53 135 110 77 129 105 72 133 109 76
118 93 61 86 62 29 91 67 34 86 62 29
103 79 46 133 108 76 133 108 76 102 78 45
87 62 30 92 67 35 91 67 34 91 67 34
90 66 33 89 65 32 90 65 32 89 65 32
92 76 53 104 87 65 99 82 71 117 101 82
107 91 79 109 92 74 103 89 75 105 91 71
101 84 73 115 99 81 99 82 71 98 81 63
89 65 32 89 65 32 89 65 32 89 65 32
91 66 32 79 59 33 83 59 38 90 66 32
89 65 33 89 65 32 89 65 32 89 65 32
90 66 33 88 63 30 98 74 41 129 105 72
133 108 76 105 85 52 85 62 29 87 62 29
87 65 32 118 96 63 134 109 76 121 98 65
90 66 33 89 65 32 90 66 33 88 64 31
94 72 39 125 103 70 134 109 76 109 88 55
92 68 35 106 81 49 128 104 71 133 109 76
117 92 60 86 62 29 91 66 34 88 63 30
98 74 41 129 105 72 133 108 76 105 85 52
85 62 29 87 62 30 87 62 29 86 62 29
87 63 30 90 65 33 91 66 32 82 58 34
88 88 91 134 136 139 127 129 130 118 120 122
136 138 140 137 139 141 137 138 140 143 145 147
136 138 139 122 124 126 117 119 121 128 130 132
89 65 32 89 65 32 89 65 32 89 65 32
91 66 32 79 59 33 83 59 38 90 66 32
89 65 33 89 65 32 89 65 32 89 65 32
90 65 33 90 65 32 88 66 33 117 95 62
136 110 78 123 100 67 106 86 52 102 78 45
111 91 57 129 104 72 134 109 77 104 83 50
87 64 31 90 66 33 90 65 33 88 64 31
110 89 56 134 109 76 126 103 70 94 72 39
87 63 30 88 64 31 128 104 71 134 110 77
117 93 60 86 62 29 90 66 33 90 65 32
88 66 33 117 95 62 136 110 78 123 100 67
106 86 52 103 78 45 103 79 46 104 80 47
99 74 42 88 64 31 91 67 32 81 57 37
77 75 75 120 119 119 115 115 114 107 107 106
119 119 118 121 120 120 122 122 121 132 132 131
124 124 123 107 107 106 113 113 112 122 122 121
89 65 32 89 65 32 89 65 32 89 65 32
91 66 32 79 59 33 83 59 38 90 66 32
89 65 33 89 65 32 89 65 32 89 65 32
89 65 32 90 65 33 89 64 31 94 70 37
110 90 56 127 102 69 132 107 75 132 107 75
132 107 74 122 98 66 104 83 50 90 65 33
89 65 32 90 65 33 89 65 32 91 66 33
124 100 67 131 106 74 110 87 54 87 65 32
90 65 32 92 68 35 126 102 69 132 108 75
116 92 59 86 62 29 90 66 33 90 65 33
89 64 31 94 70 37 110 90 56 127 102 69
132 107 75 132 108 75 131 107 74 135 111 78
118 94 61 86 62 29 92 67 33 81 58 36
77 76 77 122 122 122 91 91 91 94 94 94
125 125 125 122 122 122 117 117 117 135 135 135
128 128 128 105 105 105 86 86 86 116 116 116
90 66 34 90 66 34 90 66 34 90 66 34
92 67 34 79 60 34 83 60 39 91 67 34
90 66 34 90 66 34 90 66 34 90 66 34
90 66 34 90 66 34 90 67 34 89 65 33
89 65 33 91 67 35 91 68 35 91 67 35
92 68 35 90 67 34 88 65 33 90 66 34
90 67 34 90 66 34 90 66 34 90 67 34
92 69 36 92 68 36 90 66 34 90 66 34
90 66 34 90 66 34 92 68 36 92 68 36
91 67 35 90 66 34 90 66 34 90 66 34
90 67 34 89 65 33 88 65 33 91 67 35
91 68 35 91 67 35 91 67 35 91 67 35
91 67 35 90 66 34 92 68 34 82 59 38
79 78 78 120 120 120 73 73 73 89 89 89
128 128 128 122 122 122 110 110 110 141 141 141
129 129 129 87 87 87 74 74 74 124 124 124
86 60 25 86 60 25 87 61 26 86 60 25
87 61 24 77 56 27 81 55 32 87 60 24
86 60 25 87 61 26 86 60 25 86 60 25
86 60 25 86 60 25 86 60 25 86 60 25
86 60 25 85 59 24 85 59 24 85 59 24
85 59 24 86 60 25 86 60 25 86 60 25
86 60 25 87 61 26 86 60 25 86 60 25
86 60 24 85 59 24 86 60 25 86 60 25
86 60 25 86 60 25 85 59 24 85 59 24
86 60 24 86 60 25 86 60 25 86 60 25
86 60 25 87 61 26 87 61 26 86 60 24
85 59 24 85 59 24 86 60 25 86 60 25
85 59 24 86 60 25 87 61 24 77 52 29
73 72 73 105 105 105 79 79 79 90 90 90
121 121 121 118 118 118 111 111 111 135 135 135
114 114 114 91 91 91 91 91 91 128 128 128
104 87 65 106 90 67 102 85 63 104 87 65
107 90 67 87 74 56 93 77 62 108 91 68
103 87 65 102 85 63 106 90 67 104 87 65
105 89 67 106 89 67 106 89 67 104 88 66
105 89 67 106 90 67 108 91 69 105 89 67
106 89 67 104 88 65 105 89 67 106 89 67
106 90 67 102 86 64 104 87 65 105 89 67
104 88 65 106 89 67 106 89 67 105 89 67
104 88 66 105 89 67 107 91 68 107 91 68
105 89 67 106 89 67 105 88 66 104 88 66
105 89 67 101 84 62 101 85 62 105 89 67
106 89 67 106 90 67 104 87 65 102 86 63
106 90 67 104 87 65 106 89 66 102 86 71
77 77 77 73 73 73 71 71 71 69 69 69
72 72 72 79 79 79 84 84 84 95 95 95
94 94 94 96 96 96 95 95 95 97 97 97
138 140 143 141 143 146 131 133 136 134 136 139
145 147 150 109 110 113 115 117 118 146 148 151
134 136 138 131 133 136 141 143 146 138 140 143
140 142 144 141 143 146 141 143 146 136 138 141
140 142 144 142 144 147 147 149 151 140 142 145
141 143 146 138 140 143 140 142 144 141 143 146
142 144 147 130 132 135 135 137 140 142 144 146
137 139 142 141 143 146 141 143 146 140 142 145
136 138 141 140 142 145 144 146 149 145 147 149
140 142 145 142 144 146 138 140 142 140 142 145
139 141 144 128 130 133 128 130 133 139 141 144
141 143 146 142 144 147 134 136 139 131 133 136
141 143 146 138 140 143 140 142 144 141 143 145
127 128 127 121 121 121 119 119 119 119 119 119
118 118 118 118 118 118 94 94 94 110 110 110
125 125 125 123 123 123 119 119 119 114 114 114
131 131 130 131 131 130 125 125 124 126 125 125
136 135 135 106 105 105 109 109 108 135 134 133
125 125 124 124 124 123 131 130 129 130 129 128
129 129 128 131 130 130 131 131 130 126 126 125
130 129 129 131 131 130 132 132 131 130 130 129
131 131 130 129 129 128 129 129 128 131 130 130
131 131 130 124 123 123 126 126 125 132 132 131
128 127 127 131 130 130 131 130 130 130 129 129
126 126 125 131 130 130 132 131 131 132 131 131
130 130 129 131 131 130 128 127 126 132 131 131
128 128 127 123 123 122 123 123 122 129 128 127
131 130 130 132 131 131 126 125 125 124 124 123
131 130 129 130 129 128 129 129 128 131 130 130
131 131 131 128 128 128 132 132 132 133 133 133
134 134 134 133 133 133 102 102 102 119 119 119
137 137 137 134 134 134 129 129 129 125 125 125
126 126 126 126 126 126 122 122 122 124 124 124
130 130 130 105 105 105 111 111 111 133 133 133
126 126 126 124 124 124 129 129 129 128 128 128
128 128 128 130 130 130 131 131 131 124 124 124
129 129 129 131 131 131 135 135 135 129 129 129
131 131 131 128 128 128 128 128 128 130 130 130
130 130 130 125 125 125 125 125 125 131 131 131
126 126 126 130 130 130 130 130 130 129 129 129
124 124 124 130 130 130 133 133 133 133 133 133
129 129 129 131 131 131 126 126 126 131 131 131
126 126 126 126 126 126 126 126 126 127 127 127
131 131 131 131 131 131 127 127 127 124 124 124
129 129 129 128 128 128 128 128 128 130 130 130
131 131 131 124 124 124 129 129 129 131 131 131
134 134 134 130 130 130 99 99 99 113 113 113
128 128 128 125 125 125 122 122 122 125 125 125
126 126 126 126 126 126 121 121 121 121 121 121
130 130 130 106 106 106 119 119 119 133 133 133
129 129 129 128 128 128 130 130 130 130 130 130
130 130 130 131 131 131 131 131 131 128 128 128
130 130 130 131 131 131 131 131 131 131 131 131
131 131 131 130 130 130 130 130 130 131 131 131
131 131 131 129 129 129 128 128 128 132 132 132
129 129 129 131 131 131 131 131 131 130 130 130
128 128 128 131 131 131 131 131 131 131 131 131
131 131 131 131 131 131 129 129 129 132 132 132
129 129 129 128 128 128 128 128 128 129 129 129
131 131 131 131 131 131 129 129 129 128 128 128
131 131 131 130 130 130 130 130 130 131 131 131
131 131 131 128 128 128 130 130 130 131 131 131
131 131 131 132 132 132 109 109 109 113 113 113
128 128 128 126 126 126 121 121 121 117 117 117
122 122 122 126 126 126 115 115 115 116 116 116
127 127 127 106 106 106 86 86 86 99 99 99
91 91 91 88 88 88 96 96 96 95 95 95
94 94 94 95 95 95 96 96 96 88 88 88
94 94 94 96 96 96 95 95 95 97 97 97
97 97 97 94 94 94 94 94 94 97 97 97
96 96 96 87 87 87 89 89 89 97 97 97
91 91 91 95 95 95 97 97 97 96 96 96
90 90 90 97 97 97 95 95 95 95 95 95
95 95 95 96 96 96 91 91 91 96 96 96
93 93 93 88 88 88 87 87 87 93 93 93
97 97 97 96 96 96 90 90 90 87 87 87
95 95 95 93 93 93 93 93 93 97 97 97
97 97 97 90 90 90 95 95 95 97 97 97
97 97 97 96 96 96 88 88 88 117 117 117
124 124 124 125 125 125 117 117 117 103 103 103
113 113 113 121 121 121 105 105 105 115 115 115
120 120 120 96 96 96 117 117 117 132 132 132
127 127 127 125 125 125 129 129 129 128 128 128
131 131 131 137 137 137 136 136 136 130 130 130
135 135 135 137 137 137 135 135 135 129 129 129
130 130 130 128 128 128 128 128 128 130 130 130
137 137 137 131 131 131 131 131 131 137 137 137
132 132 132 137 137 137 130 130 130 129 129 129
125 125 125 130 130 130 136 136 136 136 136 136
135 135 135 136 136 136 132 132 132 137 137 137
128 128 128 126 126 126 126 126 126 127 127 127
133 133 133 138 138 138 132 132 132 130 130 130
135 135 135 135 135 135 133 133 133 129 129 129
130 130 130 125 125 125 129 129 129 130 130 130
129 129 129 132 132 132 109 109 109 108 108 108
115 115 115 120 120 120 106 106 106 106 106 106
113 113 113 112 112 112 104 104 104 107 107 107
118 118 118 88 88 88 82 82 82 94 94 94
88 88 88 86 86 86 93 93 93 92 92 92
88 88 88 106 106 106 111 111 111 111 111 111
110 110 110 110 110 110 93 93 93 93 93 93
94 94 94 91 91 91 92 92 92 92 92 92
98 98 98 112 112 112 111 111 111 110 110 110
112 112 112 98 98 98 92 92 92 93 93 93
87 87 87 94 94 94 100 100 100 111 111 111
110 110 110 110 110 110 112 112 112 99 99 99
88 88 88 86 86 86 85 85 85 90 90 90
95 95 95 105 105 105 111 111 111 111 111 111
110 110 110 109 109 109 97 97 97 93 93 93
94 94 94 87 87 87 92 92 92 94 94 94
95 95 95 83 83 83 83 83 83 102 102 102
113 113 113 112 112 112 104 104 104 106 106 106
107 107 107 107 107 107 103 103 103 103 103 103
110 110 110 88 88 88 95 95 95 107 107 107
100 100 100 100 100 100 105 105 105 107 107 107
93 93 93 96 96 96 107 107 106 106 107 107
106 106 105 103 103 103 89 89 89 106 106 106
104 104 104 105 105 105 105 105 105 101 101 101
90 90 90 107 106 106 106 106 106 106 106 106
107 106 106 90 90 90 101 101 101 105 105 105
105 105 105 102 102 102 90 90 90 107 106 106
106 106 106 106 106 106 107 106 106 90 90 90
102 102 102 98 98 98 97 97 97 107 107 107
94 94 95 96 96 96 107 106 106 106 107 107
106 106 105 103 103 102 90 90 90 106 106 106
104 104 104 104 104 104 104 104 104 107 107 107
116 116 116 103 103 103 89 89 89 97 97 97
109 109 109 107 107 107 104 104 104 97 97 97
102 102 102 106 106 106 99 99 99 103 103 103
107 107 107 82 82 82 98 98 98 108 108 108
103 103 103 100 100 100 106 106 106 105 105 105
96 96 96 79 80 80 86 87 88 95 95 94
88 89 89 81 82 82 87 87 87 108 108 108
106 106 106 103 103 103 106 106 106 105 105 105
81 81 81 84 85 86 92 92 92 92 92 92
84 85 86 80 80 80 105 105 105 106 106 106
103 103 103 105 105 105 81 81 80 84 85 86
92 92 92 92 92 92 84 84 85 81 81 80
104 104 104 99 99 99 98 98 98 107 107 107
97 97 97 79 79 80 86 87 88 95 95 94
88 89 89 81 82 82 87 87 87 108 108 108
106 106 106 103 103 103 105 105 105 107 107 107
110 110 110 107 107 107 91 91 91 96 96 96
104 104 104 106 106 106 100 100 100 97 97 97
101 101 101 102 102 102 96 96 96 99 99 99
105 105 105 82 82 82 96 96 96 104 104 104
99 99 99 96 96 96 102 102 102 101 100 100
99 99 99 79 78 77 74 71 66 103 104 105
87 85 82 70 68 66 98 99 99 103 103 103
103 103 103 100 100 100 100 100 100 103 103 103
88 89 89 68 65 61 96 96 95 98 97 97
68 65 61 90 91 91 103 103 103 101 101 101
96 96 96 105 105 105 90 90 91 68 65 60
96 96 95 98 97 97 68 65 61 91 91 92
99 99 99 97 97 97 97 97 97 98 98 98
105 106 106 78 77 77 74 71 66 103 104 105
87 85 82 69 68 65 102 102 103 103 103 102
103 103 103 96 96 96 101 101 101 102 102 102
101 101 101 103 103 103 80 80 80 89 89 89
103 103 103 101 101 101 97 97 97 98 98 98
100 100 100 99 99 99 98 98 98 97 97 97
102 102 102 82 82 82 88 88 88 101 101 101
97 97 97 98 98 98 99 99 99 100 100 100
98 98 99 102 99 96 88 73 52 107 111 116
98 88 74 93 84 71 105 108 110 98 98 97
99 99 99 99 99 99 99 99 99 98 97 97
103 104 106 90 76 55 99 97 95 106 104 102
88 74 53 106 107 110 99 99 98 99 99 99
98 98 98 98 98 97 103 105 107 90 76 55
99 97 95 106 104 102 88 74 53 106 107 110
99 98 98 97 97 97 98 98 98 99 99 99
99 100 101 102 99 95 88 73 52 107 111 116
98 88 74 93 84 71 107 109 112 98 98 97
99 99 99 98 98 98 99 99 99 100 100 100
103 103 103 99 99 99 78 78 78 89 89 89
102 102 102 99 99 99 98 98 98 97 97 97
94 94 94 99 99 99 88 88 88 92 92 92
99 99 99 73 73 73 84 84 84 101 101 101
92 92 92 88 88 88 98 98 98 94 94 93
97 98 99 102 100 96 93 77 55 104 108 114
100 90 76 94 84 71 104 106 109 97 96 96
98 98 98 93 93 93 97 97 97 97 97 96
102 104 106 96 80 59 99 97 94 105 103 101
92 77 55 103 105 107 99 98 98 96 96 96
94 94 94 97 97 96 101 103 106 96 80 59
99 97 94 105 103 101 92 76 55 103 105 107
98 98 97 85 85 85 84 84 84 97 97 97
97 98 99 102 99 96 93 77 55 104 108 114
100 90 76 95 84 71 103 105 108 97 96 96
98 98 98 93 93 93 97 97 97 98 98 98
102 102 102 96 96 96 74 74 74 90 90 90
96 96 96 98 98 98 90 90 90 82 82 82
87 87 87 99 99 99 77 77 77 91 91 91
96 96 96 67 67 67 82 82 82 102 102 102
90 90 90 78 78 78 102 102 102 90 90 89
94 95 96 103 101 97 95 80 60 106 110 115
103 93 80 96 87 74 103 106 108 97 97 96
99 99 99 91 91 91 97 97 97 97 97 96
102 103 105 98 83 63 101 99 97 108 106 103
95 80 60 103 105 107 99 98 98 97 97 97
91 91 91 98 98 97 102 104 106 98 83 63
101 99 97 108 106 103 94 80 60 105 106 109
93 93 92 76 76 76 80 80 80 95 95 95
99 99 100 102 100 96 95 80 60 106 110 115
103 93 80 96 87 74 104 106 109 97 97 96
99 99 99 91 91 91 97 97 97 98 98 98
97 97 97 98 98 98 72 72 72 85 85 85
90 90 90 98 98 98 80 80 80 76 76 76
84 84 84 87 87 87 76 76 76 81 81 81
90 90 90 69 69 69 75 75 75 91 91 91
81 81 81 75 75 75 88 88 88 88 88 88
86 86 86 97 97 97 113 112 112 107 107 108
114 114 113 102 102 101 96 96 96 89 89 88
81 81 81 91 91 91 89 89 89 88 88 88
93 93 93 108 108 107 111 111 111 111 111 111
107 107 106 98 98 98 89 89 89 85 85 85
90 90 90 90 90 90 95 96 96 108 107 106
111 111 111 111 111 111 107 107 106 99 99 99
85 85 85 74 74 74 86 86 86 87 87 87
92 92 92 97 97 96 113 113 112 107 107 108
114 114 113 101 101 100 100 100 100 88 88 88
82 82 82 80 80 80 85 85 85 89 89 89
91 91 91 89 89 89 73 73 73 74 74 74
86 86 86 87 87 87 77 77 77 74 74 74
76 76 76 78 78 78 73 73 73 76 76 76
79 79 79 66 66 66 75 75 75 77 77 77
75 75 75 71 71 71 58 58 58 63 63 63
84 84 84 85 85 85 94 94 94 97 97 97
97 97 97 87 87 87 92 92 92 76 76 76
72 72 72 53 53 53 74 74 74 79 79 79
87 87 87 89 89 89 98 98 98 98 98 98
88 89 89 92 92 92 81 81 81 63 63 63
54 54 54 82 82 82 87 87 87 88 89 89
98 98 98 98 98 98 88 88 89 93 93 93
77 77 77 70 70 70 54 54 54 61 61 61
86 86 86 85 85 85 94 94 94 97 97 97
97 97 97 87 87 87 93 93 93 75 75 75
75 75 75 42 42 42 69 69 69 80 80 80
87 87 87 75 75 75 63 63 63 71 71 71
78 78 78 78 78 78 74 74 74 74 74 74
77 77 77 77 77 77 71 71 71 71 71 71
78 78 78 78 78 78 108 108 108 111 111 111
103 103 103 95 95 95 80 80 80 93 93 93
112 112 112 92 92 92 85 85 85 89 89 89
88 88 88 88 88 88 112 112 112 111 111 111
99 99 99 78 78 78 108 108 108 111 111 111
102 102 102 83 83 83 89 89 89 89 89 89
84 84 84 106 106 106 114 114 114 86 86 86
87 87 87 114 114 114 101 101 101 83 83 83
89 89 89 89 89 89 85 84 84 108 108 108
108 108 108 97 97 97 66 66 66 86 86 86
114 114 114 92 92 92 85 85 85 89 89 89
88 88 88 89 89 88 113 113 113 111 111 111
100 100 100 74 74 74 99 99 99 111 111 111
109 109 109 109 109 109 86 86 86 74 74 74
77 77 77 77 77 77 72 72 72 65 65 65
70 70 70 75 75 75 67 67 67 72 72 72
71 71 71 79 79 79 93 93 93 93 93 93
88 88 88 85 85 85 71 71 71 80 80 80
95 95 95 86 86 86 76 76 76 76 76 76
75 75 75 82 82 82 95 95 95 93 93 93
88 88 88 78 78 78 92 92 92 93 93 93
90 90 90 78 78 78 75 75 75 75 75 75
78 78 78 89 89 89 95 95 95 81 81 81
78 78 78 94 94 94 92 92 92 80 80 80
75 75 75 76 76 76 75 75 75 87 87 87
92 92 92 87 87 87 66 66 66 85 85 85
95 95 95 86 86 86 76 76 76 76 76 76
76 76 76 77 77 77 91 91 91 94 94 94
88 88 88 78 78 78 93 93 93 93 93 93
95 95 95 93 93 93 93 93 93 76 76 76
70 70 70 75 75 75 68 68 68 65 65 65
69 69 69 70 70 70 63 63 63 66 66 66
72 72 72 64 64 64 67 67 67 67 67 67
62 62 62 60 60 60 50 50 50 53 53 53
66 66 66 68 68 68 70 70 70 70 70 70
70 70 70 69 69 69 66 66 66 67 67 67
63 63 63 61 61 61 65 65 65 66 66 66
68 68 68 62 62 62 69 69 69 71 71 71
70 70 70 67 67 67 67 67 67 65 65 65
55 55 55 67 67 67 67 67 67 70 70 70
70 70 70 71 71 71 65 65 65 68 68 68
62 62 62 59 59 59 59 59 59 60 60 60
68 68 68 67 67 67 71 71 71 69 69 69
75 75 75 66 66 66 64 64 64 67 67 67
67 67 67 61 61 61 65 65 65 67 67 67
66 66 66 66 66 66 67 67 67 68 68 68
68 68 68 70 70 70 63 63 63 63 63 63
66 66 66 68 68 68 61 61 61 62 62 62
68 68 68 66 66 66 68 68 68 69 69 69
63 63 63 62 62 62 57 57 57 62 62 62
68 68 68 67 67 67 67 67 67 67 67 67
67 67 67 68 68 68 72 72 72 68 68 68
67 67 67 65 65 65 67 67 67 68 68 68
68 68 68 59 59 59 65 65 65 67 67 67
67 67 67 68 68 68 68 68 68 66 66 66
61 61 61 68 68 68 70 70 70 70 70 70
66 66 66 67 67 67 66 66 66 68 68 68
67 67 67 60 60 60 58 58 58 64 64 64
69 69 69 68 68 68 65 65 65 64 64 64
69 69 69 66 66 66 67 67 67 68 68 68
68 68 68 65 65 65 67 67 67 69 69 69
72 72 72 67 67 67 68 68 68 66 66 66
66 66 66 67 67 67 62 62 62 56 56 56
60 60 60 64 64 64 57 57 57 61 61 61
62 62 62 60 60 60 64 64 64 64 64 64
61 61 61 57 57 57 57 57 57 58 58 58
63 63 63 64 64 64 64 64 64 59 59 59
62 62 62 65 65 65 68 68 68 63 63 63
64 64 64 60 60 60 63 63 63 64 64 64
64 64 64 59 59 59 58 58 58 64 64 64
59 59 59 64 64 64 64 64 64 63 63 63
59 59 59 63 63 63 66 66 66 66 66 66
63 63 63 64 64 64 61 61 61 62 62 62
62 62 62 57 57 57 56 56 56 61 61 61
64 64 64 64 64 64 60 60 60 56 56 56
63 63 63 60 60 60 63 63 63 64 64 64
64 64 64 59 59 59 63 63 63 65 65 65
68 68 68 63 63 63 64 64 64 63 63 63
60 60 60 64 64 64 57 57 57 57 57 57
60 60 60 60 60 60 56 56 56 58 58 58
62 62 62 57 57 57 62 62 62 61 61 61
58 58 58 57 57 57 57 57 57 56 56 56
60 60 60 61 61 61 61 61 61 56 56 56
60 60 60 61 61 61 60 60 60 61 61 61
61 61 61 59 59 59 59 59 59 61 61 61
61 61 61 57 57 57 56 56 56 62 62 62
57 57 57 61 61 61 61 61 61 60 60 60
56 56 56 61 61 61 60 60 60 61 61 61
61 61 61 62 62 62 57 57 57 62 62 62
58 58 58 57 57 57 57 57 57 58 58 58
61 61 61 61 61 61 58 58 58 56 56 56
60 60 60 60 60 60 59 59 59 61 61 61
61 61 61 55 55 55 60 60 60 61 61 61
60 60 60 61 61 61 61 61 61 59 59 59
60 60 60 60 60 60 56 56 56 57 57 57
