P3
90 86
255
0   0   0   0   0   0   0   0   0   0   0   0   0   0   0   0   0   0   0   0   0   0   0   0   0   0   0   0   0   0   0   0   0   0   0   0   0   0   0   0   0   0   0   0   0   0   0   0   0   0   0   0   0   0   0   0   0   0   0   0   0   0   0   0   0   0   0   0   0   0   0   0   0   0   0   0   0   0   0   0   0   0   0   0   0   0   0   0   0   0   0   0   0   0   0   0   0   0   0   0   0   0   0   0   0   0   0   0   0   0   0   0   0   0   0   0   0   0   0   0   0   0   0   0   0   0   0   0   0   0   0   0   0   0   0   0   0   0   0   0   0   0   0   0   0   0   0   0   0   0   0   0   0   0   0   0   0   0   0   0   0   0   0   0   0   0   0   0   0   0   0   0   0   0   0   0   0   0   0   0   0   0   0   0   0   0   0   0   0   0   0   0   0   0   0   0   0   0   0   0   0   0   0   0   0   0   0   0   0   0   0   0   0   0   0   0   0   0   0   0   0   0   0   0   0   0   0   0   0   0   0   0   0   0   0   0   0   0   0   0   0   0   0   0   0   0   0   0   0   0   0   0   0   0   0   0   0   0   0   0   0   0   0   0   0   0   0   0   0   0   
0   0   0   0   0   0   0   0   0   0   0   0   0   0   0   0   0   0   0   0   0   0   0   0   0   0   0   0   0   0   0   0   0   0   0   0   0   0   0   0   0   0   0   0   0   0   0   0   0   0   0   0   0   0   0   0   0   0   0   0   0   0   0   0   0   0   0   0   0   0   0   0   0   0   0   0   0   0   0   0   0   0   0   0   0   0   0   0   0   0   0   0   0   0   0   0   0   0   0   0   0   0   0   0   0   0   0   0   0   0   0   0   0   0   0   0   0   0   0   0   0   0   0   0   0   0   0   0   0   0   0   0   0   0   0   0   0   0   0   0   0   0   0   0   0   0   0   0   0   0   0   0   0   0   0   0   0   0   0   0   0   0   0   0   0   0   0   0   0   0   0   0   0   0   0   0   0   0   0   0   0   0   0   0   0   0   0   0   0   0   0   0   0   0   0   0   0   0   0   0   0   0   0   0   0   0   0   0   0   0   0   0   0   0   0   0   0   0   0   0   0   0   0   0   0   0   0   0   0   0   0   0   0   0   0   0   0   0   0   0   0   0   0   0   0   0   0   0   0   0   0   0   0   0   0   0   0   0   0   0   0   0   0   0   0   0   0   0   0   0   
0   0   0   0   0   0   0   0   0   0   0   0   0   0   0   0   0   0   0   0   0   0   0   0   0   0   0   0   0   0   0   0   0   0   0   0   0   0   0   0   0   0   0   0   0   0   0   0   0   0   0   0   0   0   0   0   0   0   0   0   0   0   0   0   0   0   0   0   0   0   0   0   0   0   0   0   0   0   0   0   0   0   0   0   0   0   0   0   0   0   0   0   0   0   0   0   0   0   0   0   0   0   0   0   0   0   0   0   0   0   0   0   0   0   0   0   0   0   0   0   0   0   0   0   0   0   0   0   0   0   0   0   0   0   0   0   0   0   0   0   0   0   0   0   0   0   0   0   0   0   0   0   0   0   0   0   0   0   0   0   0   0   0   0   0   0   0   0   0   0   0   0   0   0   0   0   0   0   0   0   0   0   0   0   0   0   0   0   0   0   0   0   0   0   0   0   0   0   0   0   0   0   0   0   0   0   0   0   0   0   0   0   0   0   0   0   0   0   0   0   0   0   0   0   0   0   0   0   0   0   0   0   0   0   0   0   0   0   0   0   0   0   0   0   0   0   0   0   0   0   0   0   0   0   0   0   0   0   0   0   0   0   0   0   0   0   0   0   0   0   
0   0   0   0   0   0   0   0   0   0   0   0   0   0   0   0   0   0   0   0   0   0   0   0   0   0   0   0   0   0   0   0   0   0   0   0   0   0   0   0   0   0   0   0   0   0   0   0   0   0   0   0   0   0   0   0   0   0   0   0   0   0   0   0   0   0   0   0   0   0   0   0   0   0   0   0   0   0   0   0   0   0   0   0   0   0   0   0   0   0   0   0   0   0   0   0   0   0   0   0   0   0   0   0   0   0   0   0   0   0   0   0   0   0   0   0   0   0   0   0   0   0   0   0   0   0   0   0   0   0   0   0   0   0   0   0   0   0   0   0   0   0   0   0   0   0   0   0   0   0   0   0   0   0   0   0   0   0   0   0   0   0   0   0   0   0   0   0   0   0   0   0   0   0   0   0   0   0   0   0   0   0   0   0   0   0   0   0   0   0   0   0   0   0   0   0   0   0   0   0   0   0   0   0   0   0   0   0   0   0   0   0   0   0   0   0   0   0   0   0   0   0   0   0   0   0   0   0   0   0   0   0   0   0   0   0   0   0   0   0   0   0   0   0   0   0   0   0   0   0   0   0   0   0   0   0   0   0   0   0   0   0   0   0   0   0   0   0   0   0   
0   0   0   0   0   0   0   0   0   0   0   0   0   0   0   0   0   0   0   0   0   0   0   0   0   0   0   0   0   0   0   0   0   0   0   0   0   0   0   0   0   0   0   0   0   0   0   0   0   0   0   0   0   0   0   0   0   0   0   0   0   0   0   0   0   0   0   0   0   0   0   0   0   0   0   0   0   0   0   0   0   0   0   0   0   0   0   0   0   0   0   0   0   0   0   0   0   0   0   0   0   0   0   0   0   0   0   0   0   0   0   0   0   0   0   0   0   0   0   0   0   0   0   0   0   0   0   0   0   0   0   0   0   0   0   0   0   0   0   0   0   0   0   0   0   0   0   0   0   0   0   0   0   0   0   0   0   0   0   0   0   0   0   0   0   0   0   0   0   0   0   0   0   0   0   0   0   0   0   0   0   0   0   0   0   0   0   0   0   0   0   0   0   0   0   0   0   0   0   0   0   0   0   0   0   0   0   0   0   0   0   0   0   0   0   0   0   0   0   0   0   0   0   0   0   0   0   0   0   0   0   0   0   0   0   0   0   0   0   0   0   0   0   0   0   0   0   0   0   0   0   0   0   0   0   0   0   0   0   0   0   0   0   0   0   0   0   0   0   0   
0   0   0   0   0   0   0   0   0   0   0   0   0   0   0   0   0   0   0   0   0   0   0   0   0   0   0   0   0   0   0   0   0   0   0   0   0   0   0   0   0   0   0   0   0   0   0   0   0   0   0   0   0   0   0   0   0   0   0   0   0   0   0   0   0   0   0   0   0   0   0   0   0   0   0   0   0   0   0   0   0   0   0   0   0   0   0   0   0   0   0   0   0   0   0   0   0   0   0   0   0   0   0   0   0   0   0   0   0   0   0   0   0   0   0   0   0   0   0   0   0   0   0   0   0   0   0   0   0   0   0   0   0   0   0   0   0   0   0   0   0   0   0   0   0   0   0   0   0   0   0   0   0   0   0   0   0   0   0   0   0   0   0   0   0   0   0   0   0   0   0   0   0   0   0   0   0   0   0   0   0   0   0   0   0   0   0   0   0   0   0   0   0   0   0   0   0   0   0   0   0   0   0   0   0   0   0   0   0   0   0   0   0   0   0   0   0   0   0   0   0   0   0   0   0   0   0   0   0   0   0   0   0   0   0   0   0   0   0   0   0   0   0   0   0   0   0   0   0   0   0   0   0   0   0   0   0   0   0   0   0   0   0   0   0   0   0   0   0   0   
0   0   0   0   0   0   0   0   0   0   0   0   0   0   0   0   0   0   0   0   0   0   0   0   0   0   0   0   0   0   0   0   0   0   0   0   0   0   0   0   0   0   0   0   0   0   0   0   0   0   0   0   0   0   0   0   0   0   0   0   0   0   0   0   0   0   0   0   0   0   0   0   0   0   0   0   0   0   0   0   0   0   0   0   0   0   0   0   0   0   0   0   0   0   0   0   0   0   0   0   0   0   0   0   0   0   0   0   0   0   0   0   0   0   0   0   0   0   0   0   0   0   0   0   0   0   0   0   0   0   0   0   0   0   0   0   0   0   0   0   0   0   0   0   0   0   0   0   0   0   0   0   0   0   0   0   0   0   0   0   0   0   0   0   0   0   0   0   0   0   0   0   0   0   0   0   0   0   0   0   0   0   0   0   0   0   0   0   0   0   0   0   0   0   0   0   0   0   0   0   0   0   0   0   0   0   0   0   0   0   0   0   0   0   0   0   0   0   0   0   0   0   0   0   0   0   0   0   0   0   0   0   0   0   0   0   0   0   0   0   0   0   0   0   0   0   0   0   0   0   0   0   0   0   0   0   0   0   0   0   0   0   0   0   0   0   0   0   0   0   
0   0   0   0   0   0   0   0   0   0   0   0   0   0   0   0   0   0   0   0   0   0   0   0   0   0   0   0   0   0   0   0   0   0   0   0   0   0   0   0   0   0   0   0   0   0   0   0   0   0   0   0   0   0   0   0   0   0   0   0   0   0   0   0   0   0   0   0   0   0   0   0   0   0   0   0   0   0   0   0   0   0   0   0   0   0   0   0   0   0   0   0   0   0   0   0   0   0   0   0   0   0   0   0   0   0   0   0   0   0   0   0   0   0   0   0   0   0   0   0   0   0   0   0   0   0   0   0   0   0   0   0   0   0   0   0   0   0   0   0   0   0   0   0   0   0   0   0   0   0   0   0   0   0   0   0   0   0   0   0   0   0   0   0   0   0   0   0   0   0   0   0   0   0   0   0   0   0   0   0   0   0   0   0   0   0   0   0   0   0   0   0   0   0   0   0   0   0   0   0   0   0   0   0   0   0   0   0   0   0   0   0   0   0   0   0   0   0   0   0   0   0   0   0   0   0   0   0   0   0   0   0   0   0   0   0   0   0   0   0   0   0   0   0   0   0   0   0   0   0   0   0   0   0   0   0   0   0   0   0   0   0   0   0   0   0   0   0   0   0   
0   0   0   0   0   0   0   0   0   0   0   0   0   0   0   0   0   0   0   0   0   0   0   0   0   0   0   0   0   0   0   0   0   0   0   0   0   0   0   0   0   0   0   0   0   0   0   0   0   0   0   0   0   0   0   0   0   0   0   0   0   0   0   0   0   0   0   0   0   0   0   0   0   0   0   0   0   0   0   0   0   0   0   0   0   0   0   0   0   0   0   0   0   0   0   0   0   0   0   0   0   0   0   0   0   0   0   0   0   0   0   0   0   0   0   0   0   0   0   0   0   0   0   0   0   0   0   0   0   0   0   0   0   0   0   0   0   0   0   0   0   0   0   0   0   0   0   0   0   0   0   0   0   0   0   0   0   0   0   0   0   0   0   0   0   0   0   0   0   0   0   0   0   0   0   0   0   0   0   0   0   0   0   0   0   0   0   0   0   0   0   0   0   0   0   0   0   0   0   0   0   0   0   0   0   0   0   0   0   0   0   0   0   0   0   0   0   0   0   0   0   0   0   0   0   0   0   0   0   0   0   0   0   0   0   0   0   0   0   0   0   0   0   0   0   0   0   0   0   0   0   0   0   0   0   0   0   0   0   0   0   0   0   0   0   0   0   0   0   0   
0   0   0   0   0   0   0   0   0   0   0   0   0   0   0   0   0   0   0   0   0   0   0   0   0   0   0   0   0   0   0   0   0   0   0   0   0   0   0   0   0   0   0   0   0   0   0   0   0   0   0   0   0   0   0   0   0   0   0   0   0   0   0   0   0   0   0   0   0   0   0   0   0   0   0   0   0   0   0   0   0   0   0   0   0   0   0   0   0   0   0   0   0   0   0   0   0   0   0   0   0   0   0   0   0   0   0   0   0   0   0   0   0   0   0   0   0   0   0   0   0   0   0   0   0   0   0   0   0   0   0   0   0   0   0   0   0   0   0   0   0   0   0   0   0   0   0   0   0   0   0   0   0   0   0   0   0   0   0   0   0   0   0   0   0   0   0   0   0   0   0   0   0   0   0   0   0   0   0   0   0   0   0   0   0   0   0   0   0   0   0   0   0   0   0   0   0   0   0   0   0   0   0   0   0   0   0   0   0   0   0   0   0   0   0   0   0   0   0   0   0   0   0   0   0   0   0   0   0   0   0   0   0   0   0   0   0   0   0   0   0   0   0   0   0   0   0   0   0   0   0   0   0   0   0   0   0   0   0   0   0   0   0   0   0   0   0   0   0   0   
0   0   0   0   0   0   0   0   0   0   0   0   0   0   0   0   0   0   0   0   0   0   0   0   0   0   0   0   0   0   0   0   0   0   0   0   0   0   0   0   0   0   0   0   0   0   0   0   0   0   0   0   0   0   0   0   0   0   0   0   0   0   0   0   0   0   0   0   0   0   0   0   0   0   0   0   0   0   0   0   0   0   0   0   0   0   0   0   0   0   0   0   0   0   0   0   0   0   0   0   0   0   0   0   0   0   0   0   0   0   0   0   0   0   0   0   0   0   0   0   0   0   0   0   0   0   0   0   0   0   0   0   0   0   0   0   0   0   0   0   0   0   0   0   0   0   0   0   0   0   0   0   0   0   0   0   0   0   0   0   0   0   0   0   0   0   0   0   0   0   0   0   0   0   0   0   0   0   0   0   0   0   0   0   0   0   0   0   0   0   0   0   0   0   0   0   0   0   0   0   0   0   0   0   0   0   0   0   0   0   0   0   0   0   0   0   0   0   0   0   0   0   0   0   0   0   0   0   0   0   0   0   0   0   0   0   0   0   0   0   0   0   0   0   0   0   0   0   0   0   0   0   0   0   0   0   0   0   0   0   0   0   0   0   0   0   0   0   0   0   
0   0   0   0   0   0   0   0   0   0   0   0   0   0   0   0   0   0   0   0   0   0   0   0   0   0   0   0   0   0   0   0   0   0   0   0   0   0   0   0   0   0   0   0   0   0   0   0   0   0   0   0   0   0   0   0   0   0   0   0   0   0   0   0   0   0   0   0   0   0   0   0   0   0   0   0   0   0   0   0   0   0   0   0   0   0   0   0   0   0   0   0   0   0   0   0   0   0   0   0   0   0   0   0   0   0   0   0   0   0   0   0   0   0   0   0   0   0   0   0   0   0   0   0   0   0   0   0   0   0   0   0   0   0   0   0   0   0   0   0   0   0   0   0   0   0   0   0   0   0   0   0   0   0   0   0   0   0   0   0   0   0   0   0   0   0   0   0   0   0   0   0   0   0   0   0   0   0   0   0   0   0   0   0   0   0   0   0   0   0   0   0   0   0   0   0   0   0   0   0   0   0   0   0   0   0   0   0   0   0   0   0   0   0   0   0   0   0   0   0   0   0   0   0   0   0   0   0   0   0   0   0   0   0   0   0   0   0   0   0   0   0   0   0   0   0   0   0   0   0   0   0   0   0   0   0   0   0   0   0   0   0   0   0   0   0   0   0   0   0   
0   0   0   0   0   0   0   0   0   0   0   0   0   0   0   0   0   0   0   0   0   0   0   0   0   0   0   0   0   0   0   0   0   0   0   0   0   0   0   0   0   0   0   0   0   0   0   0   0   0   0   0   0   0   0   0   0   0   0   0   0   0   0   0   0   0   0   0   0   0   0   0   0   0   0   0   0   0   0   0   0   0   0   0   0   0   0   0   0   0   0   0   0   0   0   0   0   0   0   0   0   0   0   0   0   0   0   0   0   0   0   0   0   0   0   0   0   0   0   0   0   0   0   0   0   0   0   0   0   0   0   0   0   0   0   0   0   0   0   0   0   0   0   0   0   0   0   0   0   0   0   0   0   0   0   0   0   0   0   0   0   0   0   0   0   0   0   0   0   0   0   0   0   0   0   0   0   0   0   0   0   0   0   0   0   0   0   0   0   0   0   0   0   0   0   0   0   0   0   0   0   0   0   0   0   0   0   0   0   0   0   0   0   0   0   0   0   0   0   0   0   0   0   0   0   0   0   0   0   0   0   0   0   0   0   0   0   0   0   0   0   0   0   0   0   0   0   0   0   0   0   0   0   0   0   0   0   0   0   0   0   0   0   0   0   0   0   0   0   0   
0   0   0   0   0   0   0   0   0   0   0   0   0   0   0   0   0   0   0   0   0   0   0   0   0   0   0   0   0   0   0   0   0   0   0   0   0   0   0   0   0   0   0   0   0   0   0   0   0   0   0   0   0   0   0   0   0   0   0   0   0   0   0   0   0   0   0   0   0   0   0   0   0   0   0   0   0   0   0   0   0   0   0   0   0   0   0   0   0   0   0   0   0   0   0   0   0   0   0   0   0   0   0   0   0   0   0   0   0   0   0   0   0   0   0   0   0   0   0   0   0   0   0   0   0   0   0   0   0   0   0   0   0   0   0   0   0   0   0   0   0   0   0   0   0   0   0   0   0   0   0   0   0   0   0   0   0   0   0   0   0   0   0   0   0   0   0   0   0   0   0   0   0   0   0   0   0   0   0   0   0   0   0   0   0   0   0   0   0   0   0   0   0   0   0   0   0   0   0   0   0   0   0   0   0   0   0   0   0   0   0   0   0   0   0   0   0   0   0   0   0   0   0   0   0   0   0   0   0   0   0   0   0   0   0   0   0   0   0   0   0   0   0   0   0   0   0   0   0   0   0   0   0   0   0   0   0   0   0   0   0   0   0   0   0   0   0   0   0   0   
0   0   0   0   0   0   0   0   0   0   0   0   0   0   0   0   0   0   0   0   0   0   0   0   0   0   0   0   0   0   0   0   0   0   0   0   0   0   0   0   0   0   0   0   0   0   0   0   0   0   0   0   0   0   0   0   0   0   0   0   0   0   0   0   0   0   0   0   0   0   0   0   134 85  85  128 85  85  0   0   0   0   0   0   0   0   0   0   0   0   0   0   0   0   0   0   0   0   0   0   0   0   0   0   0   0   0   0   0   0   0   0   0   0   0   0   0   0   0   0   0   0   0   0   0   0   0   0   0   0   0   0   0   0   0   0   0   0   0   0   0   0   0   0   0   0   0   0   0   0   0   0   0   0   0   0   0   0   0   0   0   0   0   0   0   0   0   0   0   0   0   0   0   0   0   0   0   0   0   0   0   0   0   0   0   0   0   0   0   0   0   0   0   0   0   0   0   0   0   0   0   0   0   0   0   0   0   0   0   0   0   0   0   0   0   0   0   0   0   0   0   0   0   0   0   0   0   0   0   0   0   0   0   0   0   0   0   0   0   0   0   0   0   0   0   0   0   0   0   0   0   0   0   0   0   0   0   0   0   0   0   0   0   0   0   0   0   0   0   0   
0   0   0   0   0   0   0   0   0   0   0   0   0   0   0   0   0   0   0   0   0   0   0   0   0   0   0   0   0   0   0   0   0   0   0   0   0   0   0   0   0   0   0   0   0   0   0   0   0   0   0   0   0   0   0   0   0   0   0   0   0   0   0   0   0   0   0   0   0   139 93  93  132 85  85  151 58  58  0   0   0   0   0   0   0   0   0   0   0   0   0   0   0   0   0   0   0   0   0   0   0   0   0   0   0   0   0   0   0   0   0   0   0   0   0   0   0   0   0   0   0   0   0   0   0   0   0   0   0   0   0   0   0   0   0   0   0   0   0   0   0   0   0   0   0   0   0   0   0   0   0   0   0   0   0   0   0   0   0   0   0   0   0   0   0   0   0   0   0   0   0   0   0   0   0   0   0   0   0   0   0   0   0   0   0   0   0   0   0   0   0   0   0   0   0   0   0   0   0   0   0   0   0   0   0   0   0   0   0   0   0   0   0   0   0   0   0   0   0   0   0   0   0   0   0   0   0   0   0   0   0   0   0   0   0   0   0   0   0   0   0   0   0   0   0   0   0   0   0   0   0   0   0   0   0   0   0   0   0   0   0   0   0   0   0   0   0   0   0   0   
0   0   0   0   0   0   0   0   0   0   0   0   0   0   0   0   0   0   0   0   0   0   0   0   0   0   0   0   0   0   0   0   0   0   0   0   0   0   0   0   0   0   0   0   0   0   0   0   0   0   0   0   0   0   0   0   0   0   0   0   0   0   0   0   0   0   0   0   0   128 85  85  109 85  85  154 64  64  0   0   0   0   0   0   0   0   0   0   0   0   0   0   0   0   0   0   0   0   0   0   0   0   0   0   0   0   0   0   0   0   0   0   0   0   0   0   0   0   0   0   0   0   0   0   0   0   0   0   0   0   0   0   0   0   0   0   0   0   0   0   0   0   0   0   0   0   0   0   0   0   0   0   0   0   0   0   0   0   0   0   0   0   0   0   0   0   0   0   0   0   0   0   0   0   0   0   0   0   0   0   0   0   0   0   0   0   0   0   0   0   0   0   0   0   0   0   0   0   0   0   0   0   0   0   0   0   0   0   0   0   0   0   0   0   0   0   0   0   0   0   0   0   0   0   0   0   0   0   0   0   0   0   0   0   0   0   0   0   0   0   0   0   0   0   0   0   0   0   0   0   0   0   0   0   0   0   0   0   0   0   0   0   0   0   0   0   0   0   0   0   
0   0   0   0   0   0   0   0   0   0   0   0   0   0   0   0   0   0   0   0   0   0   0   0   0   0   0   0   0   0   0   0   0   0   0   0   0   0   0   0   0   0   0   0   0   0   0   0   0   0   0   0   0   0   0   0   0   0   0   0   0   0   0   0   0   0   0   0   0   107 94  94  106 87  87  150 68  68  0   0   0   0   0   0   0   0   0   0   0   0   0   0   0   0   0   0   0   0   0   0   0   0   0   0   0   0   0   0   0   0   0   0   0   0   0   0   0   0   0   0   0   0   0   0   0   0   0   0   0   0   0   0   0   0   0   0   0   0   0   0   0   0   0   0   0   0   0   0   0   0   0   0   0   0   0   0   0   0   0   0   0   0   0   0   0   0   0   0   0   0   0   0   0   0   0   0   0   0   0   0   0   0   0   0   0   0   0   0   0   0   0   0   0   0   0   0   0   0   0   0   0   0   0   0   0   0   0   0   0   0   0   0   0   0   0   0   0   0   0   0   0   0   0   0   0   0   0   0   0   0   0   0   0   0   0   0   0   0   0   0   0   0   0   0   0   0   0   0   0   0   0   0   0   0   0   0   0   0   0   0   0   0   0   0   0   0   0   0   0   0   
0   0   0   0   0   0   0   0   0   0   0   0   0   0   0   0   0   0   0   0   0   0   0   0   0   0   0   0   0   0   0   0   0   0   0   0   0   0   0   0   0   0   0   0   0   0   0   0   0   0   0   0   0   0   0   0   0   0   0   0   0   0   0   0   0   0   0   0   0   107 94  94  107 86  86  141 83  83  149 85  85  0   0   0   0   0   0   0   0   0   0   0   0   0   0   0   0   0   0   0   0   0   0   0   0   0   0   0   0   0   0   0   0   0   0   0   0   0   0   0   0   0   0   0   0   0   0   0   0   0   0   0   0   0   0   0   0   0   0   0   0   0   0   0   0   0   0   0   0   0   0   0   0   0   0   0   0   0   0   0   0   0   0   0   0   0   0   0   0   0   0   0   0   0   0   0   0   0   0   0   0   0   0   0   0   0   0   0   0   0   0   0   0   0   0   0   0   0   0   0   0   0   0   0   0   0   0   0   0   0   0   0   0   0   0   0   0   0   0   0   0   0   0   0   0   0   0   0   0   0   0   0   0   0   0   0   0   0   0   0   0   0   0   0   0   0   0   0   0   0   0   0   0   0   0   0   0   0   0   0   0   0   0   0   0   0   0   0   0   0   
0   0   0   0   0   0   0   0   0   0   0   0   0   0   0   0   0   0   0   0   0   0   0   0   0   0   0   0   0   0   0   0   0   0   0   0   0   0   0   0   0   0   0   0   0   0   0   0   0   0   0   0   0   0   0   0   0   0   0   0   0   0   0   0   0   0   0   0   0   107 94  94  98  78  78  119 117 117 157 94  94  128 96  96  0   0   0   0   0   0   0   0   0   0   0   0   0   0   0   128 85  85  0   0   0   0   0   0   0   0   0   0   0   0   0   0   0   0   0   0   0   0   0   0   0   0   0   0   0   0   0   0   0   0   0   0   0   0   0   0   0   0   0   0   0   0   0   0   0   0   0   0   0   0   0   0   0   0   0   0   0   0   0   0   0   0   0   0   0   0   0   0   0   0   0   0   0   0   0   0   0   0   0   0   0   0   0   0   0   0   0   0   0   0   0   0   0   0   0   0   0   0   0   0   0   0   0   0   0   0   0   0   0   0   0   0   0   0   0   0   0   0   0   0   0   0   0   0   0   0   0   0   0   0   0   0   0   0   0   0   0   0   0   0   0   0   0   0   0   0   0   0   0   0   0   0   0   0   0   0   0   0   0   0   0   0   0   0   0   0   
0   0   0   0   0   0   0   0   0   0   0   0   0   0   0   0   0   0   0   0   0   0   0   0   0   0   0   0   0   0   0   0   0   0   0   0   0   0   0   0   0   0   0   0   0   0   0   0   0   0   0   0   0   0   0   0   0   0   0   0   0   0   0   0   0   0   0   0   0   94  94  94  99  76  76  111 111 111 131 130 130 177 90  90  0   0   0   0   0   0   0   0   0   0   0   0   115 102 102 107 70  70  85  85  85  0   0   0   0   0   0   0   0   0   0   0   0   0   0   0   0   0   0   0   0   0   0   0   0   0   0   0   0   0   0   0   0   0   0   0   0   0   0   0   0   0   0   0   0   0   0   0   0   0   0   0   0   0   0   0   0   0   0   0   0   0   0   0   0   0   0   0   0   0   0   0   0   0   0   0   0   0   0   0   0   0   0   0   0   0   0   0   0   0   0   0   0   0   0   0   0   0   0   0   0   0   0   0   0   0   0   0   0   0   0   0   0   0   0   0   0   0   0   0   0   0   0   0   0   0   0   0   0   0   0   0   0   0   0   0   0   0   0   0   0   0   0   0   0   0   0   0   0   0   0   0   0   0   0   0   0   0   0   0   0   0   0   0   0   0   
0   0   0   0   0   0   0   0   0   0   0   0   0   0   0   0   0   0   0   0   0   0   0   0   0   0   0   0   0   0   0   0   0   0   0   0   0   0   0   0   0   0   0   0   0   0   0   0   0   0   0   0   0   0   0   0   0   0   0   0   0   0   0   0   0   0   0   0   0   99  85  85  100 74  74  99  99  99  131 131 131 162 112 112 182 109 109 0   0   0   0   0   0   128 85  85  109 65  66  121 79  79  128 128 128 0   0   0   0   0   0   0   0   0   0   0   0   0   0   0   0   0   0   0   0   0   0   0   0   0   0   0   0   0   0   0   0   0   0   0   0   0   0   0   0   0   0   0   0   0   0   0   0   0   0   0   0   0   0   0   0   0   0   0   0   0   0   0   0   0   0   0   0   0   0   0   0   0   0   0   0   0   0   0   0   0   153 102 102 140 128 128 139 139 139 135 135 135 0   0   0   0   0   0   0   0   0   0   0   0   0   0   0   0   0   0   0   0   0   0   0   0   0   0   0   0   0   0   0   0   0   0   0   0   0   0   0   0   0   0   0   0   0   0   0   0   0   0   0   0   0   0   0   0   0   0   0   0   0   0   0   0   0   0   0   0   0   0   0   0   
0   0   0   0   0   0   0   0   0   0   0   0   0   0   0   0   0   0   0   0   0   0   0   0   0   0   0   0   0   0   0   0   0   0   0   0   0   0   0   0   0   0   0   0   0   0   0   0   0   0   0   0   0   0   0   0   0   0   0   0   0   0   0   0   0   0   0   0   0   96  80  80  98  67  67  99  99  99  119 119 119 131 130 130 173 103 103 159 96  96  128 128 128 115 99  99  115 92  92  142 79  79  0   0   0   0   0   0   0   0   0   0   0   0   0   0   0   0   0   0   0   0   0   0   0   0   0   0   0   0   0   0   0   0   0   0   0   0   0   0   0   0   0   0   0   0   0   0   0   0   0   0   0   0   0   0   0   0   0   0   0   0   0   0   0   0   0   0   0   0   0   0   0   0   0   0   0   0   0   0   128 128 128 157 118 118 176 107 107 158 144 144 162 156 156 139 125 125 122 145 145 0   0   0   0   0   0   0   0   0   0   0   0   0   0   0   0   0   0   0   0   0   0   0   0   0   0   0   0   0   0   0   0   0   0   0   0   0   0   0   0   0   0   0   0   0   0   0   0   0   0   0   0   0   0   0   0   0   0   0   0   0   0   0   0   0   0   0   0   0   
0   0   0   0   0   0   0   0   0   0   0   0   0   0   0   0   0   0   0   0   0   0   0   0   0   0   0   0   0   0   0   0   0   0   0   0   0   0   0   0   0   0   0   0   0   0   0   0   0   0   0   0   0   0   0   0   0   0   0   0   0   0   0   0   0   0   0   0   0   128 64  64  107 14  14  79  77  77  107 107 107 127 127 127 139 138 138 161 132 132 144 113 113 120 100 100 119 118 118 160 106 106 170 85  85  0   0   0   0   0   0   0   0   0   0   0   0   0   0   0   204 0   0   204 0   0   207 16  16  207 16  16  223 16  16  237 18  18  223 32  32  207 16  16  175 16  16  153 0   0   162 0   0   0   0   0   0   0   0   0   0   0   0   0   0   0   0   0   0   0   0   0   0   0   0   0   0   128 128 128 175 90  90  162 130 130 139 138 138 127 127 127 151 151 151 159 159 159 141 123 123 113 142 142 0   0   0   0   0   0   0   0   0   0   0   0   0   0   0   0   0   0   0   0   0   0   0   0   0   0   0   0   0   0   0   0   0   0   0   0   0   0   0   0   0   0   0   0   0   0   0   0   0   0   0   0   0   0   0   0   0   0   0   0   0   0   0   0   0   0   
0   0   0   0   0   0   0   0   0   0   0   0   0   0   0   0   0   0   0   0   0   0   0   0   0   0   0   0   0   0   0   0   0   0   0   0   0   0   0   0   0   0   0   0   0   0   0   0   0   0   0   0   0   0   0   0   0   0   0   0   0   0   0   0   0   0   0   0   0   0   0   0   102 51  51  82  49  49  87  87  87  107 107 107 127 127 127 139 139 139 147 147 147 147 147 147 91  91  91  129 122 122 179 84  84  161 81  81  170 51  51  182 18  18  216 20  20  209 12  12  228 0   0   232 0   0   232 0   0   221 0   0   255 0   0   255 51  51  255 0   0   210 0   0   161 0   0   159 0   0   218 0   0   188 0   0   170 0   0   164 0   0   187 0   0   204 17  17  196 39  39  170 85  85  179 102 102 193 106 106 148 145 145 139 139 139 127 127 127 107 107 107 127 127 127 119 119 119 124 114 114 128 128 128 0   0   0   0   0   0   0   0   0   0   0   0   0   0   0   0   0   0   0   0   0   0   0   0   0   0   0   0   0   0   0   0   0   0   0   0   0   0   0   0   0   0   0   0   0   0   0   0   0   0   0   0   0   0   0   0   0   0   0   0   0   0   0   0   0   0   
0   0   0   0   0   0   0   0   0   0   0   0   0   0   0   0   0   0   0   0   0   0   0   0   0   0   0   0   0   0   0   0   0   0   0   0   0   0   0   0   0   0   0   0   0   0   0   0   0   0   0   0   0   0   0   0   0   0   0   0   0   0   0   0   0   0   0   0   0   0   0   0   93  46  46  83  40  40  79  79  79  87  87  87  107 107 107 127 127 127 147 147 147 159 159 159 159 159 159 128 126 126 179 0   0   181 0   0   194 0   0   219 0   0   243 0   0   184 0   0   191 0   0   239 0   0   255 0   0   215 0   0   227 0   0   255 0   0   203 0   0   167 0   0   167 0   0   155 0   0   155 0   0   144 0   0   160 0   0   184 0   0   208 0   0   231 0   0   232 0   0   157 94  94  172 146 146 159 158 158 147 147 147 127 127 127 107 107 107 87  87  87  79  79  79  71  70  70  96  37  37  85  85  85  0   0   0   0   0   0   0   0   0   0   0   0   0   0   0   0   0   0   0   0   0   0   0   0   0   0   0   0   0   0   0   0   0   0   0   0   0   0   0   0   0   0   0   0   0   0   0   0   0   0   0   0   0   0   0   0   0   0   0   0   0   0   0   0   0   0   
0   0   0   0   0   0   0   0   0   0   0   0   0   0   0   0   0   0   0   0   0   0   0   0   0   0   0   0   0   0   0   0   0   0   0   0   0   0   0   0   0   0   0   0   0   0   0   0   0   0   0   0   0   0   0   0   0   128 91  91  0   0   0   0   0   0   0   0   0   0   0   0   128 0   0   102 0   0   72  68  68  79  79  79  91  91  91  107 107 107 127 127 127 159 159 159 167 167 167 219 219 219 191 191 191 155 0   0   155 0   0   227 0   0   191 0   0   255 63  63  191 0   0   167 0   0   215 0   0   227 0   0   179 0   0   191 0   0   179 0   0   191 0   0   179 0   0   167 0   0   139 0   0   139 0   0   179 0   0   203 0   0   227 0   0   155 0   0   191 191 191 219 219 219 167 167 167 159 159 159 127 127 127 107 107 107 91  91  91  79  79  79  71  70  70  92  28  28  102 51  51  0   0   0   0   0   0   0   0   0   0   0   0   0   0   0   0   0   0   0   0   0   0   0   0   0   0   0   0   0   0   0   0   0   0   0   0   0   0   0   0   0   0   0   0   0   0   0   0   0   0   0   0   0   0   0   0   0   0   0   0   0   0   0   0   0   0   0   0   0   
0   0   0   0   0   0   0   0   0   0   0   0   0   0   0   0   0   0   0   0   0   0   0   0   0   0   0   0   0   0   0   0   0   0   0   0   0   0   0   0   0   0   0   0   0   0   0   0   0   0   0   0   0   0   135 90  90  128 88  88  187 100 100 255 0   0   0   0   0   0   0   0   0   0   0   102 51  51  85  39  39  71  71  71  87  87  87  99  99  99  107 107 107 127 127 127 171 171 171 191 191 191 223 223 223 191 191 191 167 0   0   239 0   0   191 0   0   203 0   0   215 0   0   155 0   0   167 0   0   203 0   0   203 0   0   179 0   0   203 0   0   203 0   0   167 0   0   139 0   0   155 0   0   191 0   0   215 0   0   239 0   0   167 0   0   191 191 191 223 223 223 191 191 191 171 171 171 127 127 127 107 107 107 99  99  99  87  87  87  72  69  69  96  21  21  0   0   0   0   0   0   0   0   0   0   0   0   0   0   0   0   0   0   0   0   0   0   0   0   0   0   0   0   0   0   0   0   0   0   0   0   0   0   0   0   0   0   0   0   0   0   0   0   0   0   0   0   0   0   0   0   0   0   0   0   0   0   0   0   0   0   0   0   0   0   0   0   0   0   0   
0   0   0   0   0   0   0   0   0   0   0   0   0   0   0   0   0   0   0   0   0   0   0   0   0   0   0   0   0   0   0   0   0   0   0   0   0   0   0   0   0   0   0   0   0   0   0   0   0   0   0   0   0   0   153 102 102 135 53  53  112 109 109 192 111 111 191 128 128 0   0   0   0   0   0   114 44  44  156 0   0   71  70  70  91  91  91  107 107 107 107 107 107 111 111 111 119 119 119 151 151 151 167 167 167 179 179 179 179 0   0   255 0   0   191 0   0   167 0   0   155 0   0   139 0   0   155 0   0   203 0   0   239 0   0   179 0   0   239 0   0   203 0   0   167 0   0   139 0   0   167 0   0   227 0   0   227 0   0   255 0   0   179 0   0   179 179 179 167 167 167 151 151 151 119 119 119 111 111 111 107 107 107 107 107 107 91  91  91  83  51  51  80  48  48  0   0   0   0   0   0   0   0   0   170 85  85  170 85  85  0   0   0   0   0   0   0   0   0   0   0   0   0   0   0   0   0   0   0   0   0   0   0   0   0   0   0   0   0   0   0   0   0   0   0   0   0   0   0   0   0   0   0   0   0   0   0   0   0   0   0   0   0   0   0   0   0   0   0   0   
0   0   0   0   0   0   0   0   0   0   0   0   0   0   0   0   0   0   0   0   0   0   0   0   0   0   0   0   0   0   0   0   0   0   0   0   0   0   0   0   0   0   0   0   0   0   0   0   0   0   0   0   0   0   0   0   0   128 85  85  109 86  86  111 110 110 170 145 145 162 75  75  150 60  60  196 0   0   179 0   0   155 0   0   71  70  70  99  99  99  111 111 111 107 107 107 107 107 107 111 111 111 131 131 131 139 139 139 191 0   0   227 0   0   191 0   0   179 0   0   203 0   0   191 0   0   191 0   0   155 0   0   203 0   0   227 0   0   203 0   0   155 0   0   191 0   0   191 0   0   139 0   0   179 0   0   215 0   0   227 0   0   191 0   0   139 139 139 131 131 131 111 111 111 107 107 107 107 107 107 111 111 111 99  99  99  71  70  70  155 0   0   181 0   0   147 39  39  153 51  51  161 65  65  170 144 144 171 149 149 142 148 148 0   0   0   0   0   0   0   0   0   0   0   0   0   0   0   0   0   0   0   0   0   0   0   0   0   0   0   0   0   0   0   0   0   0   0   0   0   0   0   0   0   0   0   0   0   0   0   0   0   0   0   0   0   0   0   0   0   
0   0   0   0   0   0   0   0   0   0   0   0   0   0   0   0   0   0   0   0   0   0   0   0   0   0   0   0   0   0   0   0   0   0   0   0   0   0   0   0   0   0   0   0   0   0   0   0   0   0   0   0   0   0   0   0   0   128 128 128 133 48  48  99  98  98  127 127 127 159 158 158 140 114 114 101 95  95  215 0   0   179 0   0   155 0   0   71  70  70  87  87  87  99  99  99  111 111 111 99  99  99  111 110 110 119 118 118 215 0   0   191 0   0   167 0   0   203 0   0   227 0   0   255 31  31  215 0   0   179 0   0   139 0   0   179 0   0   139 0   0   179 0   0   191 0   0   203 0   0   179 0   0   139 0   0   191 0   0   215 0   0   215 0   0   119 119 119 111 111 111 99  99  99  111 111 111 99  99  99  87  86  86  71  70  70  155 0   0   179 0   0   215 0   0   118 74  74  138 109 109 159 158 158 147 147 147 159 158 158 140 99  99  146 109 109 0   0   0   0   0   0   0   0   0   0   0   0   0   0   0   0   0   0   0   0   0   0   0   0   0   0   0   0   0   0   0   0   0   0   0   0   0   0   0   0   0   0   0   0   0   0   0   0   0   0   0   0   0   0   
0   0   0   0   0   0   0   0   0   0   0   0   0   0   0   0   0   0   0   0   0   0   0   0   0   0   0   0   0   0   0   0   0   0   0   0   0   0   0   0   0   0   0   0   0   0   0   0   0   0   0   0   0   0   0   0   0   0   0   0   116 70  70  112 79  79  99  99  99  127 127 127 147 147 147 131 130 130 99  98  98  239 0   0   167 0   0   179 0   0   203 0   0   71  70  70  79  78  78  87  86  86  91  90  90  191 0   0   179 0   0   167 0   0   155 0   0   179 0   0   203 0   0   215 0   0   203 0   0   155 0   0   115 0   0   103 0   0   115 0   0   155 0   0   203 0   0   215 0   0   167 0   0   139 0   0   139 0   0   179 0   0   191 0   0   91  0   0   91  91  91  87  87  87  79  79  79  71  71  71  91  0   0   127 0   0   167 0   0   191 0   0   99  97  97  131 130 130 147 147 147 127 127 127 99  99  99  103 96  96  128 117 117 0   0   0   0   0   0   0   0   0   0   0   0   0   0   0   0   0   0   0   0   0   0   0   0   0   0   0   0   0   0   0   0   0   0   0   0   0   0   0   0   0   0   0   0   0   0   0   0   0   0   0   0   0   0   0   0   0   
0   0   0   0   0   0   0   0   0   0   0   0   0   0   0   0   0   0   0   0   0   0   0   0   0   0   0   0   0   0   0   0   0   0   0   0   0   0   0   0   0   0   0   0   0   0   0   0   0   0   0   0   0   0   0   0   0   0   0   0   0   0   0   116 24  24  87  86  86  99  99  99  127 127 127 119 118 118 99  98  98  239 0   0   127 0   0   155 0   0   167 0   0   203 0   0   191 0   0   203 0   0   203 0   0   203 0   0   167 0   0   179 0   0   203 0   0   227 0   0   203 0   0   179 0   0   167 0   0   139 0   0   91  0   0   91  0   0   91  0   0   139 0   0   167 0   0   167 0   0   215 0   0   239 0   0   203 0   0   155 0   0   155 0   0   103 0   0   91  0   0   91  0   0   91  0   0   91  0   0   103 0   0   139 0   0   127 0   0   239 0   0   99  98  98  119 119 119 127 127 127 99  99  99  87  86  86  102 45  45  128 64  64  0   0   0   0   0   0   0   0   0   0   0   0   0   0   0   0   0   0   0   0   0   0   0   0   0   0   0   0   0   0   0   0   0   0   0   0   0   0   0   0   0   0   0   0   0   0   0   0   0   0   0   0   0   0   0   0   0   
0   0   0   0   0   0   0   0   0   0   0   0   0   0   0   0   0   0   0   0   0   0   0   0   0   0   0   0   0   0   0   0   0   0   0   0   0   0   0   0   0   0   0   0   0   0   0   0   0   0   0   0   0   0   0   0   0   0   0   0   0   0   0   104 46  46  71  39  39  79  78  78  87  86  86  99  98  98  239 0   0   227 0   0   155 0   0   127 0   0   155 0   0   155 0   0   139 0   0   139 0   0   139 0   0   155 0   0   167 0   0   203 0   0   239 0   0   255 0   0   255 0   0   215 0   0   179 0   0   167 0   0   115 0   0   91  0   0   115 0   0   167 0   0   179 0   0   215 0   0   191 0   0   239 0   0   227 0   0   203 0   0   191 0   0   127 0   0   103 0   0   103 0   0   103 0   0   103 0   0   115 0   0   127 0   0   155 0   0   215 0   0   91  0   0   99  99  99  87  87  87  79  79  79  67  46  46  79  62  62  0   0   0   0   0   0   0   0   0   0   0   0   0   0   0   0   0   0   0   0   0   0   0   0   0   0   0   0   0   0   0   0   0   0   0   0   0   0   0   0   0   0   0   0   0   0   0   0   0   0   0   0   0   0   0   0   0   0   0   0   
0   0   0   0   0   0   0   0   0   0   0   0   0   0   0   0   0   0   0   0   0   0   0   0   0   0   0   0   0   0   0   0   0   0   0   0   0   0   0   0   0   0   0   0   0   0   0   0   0   0   0   0   0   0   0   0   0   0   0   0   170 24  24  245 0   0   191 0   0   167 0   0   179 0   0   203 0   0   227 0   0   215 0   0   203 0   0   167 0   0   127 0   0   139 0   0   155 0   0   179 0   0   179 0   0   167 0   0   167 0   0   191 0   0   191 0   0   191 0   0   203 0   0   227 0   0   203 0   0   167 0   0   139 0   0   115 0   0   155 0   0   179 0   0   215 0   0   239 0   0   239 0   0   179 0   0   239 0   0   215 0   0   191 0   0   139 0   0   127 0   0   115 0   0   115 0   0   115 0   0   127 0   0   167 0   0   203 0   0   179 0   0   103 0   0   91  0   0   91  0   0   91  0   0   191 0   0   241 0   0   176 35  35  0   0   0   0   0   0   0   0   0   0   0   0   0   0   0   0   0   0   0   0   0   0   0   0   0   0   0   0   0   0   0   0   0   0   0   0   0   0   0   0   0   0   0   0   0   0   0   0   0   0   0   0   0   0   0   0   0   
0   0   0   0   0   0   0   0   0   0   0   0   0   0   0   0   0   0   0   0   0   0   0   0   0   0   0   0   0   0   0   0   0   0   0   0   0   0   0   0   0   0   0   0   0   0   0   0   0   0   0   0   0   0   0   0   0   194 12  12  228 0   0   239 0   0   203 0   0   155 0   0   127 0   0   167 0   0   191 0   0   203 0   0   215 0   0   191 0   0   139 35  35  139 0   0   107 15  15  103 11  11  107 15  15  127 0   0   155 0   0   167 0   0   179 0   0   179 0   0   191 0   0   203 0   0   227 0   0   191 0   0   155 0   0   139 0   0   215 0   0   215 0   0   155 0   0   191 0   0   179 0   0   155 0   0   215 0   0   191 0   0   179 0   0   139 0   0   115 19  19  83  7   7   107 14  14  155 99  58  239 163 115 239 163 115 231 155 107 155 99  59  127 0   0   115 0   0   115 0   0   127 0   0   203 0   0   239 0   0   225 0   0   191 27  27  0   0   0   0   0   0   0   0   0   0   0   0   0   0   0   0   0   0   0   0   0   0   0   0   0   0   0   0   0   0   0   0   0   0   0   0   0   0   0   0   0   0   0   0   0   0   0   0   0   0   0   0   0   0   
0   0   0   0   0   0   0   0   0   0   0   0   0   0   0   0   0   0   0   0   0   0   0   0   0   0   0   0   0   0   0   0   0   0   0   0   0   0   0   0   0   0   0   0   0   0   0   0   0   0   0   0   0   0   185 0   0   197 0   0   167 0   0   179 0   0   155 0   0   191 0   0   191 0   0   155 0   0   167 0   0   167 0   0   167 0   0   139 35  35  107 15  15  95  7   7   103 11  11  115 19  19  119 23  23  103 0   0   127 0   0   155 0   0   179 0   0   167 0   0   167 0   0   179 0   0   191 0   0   203 0   0   167 0   0   91  0   0   91  0   0   155 0   0   227 0   0   167 0   0   139 0   0   127 0   0   139 0   0   167 0   0   155 0   0   115 19  19  83  7   7   71  0   0   155 99  59  207 131 83  179 115 71  207 131 83  239 163 115 239 163 115 155 99  59  127 0   0   127 0   0   139 0   0   167 0   0   191 0   0   227 0   0   192 0   0   170 19  19  0   0   0   0   0   0   0   0   0   0   0   0   0   0   0   0   0   0   0   0   0   0   0   0   0   0   0   0   0   0   0   0   0   0   0   0   0   0   0   0   0   0   0   0   0   0   0   0   0   0   0   
0   0   0   0   0   0   0   0   0   0   0   0   0   0   0   0   0   0   0   0   0   0   0   0   0   0   0   0   0   0   0   0   0   0   0   0   0   0   0   0   0   0   0   0   0   0   0   0   0   0   0   0   0   0   194 0   0   232 0   0   167 0   0   127 0   0   127 0   0   167 0   0   179 0   0   215 0   0   191 0   0   155 0   0   127 0   0   107 15  15  103 11  11  119 23  23  127 27  27  139 35  35  143 43  43  131 31  31  103 0   0   127 0   0   139 0   0   167 0   0   167 0   0   167 0   0   179 0   0   191 0   0   155 0   0   67  51  27  67  51  27  91  0   0   79  0   0   115 0   0   127 0   0   127 0   0   115 0   0   115 0   0   107 15  15  83  7   7   71  0   0   155 99  58  171 111 67  143 95  55  119 79  43  119 79  43  171 111 67  207 131 83  207 131 83  155 99  59  139 0   0   139 0   0   127 0   0   127 0   0   191 0   0   227 0   0   203 0   0   177 20  20  0   0   0   0   0   0   0   0   0   0   0   0   0   0   0   0   0   0   0   0   0   0   0   0   0   0   0   0   0   0   0   0   0   0   0   0   0   0   0   0   0   0   0   0   0   0   0   0   
0   0   0   0   0   0   0   0   0   0   0   0   0   0   0   0   0   0   0   0   0   0   0   0   0   0   0   0   0   0   0   0   0   0   0   0   0   0   0   0   0   0   0   0   0   0   0   0   0   0   0   180 0   0   175 0   0   179 0   0   155 0   0   203 0   0   239 0   0   155 0   0   191 0   0   215 0   0   167 0   0   155 0   0   127 0   0   103 11  11  115 19  19  139 35  35  143 43  43  143 43  43  179 79  79  167 63  63  143 43  43  127 0   0   179 0   0   227 0   0   255 63  63  255 31  31  215 0   0   179 0   0   127 0   0   67  51  27  79  59  35  67  51  27  91  0   0   115 0   0   215 0   0   191 0   0   167 0   0   115 19  19  79  0   0   71  0   0   155 99  58  171 111 67  135 87  51  75  55  27  151 47  47  139 35  35  95  67  35  171 111 67  207 131 83  171 111 67  143 95  55  155 0   0   239 0   0   203 0   0   155 0   0   179 0   0   167 0   0   202 0   0   170 0   0   0   0   0   0   0   0   0   0   0   0   0   0   0   0   0   0   0   0   0   0   0   0   0   0   0   0   0   0   0   0   0   0   0   0   0   0   0   0   0   0   0   0   0   0   0   
0   0   0   0   0   0   0   0   0   0   0   0   0   0   0   0   0   0   0   0   0   0   0   0   0   0   0   0   0   0   0   0   0   0   0   0   0   0   0   0   0   0   0   0   0   0   0   0   177 0   0   199 0   0   191 0   0   227 0   0   167 0   0   127 0   0   155 0   0   215 0   0   191 0   0   167 0   0   155 0   0   127 0   0   107 15  15  107 15  15  103 0   0   115 19  19  127 27  27  115 19  19  107 14  14  127 27  27  167 0   0   191 0   0   239 0   0   255 63  63  255 63  63  215 0   0   167 0   0   139 0   0   91  0   0   91  71  43  103 83  51  91  71  43  79  0   0   103 0   0   103 0   0   91  0   0   79  0   0   79  0   0   71  0   0   155 99  59  171 111 67  127 83  47  75  55  27  18  35  10  43  35  15  43  35  15  83  63  31  171 111 67  155 99  59  127 83  47  107 71  39  79  0   0   79  0   0   103 0   0   139 0   0   167 0   0   155 0   0   158 0   0   167 9   9   0   0   0   0   0   0   0   0   0   0   0   0   0   0   0   0   0   0   0   0   0   0   0   0   0   0   0   0   0   0   0   0   0   0   0   0   0   0   0   0   0   0   0   0   0   
0   0   0   0   0   0   0   0   0   0   0   0   0   0   0   0   0   0   0   0   0   0   0   0   0   0   0   0   0   0   0   0   0   0   0   0   0   0   0   0   0   0   0   0   0   0   0   0   159 11  11  133 0   0   155 0   0   179 0   0   155 0   0   203 0   0   239 0   0   179 0   0   179 0   0   127 0   0   139 0   0   103 0   0   119 23  23  131 31  31  119 23  23  115 19  19  119 23  23  95  6   6   79  0   0   79  0   0   139 0   0   179 0   0   227 0   0   255 0   0   215 0   0   191 0   0   139 0   0   115 0   0   67  51  27  91  71  43  103 83  51  91  71  43  79  59  35  67  0   0   67  0   0   67  0   0   79  0   0   71  0   0   95  67  35  155 99  59  119 79  43  75  55  27  10  23  6   43  35  15  43  34  14  43  34  14  119 79  43  155 99  59  135 87  51  95  67  35  75  55  27  79  0   0   155 0   0   155 0   0   127 0   0   127 0   0   139 0   0   127 0   0   164 0   0   139 0   0   0   0   0   0   0   0   0   0   0   0   0   0   0   0   0   0   0   0   0   0   0   0   0   0   0   0   0   0   0   0   0   0   0   0   0   0   0   0   0   0   0   0   
0   0   0   0   0   0   0   0   0   0   0   0   0   0   0   0   0   0   0   0   0   0   0   0   0   0   0   0   0   0   0   0   0   0   0   0   0   0   0   0   0   0   0   0   0   142 0   0   138 0   0   103 0   0   115 0   0   127 0   0   139 0   0   179 0   0   167 0   0   139 0   0   139 0   0   127 0   0   103 0   0   119 23  23  127 27  27  131 31  31  151 47  47  127 27  27  95  6   6   43  35  15  67  51  27  79  0   0   103 11  11  155 0   0   115 0   0   91  7   7   115 0   0   139 0   0   115 0   0   91  0   0   91  71  43  79  59  35  67  51  27  67  0   0   67  51  27  67  51  27  67  51  27  67  0   0   71  0   0   71  0   0   75  55  27  95  67  35  75  55  27  0   0   83  0   0   83  0   0   107 0   0   107 119 79  43  171 111 67  135 87  51  95  67  35  75  55  27  79  0   0   91  0   0   227 0   0   203 0   0   179 0   0   115 0   0   103 0   0   103 0   0   118 0   0   128 11  11  0   0   0   0   0   0   0   0   0   0   0   0   0   0   0   0   0   0   0   0   0   0   0   0   0   0   0   0   0   0   0   0   0   0   0   0   0   0   0   0   0   0   
0   0   0   0   0   0   0   0   0   0   0   0   0   0   0   0   0   0   0   0   0   0   0   0   0   0   0   0   0   0   0   0   0   0   0   0   0   0   0   0   0   0   0   0   0   128 12  0   132 0   0   91  0   0   91  0   0   115 0   0   115 0   0   139 0   0   115 0   0   115 0   0   103 0   0   103 0   0   143 43  43  155 51  51  139 35  35  127 27  27  119 23  23  127 27  27  135 87  51  135 87  51  119 79  43  67  51  27  79  0   0   115 0   0   71  0   0   79  0   0   79  0   0   143 43  43  83  7   7   67  51  26  67  51  27  139 0   0   203 107 107 143 43  43  79  0   0   67  51  27  79  0   0   0   0   83  0   0   155 103 0   0   103 0   0   103 0   0   0   0   107 0   0   83  0   0   107 0   0   155 119 79  43  155 99  59  135 87  51  95  67  35  75  55  27  79  0   0   91  0   0   139 0   0   203 0   0   239 0   0   255 0   0   191 0   0   91  0   0   79  0   0   79  0   0   159 0   0   139 0   0   0   0   0   0   0   0   0   0   0   0   0   0   0   0   0   0   0   0   0   0   0   0   0   0   0   0   0   0   0   0   0   0   0   0   0   0   0   0   0   
0   0   0   0   0   0   0   0   0   0   0   0   0   0   0   0   0   0   0   0   0   0   0   0   0   0   0   0   0   0   0   0   0   0   0   0   0   0   0   0   0   0   164 0   0   207 0   0   139 0   0   79  0   0   103 0   0   103 0   0   103 0   0   103 0   0   103 0   0   103 0   0   143 43  43  175 71  71  143 43  43  151 47  47  155 51  51  167 63  63  119 23  23  95  6   6   30  23  11  43  35  15  43  35  15  67  51  27  67  51  27  67  51  27  67  51  27  67  51  27  163 106 62  131 31  31  91  0   0   0   0   83  0   0   131 139 0   0   155 0   0   139 0   0   175 71  71  67  51  27  0   0   47  139 35  35  255 63  63  227 0   0   155 0   0   155 0   0   0   0   179 0   0   203 0   0   203 55  55  255 83  83  255 83  83  255 0   0   227 0   0   83  79  0   0   79  0   0   115 0   0   179 0   0   203 0   0   239 0   0   239 0   0   255 31  31  179 0   0   91  0   0   127 0   0   157 0   0   147 10  10  0   0   0   0   0   0   0   0   0   0   0   0   0   0   0   0   0   0   0   0   0   0   0   0   0   0   0   0   0   0   0   0   0   0   0   0   0   0   0   
0   0   0   0   0   0   0   0   0   0   0   0   0   0   0   0   0   0   0   0   0   0   0   0   0   0   0   0   0   0   0   0   0   0   0   0   0   0   0   187 0   0   225 0   0   227 0   0   203 0   0   103 0   0   119 22  22  119 23  23  103 0   0   103 0   0   143 42  42  191 91  91  155 51  51  155 51  51  211 115 115 163 59  59  119 23  23  95  6   6   75  55  27  0   0   0   0   0   0   63  47  23  0   0   0   63  47  23  0   0   0   51  43  19  0   0   0   91  71  43  91  71  43  91  71  43  119 95  63  0   0   107 0   0   131 0   0   155 0   0   227 0   0   203 55  55  255 0   0   255 0   0   203 0   0   227 0   0   255 255 63  63  239 0   0   227 0   0   83  83  255 255 63  62  179 0   0   0   0   227 55  55  255 83  83  255 55  55  255 0   0   155 0   0   83  79  0   0   115 0   0   155 0   0   179 0   0   203 0   0   227 0   0   215 0   0   215 0   0   115 0   0   203 0   0   227 0   0   200 0   0   175 16  16  0   0   0   0   0   0   0   0   0   0   0   0   0   0   0   0   0   0   0   0   0   0   0   0   0   0   0   0   0   0   0   0   0   0   0   0   
0   0   0   0   0   0   0   0   0   0   0   0   0   0   0   0   0   0   0   0   0   0   0   0   0   0   0   0   0   0   0   0   0   255 0   0   191 0   0   225 0   0   191 0   0   215 0   0   215 0   0   179 0   0   115 0   0   91  0   0   103 0   0   131 31  31  167 63  63  143 43  43  139 35  35  179 79  79  179 79  79  119 22  22  43  35  15  43  35  15  63  47  23  179 115 71  247 171 122 163 107 63  83  63  31  67  51  27  51  43  19  23  15  7   91  71  43  159 131 99  159 131 99  131 107 75  119 95  63  0   0   155 0   0   155 91  0   0   0   0   155 55  55  255 55  55  255 27  27  255 255 62  62  255 123 123 255 123 123 0   0   255 255 0   0   239 0   0   83  83  255 0   0   255 227 0   0   179 0   0   0   0   227 55  55  255 55  55  255 0   0   203 0   0   155 0   0   131 103 0   0   127 0   0   155 0   0   179 0   0   203 0   0   179 0   0   155 0   0   139 0   0   167 0   0   191 0   0   194 0   0   182 9   9   0   0   0   0   0   0   0   0   0   0   0   0   0   0   0   0   0   0   0   0   0   0   0   0   0   0   0   0   0   0   0   0   0   0   0   0   
0   0   0   0   0   0   0   0   0   0   0   0   0   0   0   0   0   0   0   0   0   0   0   0   0   0   0   0   0   0   182 0   12  222 0   0   211 0   0   215 0   0   179 0   0   203 0   0   0   0   203 0   0   179 0   0   131 0   0   107 103 0   0   119 23  23  131 31  31  131 31  31  151 47  47  167 63  63  119 23  23  43  35  14  43  35  15  135 87  51  215 139 91  247 171 123 163 107 63  83  63  30  18  35  10  51  43  19  75  55  27  91  71  43  159 131 99  131 107 75  119 95  63  91  71  43  79  59  35  91  0   0   167 0   0   115 0   0   0   0   255 0   0   255 27  27  255 27  27  255 26  27  255 0   0   255 255 95  95  255 63  62  0   0   255 255 63  63  83  83  255 227 0   0   0   0   255 155 0   0   0   0   255 0   0   227 0   0   227 0   0   255 0   0   179 0   0   155 103 0   0   103 0   0   139 0   0   139 0   0   155 0   0   155 0   0   139 0   0   127 0   0   115 0   0   167 0   0   171 0   0   167 20  20  0   0   0   0   0   0   0   0   0   0   0   0   0   0   0   0   0   0   0   0   0   0   0   0   0   0   0   0   0   0   0   0   0   0   0   0   
0   0   0   0   0   0   0   0   0   0   0   0   0   0   0   0   0   0   0   0   0   0   0   0   0   0   0   0   0   0   184 10  20  203 0   0   215 0   0   0   0   227 0   0   179 26  27  255 0   0   179 0   0   83  127 0   0   139 0   0   0   0   131 103 0   0   107 15  15  107 15  15  131 31  31  139 35  35  95  6   6   43  35  15  119 79  43  223 147 99  223 147 99  163 107 63  83  63  30  51  43  19  51  43  19  43  35  15  91  71  43  131 107 75  119 95  63  91  71  43  79  59  35  79  0   0   203 0   0   155 0   0   91  0   0   0   0   255 0   0   155 0   0   155 27  27  255 255 95  95  255 95  95  255 95  95  0   0   255 0   0   255 155 0   0   0   0   179 55  55  255 255 63  62  0   0   255 0   0   255 0   0   255 155 0   0   0   0   255 0   0   179 155 0   0   0   0   131 0   0   155 0   0   203 0   0   179 0   0   155 139 0   0   139 0   0   115 0   0   91  0   0   127 0   0   115 0   0   142 0   0   146 12  12  0   0   0   0   0   0   0   0   0   0   0   0   0   0   0   0   0   0   0   0   0   0   0   0   0   0   0   0   0   0   0   0   0   0   0   0   
0   0   0   0   0   0   0   0   0   0   0   0   0   0   0   0   0   0   0   0   0   0   0   0   0   0   0   165 0   15  227 0   0   203 0   0   0   0   106 0   0   155 0   0   179 0   0   203 27  27  255 0   0   179 0   0   131 0   0   83  0   0   107 79  0   0   95  7   7   95  7   7   95  7   7   95  6   6   95  7   7   63  47  23  215 139 91  239 163 115 163 107 63  83  63  30  51  43  19  18  35  11  19  35  11  135 87  51  215 139 91  91  71  43  83  63  31  207 131 83  219 123 123 0   0   155 155 0   0   0   0   155 115 0   0   55  55  255 91  0   0   0   0   155 0   0   155 26  27  255 0   0   255 155 0   0   255 95  95  255 95  95  0   0   255 155 0   0   27  27  255 239 0   0   0   0   227 0   0   203 0   0   203 0   0   179 0   0   155 0   0   131 0   0   203 0   0   131 0   0   131 0   0   107 155 0   0   0   0   107 0   0   107 79  0   0   79  0   0   91  0   0   155 0   0   127 0   0   107 0   0   117 11  11  0   0   0   0   0   0   0   0   0   0   0   0   0   0   0   0   0   0   0   0   0   0   0   0   0   0   0   0   0   0   0   0   0   0   0   0   
0   0   0   0   0   0   0   0   0   0   0   0   0   0   0   0   0   0   0   0   0   0   0   0   134 0   13  142 0   0   79  0   0   0   0   83  0   0   179 167 0   0   0   0   255 27  27  255 27  27  255 27  27  255 0   0   179 0   0   131 0   0   83  79  0   0   79  0   0   79  0   0   79  0   0   30  23  11  18  35  11  63  47  23  223 147 99  143 95  55  83  63  30  10  22  6   19  35  11  95  67  35  119 79  43  223 147 99  223 147 99  79  59  35  171 111 67  207 131 83  115 0   0   0   0   203 79  0   0   0   0   155 0   0   155 0   0   203 0   0   255 0   0   203 191 0   0   255 63  63  155 0   0   0   0   255 0   0   255 155 0   0   255 123 123 0   0   179 0   0   227 239 0   0   0   0   227 0   0   203 0   0   179 0   0   155 0   0   131 0   0   131 103 0   0   103 0   0   103 0   0   91  0   0   0   0   83  0   0   107 0   0   179 0   0   203 0   0   107 0   0   83  0   0   107 0   0   155 103 0   0   131 0   0   118 0   0   106 0   0   0   0   0   0   0   0   0   0   0   0   0   0   0   0   0   0   0   0   0   0   0   0   0   0   0   0   0   0   0   0   
0   0   0   0   0   0   0   0   0   0   0   0   0   0   0   0   0   0   0   0   0   128 0   13  167 0   0   155 0   0   103 0   0   0   0   107 167 0   0   179 0   0   0   0   255 179 0   0   27  27  255 27  27  255 27  27  255 83  83  255 83  83  255 0   0   107 0   0   83  79  0   0   79  0   0   31  23  11  19  35  11  63  47  23  171 111 67  143 95  55  30  22  10  91  0   0   23  51  15  83  63  31  223 147 99  179 115 71  207 131 83  127 26  26  67  0   0   0   0   131 0   0   203 0   0   107 227 0   0   79  0   0   0   0   155 191 0   0   215 0   0   0   0   155 0   0   203 255 31  30  155 0   0   0   0   255 0   0   227 0   0   255 0   0   255 255 95  95  0   0   203 227 0   0   0   0   227 179 0   0   167 0   0   0   0   131 103 0   0   127 0   0   0   0   131 203 0   0   0   0   203 127 0   0   0   0   83  0   0   83  0   0   83  0   0   107 103 0   0   0   0   155 0   0   227 0   0   255 0   0   155 155 0   0   127 0   0   101 0   0   99  14  14  0   0   0   0   0   0   0   0   0   0   0   0   0   0   0   0   0   0   0   0   0   0   0   0   0   0   0   
0   0   0   0   0   0   0   0   0   0   0   0   0   0   0   0   0   0   0   0   0   145 21  21  179 0   0   155 0   0   0   0   131 127 0   0   167 0   0   0   0   179 0   0   179 191 0   0   0   0   255 179 0   0   167 0   0   26  27  255 0   0   131 215 0   0   26  27  255 179 0   0   87  87  87  22  14  6   0   0   0   43  35  15  143 95  55  127 83  47  103 0   0   91  0   0   91  0   0   119 79  43  179 115 71  135 87  51  191 123 75  67  51  27  0   0   0   0   0   179 0   0   83  0   0   227 0   0   203 215 0   0   0   0   155 0   0   155 179 0   0   203 0   0   0   0   155 255 63  63  0   0   155 0   0   83  0   0   155 255 31  30  203 0   0   0   0   155 0   0   179 0   0   203 0   0   179 167 0   0   179 0   0   127 0   0   127 0   0   203 0   0   0   0   227 215 0   0   0   0   107 0   0   155 127 0   0   115 0   0   0   0   83  139 0   0   179 0   0   0   0   203 0   0   107 126 0   0   0   0   179 0   0   131 103 0   0   116 0   0   98  15  15  0   0   0   0   0   0   0   0   0   0   0   0   0   0   0   0   0   0   0   0   0   0   0   0   0   0   0   
0   0   0   0   0   0   0   0   0   0   0   0   0   0   0   0   0   0   0   0   0   128 40  47  155 0   0   0   0   131 0   0   107 127 0   0   0   0   131 119 23  22  0   0   179 0   0   179 167 0   0   167 0   0   0   0   179 0   0   203 119 23  22  203 0   0   0   0   227 191 0   0   191 0   0   0   0   179 0   0   35  31  23  11  143 95  55  127 83  47  91  0   0   103 0   0   103 0   0   119 79  43  155 99  59  95  67  35  179 115 71  67  51  27  67  0   0   0   0   107 103 0   0   0   0   179 103 0   0   215 0   0   139 0   0   179 0   0   179 0   0   167 0   0   167 0   0   0   0   155 155 0   0   255 0   0   179 0   0   0   0   203 0   0   227 0   0   203 0   0   155 0   0   179 215 0   0   191 0   0   155 0   0   127 0   0   115 0   0   0   0   107 0   0   107 115 0   0   155 0   0   115 0   0   91  0   0   0   0   155 0   0   107 139 0   0   179 0   0   179 0   0   0   0   203 127 0   0   179 0   0   0   0   107 114 0   0   140 0   0   117 22  22  0   0   0   0   0   0   0   0   0   0   0   0   0   0   0   0   0   0   0   0   0   0   0   0   0   0   0   
0   0   0   0   0   0   0   0   0   0   0   0   0   0   0   0   0   0   0   0   0   48  34  96  1   0   103 0   0   107 0   0   83  127 0   0   167 0   0   0   0   131 0   0   131 119 23  22  119 23  23  119 23  23  0   0   179 118 23  22  0   0   131 0   0   227 27  27  255 0   0   227 0   0   131 0   0   179 0   0   131 51  43  18  143 95  55  127 83  47  91  0   0   91  0   0   103 0   0   119 79  43  155 99  59  42  35  14  155 99  59  0   0   83  0   0   179 155 0   0   0   0   83  191 0   0   127 0   0   0   0   179 0   0   179 139 0   0   155 0   0   155 0   0   103 0   0   0   0   83  139 0   0   155 0   0   179 0   0   179 0   0   191 0   0   0   0   107 0   0   155 103 0   0   191 0   0   179 0   0   115 0   0   115 0   0   0   0   107 0   0   131 127 0   0   127 0   0   191 0   0   115 0   0   67  0   0   0   0   35  0   0   47  115 0   0   139 0   0   179 0   0   203 0   0   0   0   131 155 0   0   0   0   83  103 0   0   116 0   0   112 22  22  0   0   0   0   0   0   0   0   0   0   0   0   0   0   0   0   0   0   0   0   0   0   0   0   0   0   0   
0   0   0   0   0   0   0   0   0   0   0   0   0   0   0   0   0   0   0   0   0   0   36  117 0   0   81  0   0   107 0   0   107 0   0   107 0   0   107 0   0   179 0   0   179 0   0   107 119 23  23  0   0   179 0   0   179 119 23  22  0   0   131 0   0   179 0   0   155 0   0   203 0   0   131 239 0   0   179 0   0   75  55  27  143 95  55  127 83  47  67  0   0   91  0   0   91  0   0   119 79  43  155 99  59  43  35  14  155 99  59  0   0   107 0   0   83  203 0   0   179 0   0   179 0   0   179 0   0   127 0   0   167 0   0   0   0   179 0   0   155 155 0   0   155 0   0   139 0   0   0   0   203 115 0   0   139 0   0   167 0   0   0   0   131 0   0   107 126 0   0   139 0   0   215 0   0   155 0   0   0   0   83  0   0   83  0   0   107 0   0   83  115 0   0   127 0   0   103 0   0   91  0   0   0   0   35  0   0   35  0   0   35  103 0   0   127 0   0   155 0   0   179 0   0   0   0   155 127 0   0   0   0   83  127 0   0   81  0   0   93  23  23  0   0   0   0   0   0   0   0   0   0   0   0   0   0   0   0   0   0   0   0   0   0   0   0   0   0   0   
0   0   0   0   0   0   0   0   0   0   0   0   0   0   0   0   0   0   0   0   0   0   34  117 0   0   80  0   0   131 0   0   107 0   0   83  0   0   107 0   0   107 0   0   107 103 0   0   103 0   0   0   0   179 0   0   131 119 23  22  47  99  35  47  99  35  47  99  35  203 0   0   0   0   227 0   0   203 0   0   227 63  47  22  155 99  59  127 83  47  67  0   0   67  0   0   67  0   0   119 79  43  155 99  59  43  35  14  155 99  59  0   0   71  0   0   83  0   0   83  203 0   0   139 0   0   155 0   0   0   0   179 155 0   0   155 0   0   139 0   0   139 0   0   191 0   0   255 0   0   0   0   203 115 0   0   139 0   0   0   0   131 0   0   83  127 0   0   227 0   0   127 0   0   127 0   0   0   0   107 127 0   0   115 0   0   115 0   0   79  0   0   0   0   83  0   0   83  0   0   83  0   0   35  0   0   47  0   0   107 0   0   107 0   0   131 67  0   0   103 0   0   103 0   0   0   0   83  103 0   0   0   0   83  79  0   0   73  0   0   71  10  10  0   0   0   0   0   0   0   0   0   0   0   0   0   0   0   0   0   0   0   0   0   0   0   0   0   0   0   
0   0   0   0   0   0   0   0   0   0   0   0   0   0   0   0   0   0   0   11  155 0   0   168 0   0   179 0   0   179 0   0   131 0   0   107 0   0   83  0   0   83  0   0   107 0   0   179 0   0   179 0   0   179 39  83  26  63  131 47  75  159 63  75  159 63  75  159 63  67  147 55  55  115 43  0   0   203 0   0   227 35  35  34  171 111 67  119 79  43  67  0   0   67  0   0   67  0   0   95  67  35  155 99  59  0   0   0   135 87  51  215 0   0   191 0   0   255 0   0   0   0   83  255 0   0   127 0   0   139 0   0   127 0   0   155 0   0   139 0   0   0   0   107 0   0   155 179 0   0   0   0   203 115 0   0   139 0   0   0   0   83  0   0   83  179 0   0   155 0   0   155 0   0   0   0   107 127 0   0   155 0   0   103 0   0   79  0   0   0   0   83  0   0   83  0   0   83  0   0   107 0   0   107 0   0   131 0   0   131 0   0   131 0   0   131 0   0   131 67  0   0   67  0   0   0   0   83  103 0   0   0   0   83  66  0   0   62  11  17  0   0   0   0   0   0   0   0   0   0   0   0   0   0   0   0   0   0   0   0   0   0   0   0   0   0   0   0   0   0   
0   0   0   0   0   0   0   0   0   0   0   0   0   0   0   0   9   173 0   0   171 0   0   179 0   0   179 0   0   179 0   0   179 0   0   131 0   0   131 0   0   107 0   0   83  0   0   83  0   0   83  31  67  22  67  147 55  95  207 87  95  207 87  83  175 71  75  159 63  67  147 55  63  131 47  39  83  26  0   0   179 143 95  54  207 131 83  95  67  35  0   0   107 67  0   0   67  0   0   75  55  27  207 131 83  83  63  31  83  63  31  0   0   107 0   0   203 155 0   0   203 0   0   115 0   0   127 0   0   127 0   0   127 0   0   139 0   0   155 0   0   127 0   0   155 0   0   0   0   131 0   0   107 0   0   107 0   0   71  0   0   71  0   0   71  139 0   0   139 0   0   0   0   107 0   0   83  103 0   0   103 0   0   79  0   0   0   0   83  0   0   107 0   0   131 0   0   131 0   0   131 0   0   155 0   0   155 0   0   155 0   0   155 0   0   155 0   0   155 0   0   155 0   0   155 0   0   179 0   0   155 2   0   146 18  12  95  0   0   0   0   0   0   0   0   0   0   0   0   0   0   0   0   0   0   0   0   0   0   0   0   0   0   0   0   0   0   0   0   0   
0   0   0   0   0   0   0   0   0   0   0   0   0   9   173 0   0   171 0   0   179 0   0   179 0   0   179 0   0   179 0   0   179 0   0   155 0   0   155 0   0   155 0   0   131 0   0   131 0   0   131 39  83  26  75  159 63  111 239 103 95  207 87  83  175 71  63  131 47  63  131 47  47  99  35  39  83  27  0   0   83  223 147 99  143 95  55  0   0   107 0   0   179 0   0   179 0   0   107 19  35  10  155 99  59  179 115 71  43  35  14  155 0   0   0   0   131 115 0   0   115 0   0   0   0   107 0   0   131 0   0   107 103 0   0   0   0   107 0   0   131 91  0   0   91  0   0   139 0   0   127 0   0   0   0   83  0   0   59  0   0   59  0   0   59  91  0   0   91  0   0   0   0   83  79  0   0   79  0   0   79  0   0   0   0   107 0   0   131 0   0   131 0   0   155 0   0   155 0   0   179 0   0   179 0   0   179 0   0   179 0   0   203 0   0   203 0   0   179 0   0   179 0   0   179 0   0   179 0   0   151 0   16  161 0   0   0   0   0   0   0   0   0   0   0   0   0   0   0   0   0   0   0   0   0   0   0   0   0   0   0   0   0   0   0   0   0   0   0   0   
0   0   0   0   0   0   0   0   0   0   0   0   0   33  174 0   0   151 0   0   154 0   0   154 0   0   179 31  67  22  39  83  26  39  83  26  31  67  22  0   0   179 0   0   155 0   0   155 0   0   155 39  83  26  55  115 43  67  147 55  30  67  22  10  22  6   55  115 43  47  99  35  39  83  27  31  67  23  0   0   107 171 111 67  215 139 91  203 127 79  203 127 79  203 127 79  203 127 79  171 111 67  135 87  51  119 79  43  0   0   0   127 0   0   0   0   83  0   0   83  103 0   0   0   0   83  0   0   107 103 0   0   127 0   0   139 0   0   115 0   0   91  0   0   91  0   0   91  0   0   0   0   83  0   0   83  0   0   83  0   0   107 0   0   107 0   0   107 0   0   107 0   0   107 0   0   107 0   0   107 0   0   131 0   0   179 0   0   179 0   0   203 0   0   203 0   0   227 0   0   227 0   0   203 0   0   203 0   0   203 0   0   179 0   0   179 0   0   179 0   0   179 0   0   153 0   0   148 0   11  165 0   0   0   0   0   0   0   0   0   0   0   0   0   0   0   0   0   0   0   0   0   0   0   0   0   0   0   0   0   0   0   0   0   0   0   0   0   0   0   
0   0   0   0   0   0   0   0   0   0   0   0   0   0   255 0   21  170 0   0   162 0   42  170 0   0   148 0   0   146 1   0   144 1   0   145 39  78  23  63  131 47  63  131 47  47  99  35  0   0   179 23  51  14  23  51  15  31  67  23  10  22  6   11  23  7   31  67  23  31  67  23  23  51  15  19  35  11  0   0   107 107 71  39  107 71  39  107 71  39  107 71  39  107 71  39  107 71  39  107 71  39  107 71  39  75  55  27  0   0   0   0   0   106 0   0   107 0   0   107 0   0   107 0   0   107 0   0   107 0   0   107 67  0   0   67  0   0   67  0   0   67  0   0   0   0   83  0   0   107 0   0   107 0   0   107 0   0   107 0   0   131 0   0   131 0   0   179 0   0   179 0   0   179 0   0   179 0   0   179 0   0   179 0   0   203 0   0   203 0   0   203 0   0   179 0   0   179 0   0   179 0   0   179 0   0   179 0   0   153 0   0   151 0   0   150 0   0   150 0   0   147 0   11  164 0   28  170 0   0   0   0   0   0   0   0   0   0   0   0   0   0   0   0   0   0   0   0   0   0   0   0   0   0   0   0   0   0   0   0   0   0   0   0   0   0   0   0   0   0   
0   0   0   0   0   0   0   0   0   0   0   0   0   0   0   0   0   0   0   0   0   0   0   0   0   23  162 0   0   149 0   0   162 0   0   142 19  74  107 42  73  12  40  80  22  63  131 47  47  99  35  31  67  22  19  35  11  23  51  15  31  67  23  23  51  15  55  115 43  39  83  27  19  35  11  31  67  23  39  83  27  31  67  23  0   0   131 0   0   131 0   0   131 0   0   131 0   0   131 0   0   131 0   0   131 0   0   131 0   0   131 0   0   131 0   0   131 0   0   131 0   0   131 0   0   130 0   0   149 0   0   147 1   0   142 5   0   135 5   0   135 4   0   138 1   0   142 0   0   178 0   0   179 0   0   179 0   0   179 0   0   179 0   0   179 0   0   203 0   0   203 0   0   203 0   0   203 0   0   203 0   0   203 0   0   178 0   0   153 0   0   152 0   0   151 0   0   148 0   0   149 0   0   149 0   0   145 0   6   168 0   23  162 0   0   149 0   0   149 0   0   162 0   0   0   0   0   0   0   0   0   0   0   0   0   0   0   0   0   0   0   0   0   0   0   0   0   0   0   0   0   0   0   0   0   0   0   0   0   0   0   0   0   0   0   0   0   0   0   0   
0   0   0   0   0   0   0   0   0   0   0   0   0   0   0   0   0   0   0   0   0   0   0   0   0   0   0   0   0   0   0   0   0   0   0   0   0   0   0   32  96  64  34  96  45  43  71  8   42  74  13  14  14  0   12  10  0   20  20  0   21  20  0   20  22  0   22  23  0   22  25  0   22  22  0   20  21  0   20  25  0   39  83  27  31  67  23  0   0   155 0   0   155 0   0   155 0   0   155 0   0   155 0   0   155 0   0   154 0   0   173 0   0   173 0   0   172 0   0   148 0   0   147 0   0   131 0   0   134 0   0   153 0   0   146 0   0   146 0   0   149 0   0   139 0   0   148 0   0   136 0   0   150 0   0   150 0   0   149 0   0   178 0   0   179 0   0   179 0   0   179 0   0   179 0   0   178 0   0   153 0   0   152 0   0   148 0   8   162 0   0   162 0   0   146 0   0   153 0   0   153 0   0   146 0   0   149 0   0   0   0   0   0   0   0   0   0   0   0   0   0   0   0   0   0   0   0   0   0   0   0   0   0   0   0   0   0   0   0   0   0   0   0   0   0   0   0   0   0   0   0   0   0   0   0   0   0   0   0   0   0   0   0   0   0   0   0   0   0   0   
0   0   0   0   0   0   0   0   0   0   0   0   0   0   0   0   0   0   0   0   0   0   0   0   0   0   0   0   0   0   0   0   0   0   0   0   0   0   0   0   0   0   0   0   0   32  96  32  51  77  26  23  46  23  0   26  0   26  26  0   28  28  0   26  26  0   28  28  0   28  28  0   36  36  0   0   42  0   17  42  17  22  16  0   40  68  10  40  65  13  31  46  15  0   0   144 0   0   148 0   0   149 0   0   149 0   0   155 0   0   170 0   0   179 0   0   177 0   0   164 0   0   153 0   0   153 0   0   0   0   0   0   0   0   0   0   0   0   0   0   0   0   0   0   0   0   0   0   0   128 0   0   153 0   0   157 0   0   150 0   0   135 0   0   148 0   0   149 0   0   149 0   0   149 0   0   146 0   8   165 0   21  170 0   0   149 0   0   0   0   0   0   0   0   0   0   0   0   0   0   0   0   0   0   0   0   0   0   0   0   0   0   0   0   0   0   0   0   0   0   0   0   0   0   0   0   0   0   0   0   0   0   0   0   0   0   0   0   0   0   0   0   0   0   0   0   0   0   0   0   0   0   0   0   0   0   0   0   0   0   0   0   0   0   0   0   0   0   0   0   
0   0   0   0   0   0   0   0   0   0   0   0   0   0   0   0   0   0   0   0   0   0   0   0   0   0   0   0   0   0   0   0   0   0   0   0   0   0   0   0   0   0   0   0   0   0   0   0   0   0   0   0   0   0   0   0   0   0   0   0   0   0   0   0   0   0   0   0   0   0   0   0   0   0   0   0   0   0   0   0   0   26  51  26  21  42  0   42  85  21  39  59  20  18  36  91  0   0   153 0   0   159 0   0   156 0   0   162 0   0   0   0   0   0   0   0   0   0   0   0   0   0   0   0   0   0   0   0   0   0   0   0   0   0   0   0   0   0   0   0   0   0   0   0   0   0   0   0   0   0   0   0   0   0   0   0   0   0   0   0   0   142 0   0   148 0   0   161 0   0   156 0   0   156 0   0   146 0   0   0   0   0   0   0   0   0   0   0   0   0   0   0   0   0   0   0   0   0   0   0   0   0   0   0   0   0   0   0   0   0   0   0   0   0   0   0   0   0   0   0   0   0   0   0   0   0   0   0   0   0   0   0   0   0   0   0   0   0   0   0   0   0   0   0   0   0   0   0   0   0   0   0   0   0   0   0   0   0   0   0   0   0   0   0   0   0   0   0   0   0   
0   0   0   0   0   0   0   0   0   0   0   0   0   0   0   0   0   0   0   0   0   0   0   0   0   0   0   0   0   0   0   0   0   0   0   0   0   0   0   0   0   0   0   0   0   0   0   0   0   0   0   0   0   0   0   0   0   0   0   0   0   0   0   0   0   0   0   0   0   0   0   0   0   0   0   0   0   0   0   0   0   0   0   0   0   0   0   0   0   0   0   0   0   0   0   0   0   0   0   0   0   0   0   0   0   0   0   0   0   0   0   0   0   0   0   0   0   0   0   0   0   0   0   0   0   0   0   0   0   0   0   0   0   0   0   0   0   0   0   0   0   0   0   0   0   0   0   0   0   0   0   0   0   0   0   0   0   0   0   0   0   0   0   0   0   0   0   0   0   0   0   0   0   0   0   0   0   0   0   0   0   0   0   0   0   0   0   0   0   0   0   0   0   0   0   0   0   0   0   0   0   0   0   0   0   0   0   0   0   0   0   0   0   0   0   0   0   0   0   0   0   0   0   0   0   0   0   0   0   0   0   0   0   0   0   0   0   0   0   0   0   0   0   0   0   0   0   0   0   0   0   0   0   0   0   0   0   0   0   0   0   0   0   0   0   0   0   0   0   0   
0   0   0   0   0   0   0   0   0   0   0   0   0   0   0   0   0   0   0   0   0   0   0   0   0   0   0   0   0   0   0   0   0   0   0   0   0   0   0   0   0   0   0   0   0   0   0   0   0   0   0   0   0   0   0   0   0   0   0   0   0   0   0   0   0   0   0   0   0   0   0   0   0   0   0   0   0   0   0   0   0   0   0   0   0   0   0   0   0   0   0   0   0   0   0   0   0   0   0   0   0   0   0   0   0   0   0   0   0   0   0   0   0   0   0   0   0   0   0   0   0   0   0   0   0   0   0   0   0   0   0   0   0   0   0   0   0   0   0   0   0   0   0   0   0   0   0   0   0   0   0   0   0   0   0   0   0   0   0   0   0   0   0   0   0   0   0   0   0   0   0   0   0   0   0   0   0   0   0   0   0   0   0   0   0   0   0   0   0   0   0   0   0   0   0   0   0   0   0   0   0   0   0   0   0   0   0   0   0   0   0   0   0   0   0   0   0   0   0   0   0   0   0   0   0   0   0   0   0   0   0   0   0   0   0   0   0   0   0   0   0   0   0   0   0   0   0   0   0   0   0   0   0   0   0   0   0   0   0   0   0   0   0   0   0   0   0   0   0   0   
0   0   0   0   0   0   0   0   0   0   0   0   0   0   0   0   0   0   0   0   0   0   0   0   0   0   0   0   0   0   0   0   0   0   0   0   0   0   0   0   0   0   0   0   0   0   0   0   0   0   0   0   0   0   0   0   0   0   0   0   0   0   0   0   0   0   0   0   0   0   0   0   0   0   0   0   0   0   0   0   0   0   0   0   0   0   0   0   0   0   0   0   0   0   0   0   0   0   0   0   0   0   0   0   0   0   0   0   0   0   0   0   0   0   0   0   0   0   0   0   0   0   0   0   0   0   0   0   0   0   0   0   0   0   0   0   0   0   0   0   0   0   0   0   0   0   0   0   0   0   0   0   0   0   0   0   0   0   0   0   0   0   0   0   0   0   0   0   0   0   0   0   0   0   0   0   0   0   0   0   0   0   0   0   0   0   0   0   0   0   0   0   0   0   0   0   0   0   0   0   0   0   0   0   0   0   0   0   0   0   0   0   0   0   0   0   0   0   0   0   0   0   0   0   0   0   0   0   0   0   0   0   0   0   0   0   0   0   0   0   0   0   0   0   0   0   0   0   0   0   0   0   0   0   0   0   0   0   0   0   0   0   0   0   0   0   0   0   0   0   
0   0   0   0   0   0   0   0   0   0   0   0   0   0   0   0   0   0   0   0   0   0   0   0   0   0   0   0   0   0   0   0   0   0   0   0   0   0   0   0   0   0   0   0   0   0   0   0   0   0   0   0   0   0   0   0   0   0   0   0   0   0   0   0   0   0   0   0   0   0   0   0   0   0   0   0   0   0   0   0   0   0   0   0   0   0   0   0   0   0   0   0   0   0   0   0   0   0   0   0   0   0   0   0   0   0   0   0   0   0   0   0   0   0   0   0   0   0   0   0   0   0   0   0   0   0   0   0   0   0   0   0   0   0   0   0   0   0   0   0   0   0   0   0   0   0   0   0   0   0   0   0   0   0   0   0   0   0   0   0   0   0   0   0   0   0   0   0   0   0   0   0   0   0   0   0   0   0   0   0   0   0   0   0   0   0   0   0   0   0   0   0   0   0   0   0   0   0   0   0   0   0   0   0   0   0   0   0   0   0   0   0   0   0   0   0   0   0   0   0   0   0   0   0   0   0   0   0   0   0   0   0   0   0   0   0   0   0   0   0   0   0   0   0   0   0   0   0   0   0   0   0   0   0   0   0   0   0   0   0   0   0   0   0   0   0   0   0   0   0   
0   0   0   0   0   0   0   0   0   0   0   0   0   0   0   0   0   0   0   0   0   0   0   0   0   0   0   0   0   0   0   0   0   0   0   0   0   0   0   0   0   0   0   0   0   0   0   0   0   0   0   0   0   0   0   0   0   0   0   0   0   0   0   0   0   0   0   0   0   0   0   0   0   0   0   0   0   0   0   0   0   0   0   0   0   0   0   0   0   0   0   0   0   0   0   0   0   0   0   0   0   0   0   0   0   0   0   0   0   0   0   0   0   0   0   0   0   0   0   0   0   0   0   0   0   0   0   0   0   0   0   0   0   0   0   0   0   0   0   0   0   0   0   0   0   0   0   0   0   0   0   0   0   0   0   0   0   0   0   0   0   0   0   0   0   0   0   0   0   0   0   0   0   0   0   0   0   0   0   0   0   0   0   0   0   0   0   0   0   0   0   0   0   0   0   0   0   0   0   0   0   0   0   0   0   0   0   0   0   0   0   0   0   0   0   0   0   0   0   0   0   0   0   0   0   0   0   0   0   0   0   0   0   0   0   0   0   0   0   0   0   0   0   0   0   0   0   0   0   0   0   0   0   0   0   0   0   0   0   0   0   0   0   0   0   0   0   0   0   0   
0   0   0   0   0   0   0   0   0   0   0   0   0   0   0   0   0   0   0   0   0   0   0   0   0   0   0   0   0   0   0   0   0   0   0   0   0   0   0   0   0   0   0   0   0   0   0   0   0   0   0   0   0   0   0   0   0   0   0   0   0   0   0   0   0   0   0   0   0   0   0   0   0   0   0   0   0   0   0   0   0   0   0   0   0   0   0   0   0   0   0   0   0   0   0   0   0   0   0   0   0   0   0   0   0   0   0   0   0   0   0   0   0   0   0   0   0   0   0   0   0   0   0   0   0   0   0   0   0   0   0   0   0   0   0   0   0   0   0   0   0   0   0   0   0   0   0   0   0   0   0   0   0   0   0   0   0   0   0   0   0   0   0   0   0   0   0   0   0   0   0   0   0   0   0   0   0   0   0   0   0   0   0   0   0   0   0   0   0   0   0   0   0   0   0   0   0   0   0   0   0   0   0   0   0   0   0   0   0   0   0   0   0   0   0   0   0   0   0   0   0   0   0   0   0   0   0   0   0   0   0   0   0   0   0   0   0   0   0   0   0   0   0   0   0   0   0   0   0   0   0   0   0   0   0   0   0   0   0   0   0   0   0   0   0   0   0   0   0   0   
0   0   0   0   0   0   0   0   0   0   0   0   0   0   0   0   0   0   0   0   0   0   0   0   0   0   0   0   0   0   0   0   0   0   0   0   0   0   0   0   0   0   0   0   0   0   0   0   0   0   0   0   0   0   0   0   0   0   0   0   0   0   0   0   0   0   0   0   0   0   0   0   0   0   0   0   0   0   0   0   0   0   0   0   0   0   0   0   0   0   0   0   0   0   0   0   0   0   0   0   0   0   0   0   0   0   0   0   0   0   0   0   0   0   0   0   0   0   0   0   0   0   0   0   0   0   0   0   0   0   0   0   0   0   0   0   0   0   0   0   0   0   0   0   0   0   0   0   0   0   0   0   0   0   0   0   0   0   0   0   0   0   0   0   0   0   0   0   0   0   0   0   0   0   0   0   0   0   0   0   0   0   0   0   0   0   0   0   0   0   0   0   0   0   0   0   0   0   0   0   0   0   0   0   0   0   0   0   0   0   0   0   0   0   0   0   0   0   0   0   0   0   0   0   0   0   0   0   0   0   0   0   0   0   0   0   0   0   0   0   0   0   0   0   0   0   0   0   0   0   0   0   0   0   0   0   0   0   0   0   0   0   0   0   0   0   0   0   0   0   
0   0   0   0   0   0   0   0   0   0   0   0   0   0   0   0   0   0   0   0   0   0   0   0   0   0   0   0   0   0   0   0   0   0   0   0   0   0   0   0   0   0   0   0   0   0   0   0   0   0   0   0   0   0   0   0   0   0   0   0   0   0   0   0   0   0   0   0   0   0   0   0   0   0   0   0   0   0   0   0   0   0   0   0   0   0   0   0   0   0   0   0   0   0   0   0   0   0   0   0   0   0   0   0   0   0   0   0   0   0   0   0   0   0   0   0   0   0   0   0   0   0   0   0   0   0   0   0   0   0   0   0   0   0   0   0   0   0   0   0   0   0   0   0   0   0   0   0   0   0   0   0   0   0   0   0   0   0   0   0   0   0   0   0   0   0   0   0   0   0   0   0   0   0   0   0   0   0   0   0   0   0   0   0   0   0   0   0   0   0   0   0   0   0   0   0   0   0   0   0   0   0   0   0   0   0   0   0   0   0   0   0   0   0   0   0   0   0   0   0   0   0   0   0   0   0   0   0   0   0   0   0   0   0   0   0   0   0   0   0   0   0   0   0   0   0   0   0   0   0   0   0   0   0   0   0   0   0   0   0   0   0   0   0   0   0   0   0   0   0   
0   0   0   0   0   0   0   0   0   0   0   0   0   0   0   0   0   0   0   0   0   0   0   0   0   0   0   0   0   0   0   0   0   0   0   0   0   0   0   0   0   0   0   0   0   0   0   0   0   0   0   0   0   0   0   0   0   0   0   0   0   0   0   0   0   0   0   0   0   0   0   0   0   0   0   0   0   0   0   0   0   0   0   0   0   0   0   0   0   0   0   0   0   0   0   0   0   0   0   0   0   0   0   0   0   0   0   0   0   0   0   0   0   0   0   0   0   0   0   0   0   0   0   0   0   0   0   0   0   0   0   0   0   0   0   0   0   0   0   0   0   0   0   0   0   0   0   0   0   0   0   0   0   0   0   0   0   0   0   0   0   0   0   0   0   0   0   0   0   0   0   0   0   0   0   0   0   0   0   0   0   0   0   0   0   0   0   0   0   0   0   0   0   0   0   0   0   0   0   0   0   0   0   0   0   0   0   0   0   0   0   0   0   0   0   0   0   0   0   0   0   0   0   0   0   0   0   0   0   0   0   0   0   0   0   0   0   0   0   0   0   0   0   0   0   0   0   0   0   0   0   0   0   0   0   0   0   0   0   0   0   0   0   0   0   0   0   0   0   0   
0   0   0   0   0   0   0   0   0   0   0   0   0   0   0   0   0   0   0   0   0   0   0   0   0   0   0   0   0   0   0   0   0   0   0   0   0   0   0   0   0   0   0   0   0   0   0   0   0   0   0   0   0   0   0   0   0   0   0   0   0   0   0   0   0   0   0   0   0   0   0   0   0   0   0   0   0   0   0   0   0   0   0   0   0   0   0   0   0   0   0   0   0   0   0   0   0   0   0   0   0   0   0   0   0   0   0   0   0   0   0   0   0   0   0   0   0   0   0   0   0   0   0   0   0   0   0   0   0   0   0   0   0   0   0   0   0   0   0   0   0   0   0   0   0   0   0   0   0   0   0   0   0   0   0   0   0   0   0   0   0   0   0   0   0   0   0   0   0   0   0   0   0   0   0   0   0   0   0   0   0   0   0   0   0   0   0   0   0   0   0   0   0   0   0   0   0   0   0   0   0   0   0   0   0   0   0   0   0   0   0   0   0   0   0   0   0   0   0   0   0   0   0   0   0   0   0   0   0   0   0   0   0   0   0   0   0   0   0   0   0   0   0   0   0   0   0   0   0   0   0   0   0   0   0   0   0   0   0   0   0   0   0   0   0   0   0   0   0   0   
0   0   0   0   0   0   0   0   0   0   0   0   0   0   0   0   0   0   0   0   0   0   0   0   0   0   0   0   0   0   0   0   0   0   0   0   0   0   0   0   0   0   0   0   0   0   0   0   0   0   0   0   0   0   0   0   0   0   0   0   0   0   0   0   0   0   0   0   0   0   0   0   0   0   0   0   0   0   0   0   0   0   0   0   0   0   0   0   0   0   0   0   0   0   0   0   0   0   0   0   0   0   0   0   0   0   0   0   0   0   0   0   0   0   0   0   0   0   0   0   0   0   0   0   0   0   0   0   0   0   0   0   0   0   0   0   0   0   0   0   0   0   0   0   0   0   0   0   0   0   0   0   0   0   0   0   0   0   0   0   0   0   0   0   0   0   0   0   0   0   0   0   0   0   0   0   0   0   0   0   0   0   0   0   0   0   0   0   0   0   0   0   0   0   0   0   0   0   0   0   0   0   0   0   0   0   0   0   0   0   0   0   0   0   0   0   0   0   0   0   0   0   0   0   0   0   0   0   0   0   0   0   0   0   0   0   0   0   0   0   0   0   0   0   0   0   0   0   0   0   0   0   0   0   0   0   0   0   0   0   0   0   0   0   0   0   0   0   0   0   
0   0   0   0   0   0   0   0   0   0   0   0   0   0   0   0   0   0   0   0   0   0   0   0   0   0   0   0   0   0   0   0   0   0   0   0   0   0   0   0   0   0   0   0   0   0   0   0   0   0   0   0   0   0   0   0   0   0   0   0   0   0   0   0   0   0   0   0   0   0   0   0   0   0   0   0   0   0   0   0   0   0   0   0   0   0   0   0   0   0   0   0   0   0   0   0   0   0   0   0   0   0   0   0   0   0   0   0   0   0   0   0   0   0   0   0   0   0   0   0   0   0   0   0   0   0   0   0   0   0   0   0   0   0   0   0   0   0   0   0   0   0   0   0   0   0   0   0   0   0   0   0   0   0   0   0   0   0   0   0   0   0   0   0   0   0   0   0   0   0   0   0   0   0   0   0   0   0   0   0   0   0   0   0   0   0   0   0   0   0   0   0   0   0   0   0   0   0   0   0   0   0   0   0   0   0   0   0   0   0   0   0   0   0   0   0   0   0   0   0   0   0   0   0   0   0   0   0   0   0   0   0   0   0   0   0   0   0   0   0   0   0   0   0   0   0   0   0   0   0   0   0   0   0   0   0   0   0   0   0   0   0   0   0   0   0   0   0   0   0   
0   0   0   0   0   0   0   0   0   0   0   0   0   0   0   0   0   0   0   0   0   0   0   0   0   0   0   0   0   0   0   0   0   0   0   0   0   0   0   0   0   0   0   0   0   0   0   0   0   0   0   0   0   0   0   0   0   0   0   0   0   0   0   0   0   0   0   0   0   0   0   0   0   0   0   0   0   0   0   0   0   0   0   0   0   0   0   0   0   0   0   0   0   0   0   0   0   0   0   0   0   0   0   0   0   0   0   0   0   0   0   0   0   0   0   0   0   0   0   0   0   0   0   0   0   0   0   0   0   0   0   0   0   0   0   0   0   0   0   0   0   0   0   0   0   0   0   0   0   0   0   0   0   0   0   0   0   0   0   0   0   0   0   0   0   0   0   0   0   0   0   0   0   0   0   0   0   0   0   0   0   0   0   0   0   0   0   0   0   0   0   0   0   0   0   0   0   0   0   0   0   0   0   0   0   0   0   0   0   0   0   0   0   0   0   0   0   0   0   0   0   0   0   0   0   0   0   0   0   0   0   0   0   0   0   0   0   0   0   0   0   0   0   0   0   0   0   0   0   0   0   0   0   0   0   0   0   0   0   0   0   0   0   0   0   0   0   0   0   0   
0   0   0   0   0   0   0   0   0   0   0   0   0   0   0   0   0   0   0   0   0   0   0   0   0   0   0   0   0   0   0   0   0   0   0   0   0   0   0   0   0   0   0   0   0   0   0   0   0   0   0   0   0   0   0   0   0   0   0   0   0   0   0   0   0   0   0   0   0   0   0   0   0   0   0   0   0   0   0   0   0   0   0   0   0   0   0   0   0   0   0   0   0   0   0   0   0   0   0   0   0   0   0   0   0   0   0   0   0   0   0   0   0   0   0   0   0   0   0   0   0   0   0   0   0   0   0   0   0   0   0   0   0   0   0   0   0   0   0   0   0   0   0   0   0   0   0   0   0   0   0   0   0   0   0   0   0   0   0   0   0   0   0   0   0   0   0   0   0   0   0   0   0   0   0   0   0   0   0   0   0   0   0   0   0   0   0   0   0   0   0   0   0   0   0   0   0   0   0   0   0   0   0   0   0   0   0   0   0   0   0   0   0   0   0   0   0   0   0   0   0   0   0   0   0   0   0   0   0   0   0   0   0   0   0   0   0   0   0   0   0   0   0   0   0   0   0   0   0   0   0   0   0   0   0   0   0   0   0   0   0   0   0   0   0   0   0   0   0   0   
0   0   0   0   0   0   0   0   0   0   0   0   0   0   0   0   0   0   0   0   0   0   0   0   0   0   0   0   0   0   0   0   0   0   0   0   0   0   0   0   0   0   0   0   0   0   0   0   0   0   0   0   0   0   0   0   0   0   0   0   0   0   0   0   0   0   0   0   0   0   0   0   0   0   0   0   0   0   0   0   0   0   0   0   0   0   0   0   0   0   0   0   0   0   0   0   0   0   0   0   0   0   0   0   0   0   0   0   0   0   0   0   0   0   0   0   0   0   0   0   0   0   0   0   0   0   0   0   0   0   0   0   0   0   0   0   0   0   0   0   0   0   0   0   0   0   0   0   0   0   0   0   0   0   0   0   0   0   0   0   0   0   0   0   0   0   0   0   0   0   0   0   0   0   0   0   0   0   0   0   0   0   0   0   0   0   0   0   0   0   0   0   0   0   0   0   0   0   0   0   0   0   0   0   0   0   0   0   0   0   0   0   0   0   0   0   0   0   0   0   0   0   0   0   0   0   0   0   0   0   0   0   0   0   0   0   0   0   0   0   0   0   0   0   0   0   0   0   0   0   0   0   0   0   0   0   0   0   0   0   0   0   0   0   0   0   0   0   0   0   
0   0   0   0   0   0   0   0   0   0   0   0   0   0   0   0   0   0   0   0   0   0   0   0   0   0   0   0   0   0   0   0   0   0   0   0   0   0   0   0   0   0   0   0   0   0   0   0   0   0   0   0   0   0   0   0   0   0   0   0   0   0   0   0   0   0   0   0   0   0   0   0   0   0   0   0   0   0   0   0   0   0   0   0   0   0   0   0   0   0   0   0   0   0   0   0   0   0   0   0   0   0   0   0   0   0   0   0   0   0   0   0   0   0   0   0   0   0   0   0   0   0   0   0   0   0   0   0   0   0   0   0   0   0   0   0   0   0   0   0   0   0   0   0   0   0   0   0   0   0   0   0   0   0   0   0   0   0   0   0   0   0   0   0   0   0   0   0   0   0   0   0   0   0   0   0   0   0   0   0   0   0   0   0   0   0   0   0   0   0   0   0   0   0   0   0   0   0   0   0   0   0   0   0   0   0   0   0   0   0   0   0   0   0   0   0   0   0   0   0   0   0   0   0   0   0   0   0   0   0   0   0   0   0   0   0   0   0   0   0   0   0   0   0   0   0   0   0   0   0   0   0   0   0   0   0   0   0   0   0   0   0   0   0   0   0   0   0   0   0   
0   0   0   0   0   0   0   0   0   0   0   0   0   0   0   0   0   0   0   0   0   0   0   0   0   0   0   0   0   0   0   0   0   0   0   0   0   0   0   0   0   0   0   0   0   0   0   0   0   0   0   0   0   0   0   0   0   0   0   0   0   0   0   0   0   0   0   0   0   0   0   0   0   0   0   0   0   0   0   0   0   0   0   0   0   0   0   0   0   0   0   0   0   0   0   0   0   0   0   0   0   0   0   0   0   0   0   0   0   0   0   0   0   0   0   0   0   0   0   0   0   0   0   0   0   0   0   0   0   0   0   0   0   0   0   0   0   0   0   0   0   0   0   0   0   0   0   0   0   0   0   0   0   0   0   0   0   0   0   0   0   0   0   0   0   0   0   0   0   0   0   0   0   0   0   0   0   0   0   0   0   0   0   0   0   0   0   0   0   0   0   0   0   0   0   0   0   0   0   0   0   0   0   0   0   0   0   0   0   0   0   0   0   0   0   0   0   0   0   0   0   0   0   0   0   0   0   0   0   0   0   0   0   0   0   0   0   0   0   0   0   0   0   0   0   0   0   0   0   0   0   0   0   0   0   0   0   0   0   0   0   0   0   0   0   0   0   0   0   0   
0   0   0   0   0   0   0   0   0   0   0   0   0   0   0   0   0   0   0   0   0   0   0   0   0   0   0   0   0   0   0   0   0   0   0   0   0   0   0   0   0   0   0   0   0   0   0   0   0   0   0   0   0   0   0   0   0   0   0   0   0   0   0   0   0   0   0   0   0   0   0   0   0   0   0   0   0   0   0   0   0   0   0   0   0   0   0   0   0   0   0   0   0   0   0   0   0   0   0   0   0   0   0   0   0   0   0   0   0   0   0   0   0   0   0   0   0   0   0   0   0   0   0   0   0   0   0   0   0   0   0   0   0   0   0   0   0   0   0   0   0   0   0   0   0   0   0   0   0   0   0   0   0   0   0   0   0   0   0   0   0   0   0   0   0   0   0   0   0   0   0   0   0   0   0   0   0   0   0   0   0   0   0   0   0   0   0   0   0   0   0   0   0   0   0   0   0   0   0   0   0   0   0   0   0   0   0   0   0   0   0   0   0   0   0   0   0   0   0   0   0   0   0   0   0   0   0   0   0   0   0   0   0   0   0   0   0   0   0   0   0   0   0   0   0   0   0   0   0   0   0   0   0   0   0   0   0   0   0   0   0   0   0   0   0   0   0   0   0   0   
0   0   0   0   0   0   0   0   0   0   0   0   0   0   0   0   0   0   0   0   0   0   0   0   0   0   0   0   0   0   0   0   0   0   0   0   0   0   0   0   0   0   0   0   0   0   0   0   0   0   0   0   0   0   0   0   0   0   0   0   0   0   0   0   0   0   0   0   0   0   0   0   0   0   0   0   0   0   0   0   0   0   0   0   0   0   0   0   0   0   0   0   0   0   0   0   0   0   0   0   0   0   0   0   0   0   0   0   0   0   0   0   0   0   0   0   0   0   0   0   0   0   0   0   0   0   0   0   0   0   0   0   0   0   0   0   0   0   0   0   0   0   0   0   0   0   0   0   0   0   0   0   0   0   0   0   0   0   0   0   0   0   0   0   0   0   0   0   0   0   0   0   0   0   0   0   0   0   0   0   0   0   0   0   0   0   0   0   0   0   0   0   0   0   0   0   0   0   0   0   0   0   0   0   0   0   0   0   0   0   0   0   0   0   0   0   0   0   0   0   0   0   0   0   0   0   0   0   0   0   0   0   0   0   0   0   0   0   0   0   0   0   0   0   0   0   0   0   0   0   0   0   0   0   0   0   0   0   0   0   0   0   0   0   0   0   0   0   0   0   
0   0   0   0   0   0   0   0   0   0   0   0   0   0   0   0   0   0   0   0   0   0   0   0   0   0   0   0   0   0   0   0   0   0   0   0   0   0   0   0   0   0   0   0   0   0   0   0   0   0   0   0   0   0   0   0   0   0   0   0   0   0   0   0   0   0   0   0   0   0   0   0   0   0   0   0   0   0   0   0   0   0   0   0   0   0   0   0   0   0   0   0   0   0   0   0   0   0   0   0   0   0   0   0   0   0   0   0   0   0   0   0   0   0   0   0   0   0   0   0   0   0   0   0   0   0   0   0   0   0   0   0   0   0   0   0   0   0   0   0   0   0   0   0   0   0   0   0   0   0   0   0   0   0   0   0   0   0   0   0   0   0   0   0   0   0   0   0   0   0   0   0   0   0   0   0   0   0   0   0   0   0   0   0   0   0   0   0   0   0   0   0   0   0   0   0   0   0   0   0   0   0   0   0   0   0   0   0   0   0   0   0   0   0   0   0   0   0   0   0   0   0   0   0   0   0   0   0   0   0   0   0   0   0   0   0   0   0   0   0   0   0   0   0   0   0   0   0   0   0   0   0   0   0   0   0   0   0   0   0   0   0   0   0   0   0   0   0   0   0   
0   0   0   0   0   0   0   0   0   0   0   0   0   0   0   0   0   0   0   0   0   0   0   0   0   0   0   0   0   0   0   0   0   0   0   0   0   0   0   0   0   0   0   0   0   0   0   0   0   0   0   0   0   0   0   0   0   0   0   0   0   0   0   0   0   0   0   0   0   0   0   0   0   0   0   0   0   0   0   0   0   0   0   0   0   0   0   0   0   0   0   0   0   0   0   0   0   0   0   0   0   0   0   0   0   0   0   0   0   0   0   0   0   0   0   0   0   0   0   0   0   0   0   0   0   0   0   0   0   0   0   0   0   0   0   0   0   0   0   0   0   0   0   0   0   0   0   0   0   0   0   0   0   0   0   0   0   0   0   0   0   0   0   0   0   0   0   0   0   0   0   0   0   0   0   0   0   0   0   0   0   0   0   0   0   0   0   0   0   0   0   0   0   0   0   0   0   0   0   0   0   0   0   0   0   0   0   0   0   0   0   0   0   0   0   0   0   0   0   0   0   0   0   0   0   0   0   0   0   0   0   0   0   0   0   0   0   0   0   0   0   0   0   0   0   0   0   0   0   0   0   0   0   0   0   0   0   0   0   0   0   0   0   0   0   0   0   0   0   0   
