P3
# Converted to P3 by scripts/convert_to_p3.py
64 64
255
32 32 32 32 32 32 32 32 32 32 32 32
32 32 32 41 41 41 74 74 74 74 74 74
82 82 82 74 74 74 57 57 57 32 32 32
32 32 32 32 32 32 32 32 32 32 32 32
32 32 32 32 32 32 32 32 32 32 32 32
32 32 32 41 41 41 74 74 74 74 74 74
82 82 82 74 74 74 57 57 57 32 32 32
32 32 32 32 32 32 32 32 32 32 32 32
32 32 32 32 32 32 32 32 32 32 32 32
32 32 32 41 41 41 74 74 74 74 74 74
82 82 82 74 74 74 57 57 57 32 32 32
32 32 32 32 32 32 32 32 32 32 32 32
32 32 32 32 32 32 32 32 32 32 32 32
32 32 32 41 41 41 74 74 74 74 74 74
82 82 82 74 74 74 57 57 57 32 32 32
32 32 32 32 32 32 32 32 32 32 32 32
32 32 32 32 32 32 32 32 32 32 32 32
32 32 32 41 41 41 74 74 74 82 82 82
82 82 82 74 74 74 57 57 57 41 41 41
32 32 32 32 32 32 32 32 32 32 32 32
32 32 32 32 32 32 32 32 32 32 32 32
32 32 32 41 41 41 74 74 74 82 82 82
82 82 82 74 74 74 57 57 57 41 41 41
32 32 32 32 32 32 32 32 32 32 32 32
32 32 32 32 32 32 32 32 32 32 32 32
32 32 32 41 41 41 74 74 74 82 82 82
82 82 82 74 74 74 57 57 57 41 41 41
32 32 32 32 32 32 32 32 32 32 32 32
32 32 32 32 32 32 32 32 32 32 32 32
32 32 32 41 41 41 74 74 74 82 82 82
82 82 82 74 74 74 57 57 57 41 41 41
32 32 32 32 32 32 32 32 32 32 32 32
32 32 32 32 32 32 32 32 32 32 32 32
32 32 32 41 41 41 74 74 74 74 74 74
98 98 98 74 74 74 57 57 57 41 41 41
32 32 32 32 32 32 32 32 32 32 32 32
32 32 32 32 32 32 32 32 32 32 32 32
32 32 32 41 41 41 74 74 74 74 74 74
98 98 98 74 74 74 57 57 57 41 41 41
32 32 32 32 32 32 32 32 32 32 32 32
32 32 32 32 32 32 32 32 32 32 32 32
32 32 32 41 41 41 74 74 74 74 74 74
98 98 98 74 74 74 57 57 57 41 41 41
32 32 32 32 32 32 32 32 32 32 32 32
32 32 32 32 32 32 32 32 32 32 32 32
32 32 32 41 41 41 74 74 74 74 74 74
98 98 98 74 74 74 57 57 57 41 41 41
32 32 32 32 32 32 32 32 32 32 32 32
32 32 32 32 32 32 32 32 32 32 32 32
32 32 32 41 41 41 74 74 74 82 82 82
98 98 98 74 74 74 57 57 57 41 41 41
32 32 32 32 32 32 32 32 32 32 32 32
32 32 32 32 32 32 32 32 32 32 32 32
32 32 32 41 41 41 74 74 74 82 82 82
98 98 98 74 74 74 57 57 57 41 41 41
32 32 32 32 32 32 32 32 32 32 32 32
32 32 32 32 32 32 32 32 32 32 32 32
32 32 32 41 41 41 74 74 74 82 82 82
98 98 98 74 74 74 57 57 57 41 41 41
32 32 32 32 32 32 32 32 32 32 32 32
32 32 32 32 32 32 32 32 32 32 32 32
32 32 32 41 41 41 74 74 74 82 82 82
98 98 98 74 74 74 57 57 57 41 41 41
32 32 32 32 32 32 32 32 32 32 32 32
32 32 32 32 32 32 32 32 32 32 32 32
32 32 32 41 41 41 82 82 82 74 74 74
98 98 98 74 74 74 57 57 57 41 41 41
32 32 32 32 32 32 32 32 32 32 32 32
32 32 32 32 32 32 32 32 32 32 32 32
32 32 32 41 41 41 82 82 82 74 74 74
98 98 98 74 74 74 57 57 57 41 41 41
32 32 32 32 32 32 32 32 32 32 32 32
32 32 32 32 32 32 32 32 32 32 32 32
32 32 32 41 41 41 82 82 82 74 74 74
98 98 98 74 74 74 57 57 57 41 41 41
32 32 32 32 32 32 32 32 32 32 32 32
32 32 32 32 32 32 32 32 32 32 32 32
32 32 32 41 41 41 82 82 82 74 74 74
98 98 98 74 74 74 57 57 57 41 41 41
32 32 32 32 32 32 32 32 32 32 32 32
41 41 41 41 41 41 41 41 41 41 41 41
41 41 41 41 41 41 82 82 82 82 82 82
98 98 98 74 74 74 57 57 57 41 41 41
41 41 41 41 41 41 41 41 41 41 41 41
41 41 41 41 41 41 41 41 41 41 41 41
41 41 41 41 41 41 82 82 82 82 82 82
98 98 98 74 74 74 57 57 57 41 41 41
41 41 41 41 41 41 41 41 41 41 41 41
41 41 41 41 41 41 41 41 41 41 41 41
41 41 41 41 41 41 82 82 82 82 82 82
98 98 98 74 74 74 57 57 57 41 41 41
41 41 41 41 41 41 41 41 41 41 41 41
41 41 41 41 41 41 41 41 41 41 41 41
41 41 41 41 41 41 82 82 82 82 82 82
98 98 98 74 74 74 57 57 57 41 41 41
41 41 41 41 41 41 41 41 41 41 41 41
57 57 57 74 74 74 74 74 74 74 74 74
82 82 82 82 82 82 82 82 82 82 82 82
98 98 98 74 74 74 57 57 57 57 57 57
57 57 57 57 57 57 57 57 57 57 57 57
57 57 57 74 74 74 74 74 74 74 74 74
82 82 82 82 82 82 82 82 82 82 82 82
98 98 98 74 74 74 57 57 57 57 57 57
57 57 57 57 57 57 57 57 57 57 57 57
57 57 57 74 74 74 74 74 74 74 74 74
82 82 82 82 82 82 82 82 82 82 82 82
98 98 98 74 74 74 57 57 57 57 57 57
57 57 57 57 57 57 57 57 57 57 57 57
57 57 57 74 74 74 74 74 74 74 74 74
82 82 82 82 82 82 82 82 82 82 82 82
98 98 98 74 74 74 57 57 57 57 57 57
57 57 57 57 57 57 57 57 57 57 57 57
74 74 74 74 74 74 74 74 74 74 74 74
74 74 74 74 74 74 74 74 74 82 82 82
98 98 98 74 74 74 74 74 74 74 74 74
74 74 74 74 74 74 74 74 74 74 74 74
74 74 74 74 74 74 74 74 74 74 74 74
74 74 74 74 74 74 74 74 74 82 82 82
98 98 98 74 74 74 74 74 74 74 74 74
74 74 74 74 74 74 74 74 74 74 74 74
74 74 74 74 74 74 74 74 74 74 74 74
74 74 74 74 74 74 74 74 74 82 82 82
98 98 98 74 74 74 74 74 74 74 74 74
74 74 74 74 74 74 74 74 74 74 74 74
74 74 74 74 74 74 74 74 74 74 74 74
74 74 74 74 74 74 74 74 74 82 82 82
98 98 98 74 74 74 74 74 74 74 74 74
74 74 74 74 74 74 74 74 74 74 74 74
82 82 82 82 82 82 98 98 98 98 98 98
82 82 82 82 82 82 82 82 82 98 98 98
98 98 98 82 82 82 82 82 82 82 82 82
82 82 82 74 74 74 74 74 74 82 82 82
82 82 82 82 82 82 98 98 98 98 98 98
82 82 82 82 82 82 82 82 82 98 98 98
98 98 98 82 82 82 82 82 82 82 82 82
82 82 82 74 74 74 74 74 74 82 82 82
82 82 82 82 82 82 98 98 98 98 98 98
82 82 82 82 82 82 82 82 82 98 98 98
98 98 98 82 82 82 82 82 82 82 82 82
82 82 82 74 74 74 74 74 74 82 82 82
82 82 82 82 82 82 98 98 98 98 98 98
82 82 82 82 82 82 82 82 82 98 98 98
98 98 98 82 82 82 82 82 82 82 82 82
82 82 82 74 74 74 74 74 74 82 82 82
74 74 74 74 74 74 74 74 74 74 74 74
74 74 74 74 74 74 74 74 74 74 74 74
74 74 74 74 74 74 74 74 74 74 74 74
74 74 74 74 74 74 74 74 74 74 74 74
74 74 74 74 74 74 74 74 74 74 74 74
74 74 74 74 74 74 74 74 74 74 74 74
74 74 74 74 74 74 74 74 74 74 74 74
74 74 74 74 74 74 74 74 74 74 74 74
74 74 74 74 74 74 74 74 74 74 74 74
74 74 74 74 74 74 74 74 74 74 74 74
74 74 74 74 74 74 74 74 74 74 74 74
74 74 74 74 74 74 74 74 74 74 74 74
74 74 74 74 74 74 74 74 74 74 74 74
74 74 74 74 74 74 74 74 74 74 74 74
74 74 74 74 74 74 74 74 74 74 74 74
74 74 74 74 74 74 74 74 74 74 74 74
57 57 57 57 57 57 57 57 57 57 57 57
57 57 57 57 57 57 57 57 57 74 74 74
82 82 82 74 74 74 57 57 57 57 57 57
57 57 57 57 57 57 57 57 57 57 57 57
57 57 57 57 57 57 57 57 57 57 57 57
57 57 57 57 57 57 57 57 57 74 74 74
82 82 82 74 74 74 57 57 57 57 57 57
57 57 57 57 57 57 57 57 57 57 57 57
57 57 57 57 57 57 57 57 57 57 57 57
57 57 57 57 57 57 57 57 57 74 74 74
82 82 82 74 74 74 57 57 57 57 57 57
57 57 57 57 57 57 57 57 57 57 57 57
57 57 57 57 57 57 57 57 57 57 57 57
57 57 57 57 57 57 57 57 57 74 74 74
82 82 82 74 74 74 57 57 57 57 57 57
57 57 57 57 57 57 57 57 57 57 57 57
41 41 41 41 41 41 41 41 41 41 41 41
41 41 41 41 41 41 57 57 57 74 74 74
82 82 82 74 74 74 57 57 57 32 32 32
32 32 32 32 32 32 32 32 32 41 41 41
41 41 41 41 41 41 41 41 41 41 41 41
41 41 41 41 41 41 57 57 57 74 74 74
82 82 82 74 74 74 57 57 57 32 32 32
32 32 32 32 32 32 32 32 32 41 41 41
41 41 41 41 41 41 41 41 41 41 41 41
41 41 41 41 41 41 57 57 57 74 74 74
82 82 82 74 74 74 57 57 57 32 32 32
32 32 32 32 32 32 32 32 32 41 41 41
41 41 41 41 41 41 41 41 41 41 41 41
41 41 41 41 41 41 57 57 57 74 74 74
82 82 82 74 74 74 57 57 57 32 32 32
32 32 32 32 32 32 32 32 32 41 41 41
32 32 32 32 32 32 32 32 32 32 32 32
32 32 32 41 41 41 57 57 57 74 74 74
82 82 82 74 74 74 57 57 57 32 32 32
32 32 32 32 32 32 32 32 32 32 32 32
32 32 32 32 32 32 32 32 32 32 32 32
32 32 32 41 41 41 57 57 57 74 74 74
82 82 82 74 74 74 57 57 57 32 32 32
32 32 32 32 32 32 32 32 32 32 32 32
32 32 32 32 32 32 32 32 32 32 32 32
32 32 32 41 41 41 57 57 57 74 74 74
82 82 82 74 74 74 57 57 57 32 32 32
32 32 32 32 32 32 32 32 32 32 32 32
32 32 32 32 32 32 32 32 32 32 32 32
32 32 32 41 41 41 57 57 57 74 74 74
82 82 82 74 74 74 57 57 57 32 32 32
32 32 32 32 32 32 32 32 32 32 32 32
32 32 32 32 32 32 32 32 32 32 32 32
32 32 32 41 41 41 57 57 57 74 74 74
82 82 82 74 74 74 57 57 57 32 32 32
32 32 32 32 32 32 32 32 32 32 32 32
32 32 32 32 32 32 32 32 32 32 32 32
32 32 32 41 41 41 57 57 57 74 74 74
82 82 82 74 74 74 57 57 57 32 32 32
32 32 32 32 32 32 32 32 32 32 32 32
32 32 32 32 32 32 32 32 32 32 32 32
32 32 32 41 41 41 57 57 57 74 74 74
82 82 82 74 74 74 57 57 57 32 32 32
32 32 32 32 32 32 32 32 32 32 32 32
32 32 32 32 32 32 32 32 32 32 32 32
32 32 32 41 41 41 57 57 57 74 74 74
82 82 82 74 74 74 57 57 57 32 32 32
32 32 32 32 32 32 32 32 32 32 32 32
32 32 32 32 32 32 32 32 32 32 32 32
32 32 32 41 41 41 74 74 74 74 74 74
82 82 82 74 74 74 57 57 57 32 32 32
32 32 32 32 32 32 32 32 32 32 32 32
32 32 32 32 32 32 32 32 32 32 32 32
32 32 32 41 41 41 74 74 74 74 74 74
82 82 82 74 74 74 57 57 57 32 32 32
32 32 32 32 32 32 32 32 32 32 32 32
32 32 32 32 32 32 32 32 32 32 32 32
32 32 32 41 41 41 74 74 74 74 74 74
82 82 82 74 74 74 57 57 57 32 32 32
32 32 32 32 32 32 32 32 32 32 32 32
32 32 32 32 32 32 32 32 32 32 32 32
32 32 32 41 41 41 74 74 74 74 74 74
82 82 82 74 74 74 57 57 57 32 32 32
32 32 32 32 32 32 32 32 32 32 32 32
32 32 32 32 32 32 32 32 32 32 32 32
32 32 32 41 41 41 57 57 57 74 74 74
82 82 82 74 74 74 57 57 57 32 32 32
32 32 32 32 32 32 32 32 32 32 32 32
32 32 32 32 32 32 32 32 32 32 32 32
32 32 32 41 41 41 57 57 57 74 74 74
82 82 82 74 74 74 57 57 57 32 32 32
32 32 32 32 32 32 32 32 32 32 32 32
32 32 32 32 32 32 32 32 32 32 32 32
32 32 32 41 41 41 57 57 57 74 74 74
82 82 82 74 74 74 57 57 57 32 32 32
32 32 32 32 32 32 32 32 32 32 32 32
32 32 32 32 32 32 32 32 32 32 32 32
32 32 32 41 41 41 57 57 57 74 74 74
82 82 82 74 74 74 57 57 57 32 32 32
32 32 32 32 32 32 32 32 32 32 32 32
32 32 32 32 32 32 32 32 32 32 32 32
32 32 32 41 41 41 74 74 74 74 74 74
82 82 82 74 74 74 57 57 57 32 32 32
32 32 32 32 32 32 32 32 32 32 32 32
32 32 32 32 32 32 32 32 32 32 32 32
32 32 32 41 41 41 74 74 74 74 74 74
82 82 82 74 74 74 57 57 57 32 32 32
32 32 32 32 32 32 32 32 32 32 32 32
32 32 32 32 32 32 32 32 32 32 32 32
32 32 32 41 41 41 74 74 74 74 74 74
82 82 82 74 74 74 57 57 57 32 32 32
32 32 32 32 32 32 32 32 32 32 32 32
32 32 32 32 32 32 32 32 32 32 32 32
32 32 32 41 41 41 74 74 74 74 74 74
82 82 82 74 74 74 57 57 57 32 32 32
32 32 32 32 32 32 32 32 32 32 32 32
32 32 32 32 32 32 32 32 32 32 32 32
32 32 32 41 41 41 74 74 74 82 82 82
82 82 82 74 74 74 57 57 57 41 41 41
32 32 32 32 32 32 32 32 32 32 32 32
32 32 32 32 32 32 32 32 32 32 32 32
32 32 32 41 41 41 74 74 74 82 82 82
82 82 82 74 74 74 57 57 57 41 41 41
32 32 32 32 32 32 32 32 32 32 32 32
32 32 32 32 32 32 32 32 32 32 32 32
32 32 32 41 41 41 74 74 74 82 82 82
82 82 82 74 74 74 57 57 57 41 41 41
32 32 32 32 32 32 32 32 32 32 32 32
32 32 32 32 32 32 32 32 32 32 32 32
32 32 32 41 41 41 74 74 74 82 82 82
82 82 82 74 74 74 57 57 57 41 41 41
32 32 32 32 32 32 32 32 32 32 32 32
32 32 32 32 32 32 32 32 32 32 32 32
32 32 32 41 41 41 74 74 74 74 74 74
98 98 98 74 74 74 57 57 57 41 41 41
32 32 32 32 32 32 32 32 32 32 32 32
32 32 32 32 32 32 32 32 32 32 32 32
32 32 32 41 41 41 74 74 74 74 74 74
98 98 98 74 74 74 57 57 57 41 41 41
32 32 32 32 32 32 32 32 32 32 32 32
32 32 32 32 32 32 32 32 32 32 32 32
32 32 32 41 41 41 74 74 74 74 74 74
98 98 98 74 74 74 57 57 57 41 41 41
32 32 32 32 32 32 32 32 32 32 32 32
32 32 32 32 32 32 32 32 32 32 32 32
32 32 32 41 41 41 74 74 74 74 74 74
98 98 98 74 74 74 57 57 57 41 41 41
32 32 32 32 32 32 32 32 32 32 32 32
32 32 32 32 32 32 32 32 32 32 32 32
32 32 32 41 41 41 74 74 74 82 82 82
98 98 98 74 74 74 57 57 57 41 41 41
32 32 32 32 32 32 32 32 32 32 32 32
32 32 32 32 32 32 32 32 32 32 32 32
32 32 32 41 41 41 74 74 74 82 82 82
98 98 98 74 74 74 57 57 57 41 41 41
32 32 32 32 32 32 32 32 32 32 32 32
32 32 32 32 32 32 32 32 32 32 32 32
32 32 32 41 41 41 74 74 74 82 82 82
98 98 98 74 74 74 57 57 57 41 41 41
32 32 32 32 32 32 32 32 32 32 32 32
32 32 32 32 32 32 32 32 32 32 32 32
32 32 32 41 41 41 74 74 74 82 82 82
98 98 98 74 74 74 57 57 57 41 41 41
32 32 32 32 32 32 32 32 32 32 32 32
32 32 32 32 32 32 32 32 32 32 32 32
32 32 32 41 41 41 82 82 82 74 74 74
98 98 98 74 74 74 57 57 57 41 41 41
32 32 32 32 32 32 32 32 32 32 32 32
32 32 32 32 32 32 32 32 32 32 32 32
32 32 32 41 41 41 82 82 82 74 74 74
98 98 98 74 74 74 57 57 57 41 41 41
32 32 32 32 32 32 32 32 32 32 32 32
32 32 32 32 32 32 32 32 32 32 32 32
32 32 32 41 41 41 82 82 82 74 74 74
98 98 98 74 74 74 57 57 57 41 41 41
32 32 32 32 32 32 32 32 32 32 32 32
32 32 32 32 32 32 32 32 32 32 32 32
32 32 32 41 41 41 82 82 82 74 74 74
98 98 98 74 74 74 57 57 57 41 41 41
32 32 32 32 32 32 32 32 32 32 32 32
41 41 41 41 41 41 41 41 41 41 41 41
41 41 41 41 41 41 82 82 82 82 82 82
98 98 98 74 74 74 57 57 57 41 41 41
41 41 41 41 41 41 41 41 41 41 41 41
41 41 41 41 41 41 41 41 41 41 41 41
41 41 41 41 41 41 82 82 82 82 82 82
98 98 98 74 74 74 57 57 57 41 41 41
41 41 41 41 41 41 41 41 41 41 41 41
41 41 41 41 41 41 41 41 41 41 41 41
41 41 41 41 41 41 82 82 82 82 82 82
98 98 98 74 74 74 57 57 57 41 41 41
41 41 41 41 41 41 41 41 41 41 41 41
41 41 41 41 41 41 41 41 41 41 41 41
41 41 41 41 41 41 82 82 82 82 82 82
98 98 98 74 74 74 57 57 57 41 41 41
41 41 41 41 41 41 41 41 41 41 41 41
57 57 57 74 74 74 74 74 74 74 74 74
82 82 82 82 82 82 82 82 82 82 82 82
98 98 98 74 74 74 57 57 57 57 57 57
57 57 57 57 57 57 57 57 57 57 57 57
57 57 57 74 74 74 74 74 74 74 74 74
82 82 82 82 82 82 82 82 82 82 82 82
98 98 98 74 74 74 57 57 57 57 57 57
57 57 57 57 57 57 57 57 57 57 57 57
57 57 57 74 74 74 74 74 74 74 74 74
82 82 82 82 82 82 82 82 82 82 82 82
98 98 98 74 74 74 57 57 57 57 57 57
57 57 57 57 57 57 57 57 57 57 57 57
57 57 57 74 74 74 74 74 74 74 74 74
82 82 82 82 82 82 82 82 82 82 82 82
98 98 98 74 74 74 57 57 57 57 57 57
57 57 57 57 57 57 57 57 57 57 57 57
74 74 74 74 74 74 74 74 74 74 74 74
74 74 74 74 74 74 74 74 74 82 82 82
98 98 98 74 74 74 74 74 74 74 74 74
74 74 74 74 74 74 74 74 74 74 74 74
74 74 74 74 74 74 74 74 74 74 74 74
74 74 74 74 74 74 74 74 74 82 82 82
98 98 98 74 74 74 74 74 74 74 74 74
74 74 74 74 74 74 74 74 74 74 74 74
74 74 74 74 74 74 74 74 74 74 74 74
74 74 74 74 74 74 74 74 74 82 82 82
98 98 98 74 74 74 74 74 74 74 74 74
74 74 74 74 74 74 74 74 74 74 74 74
74 74 74 74 74 74 74 74 74 74 74 74
74 74 74 74 74 74 74 74 74 82 82 82
98 98 98 74 74 74 74 74 74 74 74 74
74 74 74 74 74 74 74 74 74 74 74 74
82 82 82 82 82 82 98 98 98 98 98 98
82 82 82 82 82 82 82 82 82 98 98 98
98 98 98 82 82 82 82 82 82 82 82 82
82 82 82 74 74 74 74 74 74 82 82 82
82 82 82 82 82 82 98 98 98 98 98 98
82 82 82 82 82 82 82 82 82 98 98 98
98 98 98 82 82 82 82 82 82 82 82 82
82 82 82 74 74 74 74 74 74 82 82 82
82 82 82 82 82 82 98 98 98 98 98 98
82 82 82 82 82 82 82 82 82 98 98 98
98 98 98 82 82 82 82 82 82 82 82 82
82 82 82 74 74 74 74 74 74 82 82 82
82 82 82 82 82 82 98 98 98 98 98 98
82 82 82 82 82 82 82 82 82 98 98 98
98 98 98 82 82 82 82 82 82 82 82 82
82 82 82 74 74 74 74 74 74 82 82 82
74 74 74 74 74 74 74 74 74 74 74 74
74 74 74 74 74 74 74 74 74 74 74 74
74 74 74 74 74 74 74 74 74 74 74 74
74 74 74 74 74 74 74 74 74 74 74 74
74 74 74 74 74 74 74 74 74 74 74 74
74 74 74 74 74 74 74 74 74 74 74 74
74 74 74 74 74 74 74 74 74 74 74 74
74 74 74 74 74 74 74 74 74 74 74 74
74 74 74 74 74 74 74 74 74 74 74 74
74 74 74 74 74 74 74 74 74 74 74 74
74 74 74 74 74 74 74 74 74 74 74 74
74 74 74 74 74 74 74 74 74 74 74 74
74 74 74 74 74 74 74 74 74 74 74 74
74 74 74 74 74 74 74 74 74 74 74 74
74 74 74 74 74 74 74 74 74 74 74 74
74 74 74 74 74 74 74 74 74 74 74 74
57 57 57 57 57 57 57 57 57 57 57 57
57 57 57 57 57 57 57 57 57 74 74 74
82 82 82 74 74 74 57 57 57 57 57 57
57 57 57 57 57 57 57 57 57 57 57 57
57 57 57 57 57 57 57 57 57 57 57 57
57 57 57 57 57 57 57 57 57 74 74 74
82 82 82 74 74 74 57 57 57 57 57 57
57 57 57 57 57 57 57 57 57 57 57 57
57 57 57 57 57 57 57 57 57 57 57 57
57 57 57 57 57 57 57 57 57 74 74 74
82 82 82 74 74 74 57 57 57 57 57 57
57 57 57 57 57 57 57 57 57 57 57 57
57 57 57 57 57 57 57 57 57 57 57 57
57 57 57 57 57 57 57 57 57 74 74 74
82 82 82 74 74 74 57 57 57 57 57 57
57 57 57 57 57 57 57 57 57 57 57 57
41 41 41 41 41 41 41 41 41 41 41 41
41 41 41 41 41 41 57 57 57 74 74 74
82 82 82 74 74 74 57 57 57 32 32 32
32 32 32 32 32 32 32 32 32 41 41 41
41 41 41 41 41 41 41 41 41 41 41 41
41 41 41 41 41 41 57 57 57 74 74 74
82 82 82 74 74 74 57 57 57 32 32 32
32 32 32 32 32 32 32 32 32 41 41 41
41 41 41 41 41 41 41 41 41 41 41 41
41 41 41 41 41 41 57 57 57 74 74 74
82 82 82 74 74 74 57 57 57 32 32 32
32 32 32 32 32 32 32 32 32 41 41 41
41 41 41 41 41 41 41 41 41 41 41 41
41 41 41 41 41 41 57 57 57 74 74 74
82 82 82 74 74 74 57 57 57 32 32 32
32 32 32 32 32 32 32 32 32 41 41 41
32 32 32 32 32 32 32 32 32 32 32 32
32 32 32 41 41 41 57 57 57 74 74 74
82 82 82 74 74 74 57 57 57 32 32 32
32 32 32 32 32 32 32 32 32 32 32 32
32 32 32 32 32 32 32 32 32 32 32 32
32 32 32 41 41 41 57 57 57 74 74 74
82 82 82 74 74 74 57 57 57 32 32 32
32 32 32 32 32 32 32 32 32 32 32 32
32 32 32 32 32 32 32 32 32 32 32 32
32 32 32 41 41 41 57 57 57 74 74 74
82 82 82 74 74 74 57 57 57 32 32 32
32 32 32 32 32 32 32 32 32 32 32 32
32 32 32 32 32 32 32 32 32 32 32 32
32 32 32 41 41 41 57 57 57 74 74 74
82 82 82 74 74 74 57 57 57 32 32 32
32 32 32 32 32 32 32 32 32 32 32 32
32 32 32 32 32 32 32 32 32 32 32 32
32 32 32 41 41 41 57 57 57 74 74 74
82 82 82 74 74 74 57 57 57 32 32 32
32 32 32 32 32 32 32 32 32 32 32 32
32 32 32 32 32 32 32 32 32 32 32 32
32 32 32 41 41 41 57 57 57 74 74 74
82 82 82 74 74 74 57 57 57 32 32 32
32 32 32 32 32 32 32 32 32 32 32 32
32 32 32 32 32 32 32 32 32 32 32 32
32 32 32 41 41 41 57 57 57 74 74 74
82 82 82 74 74 74 57 57 57 32 32 32
32 32 32 32 32 32 32 32 32 32 32 32
32 32 32 32 32 32 32 32 32 32 32 32
32 32 32 41 41 41 57 57 57 74 74 74
82 82 82 74 74 74 57 57 57 32 32 32
32 32 32 32 32 32 32 32 32 32 32 32
32 32 32 32 32 32 32 32 32 32 32 32
32 32 32 41 41 41 74 74 74 74 74 74
82 82 82 74 74 74 57 57 57 32 32 32
32 32 32 32 32 32 32 32 32 32 32 32
32 32 32 32 32 32 32 32 32 32 32 32
32 32 32 41 41 41 74 74 74 74 74 74
82 82 82 74 74 74 57 57 57 32 32 32
32 32 32 32 32 32 32 32 32 32 32 32
32 32 32 32 32 32 32 32 32 32 32 32
32 32 32 41 41 41 74 74 74 74 74 74
82 82 82 74 74 74 57 57 57 32 32 32
32 32 32 32 32 32 32 32 32 32 32 32
32 32 32 32 32 32 32 32 32 32 32 32
32 32 32 41 41 41 74 74 74 74 74 74
82 82 82 74 74 74 57 57 57 32 32 32
32 32 32 32 32 32 32 32 32 32 32 32
32 32 32 32 32 32 32 32 32 32 32 32
32 32 32 41 41 41 57 57 57 74 74 74
82 82 82 74 74 74 57 57 57 32 32 32
32 32 32 32 32 32 32 32 32 32 32 32
32 32 32 32 32 32 32 32 32 32 32 32
32 32 32 41 41 41 57 57 57 74 74 74
82 82 82 74 74 74 57 57 57 32 32 32
32 32 32 32 32 32 32 32 32 32 32 32
32 32 32 32 32 32 32 32 32 32 32 32
32 32 32 41 41 41 57 57 57 74 74 74
82 82 82 74 74 74 57 57 57 32 32 32
32 32 32 32 32 32 32 32 32 32 32 32
32 32 32 32 32 32 32 32 32 32 32 32
32 32 32 41 41 41 57 57 57 74 74 74
82 82 82 74 74 74 57 57 57 32 32 32
32 32 32 32 32 32 32 32 32 32 32 32
32 32 32 32 32 32 32 32 32 32 32 32
32 32 32 41 41 41 74 74 74 74 74 74
82 82 82 74 74 74 57 57 57 32 32 32
32 32 32 32 32 32 32 32 32 32 32 32
32 32 32 32 32 32 32 32 32 32 32 32
32 32 32 41 41 41 74 74 74 74 74 74
82 82 82 74 74 74 57 57 57 32 32 32
32 32 32 32 32 32 32 32 32 32 32 32
32 32 32 32 32 32 32 32 32 32 32 32
32 32 32 41 41 41 74 74 74 74 74 74
82 82 82 74 74 74 57 57 57 32 32 32
32 32 32 32 32 32 32 32 32 32 32 32
32 32 32 32 32 32 32 32 32 32 32 32
32 32 32 41 41 41 74 74 74 74 74 74
82 82 82 74 74 74 57 57 57 32 32 32
32 32 32 32 32 32 32 32 32 32 32 32
32 32 32 32 32 32 32 32 32 32 32 32
32 32 32 41 41 41 74 74 74 82 82 82
82 82 82 74 74 74 57 57 57 41 41 41
32 32 32 32 32 32 32 32 32 32 32 32
32 32 32 32 32 32 32 32 32 32 32 32
32 32 32 41 41 41 74 74 74 82 82 82
82 82 82 74 74 74 57 57 57 41 41 41
32 32 32 32 32 32 32 32 32 32 32 32
32 32 32 32 32 32 32 32 32 32 32 32
32 32 32 41 41 41 74 74 74 82 82 82
82 82 82 74 74 74 57 57 57 41 41 41
32 32 32 32 32 32 32 32 32 32 32 32
32 32 32 32 32 32 32 32 32 32 32 32
32 32 32 41 41 41 74 74 74 82 82 82
82 82 82 74 74 74 57 57 57 41 41 41
32 32 32 32 32 32 32 32 32 32 32 32
32 32 32 32 32 32 32 32 32 32 32 32
32 32 32 41 41 41 74 74 74 74 74 74
98 98 98 74 74 74 57 57 57 41 41 41
32 32 32 32 32 32 32 32 32 32 32 32
32 32 32 32 32 32 32 32 32 32 32 32
32 32 32 41 41 41 74 74 74 74 74 74
98 98 98 74 74 74 57 57 57 41 41 41
32 32 32 32 32 32 32 32 32 32 32 32
32 32 32 32 32 32 32 32 32 32 32 32
32 32 32 41 41 41 74 74 74 74 74 74
98 98 98 74 74 74 57 57 57 41 41 41
32 32 32 32 32 32 32 32 32 32 32 32
32 32 32 32 32 32 32 32 32 32 32 32
32 32 32 41 41 41 74 74 74 74 74 74
98 98 98 74 74 74 57 57 57 41 41 41
32 32 32 32 32 32 32 32 32 32 32 32
32 32 32 32 32 32 32 32 32 32 32 32
32 32 32 41 41 41 74 74 74 82 82 82
98 98 98 74 74 74 57 57 57 41 41 41
32 32 32 32 32 32 32 32 32 32 32 32
32 32 32 32 32 32 32 32 32 32 32 32
32 32 32 41 41 41 74 74 74 82 82 82
98 98 98 74 74 74 57 57 57 41 41 41
32 32 32 32 32 32 32 32 32 32 32 32
32 32 32 32 32 32 32 32 32 32 32 32
32 32 32 41 41 41 74 74 74 82 82 82
98 98 98 74 74 74 57 57 57 41 41 41
32 32 32 32 32 32 32 32 32 32 32 32
32 32 32 32 32 32 32 32 32 32 32 32
32 32 32 41 41 41 74 74 74 82 82 82
98 98 98 74 74 74 57 57 57 41 41 41
32 32 32 32 32 32 32 32 32 32 32 32
32 32 32 32 32 32 32 32 32 32 32 32
32 32 32 41 41 41 82 82 82 74 74 74
98 98 98 74 74 74 57 57 57 41 41 41
32 32 32 32 32 32 32 32 32 32 32 32
32 32 32 32 32 32 32 32 32 32 32 32
32 32 32 41 41 41 82 82 82 74 74 74
98 98 98 74 74 74 57 57 57 41 41 41
32 32 32 32 32 32 32 32 32 32 32 32
32 32 32 32 32 32 32 32 32 32 32 32
32 32 32 41 41 41 82 82 82 74 74 74
98 98 98 74 74 74 57 57 57 41 41 41
32 32 32 32 32 32 32 32 32 32 32 32
32 32 32 32 32 32 32 32 32 32 32 32
32 32 32 41 41 41 82 82 82 74 74 74
98 98 98 74 74 74 57 57 57 41 41 41
32 32 32 32 32 32 32 32 32 32 32 32
41 41 41 41 41 41 41 41 41 41 41 41
41 41 41 41 41 41 82 82 82 82 82 82
98 98 98 74 74 74 57 57 57 41 41 41
41 41 41 41 41 41 41 41 41 41 41 41
41 41 41 41 41 41 41 41 41 41 41 41
41 41 41 41 41 41 82 82 82 82 82 82
98 98 98 74 74 74 57 57 57 41 41 41
41 41 41 41 41 41 41 41 41 41 41 41
41 41 41 41 41 41 41 41 41 41 41 41
41 41 41 41 41 41 82 82 82 82 82 82
98 98 98 74 74 74 57 57 57 41 41 41
41 41 41 41 41 41 41 41 41 41 41 41
41 41 41 41 41 41 41 41 41 41 41 41
41 41 41 41 41 41 82 82 82 82 82 82
98 98 98 74 74 74 57 57 57 41 41 41
41 41 41 41 41 41 41 41 41 41 41 41
57 57 57 74 74 74 74 74 74 74 74 74
82 82 82 82 82 82 82 82 82 82 82 82
98 98 98 74 74 74 57 57 57 57 57 57
57 57 57 57 57 57 57 57 57 57 57 57
57 57 57 74 74 74 74 74 74 74 74 74
82 82 82 82 82 82 82 82 82 82 82 82
98 98 98 74 74 74 57 57 57 57 57 57
57 57 57 57 57 57 57 57 57 57 57 57
57 57 57 74 74 74 74 74 74 74 74 74
82 82 82 82 82 82 82 82 82 82 82 82
98 98 98 74 74 74 57 57 57 57 57 57
57 57 57 57 57 57 57 57 57 57 57 57
57 57 57 74 74 74 74 74 74 74 74 74
82 82 82 82 82 82 82 82 82 82 82 82
98 98 98 74 74 74 57 57 57 57 57 57
57 57 57 57 57 57 57 57 57 57 57 57
74 74 74 74 74 74 74 74 74 74 74 74
74 74 74 74 74 74 74 74 74 82 82 82
98 98 98 74 74 74 74 74 74 74 74 74
74 74 74 74 74 74 74 74 74 74 74 74
74 74 74 74 74 74 74 74 74 74 74 74
74 74 74 74 74 74 74 74 74 82 82 82
98 98 98 74 74 74 74 74 74 74 74 74
74 74 74 74 74 74 74 74 74 74 74 74
74 74 74 74 74 74 74 74 74 74 74 74
74 74 74 74 74 74 74 74 74 82 82 82
98 98 98 74 74 74 74 74 74 74 74 74
74 74 74 74 74 74 74 74 74 74 74 74
74 74 74 74 74 74 74 74 74 74 74 74
74 74 74 74 74 74 74 74 74 82 82 82
98 98 98 74 74 74 74 74 74 74 74 74
74 74 74 74 74 74 74 74 74 74 74 74
82 82 82 82 82 82 98 98 98 98 98 98
82 82 82 82 82 82 82 82 82 98 98 98
98 98 98 82 82 82 82 82 82 82 82 82
82 82 82 74 74 74 74 74 74 82 82 82
82 82 82 82 82 82 98 98 98 98 98 98
82 82 82 82 82 82 82 82 82 98 98 98
98 98 98 82 82 82 82 82 82 82 82 82
82 82 82 74 74 74 74 74 74 82 82 82
82 82 82 82 82 82 98 98 98 98 98 98
82 82 82 82 82 82 82 82 82 98 98 98
98 98 98 82 82 82 82 82 82 82 82 82
82 82 82 74 74 74 74 74 74 82 82 82
82 82 82 82 82 82 98 98 98 98 98 98
82 82 82 82 82 82 82 82 82 98 98 98
98 98 98 82 82 82 82 82 82 82 82 82
82 82 82 74 74 74 74 74 74 82 82 82
74 74 74 74 74 74 74 74 74 74 74 74
74 74 74 74 74 74 74 74 74 74 74 74
74 74 74 74 74 74 74 74 74 74 74 74
74 74 74 74 74 74 74 74 74 74 74 74
74 74 74 74 74 74 74 74 74 74 74 74
74 74 74 74 74 74 74 74 74 74 74 74
74 74 74 74 74 74 74 74 74 74 74 74
74 74 74 74 74 74 74 74 74 74 74 74
74 74 74 74 74 74 74 74 74 74 74 74
74 74 74 74 74 74 74 74 74 74 74 74
74 74 74 74 74 74 74 74 74 74 74 74
74 74 74 74 74 74 74 74 74 74 74 74
74 74 74 74 74 74 74 74 74 74 74 74
74 74 74 74 74 74 74 74 74 74 74 74
74 74 74 74 74 74 74 74 74 74 74 74
74 74 74 74 74 74 74 74 74 74 74 74
57 57 57 57 57 57 57 57 57 57 57 57
57 57 57 57 57 57 57 57 57 74 74 74
82 82 82 74 74 74 57 57 57 57 57 57
57 57 57 57 57 57 57 57 57 57 57 57
57 57 57 57 57 57 57 57 57 57 57 57
57 57 57 57 57 57 57 57 57 74 74 74
82 82 82 74 74 74 57 57 57 57 57 57
57 57 57 57 57 57 57 57 57 57 57 57
57 57 57 57 57 57 57 57 57 57 57 57
57 57 57 57 57 57 57 57 57 74 74 74
82 82 82 74 74 74 57 57 57 57 57 57
57 57 57 57 57 57 57 57 57 57 57 57
57 57 57 57 57 57 57 57 57 57 57 57
57 57 57 57 57 57 57 57 57 74 74 74
82 82 82 74 74 74 57 57 57 57 57 57
57 57 57 57 57 57 57 57 57 57 57 57
41 41 41 41 41 41 41 41 41 41 41 41
41 41 41 41 41 41 57 57 57 74 74 74
82 82 82 74 74 74 57 57 57 32 32 32
32 32 32 32 32 32 32 32 32 41 41 41
41 41 41 41 41 41 41 41 41 41 41 41
41 41 41 41 41 41 57 57 57 74 74 74
82 82 82 74 74 74 57 57 57 32 32 32
32 32 32 32 32 32 32 32 32 41 41 41
41 41 41 41 41 41 41 41 41 41 41 41
41 41 41 41 41 41 57 57 57 74 74 74
82 82 82 74 74 74 57 57 57 32 32 32
32 32 32 32 32 32 32 32 32 41 41 41
41 41 41 41 41 41 41 41 41 41 41 41
41 41 41 41 41 41 57 57 57 74 74 74
82 82 82 74 74 74 57 57 57 32 32 32
32 32 32 32 32 32 32 32 32 41 41 41
32 32 32 32 32 32 32 32 32 32 32 32
32 32 32 41 41 41 57 57 57 74 74 74
82 82 82 74 74 74 57 57 57 32 32 32
32 32 32 32 32 32 32 32 32 32 32 32
32 32 32 32 32 32 32 32 32 32 32 32
32 32 32 41 41 41 57 57 57 74 74 74
82 82 82 74 74 74 57 57 57 32 32 32
32 32 32 32 32 32 32 32 32 32 32 32
32 32 32 32 32 32 32 32 32 32 32 32
32 32 32 41 41 41 57 57 57 74 74 74
82 82 82 74 74 74 57 57 57 32 32 32
32 32 32 32 32 32 32 32 32 32 32 32
32 32 32 32 32 32 32 32 32 32 32 32
32 32 32 41 41 41 57 57 57 74 74 74
82 82 82 74 74 74 57 57 57 32 32 32
32 32 32 32 32 32 32 32 32 32 32 32
32 32 32 32 32 32 32 32 32 32 32 32
32 32 32 41 41 41 57 57 57 74 74 74
82 82 82 74 74 74 57 57 57 32 32 32
32 32 32 32 32 32 32 32 32 32 32 32
32 32 32 32 32 32 32 32 32 32 32 32
32 32 32 41 41 41 57 57 57 74 74 74
82 82 82 74 74 74 57 57 57 32 32 32
32 32 32 32 32 32 32 32 32 32 32 32
32 32 32 32 32 32 32 32 32 32 32 32
32 32 32 41 41 41 57 57 57 74 74 74
82 82 82 74 74 74 57 57 57 32 32 32
32 32 32 32 32 32 32 32 32 32 32 32
32 32 32 32 32 32 32 32 32 32 32 32
32 32 32 41 41 41 57 57 57 74 74 74
82 82 82 74 74 74 57 57 57 32 32 32
32 32 32 32 32 32 32 32 32 32 32 32
32 32 32 32 32 32 32 32 32 32 32 32
32 32 32 41 41 41 74 74 74 74 74 74
82 82 82 74 74 74 57 57 57 32 32 32
32 32 32 32 32 32 32 32 32 32 32 32
32 32 32 32 32 32 32 32 32 32 32 32
32 32 32 41 41 41 74 74 74 74 74 74
82 82 82 74 74 74 57 57 57 32 32 32
32 32 32 32 32 32 32 32 32 32 32 32
32 32 32 32 32 32 32 32 32 32 32 32
32 32 32 41 41 41 74 74 74 74 74 74
82 82 82 74 74 74 57 57 57 32 32 32
32 32 32 32 32 32 32 32 32 32 32 32
32 32 32 32 32 32 32 32 32 32 32 32
32 32 32 41 41 41 74 74 74 74 74 74
82 82 82 74 74 74 57 57 57 32 32 32
32 32 32 32 32 32 32 32 32 32 32 32
32 32 32 32 32 32 32 32 32 32 32 32
32 32 32 41 41 41 57 57 57 74 74 74
82 82 82 74 74 74 57 57 57 32 32 32
32 32 32 32 32 32 32 32 32 32 32 32
32 32 32 32 32 32 32 32 32 32 32 32
32 32 32 41 41 41 57 57 57 74 74 74
82 82 82 74 74 74 57 57 57 32 32 32
32 32 32 32 32 32 32 32 32 32 32 32
32 32 32 32 32 32 32 32 32 32 32 32
32 32 32 41 41 41 57 57 57 74 74 74
82 82 82 74 74 74 57 57 57 32 32 32
32 32 32 32 32 32 32 32 32 32 32 32
32 32 32 32 32 32 32 32 32 32 32 32
32 32 32 41 41 41 57 57 57 74 74 74
82 82 82 74 74 74 57 57 57 32 32 32
32 32 32 32 32 32 32 32 32 32 32 32
32 32 32 32 32 32 32 32 32 32 32 32
32 32 32 41 41 41 74 74 74 74 74 74
82 82 82 74 74 74 57 57 57 32 32 32
32 32 32 32 32 32 32 32 32 32 32 32
32 32 32 32 32 32 32 32 32 32 32 32
32 32 32 41 41 41 74 74 74 74 74 74
82 82 82 74 74 74 57 57 57 32 32 32
32 32 32 32 32 32 32 32 32 32 32 32
32 32 32 32 32 32 32 32 32 32 32 32
32 32 32 41 41 41 74 74 74 74 74 74
82 82 82 74 74 74 57 57 57 32 32 32
32 32 32 32 32 32 32 32 32 32 32 32
32 32 32 32 32 32 32 32 32 32 32 32
32 32 32 41 41 41 74 74 74 74 74 74
82 82 82 74 74 74 57 57 57 32 32 32
32 32 32 32 32 32 32 32 32 32 32 32
32 32 32 32 32 32 32 32 32 32 32 32
32 32 32 41 41 41 74 74 74 82 82 82
82 82 82 74 74 74 57 57 57 41 41 41
32 32 32 32 32 32 32 32 32 32 32 32
32 32 32 32 32 32 32 32 32 32 32 32
32 32 32 41 41 41 74 74 74 82 82 82
82 82 82 74 74 74 57 57 57 41 41 41
32 32 32 32 32 32 32 32 32 32 32 32
32 32 32 32 32 32 32 32 32 32 32 32
32 32 32 41 41 41 74 74 74 82 82 82
82 82 82 74 74 74 57 57 57 41 41 41
32 32 32 32 32 32 32 32 32 32 32 32
32 32 32 32 32 32 32 32 32 32 32 32
32 32 32 41 41 41 74 74 74 82 82 82
82 82 82 74 74 74 57 57 57 41 41 41
32 32 32 32 32 32 32 32 32 32 32 32
32 32 32 32 32 32 32 32 32 32 32 32
32 32 32 41 41 41 74 74 74 74 74 74
98 98 98 74 74 74 57 57 57 41 41 41
32 32 32 32 32 32 32 32 32 32 32 32
32 32 32 32 32 32 32 32 32 32 32 32
32 32 32 41 41 41 74 74 74 74 74 74
98 98 98 74 74 74 57 57 57 41 41 41
32 32 32 32 32 32 32 32 32 32 32 32
32 32 32 32 32 32 32 32 32 32 32 32
32 32 32 41 41 41 74 74 74 74 74 74
98 98 98 74 74 74 57 57 57 41 41 41
32 32 32 32 32 32 32 32 32 32 32 32
32 32 32 32 32 32 32 32 32 32 32 32
32 32 32 41 41 41 74 74 74 74 74 74
98 98 98 74 74 74 57 57 57 41 41 41
32 32 32 32 32 32 32 32 32 32 32 32
32 32 32 32 32 32 32 32 32 32 32 32
32 32 32 41 41 41 74 74 74 82 82 82
98 98 98 74 74 74 57 57 57 41 41 41
32 32 32 32 32 32 32 32 32 32 32 32
32 32 32 32 32 32 32 32 32 32 32 32
32 32 32 41 41 41 74 74 74 82 82 82
98 98 98 74 74 74 57 57 57 41 41 41
32 32 32 32 32 32 32 32 32 32 32 32
32 32 32 32 32 32 32 32 32 32 32 32
32 32 32 41 41 41 74 74 74 82 82 82
98 98 98 74 74 74 57 57 57 41 41 41
32 32 32 32 32 32 32 32 32 32 32 32
32 32 32 32 32 32 32 32 32 32 32 32
32 32 32 41 41 41 74 74 74 82 82 82
98 98 98 74 74 74 57 57 57 41 41 41
32 32 32 32 32 32 32 32 32 32 32 32
32 32 32 32 32 32 32 32 32 32 32 32
32 32 32 41 41 41 82 82 82 74 74 74
98 98 98 74 74 74 57 57 57 41 41 41
32 32 32 32 32 32 32 32 32 32 32 32
32 32 32 32 32 32 32 32 32 32 32 32
32 32 32 41 41 41 82 82 82 74 74 74
98 98 98 74 74 74 57 57 57 41 41 41
32 32 32 32 32 32 32 32 32 32 32 32
32 32 32 32 32 32 32 32 32 32 32 32
32 32 32 41 41 41 82 82 82 74 74 74
98 98 98 74 74 74 57 57 57 41 41 41
32 32 32 32 32 32 32 32 32 32 32 32
32 32 32 32 32 32 32 32 32 32 32 32
32 32 32 41 41 41 82 82 82 74 74 74
98 98 98 74 74 74 57 57 57 41 41 41
32 32 32 32 32 32 32 32 32 32 32 32
41 41 41 41 41 41 41 41 41 41 41 41
41 41 41 41 41 41 82 82 82 82 82 82
98 98 98 74 74 74 57 57 57 41 41 41
41 41 41 41 41 41 41 41 41 41 41 41
41 41 41 41 41 41 41 41 41 41 41 41
41 41 41 41 41 41 82 82 82 82 82 82
98 98 98 74 74 74 57 57 57 41 41 41
41 41 41 41 41 41 41 41 41 41 41 41
41 41 41 41 41 41 41 41 41 41 41 41
41 41 41 41 41 41 82 82 82 82 82 82
98 98 98 74 74 74 57 57 57 41 41 41
41 41 41 41 41 41 41 41 41 41 41 41
41 41 41 41 41 41 41 41 41 41 41 41
41 41 41 41 41 41 82 82 82 82 82 82
98 98 98 74 74 74 57 57 57 41 41 41
41 41 41 41 41 41 41 41 41 41 41 41
57 57 57 74 74 74 74 74 74 74 74 74
82 82 82 82 82 82 82 82 82 82 82 82
98 98 98 74 74 74 57 57 57 57 57 57
57 57 57 57 57 57 57 57 57 57 57 57
57 57 57 74 74 74 74 74 74 74 74 74
82 82 82 82 82 82 82 82 82 82 82 82
98 98 98 74 74 74 57 57 57 57 57 57
57 57 57 57 57 57 57 57 57 57 57 57
57 57 57 74 74 74 74 74 74 74 74 74
82 82 82 82 82 82 82 82 82 82 82 82
98 98 98 74 74 74 57 57 57 57 57 57
57 57 57 57 57 57 57 57 57 57 57 57
57 57 57 74 74 74 74 74 74 74 74 74
82 82 82 82 82 82 82 82 82 82 82 82
98 98 98 74 74 74 57 57 57 57 57 57
57 57 57 57 57 57 57 57 57 57 57 57
74 74 74 74 74 74 74 74 74 74 74 74
74 74 74 74 74 74 74 74 74 82 82 82
98 98 98 74 74 74 74 74 74 74 74 74
74 74 74 74 74 74 74 74 74 74 74 74
74 74 74 74 74 74 74 74 74 74 74 74
74 74 74 74 74 74 74 74 74 82 82 82
98 98 98 74 74 74 74 74 74 74 74 74
74 74 74 74 74 74 74 74 74 74 74 74
74 74 74 74 74 74 74 74 74 74 74 74
74 74 74 74 74 74 74 74 74 82 82 82
98 98 98 74 74 74 74 74 74 74 74 74
74 74 74 74 74 74 74 74 74 74 74 74
74 74 74 74 74 74 74 74 74 74 74 74
74 74 74 74 74 74 74 74 74 82 82 82
98 98 98 74 74 74 74 74 74 74 74 74
74 74 74 74 74 74 74 74 74 74 74 74
82 82 82 82 82 82 98 98 98 98 98 98
82 82 82 82 82 82 82 82 82 98 98 98
98 98 98 82 82 82 82 82 82 82 82 82
82 82 82 74 74 74 74 74 74 82 82 82
82 82 82 82 82 82 98 98 98 98 98 98
82 82 82 82 82 82 82 82 82 98 98 98
98 98 98 82 82 82 82 82 82 82 82 82
82 82 82 74 74 74 74 74 74 82 82 82
82 82 82 82 82 82 98 98 98 98 98 98
82 82 82 82 82 82 82 82 82 98 98 98
98 98 98 82 82 82 82 82 82 82 82 82
82 82 82 74 74 74 74 74 74 82 82 82
82 82 82 82 82 82 98 98 98 98 98 98
82 82 82 82 82 82 82 82 82 98 98 98
98 98 98 82 82 82 82 82 82 82 82 82
82 82 82 74 74 74 74 74 74 82 82 82
74 74 74 74 74 74 74 74 74 74 74 74
74 74 74 74 74 74 74 74 74 74 74 74
74 74 74 74 74 74 74 74 74 74 74 74
74 74 74 74 74 74 74 74 74 74 74 74
74 74 74 74 74 74 74 74 74 74 74 74
74 74 74 74 74 74 74 74 74 74 74 74
74 74 74 74 74 74 74 74 74 74 74 74
74 74 74 74 74 74 74 74 74 74 74 74
74 74 74 74 74 74 74 74 74 74 74 74
74 74 74 74 74 74 74 74 74 74 74 74
74 74 74 74 74 74 74 74 74 74 74 74
74 74 74 74 74 74 74 74 74 74 74 74
74 74 74 74 74 74 74 74 74 74 74 74
74 74 74 74 74 74 74 74 74 74 74 74
74 74 74 74 74 74 74 74 74 74 74 74
74 74 74 74 74 74 74 74 74 74 74 74
57 57 57 57 57 57 57 57 57 57 57 57
57 57 57 57 57 57 57 57 57 74 74 74
82 82 82 74 74 74 57 57 57 57 57 57
57 57 57 57 57 57 57 57 57 57 57 57
57 57 57 57 57 57 57 57 57 57 57 57
57 57 57 57 57 57 57 57 57 74 74 74
82 82 82 74 74 74 57 57 57 57 57 57
57 57 57 57 57 57 57 57 57 57 57 57
57 57 57 57 57 57 57 57 57 57 57 57
57 57 57 57 57 57 57 57 57 74 74 74
82 82 82 74 74 74 57 57 57 57 57 57
57 57 57 57 57 57 57 57 57 57 57 57
57 57 57 57 57 57 57 57 57 57 57 57
57 57 57 57 57 57 57 57 57 74 74 74
82 82 82 74 74 74 57 57 57 57 57 57
57 57 57 57 57 57 57 57 57 57 57 57
41 41 41 41 41 41 41 41 41 41 41 41
41 41 41 41 41 41 57 57 57 74 74 74
82 82 82 74 74 74 57 57 57 32 32 32
32 32 32 32 32 32 32 32 32 41 41 41
41 41 41 41 41 41 41 41 41 41 41 41
41 41 41 41 41 41 57 57 57 74 74 74
82 82 82 74 74 74 57 57 57 32 32 32
32 32 32 32 32 32 32 32 32 41 41 41
41 41 41 41 41 41 41 41 41 41 41 41
41 41 41 41 41 41 57 57 57 74 74 74
82 82 82 74 74 74 57 57 57 32 32 32
32 32 32 32 32 32 32 32 32 41 41 41
41 41 41 41 41 41 41 41 41 41 41 41
41 41 41 41 41 41 57 57 57 74 74 74
82 82 82 74 74 74 57 57 57 32 32 32
32 32 32 32 32 32 32 32 32 41 41 41
32 32 32 32 32 32 32 32 32 32 32 32
32 32 32 41 41 41 57 57 57 74 74 74
82 82 82 74 74 74 57 57 57 32 32 32
32 32 32 32 32 32 32 32 32 32 32 32
32 32 32 32 32 32 32 32 32 32 32 32
32 32 32 41 41 41 57 57 57 74 74 74
82 82 82 74 74 74 57 57 57 32 32 32
32 32 32 32 32 32 32 32 32 32 32 32
32 32 32 32 32 32 32 32 32 32 32 32
32 32 32 41 41 41 57 57 57 74 74 74
82 82 82 74 74 74 57 57 57 32 32 32
32 32 32 32 32 32 32 32 32 32 32 32
32 32 32 32 32 32 32 32 32 32 32 32
32 32 32 41 41 41 57 57 57 74 74 74
82 82 82 74 74 74 57 57 57 32 32 32
32 32 32 32 32 32 32 32 32 32 32 32
32 32 32 32 32 32 32 32 32 32 32 32
32 32 32 41 41 41 57 57 57 74 74 74
82 82 82 74 74 74 57 57 57 32 32 32
32 32 32 32 32 32 32 32 32 32 32 32
32 32 32 32 32 32 32 32 32 32 32 32
32 32 32 41 41 41 57 57 57 74 74 74
82 82 82 74 74 74 57 57 57 32 32 32
32 32 32 32 32 32 32 32 32 32 32 32
32 32 32 32 32 32 32 32 32 32 32 32
32 32 32 41 41 41 57 57 57 74 74 74
82 82 82 74 74 74 57 57 57 32 32 32
32 32 32 32 32 32 32 32 32 32 32 32
32 32 32 32 32 32 32 32 32 32 32 32
32 32 32 41 41 41 57 57 57 74 74 74
82 82 82 74 74 74 57 57 57 32 32 32
32 32 32 32 32 32 32 32 32 32 32 32
32 32 32 32 32 32 32 32 32 32 32 32
32 32 32 41 41 41 74 74 74 74 74 74
82 82 82 74 74 74 57 57 57 32 32 32
32 32 32 32 32 32 32 32 32 32 32 32
32 32 32 32 32 32 32 32 32 32 32 32
32 32 32 41 41 41 74 74 74 74 74 74
82 82 82 74 74 74 57 57 57 32 32 32
32 32 32 32 32 32 32 32 32 32 32 32
32 32 32 32 32 32 32 32 32 32 32 32
32 32 32 41 41 41 74 74 74 74 74 74
82 82 82 74 74 74 57 57 57 32 32 32
32 32 32 32 32 32 32 32 32 32 32 32
32 32 32 32 32 32 32 32 32 32 32 32
32 32 32 41 41 41 74 74 74 74 74 74
82 82 82 74 74 74 57 57 57 32 32 32
32 32 32 32 32 32 32 32 32 32 32 32
32 32 32 32 32 32 32 32 32 32 32 32
32 32 32 41 41 41 57 57 57 74 74 74
82 82 82 74 74 74 57 57 57 32 32 32
32 32 32 32 32 32 32 32 32 32 32 32
32 32 32 32 32 32 32 32 32 32 32 32
32 32 32 41 41 41 57 57 57 74 74 74
82 82 82 74 74 74 57 57 57 32 32 32
32 32 32 32 32 32 32 32 32 32 32 32
32 32 32 32 32 32 32 32 32 32 32 32
32 32 32 41 41 41 57 57 57 74 74 74
82 82 82 74 74 74 57 57 57 32 32 32
32 32 32 32 32 32 32 32 32 32 32 32
32 32 32 32 32 32 32 32 32 32 32 32
32 32 32 41 41 41 57 57 57 74 74 74
82 82 82 74 74 74 57 57 57 32 32 32
32 32 32 32 32 32 32 32 32 32 32 32
