P3
# Converted to P3 by scripts/convert_to_p3.py
64 64
255
57 57 57 57 57 57 41 41 41 74 74 74
41 41 41 74 74 74 41 41 41 74 74 74
74 74 74 74 74 74 74 74 74 41 41 41
74 74 74 74 74 74 41 41 41 74 74 74
41 41 41 74 74 74 74 74 74 74 74 74
74 74 74 57 57 57 74 74 74 74 74 74
41 41 41 57 57 57 41 41 41 41 41 41
57 57 57 74 74 74 74 74 74 74 74 74
57 57 57 74 74 74 41 41 41 74 74 74
41 41 41 57 57 57 74 74 74 41 41 41
41 41 41 74 74 74 74 74 74 74 74 74
57 57 57 57 57 57 74 74 74 74 74 74
74 74 74 74 74 74 74 74 74 74 74 74
57 57 57 74 74 74 74 74 74 74 74 74
74 74 74 74 74 74 57 57 57 74 74 74
74 74 74 74 74 74 74 74 74 74 74 74
74 74 74 41 41 41 74 74 74 74 74 74
41 41 41 74 74 74 74 74 74 74 74 74
41 41 41 74 74 74 74 74 74 74 74 74
74 74 74 74 74 74 41 41 41 41 41 41
74 74 74 74 74 74 74 74 74 74 74 74
74 74 74 74 74 74 74 74 74 57 57 57
41 41 41 41 41 41 74 74 74 57 57 57
74 74 74 74 74 74 74 74 74 57 57 57
74 74 74 41 41 41 74 74 74 41 41 41
41 41 41 57 57 57 74 74 74 41 41 41
74 74 74 41 41 41 74 74 74 41 41 41
74 74 74 74 74 74 74 74 74 74 74 74
74 74 74 74 74 74 57 57 57 74 74 74
74 74 74 74 74 74 74 74 74 74 74 74
74 74 74 41 41 41 57 57 57 74 74 74
57 57 57 74 74 74 74 74 74 74 74 74
57 57 57 74 74 74 41 41 41 41 41 41
74 74 74 74 74 74 74 74 74 41 41 41
74 74 74 74 74 74 41 41 41 74 74 74
41 41 41 57 57 57 74 74 74 57 57 57
57 57 57 74 74 74 74 74 74 74 74 74
74 74 74 74 74 74 74 74 74 41 41 41
74 74 74 41 41 41 57 57 57 74 74 74
74 74 74 74 74 74 57 57 57 74 74 74
74 74 74 74 74 74 74 74 74 41 41 41
41 41 41 57 57 57 74 74 74 41 41 41
74 74 74 57 57 57 74 74 74 74 74 74
41 41 41 41 41 41 74 74 74 74 74 74
74 74 74 41 41 41 74 74 74 74 74 74
57 57 57 74 74 74 74 74 74 57 57 57
74 74 74 74 74 74 74 74 74 57 57 57
74 74 74 74 74 74 74 74 74 74 74 74
74 74 74 74 74 74 57 57 57 74 74 74
74 74 74 74 74 74 74 74 74 41 41 41
74 74 74 74 74 74 74 74 74 41 41 41
74 74 74 74 74 74 74 74 74 74 74 74
74 74 74 57 57 57 74 74 74 74 74 74
74 74 74 41 41 41 41 41 41 74 74 74
74 74 74 57 57 57 74 74 74 74 74 74
74 74 74 57 57 57 41 41 41 74 74 74
74 74 74 74 74 74 74 74 74 74 74 74
41 41 41 74 74 74 74 74 74 41 41 41
74 74 74 74 74 74 41 41 41 74 74 74
41 41 41 41 41 41 74 74 74 74 74 74
74 74 74 74 74 74 74 74 74 57 57 57
74 74 74 57 57 57 57 57 57 57 57 57
57 57 57 74 74 74 74 74 74 74 74 74
57 57 57 74 74 74 57 57 57 74 74 74
74 74 74 74 74 74 74 74 74 74 74 74
74 74 74 41 41 41 74 74 74 41 41 41
74 74 74 74 74 74 74 74 74 41 41 41
41 41 41 74 74 74 74 74 74 57 57 57
74 74 74 74 74 74 74 74 74 74 74 74
57 57 57 74 74 74 74 74 74 41 41 41
57 57 57 74 74 74 74 74 74 74 74 74
57 57 57 41 41 41 41 41 41 41 41 41
74 74 74 74 74 74 74 74 74 74 74 74
57 57 57 74 74 74 74 74 74 74 74 74
41 41 41 74 74 74 41 41 41 74 74 74
74 74 74 57 57 57 74 74 74 74 74 74
74 74 74 74 74 74 74 74 74 74 74 74
41 41 41 74 74 74 57 57 57 57 57 57
57 57 57 74 74 74 74 74 74 74 74 74
57 57 57 74 74 74 74 74 74 74 74 74
74 74 74 41 41 41 74 74 74 74 74 74
74 74 74 74 74 74 74 74 74 74 74 74
74 74 74 74 74 74 74 74 74 74 74 74
74 74 74 74 74 74 74 74 74 74 74 74
74 74 74 74 74 74 74 74 74 74 74 74
74 74 74 74 74 74 74 74 74 57 57 57
74 74 74 74 74 74 74 74 74 57 57 57
41 41 41 74 74 74 41 41 41 74 74 74
41 41 41 74 74 74 74 74 74 74 74 74
74 74 74 74 74 74 74 74 74 74 74 74
74 74 74 74 74 74 74 74 74 41 41 41
74 74 74 74 74 74 74 74 74 74 74 74
74 74 74 74 74 74 74 74 74 74 74 74
74 74 74 74 74 74 57 57 57 74 74 74
74 74 74 57 57 57 74 74 74 74 74 74
74 74 74 74 74 74 57 57 57 74 74 74
41 41 41 74 74 74 74 74 74 74 74 74
41 41 41 74 74 74 74 74 74 74 74 74
74 74 74 74 74 74 74 74 74 74 74 74
74 74 74 74 74 74 57 57 57 74 74 74
74 74 74 74 74 74 74 74 74 74 74 74
57 57 57 41 41 41 57 57 57 74 74 74
74 74 74 74 74 74 57 57 57 41 41 41
74 74 74 41 41 41 74 74 74 41 41 41
74 74 74 74 74 74 74 74 74 74 74 74
74 74 74 74 74 74 74 74 74 74 74 74
74 74 74 74 74 74 74 74 74 74 74 74
57 57 57 74 74 74 74 74 74 41 41 41
74 74 74 74 74 74 74 74 74 74 74 74
41 41 41 74 74 74 74 74 74 74 74 74
57 57 57 74 74 74 74 74 74 74 74 74
74 74 74 74 74 74 74 74 74 74 74 74
57 57 57 74 74 74 74 74 74 74 74 74
74 74 74 74 74 74 74 74 74 74 74 74
74 74 74 74 74 74 74 74 74 74 74 74
57 57 57 74 74 74 74 74 74 57 57 57
74 74 74 74 74 74 74 74 74 41 41 41
74 74 74 57 57 57 74 74 74 74 74 74
74 74 74 57 57 57 74 74 74 41 41 41
74 74 74 41 41 41 74 74 74 74 74 74
41 41 41 74 74 74 74 74 74 74 74 74
74 74 74 74 74 74 74 74 74 74 74 74
74 74 74 74 74 74 41 41 41 74 74 74
74 74 74 41 41 41 74 74 74 74 74 74
74 74 74 74 74 74 74 74 74 74 74 74
74 74 74 74 74 74 57 57 57 74 74 74
74 74 74 74 74 74 74 74 74 74 74 74
74 74 74 74 74 74 57 57 57 74 74 74
74 74 74 74 74 74 41 41 41 41 41 41
74 74 74 74 74 74 74 74 74 74 74 74
74 74 74 57 57 57 74 74 74 41 41 41
74 74 74 74 74 74 74 74 74 74 74 74
74 74 74 74 74 74 74 74 74 74 74 74
57 57 57 74 74 74 74 74 74 74 74 74
57 57 57 74 74 74 41 41 41 41 41 41
74 74 74 74 74 74 74 74 74 74 74 74
74 74 74 74 74 74 74 74 74 74 74 74
74 74 74 74 74 74 74 74 74 74 74 74
74 74 74 74 74 74 74 74 74 74 74 74
74 74 74 74 74 74 74 74 74 74 74 74
74 74 74 74 74 74 74 74 74 74 74 74
74 74 74 74 74 74 74 74 74 74 74 74
74 74 74 74 74 74 74 74 74 74 74 74
74 74 74 74 74 74 74 74 74 57 57 57
74 74 74 74 74 74 74 74 74 74 74 74
74 74 74 74 74 74 74 74 74 74 74 74
74 74 74 74 74 74 74 74 74 74 74 74
74 74 74 74 74 74 74 74 74 74 74 74
41 41 41 74 74 74 74 74 74 57 57 57
74 74 74 74 74 74 74 74 74 57 57 57
57 57 57 74 74 74 74 74 74 41 41 41
74 74 74 74 74 74 41 41 41 74 74 74
74 74 74 74 74 74 74 74 74 74 74 74
74 74 74 74 74 74 74 74 74 74 74 74
74 74 74 74 74 74 74 74 74 74 74 74
74 74 74 41 41 41 74 74 74 74 74 74
41 41 41 74 74 74 74 74 74 74 74 74
74 74 74 74 74 74 74 74 74 74 74 74
74 74 74 57 57 57 74 74 74 57 57 57
74 74 74 74 74 74 74 74 74 57 57 57
74 74 74 41 41 41 74 74 74 74 74 74
74 74 74 74 74 74 74 74 74 41 41 41
74 74 74 74 74 74 74 74 74 74 74 74
57 57 57 74 74 74 74 74 74 74 74 74
41 41 41 74 74 74 57 57 57 74 74 74
74 74 74 74 74 74 57 57 57 74 74 74
74 74 74 57 57 57 74 74 74 41 41 41
74 74 74 74 74 74 74 74 74 74 74 74
74 74 74 74 74 74 74 74 74 74 74 74
74 74 74 74 74 74 74 74 74 74 74 74
57 57 57 74 74 74 74 74 74 74 74 74
57 57 57 74 74 74 74 74 74 41 41 41
74 74 74 74 74 74 74 74 74 74 74 74
74 74 74 57 57 57 74 74 74 74 74 74
74 74 74 74 74 74 74 74 74 74 74 74
41 41 41 74 74 74 74 74 74 57 57 57
74 74 74 41 41 41 57 57 57 74 74 74
74 74 74 74 74 74 41 41 41 74 74 74
74 74 74 74 74 74 74 74 74 74 74 74
57 57 57 41 41 41 74 74 74 74 74 74
74 74 74 57 57 57 74 74 74 74 74 74
74 74 74 57 57 57 41 41 41 74 74 74
74 74 74 74 74 74 41 41 41 41 41 41
41 41 41 74 74 74 74 74 74 74 74 74
41 41 41 74 74 74 74 74 74 74 74 74
74 74 74 74 74 74 74 74 74 74 74 74
74 74 74 74 74 74 74 74 74 74 74 74
41 41 41 74 74 74 74 74 74 74 74 74
74 74 74 74 74 74 41 41 41 74 74 74
74 74 74 41 41 41 74 74 74 74 74 74
74 74 74 74 74 74 74 74 74 74 74 74
74 74 74 74 74 74 74 74 74 74 74 74
41 41 41 41 41 41 74 74 74 57 57 57
74 74 74 74 74 74 74 74 74 74 74 74
74 74 74 74 74 74 74 74 74 74 74 74
41 41 41 41 41 41 41 41 41 74 74 74
57 57 57 74 74 74 74 74 74 74 74 74
57 57 57 41 41 41 41 41 41 41 41 41
74 74 74 74 74 74 41 41 41 74 74 74
41 41 41 74 74 74 74 74 74 74 74 74
74 74 74 74 74 74 74 74 74 74 74 74
74 74 74 41 41 41 41 41 41 74 74 74
74 74 74 74 74 74 74 74 74 74 74 74
74 74 74 74 74 74 74 74 74 74 74 74
74 74 74 74 74 74 74 74 74 74 74 74
74 74 74 57 57 57 74 74 74 74 74 74
57 57 57 57 57 57 74 74 74 74 74 74
57 57 57 57 57 57 57 57 57 74 74 74
57 57 57 74 74 74 74 74 74 41 41 41
74 74 74 74 74 74 74 74 74 74 74 74
74 74 74 74 74 74 74 74 74 74 74 74
74 74 74 57 57 57 41 41 41 57 57 57
74 74 74 74 74 74 74 74 74 57 57 57
74 74 74 74 74 74 74 74 74 74 74 74
74 74 74 74 74 74 41 41 41 74 74 74
74 74 74 74 74 74 74 74 74 74 74 74
74 74 74 74 74 74 74 74 74 74 74 74
74 74 74 74 74 74 74 74 74 74 74 74
74 74 74 74 74 74 74 74 74 41 41 41
41 41 41 74 74 74 74 74 74 74 74 74
74 74 74 74 74 74 74 74 74 74 74 74
74 74 74 74 74 74 74 74 74 74 74 74
57 57 57 74 74 74 74 74 74 74 74 74
74 74 74 57 57 57 74 74 74 74 74 74
57 57 57 41 41 41 41 41 41 74 74 74
41 41 41 74 74 74 41 41 41 74 74 74
57 57 57 74 74 74 74 74 74 74 74 74
74 74 74 57 57 57 57 57 57 74 74 74
74 74 74 74 74 74 57 57 57 74 74 74
41 41 41 74 74 74 74 74 74 74 74 74
74 74 74 74 74 74 74 74 74 74 74 74
74 74 74 74 74 74 74 74 74 41 41 41
74 74 74 74 74 74 74 74 74 74 74 74
74 74 74 74 74 74 74 74 74 74 74 74
74 74 74 74 74 74 74 74 74 41 41 41
41 41 41 41 41 41 74 74 74 74 74 74
74 74 74 74 74 74 74 74 74 74 74 74
57 57 57 74 74 74 74 74 74 74 74 74
74 74 74 74 74 74 74 74 74 74 74 74
57 57 57 74 74 74 57 57 57 74 74 74
41 41 41 41 41 41 74 74 74 57 57 57
74 74 74 74 74 74 74 74 74 41 41 41
74 74 74 41 41 41 74 74 74 41 41 41
74 74 74 57 57 57 74 74 74 74 74 74
74 74 74 57 57 57 74 74 74 57 57 57
74 74 74 41 41 41 74 74 74 57 57 57
74 74 74 41 41 41 74 74 74 74 74 74
74 74 74 74 74 74 74 74 74 74 74 74
41 41 41 74 74 74 41 41 41 74 74 74
74 74 74 74 74 74 74 74 74 74 74 74
74 74 74 41 41 41 74 74 74 74 74 74
57 57 57 74 74 74 74 74 74 74 74 74
74 74 74 74 74 74 41 41 41 74 74 74
74 74 74 57 57 57 74 74 74 74 74 74
74 74 74 74 74 74 74 74 74 57 57 57
57 57 57 74 74 74 74 74 74 57 57 57
74 74 74 41 41 41 74 74 74 74 74 74
57 57 57 74 74 74 74 74 74 74 74 74
74 74 74 74 74 74 74 74 74 74 74 74
57 57 57 74 74 74 74 74 74 74 74 74
57 57 57 41 41 41 74 74 74 74 74 74
74 74 74 41 41 41 74 74 74 74 74 74
74 74 74 57 57 57 74 74 74 74 74 74
57 57 57 41 41 41 41 41 41 74 74 74
74 74 74 74 74 74 41 41 41 74 74 74
74 74 74 41 41 41 57 57 57 74 74 74
74 74 74 74 74 74 57 57 57 74 74 74
74 74 74 41 41 41 41 41 41 74 74 74
74 74 74 74 74 74 74 74 74 74 74 74
74 74 74 74 74 74 74 74 74 57 57 57
57 57 57 74 74 74 74 74 74 74 74 74
57 57 57 74 74 74 57 57 57 74 74 74
74 74 74 74 74 74 74 74 74 74 74 74
74 74 74 41 41 41 74 74 74 74 74 74
41 41 41 74 74 74 74 74 74 57 57 57
74 74 74 74 74 74 74 74 74 57 57 57
41 41 41 41 41 41 74 74 74 74 74 74
74 74 74 74 74 74 74 74 74 74 74 74
57 57 57 74 74 74 74 74 74 74 74 74
74 74 74 41 41 41 74 74 74 74 74 74
57 57 57 74 74 74 74 74 74 74 74 74
74 74 74 74 74 74 74 74 74 74 74 74
74 74 74 41 41 41 41 41 41 74 74 74
74 74 74 41 41 41 74 74 74 41 41 41
74 74 74 74 74 74 41 41 41 74 74 74
74 74 74 74 74 74 57 57 57 74 74 74
74 74 74 74 74 74 74 74 74 57 57 57
74 74 74 74 74 74 74 74 74 41 41 41
74 74 74 57 57 57 74 74 74 74 74 74
57 57 57 74 74 74 74 74 74 74 74 74
74 74 74 74 74 74 57 57 57 74 74 74
74 74 74 74 74 74 57 57 57 74 74 74
41 41 41 74 74 74 74 74 74 74 74 74
41 41 41 74 74 74 57 57 57 57 57 57
74 74 74 57 57 57 74 74 74 74 74 74
74 74 74 74 74 74 57 57 57 41 41 41
74 74 74 74 74 74 74 74 74 74 74 74
74 74 74 74 74 74 74 74 74 74 74 74
74 74 74 74 74 74 74 74 74 41 41 41
41 41 41 57 57 57 74 74 74 41 41 41
74 74 74 74 74 74 74 74 74 74 74 74
57 57 57 74 74 74 74 74 74 74 74 74
74 74 74 74 74 74 74 74 74 57 57 57
74 74 74 57 57 57 57 57 57 57 57 57
74 74 74 74 74 74 74 74 74 41 41 41
74 74 74 74 74 74 74 74 74 74 74 74
41 41 41 57 57 57 74 74 74 74 74 74
74 74 74 57 57 57 41 41 41 74 74 74
41 41 41 41 41 41 74 74 74 74 74 74
74 74 74 74 74 74 74 74 74 74 74 74
74 74 74 74 74 74 57 57 57 41 41 41
41 41 41 74 74 74 74 74 74 74 74 74
74 74 74 74 74 74 74 74 74 74 74 74
74 74 74 74 74 74 74 74 74 74 74 74
57 57 57 74 74 74 74 74 74 57 57 57
57 57 57 74 74 74 41 41 41 57 57 57
74 74 74 74 74 74 41 41 41 41 41 41
41 41 41 57 57 57 57 57 57 74 74 74
74 74 74 74 74 74 57 57 57 57 57 57
74 74 74 74 74 74 57 57 57 57 57 57
74 74 74 74 74 74 74 74 74 74 74 74
57 57 57 74 74 74 74 74 74 74 74 74
57 57 57 74 74 74 74 74 74 74 74 74
57 57 57 74 74 74 74 74 74 74 74 74
74 74 74 41 41 41 74 74 74 74 74 74
74 74 74 57 57 57 74 74 74 74 74 74
41 41 41 74 74 74 74 74 74 57 57 57
41 41 41 41 41 41 41 41 41 41 41 41
74 74 74 74 74 74 41 41 41 74 74 74
74 74 74 74 74 74 74 74 74 57 57 57
57 57 57 74 74 74 41 41 41 74 74 74
74 74 74 74 74 74 41 41 41 41 41 41
74 74 74 57 57 57 74 74 74 74 74 74
41 41 41 41 41 41 74 74 74 74 74 74
57 57 57 41 41 41 74 74 74 57 57 57
57 57 57 74 74 74 57 57 57 57 57 57
74 74 74 74 74 74 74 74 74 74 74 74
74 74 74 41 41 41 74 74 74 57 57 57
74 74 74 74 74 74 74 74 74 57 57 57
74 74 74 41 41 41 74 74 74 74 74 74
74 74 74 74 74 74 74 74 74 41 41 41
74 74 74 74 74 74 74 74 74 74 74 74
74 74 74 74 74 74 74 74 74 41 41 41
74 74 74 74 74 74 74 74 74 41 41 41
41 41 41 74 74 74 41 41 41 74 74 74
74 74 74 74 74 74 57 57 57 74 74 74
74 74 74 74 74 74 57 57 57 74 74 74
74 74 74 74 74 74 74 74 74 74 74 74
74 74 74 41 41 41 57 57 57 57 57 57
41 41 41 74 74 74 57 57 57 74 74 74
41 41 41 74 74 74 74 74 74 41 41 41
57 57 57 57 57 57 57 57 57 57 57 57
57 57 57 74 74 74 74 74 74 57 57 57
74 74 74 74 74 74 57 57 57 74 74 74
74 74 74 74 74 74 57 57 57 74 74 74
41 41 41 41 41 41 74 74 74 41 41 41
41 41 41 74 74 74 74 74 74 74 74 74
41 41 41 74 74 74 74 74 74 74 74 74
74 74 74 41 41 41 74 74 74 74 74 74
41 41 41 74 74 74 41 41 41 41 41 41
74 74 74 74 74 74 74 74 74 74 74 74
74 74 74 41 41 41 74 74 74 74 74 74
74 74 74 41 41 41 74 74 74 74 74 74
74 74 74 74 74 74 74 74 74 74 74 74
74 74 74 74 74 74 74 74 74 57 57 57
41 41 41 41 41 41 74 74 74 57 57 57
57 57 57 57 57 57 74 74 74 57 57 57
57 57 57 57 57 57 74 74 74 57 57 57
57 57 57 74 74 74 74 74 74 74 74 74
74 74 74 57 57 57 74 74 74 74 74 74
74 74 74 57 57 57 74 74 74 74 74 74
74 74 74 74 74 74 74 74 74 74 74 74
74 74 74 74 74 74 74 74 74 74 74 74
74 74 74 41 41 41 74 74 74 41 41 41
74 74 74 41 41 41 41 41 41 41 41 41
41 41 41 74 74 74 74 74 74 41 41 41
74 74 74 74 74 74 74 74 74 41 41 41
74 74 74 57 57 57 57 57 57 74 74 74
74 74 74 74 74 74 74 74 74 74 74 74
74 74 74 74 74 74 74 74 74 41 41 41
41 41 41 74 74 74 41 41 41 57 57 57
74 74 74 74 74 74 74 74 74 57 57 57
74 74 74 41 41 41 57 57 57 57 57 57
74 74 74 41 41 41 41 41 41 57 57 57
74 74 74 57 57 57 74 74 74 74 74 74
57 57 57 74 74 74 74 74 74 74 74 74
57 57 57 74 74 74 74 74 74 74 74 74
74 74 74 74 74 74 74 74 74 74 74 74
74 74 74 74 74 74 74 74 74 74 74 74
74 74 74 41 41 41 74 74 74 41 41 41
74 74 74 57 57 57 74 74 74 41 41 41
74 74 74 74 74 74 57 57 57 57 57 57
74 74 74 74 74 74 74 74 74 41 41 41
74 74 74 74 74 74 74 74 74 74 74 74
74 74 74 74 74 74 74 74 74 41 41 41
57 57 57 74 74 74 74 74 74 74 74 74
74 74 74 74 74 74 57 57 57 57 57 57
74 74 74 57 57 57 41 41 41 74 74 74
74 74 74 57 57 57 74 74 74 74 74 74
57 57 57 74 74 74 57 57 57 41 41 41
57 57 57 57 57 57 74 74 74 57 57 57
74 74 74 74 74 74 74 74 74 57 57 57
74 74 74 41 41 41 74 74 74 57 57 57
74 74 74 74 74 74 74 74 74 74 74 74
74 74 74 74 74 74 74 74 74 74 74 74
57 57 57 74 74 74 57 57 57 74 74 74
41 41 41 74 74 74 74 74 74 57 57 57
74 74 74 74 74 74 57 57 57 74 74 74
74 74 74 74 74 74 74 74 74 74 74 74
41 41 41 74 74 74 57 57 57 41 41 41
74 74 74 74 74 74 74 74 74 74 74 74
74 74 74 74 74 74 74 74 74 74 74 74
74 74 74 57 57 57 74 74 74 57 57 57
74 74 74 74 74 74 57 57 57 74 74 74
57 57 57 57 57 57 57 57 57 74 74 74
74 74 74 57 57 57 74 74 74 57 57 57
74 74 74 74 74 74 57 57 57 74 74 74
74 74 74 74 74 74 57 57 57 74 74 74
41 41 41 41 41 41 74 74 74 74 74 74
74 74 74 74 74 74 41 41 41 74 74 74
41 41 41 74 74 74 74 74 74 74 74 74
57 57 57 74 74 74 41 41 41 57 57 57
41 41 41 41 41 41 74 74 74 41 41 41
74 74 74 74 74 74 57 57 57 41 41 41
57 57 57 74 74 74 74 74 74 74 74 74
74 74 74 74 74 74 74 74 74 57 57 57
74 74 74 57 57 57 41 41 41 74 74 74
74 74 74 74 74 74 74 74 74 57 57 57
41 41 41 57 57 57 74 74 74 74 74 74
57 57 57 57 57 57 74 74 74 57 57 57
41 41 41 57 57 57 74 74 74 74 74 74
41 41 41 57 57 57 74 74 74 74 74 74
74 74 74 57 57 57 74 74 74 74 74 74
74 74 74 57 57 57 74 74 74 41 41 41
74 74 74 57 57 57 74 74 74 74 74 74
74 74 74 74 74 74 74 74 74 74 74 74
74 74 74 74 74 74 74 74 74 74 74 74
41 41 41 41 41 41 74 74 74 41 41 41
74 74 74 74 74 74 41 41 41 74 74 74
41 41 41 41 41 41 74 74 74 41 41 41
74 74 74 74 74 74 74 74 74 74 74 74
74 74 74 74 74 74 41 41 41 57 57 57
74 74 74 74 74 74 57 57 57 41 41 41
74 74 74 57 57 57 74 74 74 57 57 57
41 41 41 57 57 57 74 74 74 74 74 74
41 41 41 41 41 41 74 74 74 74 74 74
74 74 74 74 74 74 57 57 57 57 57 57
74 74 74 74 74 74 74 74 74 57 57 57
57 57 57 74 74 74 74 74 74 74 74 74
57 57 57 41 41 41 74 74 74 74 74 74
74 74 74 74 74 74 41 41 41 74 74 74
74 74 74 74 74 74 74 74 74 41 41 41
41 41 41 57 57 57 41 41 41 74 74 74
74 74 74 41 41 41 41 41 41 74 74 74
41 41 41 41 41 41 74 74 74 41 41 41
41 41 41 74 74 74 57 57 57 74 74 74
57 57 57 74 74 74 74 74 74 74 74 74
74 74 74 57 57 57 74 74 74 74 74 74
74 74 74 74 74 74 57 57 57 57 57 57
74 74 74 74 74 74 74 74 74 57 57 57
74 74 74 74 74 74 74 74 74 74 74 74
74 74 74 57 57 57 74 74 74 57 57 57
57 57 57 74 74 74 57 57 57 74 74 74
41 41 41 41 41 41 57 57 57 74 74 74
74 74 74 74 74 74 74 74 74 57 57 57
41 41 41 74 74 74 74 74 74 74 74 74
74 74 74 74 74 74 74 74 74 41 41 41
74 74 74 41 41 41 74 74 74 74 74 74
74 74 74 74 74 74 41 41 41 74 74 74
41 41 41 74 74 74 74 74 74 41 41 41
41 41 41 41 41 41 41 41 41 74 74 74
74 74 74 74 74 74 74 74 74 74 74 74
74 74 74 74 74 74 74 74 74 74 74 74
74 74 74 74 74 74 74 74 74 41 41 41
74 74 74 74 74 74 74 74 74 74 74 74
57 57 57 74 74 74 41 41 41 57 57 57
74 74 74 74 74 74 57 57 57 57 57 57
57 57 57 74 74 74 74 74 74 57 57 57
74 74 74 41 41 41 74 74 74 74 74 74
74 74 74 57 57 57 74 74 74 57 57 57
74 74 74 74 74 74 57 57 57 74 74 74
74 74 74 74 74 74 57 57 57 74 74 74
41 41 41 74 74 74 57 57 57 74 74 74
74 74 74 74 74 74 74 74 74 74 74 74
41 41 41 74 74 74 74 74 74 74 74 74
74 74 74 74 74 74 41 41 41 57 57 57
74 74 74 57 57 57 74 74 74 41 41 41
41 41 41 74 74 74 74 74 74 74 74 74
74 74 74 74 74 74 74 74 74 74 74 74
74 74 74 74 74 74 74 74 74 74 74 74
74 74 74 74 74 74 74 74 74 74 74 74
57 57 57 74 74 74 74 74 74 74 74 74
74 74 74 74 74 74 74 74 74 74 74 74
57 57 57 74 74 74 57 57 57 74 74 74
74 74 74 57 57 57 41 41 41 41 41 41
74 74 74 57 57 57 57 57 57 74 74 74
74 74 74 57 57 57 74 74 74 41 41 41
74 74 74 74 74 74 74 74 74 74 74 74
57 57 57 74 74 74 74 74 74 41 41 41
74 74 74 74 74 74 74 74 74 74 74 74
57 57 57 41 41 41 57 57 57 57 57 57
74 74 74 41 41 41 41 41 41 74 74 74
57 57 57 57 57 57 74 74 74 41 41 41
57 57 57 57 57 57 74 74 74 74 74 74
74 74 74 74 74 74 74 74 74 74 74 74
74 74 74 74 74 74 74 74 74 74 74 74
74 74 74 57 57 57 74 74 74 74 74 74
41 41 41 74 74 74 74 74 74 74 74 74
74 74 74 74 74 74 74 74 74 41 41 41
74 74 74 74 74 74 57 57 57 74 74 74
41 41 41 74 74 74 57 57 57 74 74 74
74 74 74 57 57 57 74 74 74 74 74 74
57 57 57 41 41 41 41 41 41 74 74 74
74 74 74 74 74 74 41 41 41 74 74 74
41 41 41 74 74 74 74 74 74 41 41 41
41 41 41 74 74 74 74 74 74 74 74 74
41 41 41 41 41 41 41 41 41 74 74 74
74 74 74 41 41 41 74 74 74 74 74 74
41 41 41 74 74 74 41 41 41 74 74 74
57 57 57 41 41 41 74 74 74 74 74 74
41 41 41 74 74 74 74 74 74 74 74 74
74 74 74 74 74 74 74 74 74 74 74 74
74 74 74 74 74 74 41 41 41 74 74 74
74 74 74 41 41 41 74 74 74 57 57 57
57 57 57 74 74 74 74 74 74 57 57 57
57 57 57 74 74 74 74 74 74 41 41 41
74 74 74 74 74 74 74 74 74 41 41 41
57 57 57 74 74 74 74 74 74 74 74 74
74 74 74 41 41 41 74 74 74 57 57 57
74 74 74 74 74 74 41 41 41 57 57 57
57 57 57 57 57 57 74 74 74 74 74 74
74 74 74 74 74 74 74 74 74 41 41 41
74 74 74 57 57 57 74 74 74 74 74 74
41 41 41 74 74 74 74 74 74 41 41 41
41 41 41 57 57 57 41 41 41 74 74 74
57 57 57 57 57 57 74 74 74 74 74 74
74 74 74 74 74 74 74 74 74 74 74 74
57 57 57 74 74 74 74 74 74 74 74 74
74 74 74 74 74 74 74 74 74 74 74 74
74 74 74 41 41 41 74 74 74 74 74 74
57 57 57 74 74 74 57 57 57 57 57 57
74 74 74 74 74 74 41 41 41 41 41 41
74 74 74 74 74 74 74 74 74 57 57 57
74 74 74 74 74 74 74 74 74 57 57 57
74 74 74 41 41 41 57 57 57 41 41 41
74 74 74 57 57 57 74 74 74 74 74 74
74 74 74 74 74 74 57 57 57 74 74 74
74 74 74 74 74 74 74 74 74 57 57 57
74 74 74 57 57 57 41 41 41 41 41 41
74 74 74 57 57 57 74 74 74 57 57 57
57 57 57 74 74 74 74 74 74 57 57 57
74 74 74 74 74 74 57 57 57 74 74 74
57 57 57 74 74 74 74 74 74 74 74 74
74 74 74 57 57 57 74 74 74 57 57 57
74 74 74 57 57 57 74 74 74 41 41 41
57 57 57 74 74 74 74 74 74 74 74 74
74 74 74 57 57 57 41 41 41 57 57 57
74 74 74 74 74 74 41 41 41 57 57 57
41 41 41 57 57 57 57 57 57 74 74 74
74 74 74 74 74 74 57 57 57 57 57 57
57 57 57 41 41 41 41 41 41 74 74 74
41 41 41 74 74 74 41 41 41 74 74 74
74 74 74 74 74 74 74 74 74 41 41 41
41 41 41 74 74 74 74 74 74 74 74 74
74 74 74 74 74 74 41 41 41 74 74 74
74 74 74 57 57 57 74 74 74 74 74 74
41 41 41 74 74 74 74 74 74 74 74 74
74 74 74 74 74 74 74 74 74 74 74 74
74 74 74 74 74 74 74 74 74 74 74 74
74 74 74 41 41 41 74 74 74 74 74 74
57 57 57 74 74 74 41 41 41 57 57 57
41 41 41 74 74 74 74 74 74 74 74 74
74 74 74 57 57 57 57 57 57 74 74 74
41 41 41 74 74 74 74 74 74 41 41 41
74 74 74 57 57 57 74 74 74 74 74 74
74 74 74 57 57 57 74 74 74 57 57 57
41 41 41 41 41 41 74 74 74 41 41 41
41 41 41 74 74 74 41 41 41 41 41 41
74 74 74 57 57 57 57 57 57 41 41 41
74 74 74 41 41 41 74 74 74 41 41 41
74 74 74 41 41 41 57 57 57 41 41 41
41 41 41 41 41 41 74 74 74 74 74 74
57 57 57 74 74 74 74 74 74 74 74 74
74 74 74 74 74 74 57 57 57 74 74 74
74 74 74 74 74 74 74 74 74 74 74 74
74 74 74 74 74 74 41 41 41 74 74 74
57 57 57 74 74 74 74 74 74 57 57 57
57 57 57 41 41 41 74 74 74 57 57 57
57 57 57 41 41 41 74 74 74 74 74 74
57 57 57 74 74 74 74 74 74 74 74 74
57 57 57 74 74 74 74 74 74 74 74 74
57 57 57 57 57 57 57 57 57 41 41 41
41 41 41 41 41 41 41 41 41 41 41 41
41 41 41 41 41 41 41 41 41 74 74 74
57 57 57 74 74 74 74 74 74 74 74 74
74 74 74 74 74 74 74 74 74 41 41 41
74 74 74 41 41 41 41 41 41 74 74 74
41 41 41 74 74 74 74 74 74 74 74 74
57 57 57 57 57 57 74 74 74 74 74 74
74 74 74 57 57 57 74 74 74 74 74 74
57 57 57 74 74 74 74 74 74 74 74 74
57 57 57 74 74 74 41 41 41 41 41 41
74 74 74 74 74 74 74 74 74 41 41 41
74 74 74 74 74 74 74 74 74 74 74 74
74 74 74 74 74 74 74 74 74 41 41 41
74 74 74 41 41 41 74 74 74 57 57 57
74 74 74 74 74 74 74 74 74 57 57 57
74 74 74 57 57 57 74 74 74 74 74 74
74 74 74 41 41 41 41 41 41 41 41 41
74 74 74 41 41 41 41 41 41 57 57 57
74 74 74 41 41 41 74 74 74 41 41 41
74 74 74 74 74 74 74 74 74 74 74 74
41 41 41 74 74 74 74 74 74 57 57 57
41 41 41 74 74 74 41 41 41 74 74 74
57 57 57 74 74 74 57 57 57 57 57 57
57 57 57 57 57 57 74 74 74 74 74 74
74 74 74 41 41 41 41 41 41 74 74 74
74 74 74 74 74 74 41 41 41 41 41 41
74 74 74 74 74 74 74 74 74 74 74 74
41 41 41 41 41 41 74 74 74 74 74 74
74 74 74 74 74 74 41 41 41 41 41 41
74 74 74 41 41 41 57 57 57 74 74 74
74 74 74 74 74 74 57 57 57 74 74 74
74 74 74 41 41 41 41 41 41 57 57 57
41 41 41 74 74 74 41 41 41 74 74 74
74 74 74 41 41 41 41 41 41 41 41 41
74 74 74 41 41 41 74 74 74 74 74 74
41 41 41 41 41 41 74 74 74 41 41 41
41 41 41 57 57 57 74 74 74 74 74 74
41 41 41 41 41 41 74 74 74 57 57 57
74 74 74 57 57 57 41 41 41 57 57 57
74 74 74 57 57 57 74 74 74 57 57 57
57 57 57 74 74 74 74 74 74 74 74 74
74 74 74 41 41 41 74 74 74 74 74 74
74 74 74 41 41 41 41 41 41 74 74 74
74 74 74 41 41 41 74 74 74 74 74 74
74 74 74 57 57 57 57 57 57 74 74 74
41 41 41 57 57 57 74 74 74 74 74 74
74 74 74 57 57 57 41 41 41 74 74 74
74 74 74 41 41 41 74 74 74 57 57 57
41 41 41 74 74 74 41 41 41 57 57 57
41 41 41 41 41 41 41 41 41 41 41 41
41 41 41 41 41 41 74 74 74 41 41 41
41 41 41 74 74 74 41 41 41 74 74 74
74 74 74 74 74 74 74 74 74 74 74 74
57 57 57 74 74 74 74 74 74 41 41 41
57 57 57 74 74 74 74 74 74 74 74 74
57 57 57 57 57 57 74 74 74 74 74 74
74 74 74 74 74 74 74 74 74 74 74 74
41 41 41 74 74 74 41 41 41 74 74 74
41 41 41 74 74 74 41 41 41 74 74 74
41 41 41 74 74 74 41 41 41 41 41 41
74 74 74 74 74 74 41 41 41 41 41 41
57 57 57 74 74 74 74 74 74 74 74 74
57 57 57 74 74 74 57 57 57 57 57 57
74 74 74 74 74 74 74 74 74 74 74 74
57 57 57 41 41 41 74 74 74 41 41 41
41 41 41 74 74 74 41 41 41 41 41 41
41 41 41 41 41 41 57 57 57 57 57 57
74 74 74 74 74 74 41 41 41 74 74 74
74 74 74 74 74 74 74 74 74 57 57 57
74 74 74 74 74 74 57 57 57 41 41 41
74 74 74 57 57 57 57 57 57 74 74 74
57 57 57 57 57 57 57 57 57 57 57 57
41 41 41 74 74 74 74 74 74 74 74 74
41 41 41 74 74 74 74 74 74 41 41 41
41 41 41 41 41 41 74 74 74 41 41 41
57 57 57 74 74 74 74 74 74 74 74 74
57 57 57 74 74 74 41 41 41 57 57 57
74 74 74 74 74 74 74 74 74 57 57 57
74 74 74 41 41 41 74 74 74 41 41 41
74 74 74 57 57 57 57 57 57 74 74 74
74 74 74 74 74 74 41 41 41 41 41 41
41 41 41 74 74 74 41 41 41 41 41 41
41 41 41 41 41 41 74 74 74 74 74 74
74 74 74 74 74 74 74 74 74 74 74 74
74 74 74 74 74 74 74 74 74 74 74 74
41 41 41 41 41 41 74 74 74 74 74 74
74 74 74 57 57 57 74 74 74 41 41 41
74 74 74 74 74 74 74 74 74 57 57 57
41 41 41 74 74 74 41 41 41 41 41 41
41 41 41 41 41 41 41 41 41 74 74 74
41 41 41 41 41 41 74 74 74 41 41 41
41 41 41 57 57 57 41 41 41 41 41 41
41 41 41 74 74 74 57 57 57 74 74 74
74 74 74 74 74 74 57 57 57 41 41 41
41 41 41 74 74 74 57 57 57 57 57 57
74 74 74 74 74 74 74 74 74 74 74 74
74 74 74 57 57 57 57 57 57 74 74 74
74 74 74 41 41 41 74 74 74 41 41 41
74 74 74 74 74 74 41 41 41 74 74 74
74 74 74 74 74 74 74 74 74 74 74 74
74 74 74 74 74 74 57 57 57 41 41 41
41 41 41 57 57 57 57 57 57 74 74 74
57 57 57 57 57 57 74 74 74 57 57 57
74 74 74 41 41 41 41 41 41 57 57 57
74 74 74 74 74 74 41 41 41 74 74 74
74 74 74 41 41 41 41 41 41 74 74 74
41 41 41 74 74 74 74 74 74 74 74 74
57 57 57 74 74 74 41 41 41 74 74 74
74 74 74 57 57 57 74 74 74 74 74 74
74 74 74 57 57 57 41 41 41 74 74 74
74 74 74 74 74 74 74 74 74 74 74 74
41 41 41 74 74 74 74 74 74 74 74 74
41 41 41 74 74 74 41 41 41 41 41 41
74 74 74 57 57 57 74 74 74 74 74 74
74 74 74 74 74 74 74 74 74 74 74 74
74 74 74 74 74 74 74 74 74 74 74 74
74 74 74 41 41 41 74 74 74 74 74 74
57 57 57 57 57 57 41 41 41 74 74 74
74 74 74 74 74 74 57 57 57 74 74 74
57 57 57 57 57 57 41 41 41 74 74 74
74 74 74 74 74 74 74 74 74 41 41 41
74 74 74 74 74 74 74 74 74 74 74 74
41 41 41 41 41 41 74 74 74 74 74 74
41 41 41 41 41 41 57 57 57 74 74 74
57 57 57 74 74 74 74 74 74 74 74 74
57 57 57 41 41 41 41 41 41 41 41 41
41 41 41 74 74 74 57 57 57 74 74 74
57 57 57 57 57 57 74 74 74 57 57 57
74 74 74 57 57 57 41 41 41 74 74 74
41 41 41 74 74 74 74 74 74 74 74 74
74 74 74 57 57 57 74 74 74 74 74 74
74 74 74 74 74 74 74 74 74 74 74 74
74 74 74 74 74 74 74 74 74 57 57 57
57 57 57 74 74 74 41 41 41 57 57 57
74 74 74 74 74 74 74 74 74 57 57 57
41 41 41 41 41 41 41 41 41 41 41 41
41 41 41 74 74 74 74 74 74 41 41 41
74 74 74 41 41 41 41 41 41 74 74 74
41 41 41 74 74 74 74 74 74 41 41 41
74 74 74 57 57 57 41 41 41 57 57 57
74 74 74 74 74 74 74 74 74 57 57 57
74 74 74 41 41 41 74 74 74 57 57 57
57 57 57 74 74 74 57 57 57 57 57 57
74 74 74 74 74 74 57 57 57 74 74 74
41 41 41 74 74 74 41 41 41 41 41 41
74 74 74 57 57 57 41 41 41 74 74 74
74 74 74 41 41 41 74 74 74 74 74 74
74 74 74 74 74 74 74 74 74 74 74 74
74 74 74 74 74 74 74 74 74 74 74 74
41 41 41 74 74 74 74 74 74 74 74 74
41 41 41 41 41 41 41 41 41 74 74 74
74 74 74 41 41 41 74 74 74 74 74 74
41 41 41 41 41 41 74 74 74 74 74 74
74 74 74 41 41 41 74 74 74 57 57 57
74 74 74 74 74 74 41 41 41 74 74 74
57 57 57 74 74 74 57 57 57 74 74 74
74 74 74 74 74 74 57 57 57 57 57 57
74 74 74 57 57 57 74 74 74 74 74 74
74 74 74 74 74 74 41 41 41 57 57 57
41 41 41 74 74 74 57 57 57 74 74 74
74 74 74 74 74 74 57 57 57 74 74 74
41 41 41 74 74 74 41 41 41 74 74 74
74 74 74 74 74 74 74 74 74 74 74 74
74 74 74 74 74 74 74 74 74 74 74 74
74 74 74 74 74 74 57 57 57 41 41 41
74 74 74 74 74 74 41 41 41 74 74 74
74 74 74 41 41 41 74 74 74 41 41 41
41 41 41 57 57 57 74 74 74 41 41 41
41 41 41 74 74 74 41 41 41 74 74 74
41 41 41 41 41 41 41 41 41 74 74 74
41 41 41 41 41 41 41 41 41 74 74 74
57 57 57 57 57 57 74 74 74 74 74 74
74 74 74 57 57 57 41 41 41 74 74 74
74 74 74 57 57 57 74 74 74 41 41 41
41 41 41 41 41 41 57 57 57 74 74 74
74 74 74 57 57 57 57 57 57 74 74 74
74 74 74 41 41 41 74 74 74 41 41 41
74 74 74 41 41 41 74 74 74 74 74 74
74 74 74 74 74 74 41 41 41 74 74 74
74 74 74 74 74 74 74 74 74 74 74 74
74 74 74 74 74 74 41 41 41 41 41 41
41 41 41 74 74 74 74 74 74 57 57 57
41 41 41 57 57 57 41 41 41 74 74 74
74 74 74 41 41 41 74 74 74 41 41 41
41 41 41 41 41 41 41 41 41 74 74 74
41 41 41 57 57 57 74 74 74 74 74 74
74 74 74 74 74 74 57 57 57 57 57 57
57 57 57 74 74 74 74 74 74 74 74 74
57 57 57 74 74 74 41 41 41 74 74 74
74 74 74 57 57 57 74 74 74 74 74 74
74 74 74 74 74 74 74 74 74 57 57 57
57 57 57 57 57 57 57 57 57 57 57 57
74 74 74 74 74 74 41 41 41 74 74 74
57 57 57 74 74 74 74 74 74 57 57 57
41 41 41 41 41 41 74 74 74 74 74 74
74 74 74 74 74 74 74 74 74 74 74 74
74 74 74 57 57 57 74 74 74 57 57 57
74 74 74 74 74 74 74 74 74 74 74 74
41 41 41 74 74 74 74 74 74 74 74 74
41 41 41 74 74 74 41 41 41 74 74 74
41 41 41 74 74 74 74 74 74 74 74 74
74 74 74 74 74 74 74 74 74 74 74 74
41 41 41 74 74 74 74 74 74 57 57 57
74 74 74 74 74 74 74 74 74 57 57 57
41 41 41 57 57 57 74 74 74 57 57 57
74 74 74 74 74 74 74 74 74 74 74 74
57 57 57 74 74 74 57 57 57 41 41 41
74 74 74 57 57 57 74 74 74 74 74 74
74 74 74 74 74 74 41 41 41 41 41 41
74 74 74 74 74 74 41 41 41 74 74 74
74 74 74 41 41 41 74 74 74 74 74 74
74 74 74 74 74 74 74 74 74 74 74 74
74 74 74 74 74 74 74 74 74 57 57 57
74 74 74 74 74 74 74 74 74 74 74 74
74 74 74 41 41 41 74 74 74 74 74 74
41 41 41 74 74 74 74 74 74 74 74 74
74 74 74 74 74 74 74 74 74 41 41 41
41 41 41 74 74 74 74 74 74 41 41 41
74 74 74 41 41 41 57 57 57 74 74 74
74 74 74 74 74 74 57 57 57 74 74 74
74 74 74 57 57 57 57 57 57 74 74 74
41 41 41 57 57 57 41 41 41 41 41 41
41 41 41 74 74 74 74 74 74 74 74 74
41 41 41 74 74 74 41 41 41 57 57 57
74 74 74 74 74 74 74 74 74 41 41 41
57 57 57 74 74 74 74 74 74 74 74 74
74 74 74 74 74 74 74 74 74 74 74 74
74 74 74 74 74 74 74 74 74 74 74 74
74 74 74 74 74 74 74 74 74 57 57 57
57 57 57 74 74 74 74 74 74 57 57 57
74 74 74 74 74 74 74 74 74 74 74 74
74 74 74 74 74 74 74 74 74 41 41 41
74 74 74 74 74 74 41 41 41 74 74 74
74 74 74 74 74 74 74 74 74 74 74 74
57 57 57 57 57 57 74 74 74 74 74 74
74 74 74 57 57 57 74 74 74 74 74 74
74 74 74 74 74 74 74 74 74 57 57 57
74 74 74 74 74 74 74 74 74 74 74 74
74 74 74 41 41 41 41 41 41 74 74 74
41 41 41 41 41 41 57 57 57 74 74 74
41 41 41 74 74 74 74 74 74 74 74 74
41 41 41 74 74 74 57 57 57 57 57 57
74 74 74 57 57 57 74 74 74 74 74 74
74 74 74 74 74 74 74 74 74 74 74 74
57 57 57 57 57 57 57 57 57 41 41 41
57 57 57 57 57 57 74 74 74 74 74 74
74 74 74 74 74 74 74 74 74 74 74 74
74 74 74 74 74 74 74 74 74 74 74 74
74 74 74 41 41 41 41 41 41 74 74 74
74 74 74 41 41 41 74 74 74 41 41 41
57 57 57 74 74 74 74 74 74 74 74 74
57 57 57 74 74 74 74 74 74 74 74 74
57 57 57 74 74 74 74 74 74 57 57 57
41 41 41 57 57 57 57 57 57 74 74 74
74 74 74 74 74 74 57 57 57 74 74 74
57 57 57 41 41 41 57 57 57 74 74 74
41 41 41 41 41 41 41 41 41 41 41 41
57 57 57 57 57 57 41 41 41 74 74 74
74 74 74 41 41 41 57 57 57 74 74 74
57 57 57 74 74 74 57 57 57 74 74 74
57 57 57 57 57 57 74 74 74 41 41 41
74 74 74 74 74 74 74 74 74 74 74 74
74 74 74 74 74 74 74 74 74 74 74 74
74 74 74 74 74 74 74 74 74 74 74 74
74 74 74 41 41 41 74 74 74 74 74 74
41 41 41 74 74 74 41 41 41 57 57 57
74 74 74 74 74 74 74 74 74 57 57 57
74 74 74 74 74 74 74 74 74 74 74 74
74 74 74 74 74 74 74 74 74 74 74 74
74 74 74 74 74 74 74 74 74 74 74 74
74 74 74 74 74 74 74 74 74 57 57 57
41 41 41 41 41 41 57 57 57 41 41 41
74 74 74 57 57 57 74 74 74 74 74 74
74 74 74 57 57 57 41 41 41 74 74 74
57 57 57 57 57 57 57 57 57 57 57 57
74 74 74 74 74 74 74 74 74 74 74 74
74 74 74 57 57 57 74 74 74 74 74 74
74 74 74 74 74 74 74 74 74 74 74 74
57 57 57 74 74 74 74 74 74 41 41 41
74 74 74 74 74 74 74 74 74 41 41 41
74 74 74 74 74 74 74 74 74 74 74 74
74 74 74 74 74 74 57 57 57 74 74 74
74 74 74 74 74 74 57 57 57 74 74 74
74 74 74 74 74 74 74 74 74 74 74 74
74 74 74 74 74 74 74 74 74 74 74 74
74 74 74 74 74 74 74 74 74 74 74 74
74 74 74 57 57 57 74 74 74 74 74 74
74 74 74 41 41 41 74 74 74 74 74 74
74 74 74 57 57 57 57 57 57 57 57 57
41 41 41 74 74 74 57 57 57 74 74 74
74 74 74 74 74 74 41 41 41 74 74 74
41 41 41 74 74 74 57 57 57 57 57 57
74 74 74 57 57 57 74 74 74 74 74 74
74 74 74 74 74 74 74 74 74 74 74 74
74 74 74 74 74 74 74 74 74 74 74 74
74 74 74 74 74 74 57 57 57 41 41 41
41 41 41 74 74 74 74 74 74 41 41 41
74 74 74 57 57 57 74 74 74 74 74 74
74 74 74 57 57 57 74 74 74 74 74 74
74 74 74 74 74 74 74 74 74 74 74 74
74 74 74 74 74 74 74 74 74 74 74 74
74 74 74 57 57 57 74 74 74 74 74 74
74 74 74 57 57 57 41 41 41 41 41 41
74 74 74 74 74 74 41 41 41 57 57 57
57 57 57 74 74 74 57 57 57 74 74 74
74 74 74 41 41 41 57 57 57 57 57 57
57 57 57 57 57 57 57 57 57 57 57 57
57 57 57 74 74 74 57 57 57 57 57 57
57 57 57 74 74 74 57 57 57 74 74 74
74 74 74 74 74 74 74 74 74 74 74 74
74 74 74 74 74 74 74 74 74 74 74 74
74 74 74 74 74 74 74 74 74 74 74 74
41 41 41 74 74 74 74 74 74 74 74 74
57 57 57 74 74 74 74 74 74 74 74 74
57 57 57 74 74 74 74 74 74 74 74 74
74 74 74 74 74 74 74 74 74 74 74 74
74 74 74 74 74 74 74 74 74 74 74 74
74 74 74 74 74 74 74 74 74 57 57 57
74 74 74 74 74 74 74 74 74 41 41 41
74 74 74 57 57 57 41 41 41 41 41 41
74 74 74 57 57 57 74 74 74 74 74 74
57 57 57 57 57 57 74 74 74 57 57 57
74 74 74 57 57 57 57 57 57 74 74 74
74 74 74 74 74 74 41 41 41 57 57 57
74 74 74 74 74 74 57 57 57 74 74 74
74 74 74 74 74 74 57 57 57 74 74 74
74 74 74 74 74 74 74 74 74 41 41 41
74 74 74 74 74 74 74 74 74 74 74 74
74 74 74 74 74 74 74 74 74 57 57 57
74 74 74 74 74 74 74 74 74 57 57 57
74 74 74 74 74 74 57 57 57 74 74 74
74 74 74 74 74 74 74 74 74 74 74 74
57 57 57 74 74 74 74 74 74 74 74 74
74 74 74 74 74 74 74 74 74 74 74 74
74 74 74 74 74 74 41 41 41 57 57 57
57 57 57 57 57 57 41 41 41 41 41 41
74 74 74 57 57 57 57 57 57 74 74 74
57 57 57 74 74 74 57 57 57 57 57 57
74 74 74 74 74 74 74 74 74 57 57 57
57 57 57 74 74 74 57 57 57 74 74 74
57 57 57 57 57 57 57 57 57 74 74 74
57 57 57 74 74 74 74 74 74 74 74 74
74 74 74 41 41 41 74 74 74 74 74 74
74 74 74 41 41 41 74 74 74 74 74 74
74 74 74 57 57 57 57 57 57 74 74 74
74 74 74 74 74 74 57 57 57 74 74 74
57 57 57 41 41 41 74 74 74 57 57 57
74 74 74 74 74 74 74 74 74 74 74 74
74 74 74 74 74 74 74 74 74 74 74 74
74 74 74 74 74 74 74 74 74 74 74 74
74 74 74 74 74 74 41 41 41 74 74 74
74 74 74 41 41 41 41 41 41 57 57 57
74 74 74 74 74 74 74 74 74 57 57 57
74 74 74 57 57 57 57 57 57 57 57 57
74 74 74 57 57 57 74 74 74 57 57 57
57 57 57 57 57 57 57 57 57 74 74 74
57 57 57 74 74 74 74 74 74 74 74 74
57 57 57 74 74 74 74 74 74 74 74 74
74 74 74 74 74 74 74 74 74 74 74 74
41 41 41 74 74 74 41 41 41 74 74 74
57 57 57 57 57 57 74 74 74 74 74 74
74 74 74 57 57 57 74 74 74 74 74 74
74 74 74 57 57 57 74 74 74 57 57 57
74 74 74 74 74 74 57 57 57 74 74 74
74 74 74 57 57 57 74 74 74 74 74 74
74 74 74 74 74 74 74 74 74 57 57 57
74 74 74 57 57 57 74 74 74 57 57 57
57 57 57 74 74 74 41 41 41 41 41 41
74 74 74 74 74 74 74 74 74 57 57 57
57 57 57 74 74 74 74 74 74 74 74 74
57 57 57 74 74 74 74 74 74 57 57 57
74 74 74 74 74 74 57 57 57 57 57 57
57 57 57 74 74 74 74 74 74 74 74 74
74 74 74 74 74 74 74 74 74 74 74 74
57 57 57 74 74 74 74 74 74 74 74 74
41 41 41 74 74 74 74 74 74 41 41 41
57 57 57 74 74 74 74 74 74 74 74 74
57 57 57 74 74 74 74 74 74 74 74 74
74 74 74 74 74 74 74 74 74 57 57 57
74 74 74 74 74 74 57 57 57 57 57 57
74 74 74 74 74 74 57 57 57 74 74 74
74 74 74 74 74 74 41 41 41 74 74 74
57 57 57 74 74 74 57 57 57 74 74 74
57 57 57 57 57 57 57 57 57 41 41 41
74 74 74 74 74 74 74 74 74 57 57 57
74 74 74 74 74 74 57 57 57 57 57 57
74 74 74 74 74 74 74 74 74 74 74 74
74 74 74 74 74 74 74 74 74 57 57 57
74 74 74 57 57 57 74 74 74 74 74 74
74 74 74 74 74 74 74 74 74 74 74 74
74 74 74 57 57 57 41 41 41 74 74 74
57 57 57 74 74 74 74 74 74 57 57 57
74 74 74 74 74 74 74 74 74 57 57 57
74 74 74 57 57 57 57 57 57 74 74 74
57 57 57 57 57 57 74 74 74 57 57 57
57 57 57 74 74 74 74 74 74 74 74 74
74 74 74 74 74 74 74 74 74 74 74 74
74 74 74 57 57 57 74 74 74 57 57 57
57 57 57 74 74 74 41 41 41 57 57 57
41 41 41 57 57 57 57 57 57 41 41 41
57 57 57 74 74 74 74 74 74 74 74 74
74 74 74 74 74 74 57 57 57 74 74 74
57 57 57 74 74 74 74 74 74 74 74 74
57 57 57 74 74 74 74 74 74 74 74 74
74 74 74 74 74 74 74 74 74 74 74 74
74 74 74 74 74 74 74 74 74 74 74 74
57 57 57 57 57 57 57 57 57 74 74 74
57 57 57 57 57 57 57 57 57 74 74 74
74 74 74 74 74 74 57 57 57 57 57 57
57 57 57 74 74 74 57 57 57 74 74 74
57 57 57 57 57 57 74 74 74 57 57 57
57 57 57 74 74 74 57 57 57 74 74 74
74 74 74 74 74 74 57 57 57 74 74 74
74 74 74 57 57 57 74 74 74 74 74 74
74 74 74 74 74 74 74 74 74 57 57 57
57 57 57 41 41 41 57 57 57 74 74 74
74 74 74 74 74 74 74 74 74 74 74 74
74 74 74 74 74 74 57 57 57 74 74 74
74 74 74 74 74 74 74 74 74 74 74 74
57 57 57 74 74 74 74 74 74 74 74 74
74 74 74 74 74 74 74 74 74 74 74 74
74 74 74 74 74 74 74 74 74 74 74 74
74 74 74 74 74 74 74 74 74 74 74 74
74 74 74 57 57 57 74 74 74 74 74 74
74 74 74 57 57 57 57 57 57 74 74 74
57 57 57 57 57 57 74 74 74 74 74 74
57 57 57 57 57 57 57 57 57 57 57 57
57 57 57 57 57 57 74 74 74 74 74 74
74 74 74 74 74 74 74 74 74 74 74 74
74 74 74 74 74 74 74 74 74 74 74 74
74 74 74 57 57 57 74 74 74 57 57 57
57 57 57 74 74 74 57 57 57 41 41 41
