P3
# Converted to P3 by scripts/convert_to_p3.py
64 64
255
65 0 0 65 0 0 90 0 0 123 0 0
156 0 0 65 0 0 65 0 0 90 0 0
65 0 0 65 0 0 65 0 0 65 0 0
123 0 0 65 0 0 65 0 0 65 0 0
65 0 0 90 0 0 238 0 0 156 0 0
90 0 0 90 0 0 123 0 0 123 0 0
90 0 0 65 0 0 65 0 0 65 0 0
65 0 0 65 0 0 123 0 0 123 0 0
164 0 0 156 0 0 205 0 0 65 0 0
65 0 0 65 0 0 90 0 0 189 0 0
123 0 0 123 0 0 123 0 0 123 0 0
65 0 0 65 0 0 65 0 0 90 0 0
164 0 0 90 0 0 65 0 0 90 0 0
123 0 0 123 0 0 90 0 0 65 0 0
65 0 0 65 0 0 65 0 0 65 0 0
123 0 0 65 0 0 65 0 0 65 0 0
65 0 0 123 0 0 123 0 0 65 0 0
65 0 0 65 0 0 65 0 0 156 0 0
65 0 0 90 0 0 65 0 0 65 0 0
65 0 0 65 0 0 65 0 0 65 0 0
90 0 0 65 0 0 164 0 0 238 0 0
90 0 0 90 0 0 189 0 0 164 0 0
65 0 0 65 0 0 65 0 0 98 0 0
98 0 0 65 0 0 90 0 0 123 0 0
90 0 0 164 0 0 164 0 0 65 0 0
65 0 0 65 0 0 123 0 0 205 0 0
123 0 0 90 0 0 90 0 0 90 0 0
65 0 0 65 0 0 156 0 0 205 0 0
205 0 0 205 0 0 90 0 0 65 0 0
123 0 0 123 0 0 123 0 0 123 0 0
65 0 0 90 0 0 65 0 0 65 0 0
65 0 0 65 0 0 65 0 0 65 0 0
65 0 0 205 0 0 65 0 0 65 0 0
65 0 0 156 0 0 90 0 0 90 0 0
123 0 0 123 0 0 65 0 0 65 0 0
65 0 0 65 0 0 205 0 0 205 0 0
123 0 0 123 0 0 164 0 0 123 0 0
65 0 0 90 0 0 238 0 0 164 0 0
65 0 0 90 0 0 123 0 0 164 0 0
123 0 0 65 0 0 123 0 0 164 0 0
123 0 0 123 0 0 65 0 0 65 0 0
123 0 0 90 0 0 90 0 0 164 0 0
123 0 0 74 0 0 74 0 0 74 0 0
65 0 0 65 0 0 90 0 0 164 0 0
189 0 0 189 0 0 90 0 0 65 0 0
90 0 0 123 0 0 164 0 0 123 0 0
123 0 0 123 0 0 65 0 0 65 0 0
65 0 0 65 0 0 205 0 0 205 0 0
65 0 0 123 0 0 90 0 0 65 0 0
65 0 0 65 0 0 90 0 0 123 0 0
65 0 0 65 0 0 65 0 0 65 0 0
65 0 0 123 0 0 164 0 0 123 0 0
238 0 0 164 0 0 90 0 0 90 0 0
90 0 0 156 0 0 123 0 0 90 0 0
74 0 0 90 0 0 90 0 0 164 0 0
123 0 0 98 0 0 90 0 0 164 0 0
123 0 0 90 0 0 90 0 0 90 0 0
90 0 0 90 0 0 90 0 0 123 0 0
123 0 0 74 0 0 65 0 0 164 0 0
123 0 0 90 0 0 90 0 0 65 0 0
65 0 0 65 0 0 65 0 0 65 0 0
90 0 0 156 0 0 164 0 0 90 0 0
90 0 0 74 0 0 65 0 0 65 0 0
65 0 0 123 0 0 164 0 0 123 0 0
65 0 0 123 0 0 123 0 0 65 0 0
65 0 0 65 0 0 65 0 0 123 0 0
65 0 0 65 0 0 65 0 0 65 0 0
65 0 0 164 0 0 123 0 0 123 0 0
123 0 0 123 0 0 123 0 0 123 0 0
156 0 0 205 0 0 156 0 0 65 0 0
65 0 0 74 0 0 90 0 0 164 0 0
115 0 0 74 0 0 65 0 0 90 0 0
164 0 0 164 0 0 90 0 0 65 0 0
90 0 0 123 0 0 90 0 0 90 0 0
90 0 0 65 0 0 90 0 0 164 0 0
164 0 0 90 0 0 65 0 0 65 0 0
123 0 0 90 0 0 65 0 0 65 0 0
123 0 0 238 0 0 123 0 0 74 0 0
65 0 0 65 0 0 65 0 0 65 0 0
65 0 0 164 0 0 123 0 0 123 0 0
65 0 0 65 0 0 65 0 0 65 0 0
65 0 0 65 0 0 65 0 0 123 0 0
65 0 0 65 0 0 65 0 0 65 0 0
90 0 0 156 0 0 123 0 0 123 0 0
65 0 0 65 0 0 164 0 0 123 0 0
123 0 0 156 0 0 205 0 0 90 0 0
65 0 0 65 0 0 74 0 0 98 0 0
123 0 0 90 0 0 65 0 0 65 0 0
205 0 0 205 0 0 65 0 0 65 0 0
123 0 0 90 0 0 90 0 0 65 0 0
65 0 0 90 0 0 123 0 0 123 0 0
65 0 0 65 0 0 90 0 0 164 0 0
189 0 0 90 0 0 65 0 0 65 0 0
123 0 0 90 0 0 74 0 0 65 0 0
65 0 0 65 0 0 65 0 0 65 0 0
90 0 0 156 0 0 123 0 0 123 0 0
123 0 0 156 0 0 65 0 0 65 0 0
65 0 0 65 0 0 90 0 0 123 0 0
65 0 0 90 0 0 65 0 0 65 0 0
90 0 0 90 0 0 90 0 0 90 0 0
65 0 0 65 0 0 123 0 0 164 0 0
90 0 0 123 0 0 205 0 0 164 0 0
65 0 0 65 0 0 65 0 0 74 0 0
90 0 0 65 0 0 65 0 0 123 0 0
156 0 0 65 0 0 65 0 0 90 0 0
123 0 0 90 0 0 65 0 0 90 0 0
98 0 0 90 0 0 123 0 0 65 0 0
65 0 0 90 0 0 164 0 0 164 0 0
123 0 0 65 0 0 65 0 0 90 0 0
123 0 0 90 0 0 65 0 0 65 0 0
65 0 0 90 0 0 65 0 0 65 0 0
90 0 0 90 0 0 90 0 0 90 0 0
123 0 0 123 0 0 65 0 0 65 0 0
65 0 0 65 0 0 156 0 0 123 0 0
65 0 0 65 0 0 65 0 0 65 0 0
90 0 0 90 0 0 123 0 0 123 0 0
65 0 0 65 0 0 156 0 0 123 0 0
123 0 0 90 0 0 90 0 0 164 0 0
164 0 0 90 0 0 65 0 0 65 0 0
65 0 0 65 0 0 90 0 0 65 0 0
65 0 0 65 0 0 90 0 0 205 0 0
123 0 0 65 0 0 90 0 0 123 0 0
180 0 0 123 0 0 65 0 0 65 0 0
65 0 0 90 0 0 90 0 0 90 0 0
90 0 0 90 0 0 90 0 0 123 0 0
123 0 0 74 0 0 65 0 0 65 0 0
65 0 0 65 0 0 65 0 0 65 0 0
90 0 0 90 0 0 123 0 0 123 0 0
65 0 0 65 0 0 65 0 0 65 0 0
65 0 0 90 0 0 123 0 0 123 0 0
65 0 0 65 0 0 90 0 0 123 0 0
90 0 0 90 0 0 123 0 0 90 0 0
156 0 0 205 0 0 90 0 0 65 0 0
90 0 0 90 0 0 164 0 0 164 0 0
90 0 0 65 0 0 65 0 0 90 0 0
123 0 0 123 0 0 65 0 0 65 0 0
65 0 0 90 0 0 205 0 0 164 0 0
90 0 0 65 0 0 156 0 0 180 0 0
180 0 0 156 0 0 90 0 0 65 0 0
65 0 0 123 0 0 164 0 0 164 0 0
65 0 0 65 0 0 65 0 0 123 0 0
123 0 0 65 0 0 65 0 0 90 0 0
65 0 0 65 0 0 90 0 0 123 0 0
90 0 0 90 0 0 123 0 0 90 0 0
90 0 0 90 0 0 90 0 0 65 0 0
65 0 0 65 0 0 90 0 0 65 0 0
65 0 0 65 0 0 123 0 0 123 0 0
123 0 0 156 0 0 90 0 0 65 0 0
156 0 0 90 0 0 90 0 0 65 0 0
65 0 0 90 0 0 90 0 0 90 0 0
90 0 0 65 0 0 65 0 0 65 0 0
123 0 0 123 0 0 65 0 0 65 0 0
65 0 0 90 0 0 123 0 0 123 0 0
123 0 0 65 0 0 164 0 0 205 0 0
205 0 0 164 0 0 115 0 0 65 0 0
90 0 0 123 0 0 65 0 0 90 0 0
65 0 0 65 0 0 65 0 0 123 0 0
90 0 0 65 0 0 65 0 0 65 0 0
65 0 0 65 0 0 123 0 0 123 0 0
123 0 0 156 0 0 65 0 0 65 0 0
123 0 0 156 0 0 90 0 0 65 0 0
65 0 0 65 0 0 65 0 0 123 0 0
123 0 0 90 0 0 90 0 0 123 0 0
123 0 0 123 0 0 123 0 0 65 0 0
65 0 0 65 0 0 164 0 0 205 0 0
65 0 0 65 0 0 65 0 0 123 0 0
164 0 0 65 0 0 90 0 0 164 0 0
164 0 0 164 0 0 90 0 0 65 0 0
65 0 0 65 0 0 90 0 0 164 0 0
123 0 0 65 0 0 164 0 0 156 0 0
205 0 0 156 0 0 115 0 0 65 0 0
90 0 0 164 0 0 65 0 0 65 0 0
123 0 0 65 0 0 164 0 0 156 0 0
123 0 0 65 0 0 65 0 0 65 0 0
123 0 0 90 0 0 90 0 0 123 0 0
123 0 0 123 0 0 123 0 0 65 0 0
65 0 0 65 0 0 164 0 0 123 0 0
65 0 0 65 0 0 65 0 0 123 0 0
90 0 0 65 0 0 65 0 0 90 0 0
123 0 0 90 0 0 65 0 0 65 0 0
65 0 0 164 0 0 238 0 0 123 0 0
65 0 0 65 0 0 65 0 0 123 0 0
123 0 0 156 0 0 164 0 0 90 0 0
65 0 0 65 0 0 90 0 0 90 0 0
90 0 0 65 0 0 65 0 0 90 0 0
90 0 0 65 0 0 115 0 0 164 0 0
156 0 0 115 0 0 65 0 0 65 0 0
90 0 0 65 0 0 65 0 0 90 0 0
65 0 0 90 0 0 123 0 0 164 0 0
156 0 0 65 0 0 65 0 0 65 0 0
90 0 0 65 0 0 65 0 0 90 0 0
123 0 0 90 0 0 65 0 0 65 0 0
65 0 0 156 0 0 123 0 0 65 0 0
123 0 0 90 0 0 65 0 0 90 0 0
90 0 0 65 0 0 65 0 0 123 0 0
90 0 0 90 0 0 65 0 0 65 0 0
90 0 0 164 0 0 164 0 0 65 0 0
90 0 0 164 0 0 123 0 0 90 0 0
65 0 0 123 0 0 164 0 0 65 0 0
90 0 0 65 0 0 90 0 0 65 0 0
98 0 0 205 0 0 164 0 0 90 0 0
65 0 0 65 0 0 74 0 0 123 0 0
115 0 0 65 0 0 90 0 0 90 0 0
90 0 0 65 0 0 123 0 0 90 0 0
65 0 0 90 0 0 98 8 8 123 0 0
123 0 0 65 0 0 65 0 0 65 0 0
90 0 0 65 0 0 65 0 0 90 0 0
90 0 0 90 0 0 65 0 0 65 0 0
156 0 0 205 0 0 123 0 0 65 0 0
90 0 0 90 0 0 65 0 0 90 0 0
123 0 0 65 0 0 65 0 0 164 0 0
115 0 0 90 0 0 65 0 0 65 0 0
90 0 0 65 0 0 65 0 0 90 0 0
164 0 0 123 0 0 90 0 0 90 0 0
65 0 0 90 0 0 90 0 0 65 0 0
90 0 0 164 0 0 65 0 0 65 0 0
98 0 0 123 0 0 123 0 0 123 0 0
98 0 0 90 0 0 74 0 0 65 0 0
65 0 0 90 0 0 65 0 0 123 0 0
90 0 0 65 0 0 65 0 0 65 0 0
65 0 0 90 0 0 98 8 8 123 0 0
123 0 0 74 0 0 65 0 0 65 0 0
123 0 0 65 0 0 65 0 0 164 0 0
164 0 0 90 0 0 65 0 0 65 0 0
156 0 0 205 0 0 65 0 0 65 0 0
65 0 0 65 0 0 65 0 0 90 0 0
65 0 0 65 0 0 65 0 0 189 0 0
164 0 0 65 0 0 65 0 0 65 0 0
123 0 0 65 0 0 98 0 0 123 0 0
90 0 0 65 0 0 90 0 0 65 0 0
123 0 0 205 0 0 90 0 0 65 0 0
90 0 0 156 0 0 65 0 0 65 0 0
98 0 0 123 0 0 156 0 0 156 0 0
156 0 0 123 0 0 90 0 0 74 0 0
65 0 0 65 0 0 65 0 0 90 0 0
65 0 0 90 0 0 90 0 0 90 0 0
123 0 0 90 0 0 90 0 0 123 0 0
123 0 0 65 0 0 65 0 0 65 0 0
65 0 0 98 0 0 98 0 0 205 0 0
164 0 0 65 0 0 65 0 0 65 0 0
205 0 0 65 0 0 65 0 0 65 0 0
65 0 0 65 0 0 90 0 0 65 0 0
65 0 0 65 0 0 65 0 0 205 0 0
123 0 0 65 0 0 65 0 0 65 0 0
164 0 0 98 0 0 139 0 0 205 0 0
123 0 0 65 0 0 90 0 0 123 0 0
90 0 0 90 0 0 65 0 0 65 0 0
156 0 0 90 0 0 65 0 0 65 0 0
90 0 0 164 0 0 123 0 0 90 0 0
90 0 0 90 0 0 90 0 0 98 8 8
123 0 0 90 0 0 65 0 0 65 0 0
90 0 0 123 0 0 123 0 0 164 0 0
156 0 0 65 0 0 90 0 0 90 0 0
123 0 0 90 0 0 65 0 0 90 0 0
98 0 0 123 0 0 98 0 0 139 0 0
123 0 0 65 0 0 65 0 0 65 0 0
65 0 0 164 0 0 98 0 0 65 0 0
65 0 0 90 0 0 98 0 0 65 0 0
65 0 0 65 0 0 123 0 0 123 0 0
65 0 0 90 0 0 90 0 0 90 0 0
123 0 0 164 0 0 205 0 0 156 0 0
98 0 0 65 0 0 123 0 0 90 0 0
90 0 0 238 0 0 123 0 0 90 0 0
90 0 0 65 0 0 90 0 0 65 0 0
74 0 0 90 0 0 65 0 0 65 0 0
90 0 0 123 0 0 123 0 0 123 0 0
98 8 8 90 0 0 90 0 0 65 0 0
65 0 0 90 0 0 90 0 0 65 0 0
65 0 0 123 0 0 164 0 0 90 0 0
90 0 0 123 0 0 123 0 0 90 0 0
98 0 0 139 0 0 123 0 0 65 0 0
65 0 0 123 0 0 164 0 0 164 0 0
90 0 0 164 0 0 98 0 0 65 0 0
65 0 0 123 0 0 164 0 0 65 0 0
90 0 0 123 0 0 123 0 0 90 0 0
65 0 0 65 0 0 65 0 0 90 0 0
123 0 0 164 0 0 156 0 0 205 0 0
74 0 0 65 0 0 123 0 0 65 0 0
65 0 0 164 0 0 90 0 0 90 0 0
90 0 0 65 0 0 65 0 0 74 0 0
115 0 0 90 0 0 74 0 0 65 0 0
65 0 0 205 0 0 123 0 0 98 8 8
90 0 0 123 0 0 90 0 0 65 0 0
65 0 0 90 0 0 65 0 0 65 0 0
123 0 0 164 0 0 123 0 0 65 0 0
65 0 0 123 0 0 123 0 0 90 0 0
189 0 0 164 0 0 98 0 0 65 0 0
90 0 0 123 0 0 65 0 0 90 0 0
65 0 0 164 0 0 123 0 0 65 0 0
90 0 0 123 0 0 90 0 0 164 0 0
189 0 0 123 0 0 123 0 0 123 0 0
65 0 0 65 0 0 90 0 0 90 0 0
65 0 0 90 0 0 123 0 0 90 0 0
65 0 0 164 0 0 164 0 0 90 0 0
90 0 0 65 0 0 90 0 0 90 0 0
65 0 0 65 0 0 65 0 0 115 0 0
139 0 0 115 0 0 74 0 0 65 0 0
90 0 0 90 0 0 123 0 0 90 0 0
90 0 0 123 0 0 123 0 0 90 0 0
123 0 0 65 0 0 65 0 0 65 0 0
123 0 0 123 0 0 65 0 0 65 0 0
90 0 0 123 0 0 90 0 0 65 0 0
205 0 0 139 0 0 123 0 0 65 0 0
90 0 0 164 0 0 65 0 0 65 0 0
65 0 0 90 0 0 164 0 0 90 0 0
65 0 0 65 0 0 65 0 0 205 0 0
164 0 0 123 0 0 65 0 0 65 0 0
90 0 0 164 0 0 156 0 0 65 0 0
65 0 0 156 0 0 123 0 0 65 0 0
164 0 0 164 0 0 90 0 0 90 0 0
164 0 0 123 0 0 65 0 0 65 0 0
65 0 0 90 0 0 90 0 0 164 0 0
205 0 0 123 0 0 65 0 0 74 0 0
65 0 0 65 0 0 90 0 0 123 0 0
90 0 0 123 0 0 90 0 0 90 0 0
180 0 0 123 0 0 65 0 0 65 0 0
65 0 0 65 0 0 123 0 0 123 0 0
123 0 0 164 0 0 123 0 0 65 0 0
164 0 0 90 0 0 90 0 0 90 0 0
90 0 0 65 0 0 65 0 0 90 0 0
65 0 0 90 0 0 65 0 0 65 0 0
90 0 0 164 0 0 123 0 0 65 0 0
90 0 0 164 0 0 123 0 0 65 0 0
123 0 0 123 0 0 90 0 0 164 0 0
90 0 0 65 0 0 90 0 0 65 0 0
90 0 0 90 0 0 65 0 0 90 0 0
164 0 0 90 0 0 65 0 0 65 0 0
90 0 0 123 0 0 98 0 0 156 0 0
123 0 0 90 0 0 65 0 0 65 0 0
74 0 0 65 0 0 65 0 0 90 0 0
156 0 0 164 0 0 90 0 0 123 0 0
180 0 0 205 0 0 90 0 0 65 0 0
115 0 0 189 0 0 90 0 0 65 0 0
164 0 0 205 0 0 156 0 0 65 0 0
90 0 0 65 0 0 65 0 0 90 0 0
90 0 0 65 0 0 123 0 0 90 0 0
65 0 0 65 0 0 65 0 0 90 0 0
90 0 0 164 0 0 164 0 0 90 0 0
123 0 0 164 0 0 164 0 0 90 0 0
65 0 0 90 0 0 123 0 0 123 0 0
65 0 0 65 0 0 90 0 0 90 0 0
65 0 0 65 0 0 90 0 0 123 0 0
65 0 0 65 0 0 65 0 0 90 0 0
123 0 0 156 0 0 123 0 0 98 0 0
156 0 0 90 0 0 90 0 0 90 0 0
65 0 0 65 0 0 74 0 0 98 0 0
123 0 0 205 0 0 65 0 0 123 0 0
255 24 24 180 0 0 65 0 0 90 0 0
123 0 0 123 0 0 65 0 0 65 0 0
123 0 0 123 0 0 123 0 0 123 0 0
65 0 0 65 0 0 65 0 0 123 0 0
90 0 0 65 0 0 65 0 0 65 0 0
90 0 0 65 0 0 65 0 0 90 0 0
90 0 0 164 0 0 164 0 0 90 0 0
123 0 0 205 0 0 189 0 0 123 0 0
90 0 0 65 0 0 65 0 0 90 0 0
90 0 0 164 0 0 164 0 0 123 0 0
90 0 0 90 0 0 123 0 0 90 0 0
65 0 0 74 0 0 90 0 0 115 0 0
180 0 0 164 0 0 156 0 0 123 0 0
205 0 0 139 0 0 90 0 0 90 0 0
65 0 0 65 0 0 90 0 0 123 0 0
164 0 0 164 0 0 74 0 0 115 0 0
164 0 0 139 0 0 90 0 0 123 0 0
123 0 0 115 0 0 65 0 0 65 0 0
65 0 0 65 0 0 123 0 0 156 0 0
65 0 0 65 0 0 65 0 0 90 0 0
65 0 0 90 0 0 90 0 0 90 0 0
90 0 0 90 0 0 90 0 0 123 0 0
123 0 0 90 0 0 90 0 0 65 0 0
90 0 0 123 0 0 65 0 0 65 0 0
90 0 0 90 0 0 65 0 0 90 0 0
123 0 0 164 0 0 123 0 0 90 0 0
65 0 0 65 0 0 65 0 0 65 0 0
74 0 0 65 0 0 115 0 0 156 0 0
189 0 0 156 0 0 123 0 0 98 0 0
139 0 0 164 0 0 90 0 0 65 0 0
90 0 0 90 0 0 123 0 0 156 0 0
164 0 0 115 0 0 74 0 0 65 0 0
123 0 0 115 0 0 90 0 0 90 0 0
90 0 0 90 0 0 123 0 0 65 0 0
65 0 0 65 0 0 156 0 0 90 0 0
123 0 0 90 0 0 65 0 0 65 0 0
90 0 0 123 0 0 123 0 0 164 0 0
65 0 0 123 0 0 123 0 0 123 0 0
65 0 0 65 0 0 65 0 0 65 0 0
123 0 0 205 0 0 123 0 0 65 0 0
90 0 0 90 0 0 90 0 0 90 0 0
123 0 0 65 0 0 65 0 0 123 0 0
164 0 0 123 0 0 90 0 0 65 0 0
74 0 0 65 0 0 123 0 0 156 0 0
189 0 0 205 0 0 115 0 0 90 0 0
65 0 0 65 0 0 65 0 0 115 0 0
115 0 0 238 0 0 164 0 0 115 0 0
90 0 0 74 0 0 65 0 0 65 0 0
115 0 0 90 0 0 65 0 0 65 0 0
90 0 0 164 0 0 90 0 0 65 0 0
65 0 0 90 0 0 65 0 0 65 0 0
90 0 0 90 0 0 90 0 0 65 0 0
65 0 0 90 0 0 90 0 0 65 0 0
65 0 0 123 0 0 205 0 0 164 0 0
90 0 0 65 0 0 65 0 0 90 0 0
238 0 0 205 0 0 123 0 0 65 0 0
65 0 0 65 0 0 65 0 0 90 0 0
123 0 0 90 0 0 65 0 0 90 0 0
156 0 0 123 0 0 65 0 0 90 0 0
74 0 0 65 0 0 90 0 0 115 0 0
164 0 0 123 0 0 90 0 0 65 0 0
90 0 0 90 0 0 65 0 0 123 0 0
164 0 0 123 0 0 90 0 0 90 0 0
90 0 0 123 0 0 90 0 0 65 0 0
65 0 0 90 0 0 65 0 0 115 0 0
90 0 0 90 0 0 65 0 0 65 0 0
65 0 0 123 0 0 65 0 0 65 0 0
90 0 0 123 0 0 90 0 0 65 0 0
90 0 0 90 0 0 65 0 0 65 0 0
65 0 0 90 0 0 164 0 0 65 0 0
90 0 0 123 0 0 90 0 0 90 0 0
164 0 0 156 0 0 156 0 0 65 0 0
65 0 0 65 0 0 90 0 0 90 0 0
123 0 0 164 0 0 90 0 0 65 0 0
90 0 0 65 0 0 65 0 0 65 0 0
123 0 0 205 0 0 90 0 0 90 0 0
123 0 0 90 0 0 90 0 0 139 0 0
164 0 0 90 0 0 65 0 0 65 0 0
90 0 0 123 0 0 123 0 0 90 0 0
123 0 0 123 0 0 65 0 0 65 0 0
65 0 0 65 0 0 115 0 0 205 0 0
156 0 0 65 0 0 65 0 0 65 0 0
90 0 0 164 0 0 65 0 0 65 0 0
90 0 0 123 0 0 123 0 0 90 0 0
123 0 0 90 0 0 65 0 0 65 0 0
65 0 0 123 0 0 123 0 0 90 0 0
164 0 0 90 0 0 65 0 0 90 0 0
123 0 0 123 0 0 90 0 0 90 0 0
90 0 0 90 0 0 123 0 0 74 0 0
65 0 0 123 0 0 189 0 0 90 0 0
123 0 0 123 0 0 90 0 0 123 0 0
123 0 0 90 0 0 90 0 0 123 0 0
123 0 0 65 0 0 164 0 0 156 0 0
164 0 0 115 0 0 65 0 0 65 0 0
123 0 0 164 0 0 189 0 0 205 0 0
90 0 0 65 0 0 65 0 0 123 0 0
90 0 0 65 0 0 115 0 0 139 0 0
115 0 0 65 0 0 90 0 0 90 0 0
65 0 0 65 0 0 90 0 0 65 0 0
90 0 0 90 0 0 90 0 0 90 0 0
123 0 0 123 0 0 90 0 0 65 0 0
156 0 0 65 0 0 65 0 0 90 0 0
123 0 0 65 0 0 65 0 0 65 0 0
65 0 0 65 0 0 90 0 0 90 0 0
65 0 0 74 0 0 90 0 0 74 0 0
65 0 0 123 0 0 123 0 0 90 0 0
90 0 0 90 0 0 123 0 0 123 0 0
98 0 0 74 0 0 164 0 0 238 0 0
115 0 0 65 0 0 180 0 0 205 0 0
156 0 0 115 0 0 90 0 0 65 0 0
90 0 0 123 0 0 189 0 0 238 0 0
123 0 0 65 0 0 65 0 0 90 0 0
90 0 0 65 0 0 65 0 0 123 0 0
90 0 0 65 0 0 65 0 0 123 0 0
65 0 0 90 0 0 90 0 0 90 0 0
90 0 0 164 0 0 90 0 0 98 0 0
164 0 0 205 0 0 115 0 0 65 0 0
90 0 0 65 0 0 65 0 0 123 0 0
65 0 0 65 0 0 123 0 0 90 0 0
65 0 0 90 0 0 205 0 0 123 0 0
74 0 0 74 0 0 90 0 0 74 0 0
90 0 0 205 0 0 164 0 0 65 0 0
90 0 0 164 0 0 123 0 0 98 0 0
74 0 0 65 0 0 156 0 0 205 0 0
115 0 0 65 0 0 156 0 0 180 0 0
164 0 0 123 0 0 115 0 0 65 0 0
65 0 0 90 0 0 139 0 0 139 0 0
90 0 0 65 0 0 65 0 0 65 0 0
65 0 0 90 0 0 98 0 0 123 0 0
90 0 0 65 0 0 65 0 0 65 0 0
90 0 0 90 0 0 90 0 0 90 0 0
123 0 0 205 0 0 65 0 0 123 0 0
205 0 0 139 0 0 65 0 0 90 0 0
90 0 0 65 0 0 164 0 0 65 0 0
65 0 0 65 0 0 123 0 0 90 0 0
65 0 0 123 0 0 205 0 0 65 0 0
98 0 0 98 0 0 98 0 0 90 0 0
65 0 0 123 0 0 123 0 0 65 0 0
164 0 0 164 0 0 98 0 0 74 0 0
65 0 0 90 0 0 115 0 0 90 0 0
65 0 0 65 0 0 90 0 0 156 0 0
156 0 0 115 0 0 74 0 0 65 0 0
65 0 0 65 0 0 65 0 0 74 0 0
74 0 0 65 0 0 65 0 0 65 0 0
65 0 0 90 0 0 123 0 0 164 0 0
164 0 0 90 0 0 65 0 0 65 0 0
90 0 0 115 0 0 123 0 0 123 0 0
164 0 0 164 0 0 65 0 0 123 0 0
164 0 0 115 0 0 90 0 0 123 0 0
90 0 0 123 0 0 123 0 0 65 0 0
65 0 0 65 0 0 164 0 0 90 0 0
65 0 0 65 0 0 123 0 0 98 0 0
139 0 0 139 0 0 98 0 0 90 0 0
65 0 0 123 0 0 205 0 0 156 0 0
90 0 0 65 0 0 65 0 0 98 8 8
156 0 0 123 0 0 65 0 0 65 0 0
90 0 0 156 0 0 65 0 0 90 0 0
90 0 0 65 0 0 74 0 0 74 0 0
74 0 0 98 0 0 123 0 0 205 0 0
65 0 0 65 0 0 90 0 0 65 0 0
65 0 0 65 0 0 98 0 0 156 0 0
156 0 0 98 0 0 65 0 0 65 0 0
65 0 0 90 0 0 115 0 0 123 0 0
164 0 0 90 0 0 65 0 0 98 0 0
123 0 0 90 0 0 90 0 0 90 0 0
164 0 0 90 0 0 90 0 0 90 0 0
65 0 0 65 0 0 164 0 0 205 0 0
123 0 0 90 0 0 90 0 0 205 0 0
156 0 0 139 0 0 98 0 0 65 0 0
123 0 0 65 0 0 90 0 0 90 0 0
90 0 0 65 0 0 65 0 0 123 24 24
156 0 0 164 0 0 123 0 0 123 0 0
123 0 0 90 0 0 90 0 0 115 0 0
115 0 0 90 0 0 65 0 0 74 0 0
98 0 0 123 0 0 164 0 0 123 0 0
65 0 0 65 0 0 65 0 0 65 0 0
65 0 0 74 0 0 90 0 0 98 0 0
98 0 0 139 0 0 74 0 0 65 0 0
90 0 0 123 0 0 65 0 0 65 0 0
65 0 0 65 0 0 65 0 0 65 0 0
65 0 0 90 0 0 65 0 0 65 0 0
238 0 0 123 0 0 123 0 0 90 0 0
65 0 0 65 0 0 123 0 0 123 0 0
90 0 0 123 0 0 65 0 0 164 0 0
238 0 0 98 0 0 65 0 0 123 0 0
90 0 0 65 0 0 90 0 0 156 0 0
156 0 0 90 0 0 65 0 0 123 24 24
156 0 0 205 0 0 164 0 0 115 0 0
90 0 0 74 0 0 65 0 0 115 0 0
123 0 0 123 0 0 90 0 0 65 0 0
74 0 0 98 0 0 205 0 0 90 0 0
65 0 0 65 0 0 65 0 0 65 0 0
65 0 0 90 0 0 139 0 0 164 0 0
115 0 0 98 0 0 90 0 0 74 0 0
205 0 0 123 0 0 65 0 0 65 0 0
90 0 0 123 0 0 90 0 0 65 0 0
65 0 0 90 0 0 65 0 0 65 0 0
65 0 0 65 0 0 164 0 0 205 0 0
65 0 0 65 0 0 90 0 0 180 0 0
205 0 0 164 0 0 90 0 0 65 0 0
90 0 0 65 0 0 65 0 0 90 0 0
90 0 0 90 0 0 123 0 0 156 0 0
156 0 0 123 0 0 65 0 0 90 0 0
123 0 0 164 0 0 123 0 0 98 0 0
74 0 0 65 0 0 65 0 0 205 0 0
164 0 0 115 0 0 115 0 0 74 0 0
65 0 0 90 0 0 90 0 0 65 0 0
65 0 0 123 0 0 98 0 0 65 0 0
90 0 0 115 0 0 123 0 0 115 0 0
98 0 0 90 0 0 74 0 0 65 0 0
164 0 0 90 0 0 65 0 0 90 0 0
123 0 0 123 0 0 65 0 0 65 0 0
65 0 0 65 0 0 164 0 0 205 0 0
65 0 0 65 0 0 205 0 0 123 0 0
90 0 0 90 0 0 123 0 0 164 0 0
189 0 0 205 0 0 65 0 0 65 0 0
65 0 0 90 0 0 123 0 0 164 0 0
164 0 0 65 0 0 65 0 0 123 0 0
90 0 0 90 0 0 123 0 0 156 0 0
123 0 0 98 0 0 90 0 0 90 0 0
65 0 0 65 0 0 65 0 0 90 0 0
115 0 0 164 0 0 164 0 0 115 0 0
74 0 0 65 0 0 123 0 0 65 0 0
65 0 0 123 0 0 98 0 0 65 0 0
123 0 0 164 0 0 115 0 0 65 0 0
65 0 0 90 0 0 65 0 0 65 0 0
65 0 0 65 0 0 65 0 0 65 0 0
90 0 0 65 0 0 65 0 0 123 0 0
90 0 0 65 0 0 65 0 0 90 0 0
123 0 0 65 0 0 90 0 0 164 0 0
123 0 0 123 0 0 90 0 0 164 0 0
205 0 0 180 0 0 65 0 0 65 0 0
65 0 0 65 0 0 90 0 0 238 0 0
90 0 0 65 0 0 90 0 0 90 0 0
65 0 0 65 0 0 90 0 0 90 0 0
65 0 0 65 0 0 65 0 0 65 0 0
74 0 0 65 0 0 123 0 0 123 0 0
65 0 0 115 0 0 156 0 0 115 0 0
74 0 0 65 0 0 90 0 0 65 0 0
90 0 0 123 0 0 98 0 0 65 0 0
180 0 0 205 0 0 164 0 0 74 0 0
65 0 0 65 0 0 65 0 0 90 0 0
156 0 0 65 0 0 65 0 0 65 0 0
123 0 0 65 0 0 65 0 0 90 0 0
90 0 0 65 0 0 65 0 0 90 0 0
90 0 0 65 0 0 90 0 0 164 0 0
164 0 0 164 0 0 123 0 0 90 0 0
98 0 0 65 0 0 65 0 0 90 0 0
65 0 0 65 0 0 90 0 0 205 0 0
65 0 0 65 0 0 90 0 0 65 0 0
65 0 0 65 0 0 123 0 0 90 0 0
74 0 0 65 0 0 65 0 0 65 0 0
90 0 0 123 0 0 90 0 0 65 0 0
65 0 0 65 0 0 65 0 0 65 0 0
65 0 0 65 0 0 65 0 0 65 0 0
90 0 0 205 0 0 123 0 0 98 0 0
139 0 0 180 0 0 156 0 0 98 0 0
74 0 0 65 0 0 90 0 0 90 0 0
156 0 0 65 0 0 74 0 0 74 0 0
65 0 0 65 0 0 65 0 0 65 0 0
65 0 0 90 0 0 90 0 0 123 0 0
90 0 0 65 0 0 90 0 0 123 0 0
123 0 0 164 0 0 164 0 0 123 0 0
65 0 0 65 0 0 90 0 0 90 0 0
90 0 0 65 0 0 65 0 0 90 0 0
65 0 0 65 0 0 123 0 0 164 0 0
65 0 0 65 0 0 123 0 0 98 0 0
98 0 0 74 0 0 65 0 0 65 0 0
90 0 0 90 0 0 90 0 0 65 0 0
90 0 0 123 0 0 90 0 0 65 0 0
65 0 0 65 0 0 65 0 0 65 0 0
123 0 0 156 0 0 123 0 0 74 0 0
90 0 0 115 0 0 123 0 0 123 0 0
90 0 0 123 0 0 90 0 0 65 0 0
90 0 0 90 0 0 65 0 0 90 0 0
74 0 0 65 0 0 65 0 0 65 0 0
65 0 0 90 0 0 90 0 0 164 0 0
123 0 0 65 0 0 65 0 0 65 0 0
90 0 0 164 0 0 164 0 0 123 0 0
65 0 0 65 0 0 90 0 0 90 0 0
90 0 0 65 0 0 65 0 0 65 0 0
65 0 0 90 0 0 205 0 0 90 0 0
65 0 0 164 0 0 205 0 0 164 0 0
123 0 0 98 0 0 65 0 0 90 0 0
164 0 0 123 0 0 65 0 0 65 0 0
90 0 0 123 0 0 65 0 0 90 0 0
123 0 0 65 0 0 65 0 0 123 0 0
123 0 0 90 0 0 65 0 0 65 0 0
65 0 0 90 0 0 90 0 0 98 0 0
65 0 0 65 0 0 65 0 0 90 0 0
65 0 0 90 0 0 123 0 0 65 0 0
90 0 0 74 0 0 90 0 0 65 0 0
65 0 0 65 0 0 65 0 0 156 0 0
65 0 0 90 0 0 255 24 24 123 0 0
123 0 0 123 0 0 65 0 0 65 0 0
90 0 0 123 0 0 65 0 0 65 0 0
65 0 0 65 0 0 90 0 0 65 0 0
90 0 0 90 0 0 90 0 0 65 0 0
65 0 0 65 0 0 123 0 0 156 0 0
156 0 0 90 0 0 65 0 0 65 0 0
205 0 0 65 0 0 65 0 0 65 0 0
65 0 0 65 0 0 90 0 0 65 0 0
90 0 0 65 0 0 90 0 0 90 0 0
65 0 0 65 0 0 65 0 0 65 0 0
65 0 0 65 0 0 65 0 0 65 0 0
74 0 0 65 0 0 65 0 0 65 0 0
123 0 0 65 0 0 65 0 0 65 0 0
90 0 0 90 0 0 65 0 0 65 0 0
65 0 0 65 0 0 65 0 0 65 0 0
65 0 0 65 0 0 255 24 24 205 0 0
123 0 0 123 0 0 65 0 0 65 0 0
123 0 0 205 0 0 123 0 0 65 0 0
65 0 0 123 0 0 65 0 0 65 0 0
65 0 0 123 0 0 65 0 0 65 0 0
65 0 0 65 0 0 90 0 0 123 0 0
90 0 0 156 0 0 65 0 0 65 0 0
123 0 0 90 0 0 65 0 0 65 0 0
65 0 0 65 0 0 65 0 0 123 0 0
74 0 0 65 0 0 65 0 0 65 0 0
65 0 0 90 0 0 65 0 0 65 0 0
65 0 0 65 0 0 65 0 0 65 0 0
74 0 0 65 0 0 65 0 0 123 0 0
123 0 0 65 0 0 65 0 0 156 0 0
65 0 0 90 0 0 74 0 0 65 0 0
65 0 0 65 0 0 205 0 0 164 0 0
65 0 0 65 0 0 164 0 0 164 0 0
65 0 0 65 0 0 65 0 0 123 0 0
205 0 0 156 0 0 90 0 0 65 0 0
65 0 0 90 0 0 90 0 0 65 0 0
90 0 0 65 0 0 65 0 0 65 0 0
65 0 0 65 0 0 65 0 0 65 0 0
90 0 0 123 0 0 65 0 0 65 0 0
90 0 0 123 0 0 65 0 0 90 0 0
90 0 0 90 0 0 65 0 0 156 0 0
123 0 0 74 0 0 65 0 0 65 0 0
123 0 0 123 0 0 65 0 0 65 0 0
65 0 0 74 0 0 98 0 0 156 0 0
90 0 0 74 0 0 90 0 0 65 0 0
65 0 0 65 0 0 156 0 0 123 0 0
65 0 0 123 0 0 98 0 0 65 0 0
65 0 0 115 0 0 123 0 0 123 0 0
90 0 0 90 0 0 90 0 0 90 0 0
65 0 0 90 0 0 90 0 0 90 0 0
115 0 0 123 0 0 65 0 0 65 0 0
90 0 0 74 0 0 90 0 0 74 0 0
65 0 0 123 0 0 90 0 0 65 0 0
65 0 0 90 0 0 123 0 0 90 0 0
65 0 0 65 0 0 90 0 0 123 0 0
123 0 0 65 0 0 115 0 0 164 0 0
123 0 0 90 0 0 65 0 0 180 0 0
180 0 0 139 0 0 74 0 0 65 0 0
65 0 0 65 0 0 65 0 0 65 0 0
74 0 0 98 0 0 164 0 0 164 0 0
90 0 0 74 0 0 74 0 0 65 0 0
65 0 0 123 0 0 90 0 0 90 0 0
65 0 0 123 0 0 98 0 0 65 0 0
115 0 0 139 0 0 123 0 0 65 0 0
65 0 0 123 0 0 205 0 0 90 0 0
65 0 0 65 0 0 65 0 0 65 0 0
65 0 0 65 0 0 65 0 0 65 0 0
74 0 0 164 0 0 123 0 0 90 0 0
65 0 0 123 0 0 90 0 0 65 0 0
65 0 0 164 0 0 205 0 0 123 0 0
65 0 0 65 0 0 90 0 0 123 0 0
90 0 0 65 0 0 115 0 0 205 0 0
164 0 0 123 0 0 90 0 0 156 0 0
205 0 0 180 0 0 139 0 0 98 0 0
65 0 0 65 0 0 65 0 0 65 0 0
98 0 0 164 0 0 156 0 0 156 0 0
90 0 0 98 0 0 90 0 0 74 0 0
65 0 0 123 0 0 65 0 0 65 0 0
90 0 0 123 0 0 98 0 0 65 0 0
205 0 0 205 0 0 164 0 0 65 0 0
90 0 0 123 0 0 123 0 0 90 0 0
65 0 0 65 0 0 65 0 0 65 0 0
65 0 0 65 0 0 65 0 0 74 0 0
156 0 0 205 0 0 98 0 0 74 0 0
65 0 0 65 0 0 90 0 0 65 0 0
65 0 0 123 0 0 164 0 0 123 0 0
90 0 0 65 0 0 65 0 0 65 0 0
90 0 0 65 0 0 123 0 0 189 0 0
123 0 0 98 0 0 90 0 0 123 0 0
180 0 0 205 0 0 164 0 0 115 0 0
74 0 0 65 0 0 65 0 0 65 0 0
98 0 0 156 0 0 123 0 0 123 0 0
123 0 0 164 0 0 98 0 0 90 0 0
65 0 0 123 0 0 65 0 0 65 0 0
90 0 0 205 0 0 123 0 0 65 0 0
139 0 0 156 0 0 156 0 0 65 0 0
90 0 0 65 0 0 164 0 0 90 0 0
65 0 0 65 0 0 65 0 0 90 0 0
65 0 0 65 0 0 74 0 0 98 0 0
123 0 0 98 0 0 65 0 0 123 0 0
65 0 0 65 0 0 90 0 0 65 0 0
65 0 0 123 0 0 156 0 0 205 0 0
90 0 0 65 0 0 90 0 0 164 0 0
90 0 0 65 0 0 123 0 0 156 0 0
123 0 0 98 0 0 65 0 0 115 0 0
156 0 0 180 0 0 139 0 0 98 0 0
74 0 0 74 0 0 65 0 0 65 0 0
65 0 0 90 0 0 90 0 0 90 0 0
156 0 0 98 0 0 90 0 0 123 0 0
205 0 0 90 0 0 65 0 0 65 0 0
123 0 0 156 0 0 123 0 0 65 0 0
65 0 0 164 0 0 123 0 0 65 0 0
65 0 0 164 0 0 205 0 0 65 0 0
65 0 0 65 0 0 65 0 0 65 0 0
90 0 0 74 0 0 98 0 0 123 0 0
123 0 0 90 0 0 65 0 0 90 0 0
90 0 0 65 0 0 65 0 0 156 0 0
65 0 0 98 0 0 156 0 0 156 0 0
98 0 0 65 0 0 65 0 0 65 0 0
90 0 0 123 0 0 65 0 0 98 0 0
98 0 0 90 0 0 65 0 0 65 0 0
90 0 0 123 0 0 123 0 0 98 0 0
74 0 0 65 0 0 65 0 0 65 0 0
65 0 0 90 0 0 98 0 0 123 0 0
98 0 0 65 0 0 123 0 0 123 0 0
65 0 0 65 0 0 90 0 0 123 0 0
123 0 0 90 0 0 65 0 0 65 0 0
90 0 0 139 0 0 139 0 0 65 0 0
90 0 0 65 0 0 65 0 0 123 0 0
65 0 0 65 0 0 65 0 0 90 0 0
90 0 0 65 0 0 74 0 0 90 0 0
98 0 0 65 0 0 65 0 0 90 0 0
65 0 0 164 0 0 90 0 0 65 0 0
65 0 0 65 0 0 156 0 0 123 0 0
98 0 0 65 0 0 65 0 0 65 0 0
123 0 0 156 0 0 123 0 0 90 0 0
65 0 0 65 0 0 65 0 0 65 0 0
65 0 0 90 0 0 98 0 0 98 0 0
65 0 0 65 0 0 90 0 0 123 0 0
90 0 0 90 0 0 123 0 0 90 0 0
65 0 0 65 0 0 90 0 0 123 0 0
156 0 0 90 0 0 74 0 0 90 0 0
65 0 0 65 0 0 65 0 0 65 0 0
123 0 0 115 0 0 74 0 0 65 0 0
65 0 0 65 0 0 90 0 0 65 0 0
65 0 0 65 0 0 65 0 0 65 0 0
65 0 0 65 0 0 65 0 0 65 0 0
65 0 0 65 0 0 65 0 0 65 0 0
90 0 0 123 0 0 90 0 0 90 0 0
123 0 0 98 0 0 123 0 0 123 0 0
164 0 0 90 0 0 65 0 0 65 0 0
65 0 0 90 0 0 123 0 0 90 0 0
115 0 0 115 0 0 90 0 0 65 0 0
65 0 0 65 0 0 90 0 0 90 0 0
65 0 0 65 0 0 123 0 0 123 0 0
123 0 0 156 0 0 65 0 0 65 0 0
65 0 0 123 0 0 123 0 0 65 0 0
65 0 0 74 0 0 90 0 0 156 0 0
90 0 0 90 0 0 65 0 0 65 0 0
115 0 0 74 0 0 65 0 0 65 0 0
123 0 0 123 0 0 90 0 0 65 0 0
123 0 0 90 0 0 65 0 0 123 0 0
123 0 0 65 0 0 156 0 0 65 0 0
65 0 0 65 0 0 65 0 0 65 0 0
65 0 0 90 0 0 65 0 0 65 0 0
65 0 0 156 0 0 90 0 0 98 0 0
205 0 0 164 0 0 90 0 0 65 0 0
65 0 0 90 0 0 90 0 0 65 0 0
123 0 0 156 0 0 90 0 0 74 0 0
65 0 0 65 0 0 65 0 0 123 0 0
123 0 0 90 0 0 90 0 0 123 0 0
123 0 0 115 0 0 90 0 0 65 0 0
115 0 0 205 0 0 90 0 0 65 0 0
90 0 0 156 0 0 123 0 0 90 0 0
123 0 0 123 0 0 65 0 0 65 0 0
90 0 0 65 0 0 205 0 0 205 0 0
65 0 0 65 0 0 65 0 0 90 0 0
123 0 0 65 0 0 65 0 0 123 0 0
123 0 0 156 0 0 205 0 0 65 0 0
65 0 0 65 0 0 65 0 0 90 0 0
65 0 0 65 0 0 65 0 0 90 0 0
65 0 0 65 0 0 90 0 0 90 0 0
98 0 0 123 0 0 65 0 0 65 0 0
123 0 0 90 0 0 90 0 0 65 0 0
65 0 0 74 0 0 98 0 0 139 0 0
90 0 0 65 0 0 65 0 0 123 0 0
90 0 0 65 0 0 65 0 0 90 0 0
123 0 0 90 0 0 65 0 0 65 0 0
189 0 0 205 0 0 90 0 0 65 0 0
65 0 0 90 0 0 90 0 0 123 0 0
90 0 0 65 0 0 65 0 0 65 0 0
65 0 0 123 0 0 164 0 0 123 0 0
65 0 0 65 0 0 90 0 0 123 0 0
123 0 0 65 0 0 65 0 0 65 0 0
90 0 0 238 0 0 164 0 0 65 0 0
65 0 0 90 0 0 90 0 0 90 0 0
65 0 0 65 0 0 123 0 0 205 0 0
90 0 0 65 0 0 90 0 0 123 0 0
65 0 0 90 0 0 65 0 0 65 0 0
90 0 0 123 0 0 90 0 0 65 0 0
74 0 0 156 0 0 156 0 0 98 0 0
115 0 0 90 0 0 65 0 0 90 0 0
90 0 0 65 0 0 65 0 0 90 0 0
90 0 0 90 0 0 65 0 0 65 0 0
74 0 0 123 0 0 123 0 0 90 0 0
65 0 0 90 0 0 90 0 0 123 0 0
90 0 0 65 0 0 65 0 0 65 0 0
65 0 0 164 0 0 123 0 0 123 0 0
65 0 0 65 0 0 65 0 0 164 0 0
156 0 0 65 0 0 65 0 0 90 0 0
164 0 0 205 0 0 65 0 0 65 0 0
90 0 0 123 0 0 123 0 0 65 0 0
65 0 0 65 0 0 123 0 0 65 0 0
65 0 0 65 0 0 65 0 0 65 0 0
65 0 0 164 0 0 156 0 0 90 0 0
90 0 0 123 0 0 65 0 0 74 0 0
156 0 0 205 0 0 156 0 0 123 0 0
98 0 0 90 0 0 65 0 0 90 0 0
123 0 0 65 0 0 65 0 0 164 0 0
164 0 0 90 0 0 65 0 0 65 0 0
90 0 0 74 0 0 65 0 0 65 0 0
65 0 0 65 0 0 90 0 0 123 0 0
90 0 0 65 0 0 65 0 0 65 0 0
90 0 0 156 0 0 123 0 0 123 0 0
65 0 0 65 0 0 65 0 0 123 0 0
65 0 0 65 0 0 65 0 0 123 0 0
123 0 0 65 0 0 65 0 0 123 0 0
123 0 0 65 0 0 65 0 0 65 0 0
65 0 0 65 0 0 65 0 0 65 0 0
65 0 0 65 0 0 65 0 0 65 0 0
90 0 0 123 0 0 123 0 0 123 0 0
123 0 0 90 0 0 74 0 0 115 0 0
156 0 0 205 0 0 156 0 0 123 0 0
90 0 0 65 0 0 65 0 0 90 0 0
65 0 0 65 0 0 65 0 0 205 0 0
164 0 0 65 0 0 65 0 0 90 0 0
123 0 0 156 0 0 90 0 0 65 0 0
65 0 0 65 0 0 90 0 0 123 0 0
65 0 0 90 0 0 65 0 0 65 0 0
90 0 0 90 0 0 90 0 0 90 0 0
90 0 0 123 0 0 90 0 0 123 0 0
123 0 0 90 0 0 65 0 0 65 0 0
65 0 0 205 0 0 205 0 0 65 0 0
65 0 0 65 0 0 90 0 0 90 0 0
65 0 0 65 0 0 90 0 0 123 0 0
65 0 0 65 0 0 65 0 0 65 0 0
65 0 0 65 0 0 65 0 0 65 0 0
90 0 0 90 0 0 98 0 0 156 0 0
205 0 0 156 0 0 123 0 0 90 0 0
74 0 0 65 0 0 90 0 0 90 0 0
65 0 0 65 0 0 65 0 0 205 0 0
123 0 0 65 0 0 65 0 0 74 0 0
123 0 0 123 0 0 90 0 0 65 0 0
65 0 0 65 0 0 156 0 0 123 0 0
65 0 0 65 0 0 65 0 0 65 0 0
90 0 0 90 0 0 123 0 0 123 0 0
65 0 0 65 0 0 65 0 0 65 0 0
65 0 0 90 0 0 123 0 0 123 0 0
65 0 0 65 0 0 90 0 0 123 0 0
90 0 0 90 0 0 123 0 0 90 0 0
90 0 0 65 0 0 65 0 0 123 0 0
65 0 0 65 0 0 65 0 0 90 0 0
90 0 0 65 0 0 65 0 0 90 0 0
65 0 0 65 0 0 98 0 0 115 0 0
156 0 0 164 0 0 90 0 0 65 0 0
65 0 0 98 0 0 156 0 0 123 0 0
98 0 0 65 0 0 65 0 0 65 0 0
123 0 0 156 0 0 123 0 0 90 0 0
65 0 0 65 0 0 65 0 0 65 0 0
65 0 0 90 0 0 123 0 0 123 0 0
65 0 0 65 0 0 90 0 0 123 0 0
90 0 0 90 0 0 123 0 0 90 0 0
90 0 0 90 0 0 90 0 0 65 0 0
65 0 0 65 0 0 90 0 0 65 0 0
65 0 0 65 0 0 123 0 0 123 0 0
123 0 0 156 0 0 65 0 0 65 0 0
65 0 0 65 0 0 90 0 0 65 0 0
65 0 0 65 0 0 65 0 0 65 0 0
65 0 0 90 0 0 90 0 0 90 0 0
98 0 0 90 0 0 65 0 0 65 0 0
90 0 0 123 0 0 65 0 0 65 0 0
123 0 0 123 0 0 98 0 0 123 0 0
164 0 0 98 0 0 65 0 0 65 0 0
65 0 0 90 0 0 123 0 0 90 0 0
90 0 0 90 0 0 90 0 0 65 0 0
65 0 0 65 0 0 90 0 0 65 0 0
65 0 0 65 0 0 123 0 0 123 0 0
123 0 0 156 0 0 65 0 0 65 0 0
123 0 0 156 0 0 90 0 0 65 0 0
65 0 0 65 0 0 65 0 0 123 0 0
123 0 0 90 0 0 90 0 0 123 0 0
123 0 0 123 0 0 123 0 0 65 0 0
123 0 0 123 0 0 90 0 0 65 0 0
123 0 0 90 0 0 65 0 0 123 0 0
123 0 0 90 0 0 156 0 0 115 0 0
98 0 0 90 0 0 65 0 0 65 0 0
65 0 0 90 0 0 65 0 0 65 0 0
74 0 0 156 0 0 98 0 0 90 0 0
205 0 0 164 0 0 90 0 0 65 0 0
65 0 0 90 0 0 90 0 0 65 0 0
123 0 0 156 0 0 90 0 0 65 0 0
65 0 0 65 0 0 65 0 0 123 0 0
123 0 0 90 0 0 90 0 0 123 0 0
123 0 0 123 0 0 123 0 0 65 0 0
65 0 0 65 0 0 164 0 0 123 0 0
65 0 0 65 0 0 65 0 0 123 0 0
90 0 0 65 0 0 65 0 0 90 0 0
123 0 0 90 0 0 65 0 0 65 0 0
65 0 0 65 0 0 65 0 0 90 0 0
123 0 0 65 0 0 65 0 0 123 0 0
123 0 0 156 0 0 205 0 0 115 0 0
98 0 0 65 0 0 65 0 0 90 0 0
65 0 0 65 0 0 65 0 0 90 0 0
65 0 0 74 0 0 90 0 0 98 0 0
98 0 0 123 0 0 98 0 0 65 0 0
123 0 0 90 0 0 90 0 0 65 0 0
65 0 0 65 0 0 164 0 0 123 0 0
65 0 0 65 0 0 65 0 0 123 0 0
90 0 0 65 0 0 65 0 0 90 0 0
123 0 0 90 0 0 65 0 0 65 0 0
65 0 0 156 0 0 123 0 0 65 0 0
123 0 0 90 0 0 65 0 0 90 0 0
90 0 0 65 0 0 65 0 0 90 0 0
90 0 0 90 0 0 65 0 0 65 0 0
65 0 0 65 0 0 90 0 0 123 0 0
123 0 0 65 0 0 65 0 0 65 0 0
90 0 0 238 0 0 164 0 0 115 0 0
65 0 0 90 0 0 90 0 0 90 0 0
65 0 0 65 0 0 123 0 0 205 0 0
90 0 0 74 0 0 98 0 0 123 0 0
90 0 0 90 0 0 65 0 0 65 0 0
90 0 0 123 0 0 90 0 0 65 0 0
65 0 0 156 0 0 123 0 0 65 0 0
123 0 0 90 0 0 65 0 0 90 0 0
90 0 0 65 0 0 65 0 0 90 0 0
90 0 0 90 0 0 65 0 0 65 0 0
156 0 0 205 0 0 123 0 0 65 0 0
90 0 0 90 0 0 65 0 0 90 0 0
123 0 0 65 0 0 65 0 0 164 0 0
164 0 0 90 0 0 65 0 0 65 0 0
65 0 0 65 0 0 65 0 0 164 0 0
156 0 0 65 0 0 65 0 0 90 0 0
164 0 0 205 0 0 115 0 0 65 0 0
90 0 0 123 0 0 123 0 0 65 0 0
65 0 0 65 0 0 123 0 0 65 0 0
65 0 0 65 0 0 98 0 0 139 0 0
74 0 0 164 0 0 156 0 0 90 0 0
90 0 0 123 0 0 65 0 0 65 0 0
156 0 0 205 0 0 123 0 0 65 0 0
90 0 0 90 0 0 65 0 0 90 0 0
123 0 0 65 0 0 65 0 0 164 0 0
164 0 0 90 0 0 65 0 0 65 0 0
156 0 0 205 0 0 65 0 0 65 0 0
65 0 0 65 0 0 65 0 0 90 0 0
65 0 0 65 0 0 65 0 0 205 0 0
164 0 0 65 0 0 65 0 0 65 0 0
65 0 0 65 0 0 65 0 0 123 0 0
65 0 0 65 0 0 65 0 0 123 0 0
123 0 0 115 0 0 65 0 0 123 0 0
123 0 0 65 0 0 65 0 0 65 0 0
65 0 0 65 0 0 65 0 0 65 0 0
65 0 0 65 0 0 74 0 0 74 0 0
90 0 0 123 0 0 123 0 0 123 0 0
123 0 0 90 0 0 65 0 0 65 0 0
156 0 0 205 0 0 65 0 0 65 0 0
65 0 0 65 0 0 65 0 0 90 0 0
65 0 0 65 0 0 65 0 0 205 0 0
164 0 0 65 0 0 65 0 0 65 0 0
205 0 0 65 0 0 65 0 0 65 0 0
65 0 0 65 0 0 90 0 0 90 0 0
65 0 0 65 0 0 65 0 0 205 0 0
123 0 0 65 0 0 65 0 0 65 0 0
90 0 0 123 0 0 90 0 0 123 0 0
123 0 0 90 0 0 65 0 0 65 0 0
65 0 0 205 0 0 205 0 0 65 0 0
65 0 0 65 0 0 90 0 0 90 0 0
65 0 0 65 0 0 90 0 0 123 0 0
65 0 0 65 0 0 65 0 0 65 0 0
65 0 0 65 0 0 65 0 0 65 0 0
90 0 0 90 0 0 65 0 0 65 0 0
205 0 0 65 0 0 65 0 0 65 0 0
65 0 0 65 0 0 90 0 0 90 0 0
65 0 0 65 0 0 65 0 0 205 0 0
123 0 0 65 0 0 65 0 0 65 0 0
