P3
# Converted to P3 by scripts/convert_to_p3.py
64 64
255
65 49 24 65 49 24 65 49 24 74 57 32
65 49 24 65 49 24 65 49 24 65 49 24
74 57 32 65 49 24 65 49 24 74 57 32
74 57 32 49 41 16 65 49 24 74 57 32
74 57 32 74 57 32 74 57 32 65 49 24
74 57 32 65 49 24 74 57 32 74 57 32
74 57 32 65 49 24 65 49 24 74 57 32
65 49 24 65 49 24 65 49 24 65 49 24
65 49 24 65 49 24 65 49 24 65 49 24
65 49 24 65 49 24 65 49 24 65 49 24
82 57 24 65 49 24 74 57 32 74 57 32
74 57 32 65 49 24 65 49 24 65 49 24
49 41 16 65 49 24 49 41 16 65 49 24
65 49 24 65 49 24 65 49 24 65 49 24
74 57 32 74 57 32 65 49 24 65 49 24
49 41 16 65 49 24 65 49 24 49 41 16
65 49 24 65 49 24 65 49 24 74 57 32
65 49 24 65 49 24 65 49 24 65 49 24
74 57 32 65 49 24 65 49 24 74 57 32
74 57 32 65 49 24 74 57 32 74 57 32
74 57 32 74 57 32 65 49 24 65 49 24
65 49 24 65 49 24 74 57 32 74 57 32
74 57 32 65 49 24 65 49 24 65 49 24
49 41 16 65 49 24 49 41 16 65 49 24
65 49 24 65 49 24 65 49 24 65 49 24
65 49 24 65 49 24 65 49 24 65 49 24
74 57 32 65 49 24 74 57 32 74 57 32
74 57 32 65 49 24 74 57 32 65 49 24
49 41 16 65 49 24 49 41 16 49 41 16
65 49 24 65 49 24 65 49 24 65 49 24
74 57 32 65 49 24 65 49 24 65 49 24
65 49 24 65 49 24 49 41 16 49 41 16
49 41 16 65 49 24 65 49 24 65 49 24
65 49 24 65 49 24 65 49 24 65 49 24
74 57 32 65 49 24 74 57 32 74 57 32
65 49 24 65 49 24 65 49 24 74 57 32
74 57 32 65 49 24 74 57 32 65 49 24
65 49 24 65 49 24 65 49 24 74 57 32
74 57 32 49 41 16 65 49 24 65 49 24
49 41 16 49 41 16 65 49 24 65 49 24
49 41 16 65 49 24 65 49 24 65 49 24
74 57 32 65 49 24 65 49 24 65 49 24
65 49 24 65 49 24 74 57 32 82 65 49
74 57 32 65 49 24 65 49 24 49 41 16
49 41 16 65 49 24 49 41 16 49 41 16
65 49 24 49 41 16 65 49 24 65 49 24
65 49 24 65 49 24 65 49 24 65 49 24
65 49 24 49 41 16 65 49 24 49 41 16
65 49 24 65 49 24 65 49 24 65 49 24
74 57 32 65 49 24 49 41 16 65 49 24
74 57 32 65 49 24 65 49 24 74 57 32
65 49 24 65 49 24 65 49 24 65 49 24
74 57 32 74 57 32 74 57 32 65 49 24
65 49 24 65 49 24 65 49 24 74 57 32
74 57 32 49 41 16 65 49 24 65 49 24
49 41 16 65 49 24 65 49 24 65 49 24
65 49 24 65 49 24 65 49 24 65 49 24
74 57 32 65 49 24 49 41 16 65 49 24
65 49 24 49 41 16 65 49 24 82 65 49
74 57 32 65 49 24 65 49 24 49 41 16
49 41 16 65 49 24 49 41 16 49 41 16
65 49 24 49 41 16 65 49 24 65 49 24
74 57 32 65 49 24 65 49 24 65 49 24
49 41 16 65 49 24 65 49 24 49 41 16
65 49 24 49 41 16 49 41 16 65 49 24
65 49 24 65 49 24 65 49 24 65 49 24
74 57 32 65 49 24 65 49 24 74 57 32
65 49 24 49 41 16 65 49 24 74 57 32
74 57 32 65 49 24 65 49 24 65 49 24
65 49 24 65 49 24 65 49 24 74 57 32
74 57 32 65 49 24 65 49 24 65 49 24
49 41 16 65 49 24 65 49 24 65 49 24
65 49 24 49 41 16 49 41 16 65 49 24
74 57 32 65 49 24 65 49 24 65 49 24
65 49 24 65 49 24 65 49 24 74 57 32
74 57 32 65 49 24 65 49 24 65 49 24
49 41 16 49 41 16 65 49 24 49 41 16
65 49 24 49 41 16 74 57 32 65 49 24
65 49 24 65 49 24 65 49 24 49 41 16
65 49 24 65 49 24 65 49 24 49 41 16
65 49 24 65 49 24 65 49 24 65 49 24
65 49 24 65 49 24 65 49 24 65 49 24
65 49 24 65 49 24 65 49 24 74 57 32
65 49 24 49 41 16 65 49 24 74 57 32
74 57 32 74 57 32 65 49 24 65 49 24
65 49 24 49 41 16 74 57 32 74 57 32
74 57 32 65 49 24 65 49 24 65 49 24
49 41 16 65 49 24 65 49 24 74 57 32
65 49 24 65 49 24 65 49 24 65 49 24
65 49 24 65 49 24 65 49 24 65 49 24
65 49 24 65 49 24 65 49 24 82 57 24
74 57 32 65 49 24 65 49 24 65 49 24
65 49 24 65 49 24 49 41 16 49 41 16
65 49 24 65 49 24 82 65 49 74 57 32
74 57 32 74 57 32 82 65 49 74 57 32
74 57 32 74 57 32 65 49 24 74 57 32
65 49 24 65 49 24 65 49 24 65 49 24
65 49 24 65 49 24 49 41 16 65 49 24
65 49 24 49 41 16 65 49 24 74 57 32
65 49 24 65 49 24 49 41 16 74 57 32
74 57 32 74 57 32 65 49 24 65 49 24
74 57 32 65 49 24 74 57 32 74 57 32
74 57 32 65 49 24 65 49 24 65 49 24
49 41 16 65 49 24 65 49 24 74 57 32
65 49 24 65 49 24 49 41 16 65 49 24
74 57 32 65 49 24 49 41 16 65 49 24
74 57 32 65 49 24 65 49 24 74 57 32
65 49 24 65 49 24 65 49 24 65 49 24
49 41 16 65 49 24 65 49 24 49 41 16
49 41 16 65 49 24 74 57 32 65 49 24
74 57 32 65 49 24 74 57 32 65 49 24
74 57 32 65 49 24 65 49 24 74 57 32
65 49 24 65 49 24 65 49 24 74 57 32
74 57 32 74 57 32 74 57 32 65 49 24
65 49 24 65 49 24 74 57 32 74 57 32
65 49 24 65 49 24 65 49 24 65 49 24
74 57 32 74 57 32 65 49 24 74 57 32
74 57 32 74 57 32 65 49 24 65 49 24
74 57 32 65 49 24 49 41 16 65 49 24
65 49 24 65 49 24 65 49 24 74 57 32
82 57 24 74 57 32 74 57 32 65 49 24
65 49 24 65 49 24 65 49 24 65 49 24
74 57 32 65 49 24 65 49 24 65 49 24
65 49 24 49 41 16 65 49 24 49 41 16
49 41 16 49 41 16 65 49 24 65 49 24
65 49 24 49 41 16 65 49 24 74 57 32
65 49 24 65 49 24 65 49 24 74 57 32
65 49 24 65 49 24 74 57 32 65 49 24
65 49 24 65 49 24 65 49 24 74 57 32
82 57 24 74 57 32 74 57 32 65 49 24
65 49 24 65 49 24 74 57 32 74 57 32
74 57 32 65 49 24 49 41 16 74 57 32
74 57 32 65 49 24 65 49 24 65 49 24
74 57 32 65 49 24 65 49 24 74 57 32
74 57 32 74 57 32 74 57 32 65 49 24
65 49 24 65 49 24 65 49 24 74 57 32
82 57 24 74 57 32 74 57 32 65 49 24
65 49 24 65 49 24 65 49 24 65 49 24
65 49 24 65 49 24 65 49 24 65 49 24
65 49 24 49 41 16 49 41 16 65 49 24
65 49 24 65 49 24 49 41 16 49 41 16
49 41 16 65 49 24 49 41 16 65 49 24
65 49 24 65 49 24 49 41 16 65 49 24
65 49 24 65 49 24 65 49 24 65 49 24
65 49 24 65 49 24 65 49 24 74 57 32
82 57 24 74 57 32 74 57 32 65 49 24
65 49 24 65 49 24 74 57 32 74 57 32
74 57 32 65 49 24 65 49 24 74 57 32
74 57 32 49 41 16 65 49 24 65 49 24
74 57 32 65 49 24 65 49 24 74 57 32
74 57 32 74 57 32 74 57 32 49 41 16
65 49 24 65 49 24 65 49 24 74 57 32
82 57 24 74 57 32 74 57 32 65 49 24
65 49 24 65 49 24 74 57 32 65 49 24
65 49 24 49 41 16 65 49 24 74 57 32
65 49 24 65 49 24 49 41 16 65 49 24
65 49 24 65 49 24 65 49 24 65 49 24
65 49 24 65 49 24 65 49 24 65 49 24
49 41 16 65 49 24 65 49 24 65 49 24
49 41 16 65 49 24 74 57 32 65 49 24
65 49 24 65 49 24 49 41 16 65 49 24
74 57 32 74 57 32 74 57 32 65 49 24
65 49 24 65 49 24 74 57 32 74 57 32
74 57 32 65 49 24 49 41 16 65 49 24
74 57 32 49 41 16 65 49 24 65 49 24
65 49 24 65 49 24 65 49 24 74 57 32
74 57 32 74 57 32 65 49 24 65 49 24
65 49 24 65 49 24 49 41 16 65 49 24
74 57 32 74 57 32 74 57 32 65 49 24
65 49 24 65 49 24 74 57 32 65 49 24
65 49 24 65 49 24 49 41 16 65 49 24
65 49 24 65 49 24 65 49 24 65 49 24
65 49 24 65 49 24 65 49 24 65 49 24
65 49 24 65 49 24 65 49 24 65 49 24
49 41 16 65 49 24 65 49 24 65 49 24
49 41 16 65 49 24 65 49 24 65 49 24
65 49 24 65 49 24 65 49 24 65 49 24
74 57 32 74 57 32 74 57 32 65 49 24
65 49 24 65 49 24 65 49 24 74 57 32
65 49 24 65 49 24 65 49 24 65 49 24
65 49 24 49 41 16 65 49 24 65 49 24
74 57 32 65 49 24 65 49 24 74 57 32
82 57 24 74 57 32 65 49 24 65 49 24
65 49 24 65 49 24 65 49 24 65 49 24
74 57 32 74 57 32 74 57 32 65 49 24
65 49 24 65 49 24 65 49 24 65 49 24
74 57 32 65 49 24 65 49 24 74 57 32
74 57 32 74 57 32 74 57 32 65 49 24
74 57 32 74 57 32 65 49 24 65 49 24
74 57 32 65 49 24 49 41 16 65 49 24
65 49 24 65 49 24 49 41 16 65 49 24
65 49 24 65 49 24 65 49 24 65 49 24
65 49 24 65 49 24 49 41 16 65 49 24
74 57 32 74 57 32 74 57 32 74 57 32
65 49 24 65 49 24 65 49 24 74 57 32
74 57 32 74 57 32 74 57 32 65 49 24
65 49 24 74 57 32 65 49 24 74 57 32
74 57 32 74 57 32 49 41 16 65 49 24
74 57 32 74 57 32 74 57 32 74 57 32
65 49 24 65 49 24 49 41 16 65 49 24
74 57 32 74 57 32 74 57 32 49 41 16
65 49 24 65 49 24 65 49 24 65 49 24
74 57 32 65 49 24 65 49 24 74 57 32
74 57 32 74 57 32 74 57 32 74 57 32
74 57 32 74 57 32 49 41 16 65 49 24
74 57 32 74 57 32 74 57 32 65 49 24
65 49 24 65 49 24 74 57 32 65 49 24
65 49 24 74 57 32 74 57 32 65 49 24
65 49 24 49 41 16 49 41 16 65 49 24
74 57 32 82 57 24 74 57 32 74 57 32
65 49 24 49 41 16 65 49 24 74 57 32
74 57 32 74 57 32 65 49 24 65 49 24
65 49 24 74 57 32 65 49 24 65 49 24
74 57 32 74 57 32 65 49 24 74 57 32
74 57 32 74 57 32 74 57 32 74 57 32
65 49 24 49 41 16 49 41 16 74 57 32
74 57 32 82 57 24 74 57 32 65 49 24
65 49 24 65 49 24 49 41 16 65 49 24
65 49 24 65 49 24 65 49 24 74 57 32
74 57 32 74 57 32 65 49 24 65 49 24
65 49 24 74 57 32 49 41 16 74 57 32
74 57 32 74 57 32 74 57 32 74 57 32
74 57 32 74 57 32 65 49 24 74 57 32
74 57 32 74 57 32 65 49 24 65 49 24
65 49 24 65 49 24 65 49 24 65 49 24
65 49 24 74 57 32 74 57 32 74 57 32
65 49 24 65 49 24 65 49 24 74 57 32
74 57 32 65 49 24 65 49 24 49 41 16
65 49 24 65 49 24 74 57 32 74 57 32
74 57 32 65 49 24 65 49 24 65 49 24
74 57 32 74 57 32 74 57 32 65 49 24
65 49 24 65 49 24 49 41 16 74 57 32
74 57 32 82 57 24 74 57 32 65 49 24
65 49 24 65 49 24 65 49 24 65 49 24
65 49 24 49 41 16 65 49 24 74 57 32
74 57 32 74 57 32 65 49 24 65 49 24
65 49 24 65 49 24 65 49 24 74 57 32
74 57 32 65 49 24 74 57 32 82 57 24
74 57 32 74 57 32 65 49 24 74 57 32
74 57 32 74 57 32 65 49 24 49 41 16
65 49 24 65 49 24 65 49 24 65 49 24
65 49 24 74 57 32 74 57 32 74 57 32
74 57 32 49 41 16 65 49 24 74 57 32
74 57 32 65 49 24 49 41 16 65 49 24
65 49 24 65 49 24 65 49 24 65 49 24
65 49 24 74 57 32 74 57 32 65 49 24
74 57 32 82 57 24 74 57 32 65 49 24
65 49 24 65 49 24 65 49 24 65 49 24
65 49 24 74 57 32 74 57 32 65 49 24
65 49 24 65 49 24 49 41 16 65 49 24
65 49 24 49 41 16 65 49 24 74 57 32
74 57 32 65 49 24 49 41 16 65 49 24
65 49 24 65 49 24 65 49 24 65 49 24
74 57 32 65 49 24 74 57 32 74 57 32
74 57 32 74 57 32 65 49 24 74 57 32
74 57 32 65 49 24 49 41 16 65 49 24
65 49 24 65 49 24 49 41 16 65 49 24
65 49 24 65 49 24 74 57 32 82 57 24
74 57 32 74 57 32 65 49 24 65 49 24
65 49 24 65 49 24 65 49 24 65 49 24
65 49 24 74 57 32 74 57 32 65 49 24
65 49 24 74 57 32 65 49 24 74 57 32
74 57 32 74 57 32 74 57 32 74 57 32
65 49 24 65 49 24 65 49 24 65 49 24
65 49 24 49 41 16 65 49 24 65 49 24
65 49 24 65 49 24 65 49 24 65 49 24
65 49 24 65 49 24 65 49 24 74 57 32
65 49 24 65 49 24 65 49 24 65 49 24
65 49 24 65 49 24 49 41 16 65 49 24
65 49 24 65 49 24 74 57 32 74 57 32
74 57 32 74 57 32 65 49 24 65 49 24
65 49 24 65 49 24 65 49 24 65 49 24
49 41 16 49 41 16 49 41 16 65 49 24
74 57 32 65 49 24 74 57 32 82 57 24
74 57 32 74 57 32 65 49 24 65 49 24
65 49 24 65 49 24 65 49 24 65 49 24
65 49 24 74 57 32 74 57 32 65 49 24
65 49 24 65 49 24 65 49 24 65 49 24
74 57 32 82 57 24 74 57 32 74 57 32
74 57 32 65 49 24 65 49 24 65 49 24
65 49 24 49 41 16 65 49 24 65 49 24
65 49 24 65 49 24 65 49 24 49 41 16
74 57 32 49 41 16 65 49 24 65 49 24
65 49 24 65 49 24 65 49 24 65 49 24
49 41 16 49 41 16 49 41 16 65 49 24
65 49 24 65 49 24 74 57 32 74 57 32
74 57 32 74 57 32 65 49 24 65 49 24
65 49 24 65 49 24 65 49 24 65 49 24
49 41 16 49 41 16 65 49 24 65 49 24
65 49 24 65 49 24 74 57 32 82 57 24
74 57 32 74 57 32 65 49 24 65 49 24
65 49 24 49 41 16 65 49 24 65 49 24
65 49 24 65 49 24 74 57 32 65 49 24
65 49 24 65 49 24 65 49 24 65 49 24
74 57 32 74 57 32 74 57 32 74 57 32
74 57 32 65 49 24 65 49 24 65 49 24
65 49 24 49 41 16 65 49 24 65 49 24
49 41 16 65 49 24 65 49 24 49 41 16
65 49 24 65 49 24 65 49 24 65 49 24
65 49 24 49 41 16 65 49 24 65 49 24
49 41 16 49 41 16 65 49 24 65 49 24
65 49 24 65 49 24 74 57 32 82 57 24
74 57 32 74 57 32 65 49 24 65 49 24
65 49 24 49 41 16 65 49 24 65 49 24
49 41 16 65 49 24 65 49 24 65 49 24
65 49 24 49 41 16 65 49 24 74 57 32
74 57 32 74 57 32 65 49 24 65 49 24
65 49 24 49 41 16 65 49 24 49 41 16
65 49 24 74 57 32 65 49 24 65 49 24
74 57 32 65 49 24 65 49 24 65 49 24
74 57 32 74 57 32 74 57 32 74 57 32
49 41 16 65 49 24 65 49 24 65 49 24
65 49 24 49 41 16 65 49 24 65 49 24
65 49 24 65 49 24 65 49 24 65 49 24
65 49 24 65 49 24 65 49 24 65 49 24
65 49 24 49 41 16 65 49 24 65 49 24
49 41 16 65 49 24 65 49 24 65 49 24
65 49 24 49 41 16 65 49 24 74 57 32
74 57 32 65 49 24 65 49 24 65 49 24
65 49 24 49 41 16 65 49 24 49 41 16
49 41 16 49 41 16 65 49 24 65 49 24
65 49 24 65 49 24 65 49 24 65 49 24
74 57 32 74 57 32 65 49 24 65 49 24
65 49 24 65 49 24 65 49 24 65 49 24
49 41 16 65 49 24 74 57 32 74 57 32
65 49 24 65 49 24 65 49 24 65 49 24
74 57 32 74 57 32 74 57 32 65 49 24
49 41 16 65 49 24 49 41 16 65 49 24
65 49 24 49 41 16 65 49 24 65 49 24
65 49 24 65 49 24 65 49 24 65 49 24
65 49 24 65 49 24 65 49 24 65 49 24
65 49 24 49 41 16 65 49 24 65 49 24
49 41 16 49 41 16 65 49 24 65 49 24
65 49 24 65 49 24 65 49 24 74 57 32
65 49 24 65 49 24 65 49 24 65 49 24
65 49 24 49 41 16 65 49 24 49 41 16
49 41 16 65 49 24 65 49 24 65 49 24
65 49 24 49 41 16 65 49 24 74 57 32
74 57 32 74 57 32 49 41 16 65 49 24
65 49 24 65 49 24 65 49 24 65 49 24
49 41 16 65 49 24 74 57 32 74 57 32
65 49 24 65 49 24 65 49 24 65 49 24
74 57 32 74 57 32 74 57 32 74 57 32
65 49 24 65 49 24 65 49 24 65 49 24
49 41 16 49 41 16 65 49 24 65 49 24
65 49 24 49 41 16 65 49 24 65 49 24
65 49 24 74 57 32 65 49 24 65 49 24
65 49 24 65 49 24 49 41 16 65 49 24
49 41 16 65 49 24 65 49 24 65 49 24
65 49 24 49 41 16 65 49 24 65 49 24
65 49 24 65 49 24 65 49 24 65 49 24
65 49 24 65 49 24 49 41 16 49 41 16
49 41 16 65 49 24 65 49 24 65 49 24
49 41 16 49 41 16 65 49 24 65 49 24
82 57 24 74 57 32 65 49 24 65 49 24
49 41 16 65 49 24 65 49 24 65 49 24
65 49 24 65 49 24 74 57 32 74 57 32
65 49 24 65 49 24 65 49 24 49 41 16
65 49 24 74 57 32 74 57 32 74 57 32
65 49 24 65 49 24 65 49 24 65 49 24
49 41 16 65 49 24 49 41 16 65 49 24
49 41 16 65 49 24 49 41 16 65 49 24
65 49 24 74 57 32 65 49 24 65 49 24
65 49 24 65 49 24 65 49 24 65 49 24
49 41 16 65 49 24 65 49 24 65 49 24
49 41 16 49 41 16 65 49 24 65 49 24
65 49 24 65 49 24 65 49 24 65 49 24
65 49 24 65 49 24 65 49 24 49 41 16
65 49 24 65 49 24 65 49 24 65 49 24
65 49 24 65 49 24 74 57 32 65 49 24
74 57 32 74 57 32 65 49 24 65 49 24
65 49 24 65 49 24 65 49 24 65 49 24
65 49 24 65 49 24 65 49 24 65 49 24
65 49 24 65 49 24 49 41 16 65 49 24
65 49 24 65 49 24 74 57 32 74 57 32
65 49 24 65 49 24 65 49 24 65 49 24
65 49 24 49 41 16 65 49 24 65 49 24
65 49 24 49 41 16 65 49 24 49 41 16
65 49 24 65 49 24 65 49 24 65 49 24
65 49 24 65 49 24 65 49 24 65 49 24
65 49 24 65 49 24 65 49 24 65 49 24
65 49 24 65 49 24 65 49 24 65 49 24
65 49 24 65 49 24 65 49 24 65 49 24
65 49 24 65 49 24 65 49 24 49 41 16
49 41 16 65 49 24 49 41 16 65 49 24
65 49 24 65 49 24 65 49 24 65 49 24
74 57 32 74 57 32 65 49 24 65 49 24
49 41 16 65 49 24 65 49 24 65 49 24
65 49 24 65 49 24 49 41 16 49 41 16
65 49 24 65 49 24 65 49 24 65 49 24
65 49 24 74 57 32 74 57 32 74 57 32
65 49 24 49 41 16 65 49 24 65 49 24
65 49 24 65 49 24 65 49 24 65 49 24
49 41 16 65 49 24 49 41 16 49 41 16
65 49 24 49 41 16 65 49 24 65 49 24
49 41 16 49 41 16 65 49 24 65 49 24
49 41 16 65 49 24 49 41 16 65 49 24
65 49 24 65 49 24 65 49 24 65 49 24
65 49 24 65 49 24 65 49 24 65 49 24
65 49 24 49 41 16 65 49 24 49 41 16
49 41 16 65 49 24 49 41 16 49 41 16
65 49 24 65 49 24 65 49 24 65 49 24
74 57 32 65 49 24 65 49 24 65 49 24
65 49 24 65 49 24 65 49 24 65 49 24
49 41 16 65 49 24 49 41 16 65 49 24
65 49 24 65 49 24 65 49 24 65 49 24
74 57 32 65 49 24 74 57 32 74 57 32
65 49 24 65 49 24 74 57 32 65 49 24
49 41 16 65 49 24 49 41 16 65 49 24
65 49 24 65 49 24 65 49 24 65 49 24
65 49 24 65 49 24 65 49 24 65 49 24
65 49 24 49 41 16 65 49 24 65 49 24
65 49 24 49 41 16 49 41 16 49 41 16
65 49 24 65 49 24 65 49 24 65 49 24
65 49 24 65 49 24 65 49 24 65 49 24
65 49 24 65 49 24 49 41 16 49 41 16
49 41 16 65 49 24 49 41 16 49 41 16
65 49 24 49 41 16 65 49 24 65 49 24
65 49 24 65 49 24 65 49 24 65 49 24
65 49 24 65 49 24 65 49 24 74 57 32
65 49 24 65 49 24 65 49 24 65 49 24
65 49 24 65 49 24 65 49 24 65 49 24
65 49 24 65 49 24 74 57 32 74 57 32
65 49 24 65 49 24 65 49 24 65 49 24
65 49 24 65 49 24 74 57 32 65 49 24
49 41 16 65 49 24 65 49 24 65 49 24
49 41 16 65 49 24 65 49 24 65 49 24
65 49 24 49 41 16 65 49 24 65 49 24
65 49 24 49 41 16 49 41 16 49 41 16
65 49 24 49 41 16 65 49 24 74 57 32
74 57 32 65 49 24 65 49 24 65 49 24
74 57 32 74 57 32 65 49 24 49 41 16
49 41 16 65 49 24 49 41 16 49 41 16
65 49 24 49 41 16 65 49 24 65 49 24
74 57 32 65 49 24 65 49 24 65 49 24
65 49 24 74 57 32 74 57 32 74 57 32
65 49 24 74 57 32 65 49 24 65 49 24
65 49 24 65 49 24 49 41 16 65 49 24
65 49 24 74 57 32 65 49 24 74 57 32
82 57 24 74 57 32 65 49 24 65 49 24
65 49 24 74 57 32 74 57 32 74 57 32
49 41 16 65 49 24 65 49 24 65 49 24
65 49 24 65 49 24 65 49 24 65 49 24
49 41 16 65 49 24 49 41 16 65 49 24
49 41 16 65 49 24 49 41 16 49 41 16
74 57 32 65 49 24 74 57 32 82 57 24
74 57 32 65 49 24 65 49 24 74 57 32
74 57 32 74 57 32 74 57 32 49 41 16
49 41 16 49 41 16 65 49 24 49 41 16
65 49 24 49 41 16 74 57 32 65 49 24
65 49 24 65 49 24 65 49 24 65 49 24
65 49 24 65 49 24 65 49 24 65 49 24
65 49 24 74 57 32 65 49 24 65 49 24
65 49 24 65 49 24 65 49 24 65 49 24
65 49 24 74 57 32 65 49 24 74 57 32
82 57 24 74 57 32 74 57 32 65 49 24
74 57 32 74 57 32 74 57 32 65 49 24
65 49 24 65 49 24 49 41 16 65 49 24
65 49 24 65 49 24 74 57 32 65 49 24
49 41 16 65 49 24 49 41 16 49 41 16
49 41 16 49 41 16 49 41 16 49 41 16
74 57 32 65 49 24 65 49 24 82 57 24
74 57 32 74 57 32 65 49 24 65 49 24
74 57 32 74 57 32 65 49 24 65 49 24
49 41 16 65 49 24 74 57 32 65 49 24
65 49 24 74 57 32 65 49 24 65 49 24
65 49 24 65 49 24 65 49 24 65 49 24
74 57 32 65 49 24 65 49 24 49 41 16
65 49 24 49 41 16 65 49 24 65 49 24
65 49 24 65 49 24 65 49 24 65 49 24
65 49 24 74 57 32 65 49 24 74 57 32
74 57 32 74 57 32 74 57 32 65 49 24
74 57 32 74 57 32 65 49 24 65 49 24
49 41 16 65 49 24 65 49 24 74 57 32
65 49 24 65 49 24 74 57 32 65 49 24
49 41 16 65 49 24 65 49 24 65 49 24
65 49 24 65 49 24 49 41 16 49 41 16
74 57 32 65 49 24 74 57 32 74 57 32
74 57 32 65 49 24 65 49 24 74 57 32
74 57 32 65 49 24 65 49 24 49 41 16
65 49 24 65 49 24 74 57 32 65 49 24
65 49 24 74 57 32 65 49 24 49 41 16
65 49 24 74 57 32 65 49 24 74 57 32
74 57 32 74 57 32 65 49 24 65 49 24
49 41 16 65 49 24 65 49 24 65 49 24
65 49 24 65 49 24 65 49 24 65 49 24
74 57 32 65 49 24 65 49 24 74 57 32
82 57 24 74 57 32 65 49 24 65 49 24
74 57 32 74 57 32 65 49 24 49 41 16
65 49 24 49 41 16 74 57 32 82 57 24
74 57 32 74 57 32 74 57 32 65 49 24
65 49 24 65 49 24 65 49 24 65 49 24
49 41 16 65 49 24 65 49 24 49 41 16
65 49 24 65 49 24 65 49 24 65 49 24
65 49 24 65 49 24 65 49 24 74 57 32
74 57 32 65 49 24 49 41 16 65 49 24
65 49 24 65 49 24 65 49 24 65 49 24
65 49 24 65 49 24 65 49 24 49 41 16
65 49 24 74 57 32 74 57 32 74 57 32
74 57 32 74 57 32 65 49 24 65 49 24
49 41 16 65 49 24 65 49 24 74 57 32
65 49 24 65 49 24 65 49 24 74 57 32
74 57 32 74 57 32 65 49 24 74 57 32
74 57 32 74 57 32 74 57 32 65 49 24
65 49 24 65 49 24 65 49 24 65 49 24
65 49 24 49 41 16 65 49 24 82 57 24
65 49 24 74 57 32 74 57 32 74 57 32
49 41 16 65 49 24 65 49 24 65 49 24
65 49 24 74 57 32 74 57 32 65 49 24
74 57 32 65 49 24 65 49 24 65 49 24
65 49 24 65 49 24 65 49 24 65 49 24
65 49 24 65 49 24 65 49 24 65 49 24
49 41 16 65 49 24 65 49 24 49 41 16
65 49 24 74 57 32 65 49 24 65 49 24
74 57 32 74 57 32 74 57 32 74 57 32
74 57 32 74 57 32 65 49 24 74 57 32
65 49 24 65 49 24 65 49 24 74 57 32
65 49 24 65 49 24 74 57 32 74 57 32
74 57 32 74 57 32 65 49 24 74 57 32
82 57 24 74 57 32 74 57 32 65 49 24
65 49 24 65 49 24 65 49 24 65 49 24
65 49 24 49 41 16 65 49 24 74 57 32
65 49 24 74 57 32 74 57 32 74 57 32
65 49 24 74 57 32 65 49 24 74 57 32
65 49 24 74 57 32 65 49 24 65 49 24
74 57 32 65 49 24 65 49 24 65 49 24
65 49 24 65 49 24 65 49 24 65 49 24
65 49 24 65 49 24 65 49 24 65 49 24
49 41 16 65 49 24 65 49 24 65 49 24
49 41 16 74 57 32 65 49 24 65 49 24
74 57 32 74 57 32 74 57 32 74 57 32
74 57 32 65 49 24 65 49 24 74 57 32
49 41 16 65 49 24 65 49 24 65 49 24
65 49 24 65 49 24 74 57 32 74 57 32
74 57 32 74 57 32 49 41 16 74 57 32
82 57 24 74 57 32 65 49 24 65 49 24
65 49 24 65 49 24 49 41 16 65 49 24
65 49 24 65 49 24 65 49 24 65 49 24
65 49 24 74 57 32 82 65 49 74 57 32
65 49 24 65 49 24 49 41 16 65 49 24
74 57 32 65 49 24 65 49 24 74 57 32
65 49 24 65 49 24 65 49 24 65 49 24
65 49 24 65 49 24 65 49 24 65 49 24
65 49 24 49 41 16 65 49 24 65 49 24
65 49 24 65 49 24 74 57 32 65 49 24
65 49 24 74 57 32 74 57 32 74 57 32
74 57 32 74 57 32 74 57 32 74 57 32
65 49 24 49 41 16 65 49 24 65 49 24
65 49 24 65 49 24 65 49 24 74 57 32
65 49 24 65 49 24 74 57 32 74 57 32
74 57 32 74 57 32 65 49 24 65 49 24
74 57 32 74 57 32 74 57 32 65 49 24
65 49 24 65 49 24 49 41 16 65 49 24
65 49 24 49 41 16 65 49 24 65 49 24
49 41 16 65 49 24 82 65 49 74 57 32
49 41 16 65 49 24 49 41 16 49 41 16
65 49 24 65 49 24 65 49 24 65 49 24
65 49 24 49 41 16 65 49 24 65 49 24
65 49 24 65 49 24 65 49 24 65 49 24
65 49 24 49 41 16 65 49 24 49 41 16
65 49 24 65 49 24 74 57 32 65 49 24
65 49 24 74 57 32 74 57 32 65 49 24
74 57 32 74 57 32 74 57 32 65 49 24
49 41 16 65 49 24 65 49 24 65 49 24
74 57 32 65 49 24 65 49 24 74 57 32
74 57 32 65 49 24 74 57 32 82 57 24
74 57 32 65 49 24 65 49 24 65 49 24
74 57 32 74 57 32 74 57 32 65 49 24
65 49 24 65 49 24 65 49 24 65 49 24
74 57 32 65 49 24 74 57 32 65 49 24
65 49 24 65 49 24 74 57 32 74 57 32
65 49 24 65 49 24 65 49 24 65 49 24
65 49 24 49 41 16 65 49 24 74 57 32
65 49 24 65 49 24 65 49 24 65 49 24
65 49 24 65 49 24 65 49 24 65 49 24
65 49 24 49 41 16 65 49 24 49 41 16
65 49 24 74 57 32 74 57 32 74 57 32
74 57 32 74 57 32 74 57 32 74 57 32
74 57 32 74 57 32 65 49 24 65 49 24
74 57 32 74 57 32 65 49 24 74 57 32
74 57 32 74 57 32 65 49 24 74 57 32
74 57 32 65 49 24 49 41 16 74 57 32
74 57 32 65 49 24 65 49 24 74 57 32
74 57 32 74 57 32 74 57 32 74 57 32
65 49 24 74 57 32 74 57 32 82 65 49
65 49 24 74 57 32 74 57 32 65 49 24
65 49 24 65 49 24 82 57 24 74 57 32
65 49 24 65 49 24 65 49 24 65 49 24
65 49 24 49 41 16 65 49 24 65 49 24
65 49 24 65 49 24 65 49 24 65 49 24
65 49 24 49 41 16 65 49 24 65 49 24
74 57 32 74 57 32 65 49 24 49 41 16
65 49 24 74 57 32 74 57 32 74 57 32
74 57 32 74 57 32 74 57 32 74 57 32
82 57 24 74 57 32 74 57 32 74 57 32
74 57 32 65 49 24 65 49 24 74 57 32
65 49 24 65 49 24 49 41 16 65 49 24
74 57 32 65 49 24 49 41 16 65 49 24
65 49 24 65 49 24 65 49 24 74 57 32
74 57 32 74 57 32 65 49 24 74 57 32
65 49 24 74 57 32 74 57 32 74 57 32
74 57 32 65 49 24 74 57 32 65 49 24
65 49 24 74 57 32 74 57 32 74 57 32
74 57 32 65 49 24 65 49 24 49 41 16
65 49 24 65 49 24 65 49 24 65 49 24
65 49 24 65 49 24 49 41 16 65 49 24
49 41 16 65 49 24 65 49 24 74 57 32
74 57 32 74 57 32 65 49 24 65 49 24
65 49 24 65 49 24 74 57 32 82 65 49
82 65 49 65 49 24 65 49 24 74 57 32
74 57 32 74 57 32 74 57 32 74 57 32
74 57 32 65 49 24 65 49 24 65 49 24
49 41 16 65 49 24 49 41 16 65 49 24
74 57 32 65 49 24 65 49 24 65 49 24
65 49 24 65 49 24 65 49 24 74 57 32
74 57 32 74 57 32 65 49 24 74 57 32
74 57 32 74 57 32 74 57 32 82 65 49
82 65 49 65 49 24 74 57 32 65 49 24
74 57 32 74 57 32 74 57 32 65 49 24
74 57 32 65 49 24 65 49 24 74 57 32
65 49 24 65 49 24 65 49 24 65 49 24
65 49 24 65 49 24 65 49 24 65 49 24
65 49 24 65 49 24 65 49 24 74 57 32
74 57 32 65 49 24 65 49 24 49 41 16
74 57 32 65 49 24 74 57 32 74 57 32
74 57 32 74 57 32 65 49 24 65 49 24
82 65 49 82 57 24 74 57 32 74 57 32
74 57 32 65 49 24 65 49 24 65 49 24
65 49 24 65 49 24 65 49 24 65 49 24
65 49 24 65 49 24 74 57 32 65 49 24
74 57 32 65 49 24 74 57 32 74 57 32
74 57 32 65 49 24 74 57 32 65 49 24
65 49 24 65 49 24 74 57 32 74 57 32
74 57 32 74 57 32 74 57 32 65 49 24
82 65 49 74 57 32 82 57 24 65 49 24
74 57 32 65 49 24 65 49 24 65 49 24
65 49 24 65 49 24 65 49 24 65 49 24
65 49 24 65 49 24 65 49 24 65 49 24
49 41 16 65 49 24 65 49 24 74 57 32
74 57 32 65 49 24 49 41 16 65 49 24
65 49 24 74 57 32 74 57 32 74 57 32
82 65 49 65 49 24 74 57 32 74 57 32
82 65 49 82 57 24 74 57 32 74 57 32
74 57 32 65 49 24 65 49 24 65 49 24
74 57 32 65 49 24 65 49 24 74 57 32
65 49 24 65 49 24 74 57 32 74 57 32
74 57 32 74 57 32 74 57 32 74 57 32
65 49 24 65 49 24 65 49 24 65 49 24
65 49 24 65 49 24 65 49 24 74 57 32
82 65 49 65 49 24 74 57 32 74 57 32
82 65 49 74 57 32 82 57 24 65 49 24
74 57 32 65 49 24 65 49 24 65 49 24
65 49 24 65 49 24 49 41 16 65 49 24
65 49 24 65 49 24 65 49 24 49 41 16
49 41 16 49 41 16 65 49 24 65 49 24
65 49 24 65 49 24 65 49 24 65 49 24
65 49 24 74 57 32 74 57 32 74 57 32
74 57 32 65 49 24 65 49 24 74 57 32
82 65 49 82 57 24 74 57 32 74 57 32
74 57 32 65 49 24 65 49 24 74 57 32
65 49 24 65 49 24 65 49 24 74 57 32
74 57 32 65 49 24 74 57 32 74 57 32
74 57 32 65 49 24 74 57 32 74 57 32
74 57 32 65 49 24 65 49 24 65 49 24
49 41 16 65 49 24 65 49 24 74 57 32
74 57 32 65 49 24 74 57 32 65 49 24
82 65 49 74 57 32 74 57 32 74 57 32
74 57 32 65 49 24 65 49 24 65 49 24
49 41 16 49 41 16 49 41 16 65 49 24
65 49 24 65 49 24 65 49 24 49 41 16
49 41 16 65 49 24 65 49 24 65 49 24
65 49 24 65 49 24 65 49 24 65 49 24
65 49 24 74 57 32 74 57 32 74 57 32
74 57 32 49 41 16 65 49 24 74 57 32
74 57 32 65 49 24 74 57 32 74 57 32
74 57 32 74 57 32 74 57 32 74 57 32
74 57 32 65 49 24 74 57 32 74 57 32
74 57 32 65 49 24 65 49 24 74 57 32
65 49 24 65 49 24 74 57 32 82 57 24
65 49 24 65 49 24 65 49 24 49 41 16
65 49 24 65 49 24 65 49 24 82 65 49
65 49 24 49 41 16 74 57 32 49 41 16
74 57 32 74 57 32 74 57 32 74 57 32
74 57 32 65 49 24 65 49 24 65 49 24
49 41 16 49 41 16 65 49 24 65 49 24
65 49 24 65 49 24 65 49 24 49 41 16
49 41 16 65 49 24 65 49 24 65 49 24
65 49 24 49 41 16 65 49 24 65 49 24
74 57 32 74 57 32 74 57 32 74 57 32
74 57 32 65 49 24 65 49 24 74 57 32
82 57 24 65 49 24 74 57 32 74 57 32
74 57 32 74 57 32 65 49 24 82 57 24
74 57 32 74 57 32 74 57 32 74 57 32
82 65 49 65 49 24 65 49 24 74 57 32
65 49 24 65 49 24 65 49 24 74 57 32
74 57 32 65 49 24 65 49 24 65 49 24
65 49 24 65 49 24 65 49 24 74 57 32
74 57 32 65 49 24 74 57 32 65 49 24
65 49 24 74 57 32 74 57 32 65 49 24
74 57 32 65 49 24 65 49 24 65 49 24
49 41 16 65 49 24 65 49 24 65 49 24
65 49 24 49 41 16 65 49 24 65 49 24
65 49 24 65 49 24 65 49 24 65 49 24
65 49 24 49 41 16 65 49 24 49 41 16
65 49 24 65 49 24 74 57 32 82 57 24
74 57 32 65 49 24 65 49 24 74 57 32
82 57 24 65 49 24 74 57 32 74 57 32
74 57 32 65 49 24 74 57 32 74 57 32
82 57 24 82 65 49 82 65 49 74 57 32
82 65 49 74 57 32 74 57 32 74 57 32
65 49 24 65 49 24 74 57 32 74 57 32
74 57 32 74 57 32 65 49 24 65 49 24
65 49 24 65 49 24 65 49 24 65 49 24
74 57 32 65 49 24 74 57 32 65 49 24
65 49 24 74 57 32 74 57 32 65 49 24
74 57 32 65 49 24 49 41 16 65 49 24
49 41 16 49 41 16 65 49 24 65 49 24
65 49 24 65 49 24 65 49 24 65 49 24
65 49 24 65 49 24 65 49 24 65 49 24
65 49 24 49 41 16 65 49 24 49 41 16
65 49 24 65 49 24 74 57 32 82 57 24
74 57 32 65 49 24 65 49 24 74 57 32
82 57 24 74 57 32 74 57 32 74 57 32
74 57 32 65 49 24 65 49 24 74 57 32
82 65 49 82 65 49 82 65 49 74 57 32
82 65 49 74 57 32 74 57 32 74 57 32
65 49 24 74 57 32 74 57 32 82 65 49
74 57 32 65 49 24 65 49 24 65 49 24
65 49 24 65 49 24 65 49 24 65 49 24
74 57 32 65 49 24 65 49 24 65 49 24
65 49 24 74 57 32 74 57 32 74 57 32
74 57 32 65 49 24 65 49 24 65 49 24
65 49 24 65 49 24 65 49 24 65 49 24
65 49 24 49 41 16 65 49 24 74 57 32
65 49 24 74 57 32 49 41 16 65 49 24
65 49 24 65 49 24 49 41 16 49 41 16
82 65 49 65 49 24 74 57 32 82 57 24
74 57 32 65 49 24 65 49 24 74 57 32
74 57 32 74 57 32 74 57 32 65 49 24
65 49 24 65 49 24 65 49 24 74 57 32
74 57 32 74 57 32 82 65 49 74 57 32
82 65 49 82 65 49 74 57 32 74 57 32
74 57 32 74 57 32 82 65 49 82 65 49
82 65 49 74 57 32 65 49 24 65 49 24
65 49 24 65 49 24 65 49 24 65 49 24
65 49 24 65 49 24 65 49 24 49 41 16
74 57 32 74 57 32 74 57 32 74 57 32
65 49 24 65 49 24 65 49 24 65 49 24
65 49 24 74 57 32 74 57 32 65 49 24
49 41 16 49 41 16 65 49 24 65 49 24
74 57 32 65 49 24 65 49 24 65 49 24
49 41 16 65 49 24 65 49 24 49 41 16
65 49 24 65 49 24 65 49 24 74 57 32
74 57 32 65 49 24 49 41 16 74 57 32
74 57 32 65 49 24 74 57 32 65 49 24
74 57 32 65 49 24 65 49 24 74 57 32
74 57 32 82 65 49 74 57 32 74 57 32
82 65 49 74 57 32 74 57 32 74 57 32
74 57 32 49 41 16 74 57 32 82 65 49
74 57 32 65 49 24 65 49 24 65 49 24
65 49 24 65 49 24 65 49 24 74 57 32
65 49 24 65 49 24 49 41 16 65 49 24
82 65 49 74 57 32 74 57 32 74 57 32
65 49 24 65 49 24 65 49 24 65 49 24
74 57 32 74 57 32 74 57 32 74 57 32
65 49 24 65 49 24 74 57 32 65 49 24
74 57 32 74 57 32 65 49 24 65 49 24
65 49 24 65 49 24 65 49 24 49 41 16
65 49 24 65 49 24 65 49 24 74 57 32
65 49 24 65 49 24 65 49 24 65 49 24
74 57 32 65 49 24 65 49 24 74 57 32
74 57 32 74 57 32 65 49 24 74 57 32
74 57 32 74 57 32 74 57 32 74 57 32
74 57 32 74 57 32 74 57 32 74 57 32
74 57 32 65 49 24 65 49 24 74 57 32
65 49 24 65 49 24 65 49 24 65 49 24
65 49 24 65 49 24 65 49 24 74 57 32
65 49 24 65 49 24 65 49 24 65 49 24
82 57 24 65 49 24 74 57 32 74 57 32
74 57 32 49 41 16 65 49 24 74 57 32
74 57 32 74 57 32 74 57 32 74 57 32
65 49 24 65 49 24 65 49 24 65 49 24
74 57 32 65 49 24 65 49 24 65 49 24
49 41 16 65 49 24 65 49 24 49 41 16
32 32 32 65 49 24 65 49 24 74 57 32
65 49 24 74 57 32 74 57 32 65 49 24
74 57 32 65 49 24 65 49 24 74 57 32
74 57 32 65 49 24 74 57 32 74 57 32
74 57 32 74 57 32 74 57 32 65 49 24
74 57 32 65 49 24 74 57 32 74 57 32
74 57 32 65 49 24 65 49 24 65 49 24
74 57 32 74 57 32 74 57 32 65 49 24
65 49 24 74 57 32 74 57 32 65 49 24
65 49 24 65 49 24 65 49 24 65 49 24
74 57 32 65 49 24 74 57 32 74 57 32
74 57 32 65 49 24 74 57 32 74 57 32
74 57 32 65 49 24 65 49 24 65 49 24
65 49 24 65 49 24 65 49 24 65 49 24
65 49 24 65 49 24 65 49 24 65 49 24
65 49 24 65 49 24 49 41 16 49 41 16
49 41 16 65 49 24 65 49 24 65 49 24
65 49 24 65 49 24 74 57 32 74 57 32
74 57 32 65 49 24 65 49 24 74 57 32
65 49 24 65 49 24 65 49 24 74 57 32
74 57 32 74 57 32 74 57 32 65 49 24
65 49 24 65 49 24 65 49 24 74 57 32
74 57 32 49 41 16 65 49 24 65 49 24
74 57 32 74 57 32 65 49 24 65 49 24
74 57 32 74 57 32 74 57 32 74 57 32
74 57 32 65 49 24 65 49 24 65 49 24
65 49 24 65 49 24 74 57 32 82 65 49
74 57 32 65 49 24 74 57 32 65 49 24
65 49 24 74 57 32 65 49 24 74 57 32
65 49 24 49 41 16 65 49 24 65 49 24
65 49 24 65 49 24 65 49 24 65 49 24
65 49 24 49 41 16 65 49 24 49 41 16
65 49 24 65 49 24 65 49 24 65 49 24
65 49 24 65 49 24 74 57 32 74 57 32
74 57 32 65 49 24 65 49 24 74 57 32
65 49 24 65 49 24 65 49 24 65 49 24
74 57 32 74 57 32 74 57 32 65 49 24
65 49 24 65 49 24 65 49 24 65 49 24
65 49 24 65 49 24 65 49 24 65 49 24
65 49 24 65 49 24 65 49 24 65 49 24
65 49 24 74 57 32 74 57 32 65 49 24
65 49 24 65 49 24 65 49 24 74 57 32
65 49 24 49 41 16 65 49 24 82 65 49
74 57 32 49 41 16 65 49 24 49 41 16
49 41 16 65 49 24 74 57 32 65 49 24
65 49 24 49 41 16 65 49 24 65 49 24
74 57 32 65 49 24 65 49 24 65 49 24
49 41 16 65 49 24 65 49 24 65 49 24
65 49 24 49 41 16 49 41 16 65 49 24
65 49 24 65 49 24 74 57 32 65 49 24
74 57 32 74 57 32 74 57 32 74 57 32
65 49 24 65 49 24 74 57 32 65 49 24
65 49 24 74 57 32 65 49 24 65 49 24
65 49 24 65 49 24 65 49 24 65 49 24
65 49 24 65 49 24 65 49 24 65 49 24
65 49 24 65 49 24 65 49 24 65 49 24
74 57 32 65 49 24 65 49 24 74 57 32
65 49 24 65 49 24 74 57 32 82 65 49
74 57 32 74 57 32 74 57 32 65 49 24
65 49 24 65 49 24 65 49 24 65 49 24
49 41 16 65 49 24 65 49 24 65 49 24
65 49 24 49 41 16 74 57 32 65 49 24
65 49 24 65 49 24 65 49 24 49 41 16
49 41 16 49 41 16 65 49 24 65 49 24
65 49 24 65 49 24 65 49 24 65 49 24
65 49 24 65 49 24 74 57 32 74 57 32
65 49 24 74 57 32 65 49 24 74 57 32
65 49 24 74 57 32 65 49 24 65 49 24
65 49 24 65 49 24 65 49 24 65 49 24
65 49 24 49 41 16 65 49 24 65 49 24
65 49 24 65 49 24 65 49 24 65 49 24
65 49 24 65 49 24 65 49 24 74 57 32
65 49 24 65 49 24 65 49 24 65 49 24
65 49 24 65 49 24 65 49 24 82 57 24
65 49 24 74 57 32 74 57 32 74 57 32
49 41 16 65 49 24 65 49 24 49 41 16
65 49 24 65 49 24 65 49 24 49 41 16
65 49 24 65 49 24 65 49 24 65 49 24
74 57 32 65 49 24 65 49 24 49 41 16
65 49 24 49 41 16 49 41 16 65 49 24
65 49 24 65 49 24 65 49 24 65 49 24
65 49 24 74 57 32 74 57 32 74 57 32
65 49 24 74 57 32 65 49 24 74 57 32
65 49 24 65 49 24 74 57 32 65 49 24
65 49 24 74 57 32 65 49 24 74 57 32
65 49 24 65 49 24 65 49 24 65 49 24
74 57 32 65 49 24 65 49 24 65 49 24
65 49 24 65 49 24 65 49 24 74 57 32
65 49 24 65 49 24 49 41 16 65 49 24
65 49 24 65 49 24 65 49 24 74 57 32
65 49 24 74 57 32 74 57 32 74 57 32
65 49 24 74 57 32 65 49 24 49 41 16
49 41 16 65 49 24 65 49 24 49 41 16
49 41 16 65 49 24 65 49 24 65 49 24
74 57 32 65 49 24 65 49 24 49 41 16
65 49 24 49 41 16 65 49 24 49 41 16
65 49 24 65 49 24 65 49 24 65 49 24
65 49 24 65 49 24 74 57 32 74 57 32
65 49 24 74 57 32 74 57 32 74 57 32
65 49 24 65 49 24 74 57 32 74 57 32
65 49 24 74 57 32 65 49 24 74 57 32
65 49 24 49 41 16 65 49 24 65 49 24
65 49 24 65 49 24 49 41 16 65 49 24
49 41 16 65 49 24 65 49 24 65 49 24
65 49 24 65 49 24 65 49 24 49 41 16
65 49 24 65 49 24 65 49 24 65 49 24
65 49 24 74 57 32 65 49 24 65 49 24
65 49 24 65 49 24 49 41 16 49 41 16
49 41 16 65 49 24 65 49 24 65 49 24
49 41 16 65 49 24 74 57 32 65 49 24
74 57 32 65 49 24 65 49 24 49 41 16
49 41 16 65 49 24 65 49 24 49 41 16
65 49 24 65 49 24 65 49 24 74 57 32
65 49 24 65 49 24 65 49 24 65 49 24
74 57 32 65 49 24 74 57 32 74 57 32
74 57 32 49 41 16 65 49 24 74 57 32
74 57 32 74 57 32 65 49 24 65 49 24
65 49 24 65 49 24 65 49 24 65 49 24
74 57 32 65 49 24 65 49 24 74 57 32
65 49 24 65 49 24 65 49 24 65 49 24
65 49 24 65 49 24 65 49 24 65 49 24
65 49 24 49 41 16 65 49 24 65 49 24
49 41 16 65 49 24 65 49 24 65 49 24
49 41 16 65 49 24 49 41 16 49 41 16
49 41 16 65 49 24 49 41 16 65 49 24
65 49 24 65 49 24 65 49 24 65 49 24
74 57 32 74 57 32 65 49 24 65 49 24
49 41 16 65 49 24 65 49 24 49 41 16
65 49 24 65 49 24 65 49 24 74 57 32
65 49 24 65 49 24 65 49 24 65 49 24
74 57 32 65 49 24 65 49 24 74 57 32
74 57 32 65 49 24 74 57 32 74 57 32
74 57 32 74 57 32 65 49 24 65 49 24
65 49 24 65 49 24 74 57 32 65 49 24
74 57 32 65 49 24 65 49 24 65 49 24
65 49 24 65 49 24 49 41 16 65 49 24
65 49 24 65 49 24 65 49 24 65 49 24
65 49 24 65 49 24 65 49 24 65 49 24
65 49 24 65 49 24 65 49 24 65 49 24
65 49 24 65 49 24 65 49 24 49 41 16
49 41 16 65 49 24 49 41 16 49 41 16
65 49 24 65 49 24 65 49 24 65 49 24
74 57 32 65 49 24 65 49 24 65 49 24
65 49 24 65 49 24 49 41 16 65 49 24
49 41 16 65 49 24 65 49 24 65 49 24
65 49 24 65 49 24 65 49 24 65 49 24
74 57 32 65 49 24 65 49 24 74 57 32
65 49 24 65 49 24 65 49 24 74 57 32
74 57 32 74 57 32 74 57 32 65 49 24
65 49 24 65 49 24 65 49 24 74 57 32
65 49 24 49 41 16 65 49 24 65 49 24
65 49 24 65 49 24 65 49 24 65 49 24
49 41 16 65 49 24 65 49 24 65 49 24
65 49 24 65 49 24 65 49 24 65 49 24
65 49 24 65 49 24 65 49 24 65 49 24
65 49 24 65 49 24 65 49 24 65 49 24
49 41 16 65 49 24 49 41 16 49 41 16
65 49 24 49 41 16 65 49 24 65 49 24
65 49 24 65 49 24 65 49 24 65 49 24
65 49 24 49 41 16 65 49 24 49 41 16
65 49 24 65 49 24 65 49 24 65 49 24
74 57 32 65 49 24 49 41 16 65 49 24
74 57 32 65 49 24 74 57 32 74 57 32
74 57 32 65 49 24 65 49 24 74 57 32
65 49 24 74 57 32 74 57 32 65 49 24
65 49 24 65 49 24 65 49 24 65 49 24
74 57 32 49 41 16 65 49 24 65 49 24
49 41 16 65 49 24 65 49 24 65 49 24
65 49 24 65 49 24 65 49 24 65 49 24
74 57 32 65 49 24 49 41 16 65 49 24
65 49 24 49 41 16 65 49 24 65 49 24
65 49 24 49 41 16 65 49 24 49 41 16
49 41 16 65 49 24 49 41 16 49 41 16
65 49 24 49 41 16 65 49 24 65 49 24
74 57 32 65 49 24 65 49 24 65 49 24
49 41 16 65 49 24 65 49 24 49 41 16
65 49 24 49 41 16 49 41 16 65 49 24
65 49 24 65 49 24 65 49 24 65 49 24
74 57 32 65 49 24 65 49 24 74 57 32
65 49 24 65 49 24 74 57 32 65 49 24
65 49 24 65 49 24 65 49 24 65 49 24
65 49 24 65 49 24 65 49 24 74 57 32
74 57 32 65 49 24 65 49 24 65 49 24
65 49 24 65 49 24 65 49 24 65 49 24
65 49 24 49 41 16 65 49 24 65 49 24
74 57 32 65 49 24 65 49 24 65 49 24
65 49 24 65 49 24 65 49 24 65 49 24
65 49 24 65 49 24 65 49 24 65 49 24
49 41 16 49 41 16 65 49 24 49 41 16
65 49 24 49 41 16 74 57 32 65 49 24
65 49 24 65 49 24 65 49 24 49 41 16
65 49 24 65 49 24 65 49 24 49 41 16
65 49 24 65 49 24 65 49 24 65 49 24
65 49 24 65 49 24 65 49 24 65 49 24
65 49 24 65 49 24 65 49 24 65 49 24
65 49 24 49 41 16 65 49 24 74 57 32
65 49 24 65 49 24 65 49 24 65 49 24
65 49 24 49 41 16 74 57 32 74 57 32
74 57 32 65 49 24 65 49 24 65 49 24
65 49 24 65 49 24 65 49 24 74 57 32
65 49 24 65 49 24 65 49 24 65 49 24
65 49 24 65 49 24 65 49 24 65 49 24
65 49 24 65 49 24 65 49 24 65 49 24
65 49 24 65 49 24 65 49 24 65 49 24
65 49 24 65 49 24 49 41 16 49 41 16
65 49 24 65 49 24 65 49 24 65 49 24
74 57 32 65 49 24 65 49 24 49 41 16
65 49 24 65 49 24 65 49 24 49 41 16
65 49 24 65 49 24 65 49 24 65 49 24
65 49 24 65 49 24 65 49 24 65 49 24
65 49 24 49 41 16 65 49 24 74 57 32
65 49 24 65 49 24 49 41 16 74 57 32
65 49 24 74 57 32 65 49 24 65 49 24
65 49 24 65 49 24 65 49 24 74 57 32
65 49 24 65 49 24 65 49 24 65 49 24
49 41 16 65 49 24 65 49 24 74 57 32
65 49 24 65 49 24 49 41 16 65 49 24
74 57 32 65 49 24 49 41 16 65 49 24
65 49 24 49 41 16 65 49 24 74 57 32
65 49 24 65 49 24 49 41 16 65 49 24
49 41 16 65 49 24 65 49 24 49 41 16
49 41 16 65 49 24 65 49 24 65 49 24
74 57 32 65 49 24 65 49 24 49 41 16
65 49 24 65 49 24 65 49 24 49 41 16
65 49 24 65 49 24 65 49 24 65 49 24
65 49 24 65 49 24 49 41 16 65 49 24
65 49 24 65 49 24 49 41 16 74 57 32
65 49 24 65 49 24 74 57 32 74 57 32
74 57 32 74 57 32 65 49 24 49 41 16
65 49 24 49 41 16 74 57 32 74 57 32
74 57 32 65 49 24 49 41 16 65 49 24
65 49 24 65 49 24 65 49 24 74 57 32
65 49 24 65 49 24 65 49 24 65 49 24
82 57 24 65 49 24 49 41 16 65 49 24
65 49 24 65 49 24 49 41 16 65 49 24
65 49 24 65 49 24 65 49 24 65 49 24
49 41 16 65 49 24 65 49 24 65 49 24
49 41 16 65 49 24 74 57 32 65 49 24
74 57 32 65 49 24 65 49 24 49 41 16
49 41 16 65 49 24 65 49 24 49 41 16
