P3
# Converted to P3 by scripts/convert_to_p3.py
64 64
255
82 0 0 98 8 8 98 8 8 65 0 0
98 8 8 98 8 8 106 8 8 115 16 16
106 8 8 131 24 24 131 65 0 115 41 0
115 41 0 115 41 0 131 65 0 65 0 0
65 0 0 65 0 0 65 0 0 65 0 0
65 0 0 65 0 0 65 0 0 65 0 0
65 0 0 65 0 0 82 0 0 65 0 0
115 16 16 131 24 24 131 65 0 131 65 0
131 65 0 115 41 0 115 41 0 115 41 0
131 65 0 131 65 0 131 65 0 115 16 16
115 16 16 131 65 0 131 65 0 65 0 0
65 0 0 65 0 0 65 0 0 65 0 0
65 0 0 65 0 0 65 0 0 106 8 8
106 8 8 115 41 0 115 74 41 115 41 0
115 41 0 115 41 0 115 41 0 131 24 24
115 41 0 115 16 16 115 41 0 106 8 8
65 0 0 82 0 0 82 0 0 82 0 0
98 8 8 106 8 8 106 8 8 115 16 16
98 8 8 98 8 8 115 16 16 115 41 0
131 65 0 131 65 0 106 8 8 98 8 8
82 0 0 65 0 0 65 0 0 65 0 0
65 0 0 65 0 0 65 0 0 65 0 0
65 0 0 65 0 0 82 0 0 65 0 0
106 8 8 131 65 0 131 65 0 131 65 0
131 65 0 131 65 0 115 41 0 115 41 0
131 65 0 115 41 0 115 16 16 115 41 0
115 41 0 115 41 0 115 41 0 115 41 0
106 8 8 98 8 8 65 0 0 65 0 0
82 0 0 65 0 0 65 0 0 65 0 0
106 8 8 115 41 0 115 41 0 115 41 0
115 41 0 131 65 0 115 41 0 115 41 0
115 41 0 115 41 0 115 41 0 106 8 8
82 0 0 65 0 0 82 0 0 98 8 8
98 8 8 115 41 0 106 8 8 98 8 8
98 8 8 115 16 16 115 16 16 115 41 0
131 65 0 131 65 0 106 8 8 65 0 0
65 0 0 65 0 0 65 0 0 65 0 0
65 0 0 65 0 0 65 0 0 65 0 0
65 0 0 65 0 0 82 0 0 98 8 8
106 8 8 115 41 0 115 41 0 106 8 8
115 41 0 115 41 0 115 41 0 115 41 0
106 8 8 82 0 0 82 0 0 98 8 8
115 41 0 115 41 0 115 41 0 115 41 0
106 8 8 106 8 8 98 8 8 82 0 0
65 0 0 65 0 0 65 0 0 65 0 0
65 0 0 106 8 8 106 8 8 115 41 0
115 41 0 131 65 0 115 41 0 115 41 0
115 41 0 115 41 0 106 8 8 65 0 0
65 0 0 65 0 0 82 0 0 98 8 8
115 41 0 115 16 16 98 8 8 82 0 0
82 0 0 106 8 8 115 41 0 131 65 0
131 65 0 131 65 0 115 41 0 115 41 0
106 8 8 106 8 8 106 8 8 65 0 0
65 0 0 65 0 0 65 0 0 65 0 0
65 0 0 82 0 0 82 0 0 106 8 8
98 8 8 115 41 0 115 41 0 106 8 8
98 8 8 98 8 8 65 0 0 65 0 0
65 0 0 65 0 0 65 0 0 65 0 0
82 0 0 82 0 0 115 41 0 115 41 0
98 8 8 115 41 0 106 8 8 65 0 0
65 0 0 65 0 0 65 0 0 65 0 0
65 0 0 65 0 0 82 0 0 98 8 8
98 8 8 131 65 0 115 41 0 98 8 8
106 8 8 65 0 0 65 0 0 65 0 0
65 0 0 65 0 0 82 0 0 98 8 8
82 0 0 98 8 8 98 8 8 82 0 0
65 0 0 115 41 0 131 65 0 131 65 0
131 65 0 131 65 0 131 65 0 156 90 16
115 41 0 106 8 8 115 41 0 98 8 8
82 0 0 65 0 0 82 0 0 82 0 0
65 0 0 82 0 0 98 8 8 115 41 0
115 41 0 115 41 0 115 41 0 82 0 0
82 0 0 65 0 0 65 0 0 65 0 0
65 0 0 65 0 0 65 0 0 65 0 0
65 0 0 82 0 0 82 0 0 98 8 8
98 8 8 98 8 8 115 41 0 82 0 0
65 0 0 65 0 0 65 0 0 65 0 0
65 0 0 65 0 0 65 0 0 82 0 0
106 8 8 115 41 0 115 41 0 106 8 8
65 0 0 65 0 0 65 0 0 65 0 0
65 0 0 82 0 0 98 8 8 65 0 0
65 0 0 65 0 0 98 8 8 98 8 8
106 8 8 131 65 0 131 65 0 115 41 0
131 65 0 131 82 49 131 82 49 172 106 65
156 90 16 115 41 0 106 8 8 106 8 8
65 0 0 65 0 0 65 0 0 82 0 0
98 8 8 98 8 8 98 8 8 115 41 0
115 41 0 115 41 0 115 41 0 65 0 0
65 0 0 65 0 0 65 0 0 65 0 0
65 0 0 65 0 0 65 0 0 65 0 0
65 0 0 65 0 0 82 0 0 65 0 0
106 8 8 98 8 8 115 41 0 106 8 8
65 0 0 65 0 0 65 0 0 65 0 0
65 0 0 65 0 0 82 0 0 106 8 8
98 8 8 115 41 0 115 41 0 98 8 8
106 8 8 65 0 0 65 0 0 65 0 0
65 0 0 82 0 0 82 0 0 65 0 0
65 0 0 65 0 0 65 0 0 65 0 0
106 8 8 115 41 0 131 65 0 131 65 0
131 65 0 131 65 0 156 90 16 156 90 16
172 123 24 131 65 0 115 41 0 106 8 8
98 8 8 65 0 0 82 0 0 65 0 0
98 8 8 98 8 8 98 8 8 106 8 8
115 41 0 115 41 0 65 0 0 65 0 0
65 0 0 65 0 0 65 0 0 65 0 0
65 0 0 65 0 0 65 0 0 65 0 0
65 0 0 65 0 0 65 0 0 98 8 8
106 8 8 106 8 8 82 0 0 115 41 0
115 41 0 106 8 8 65 0 0 65 0 0
65 0 0 65 0 0 106 8 8 115 41 0
115 41 0 115 41 0 115 41 0 115 41 0
115 41 0 106 8 8 65 0 0 65 0 0
65 0 0 82 0 0 65 0 0 65 0 0
65 0 0 65 0 0 65 0 0 65 0 0
65 0 0 106 8 8 115 41 0 131 65 0
131 65 0 131 65 0 172 123 24 172 123 24
172 123 24 131 65 0 115 41 0 115 41 0
115 41 0 115 16 16 98 8 8 98 8 8
98 8 8 115 16 16 106 8 8 115 41 0
82 0 0 106 8 8 106 8 8 65 0 0
65 0 0 65 0 0 65 0 0 65 0 0
65 0 0 65 0 0 65 0 0 65 0 0
65 0 0 65 0 0 82 0 0 65 0 0
106 8 8 106 8 8 98 8 8 131 65 0
131 65 0 131 65 0 115 41 0 115 41 0
115 41 0 115 41 0 115 41 0 156 90 16
131 65 0 115 41 0 115 41 0 115 41 0
115 41 0 115 41 0 106 8 8 65 0 0
65 0 0 82 0 0 65 0 0 65 0 0
65 0 0 65 0 0 65 0 0 65 0 0
65 0 0 65 0 0 98 8 8 106 8 8
115 41 0 131 65 0 172 123 24 172 123 24
197 156 41 172 123 24 131 65 0 131 65 0
115 41 0 106 8 8 106 8 8 106 8 8
106 8 8 115 41 0 115 41 0 115 16 16
82 0 0 106 8 8 106 8 8 65 0 0
65 0 0 65 0 0 65 0 0 65 0 0
65 0 0 65 0 0 65 0 0 65 0 0
65 0 0 65 0 0 65 0 0 106 8 8
106 8 8 115 41 0 115 41 0 131 65 0
131 65 0 156 90 16 156 90 16 131 65 0
131 65 0 131 65 0 156 90 16 172 123 24
156 90 16 131 65 0 115 41 0 106 8 8
106 8 8 115 41 0 106 8 8 82 0 0
65 0 0 82 0 0 65 0 0 65 0 0
65 0 0 65 0 0 65 0 0 65 0 0
65 0 0 65 0 0 65 0 0 98 8 8
115 41 0 115 41 0 156 90 16 172 123 24
172 123 24 156 90 16 156 90 16 131 65 0
98 8 8 98 8 8 65 0 0 65 0 0
82 0 0 115 16 16 115 16 16 115 16 16
115 41 0 106 8 8 82 0 0 82 0 0
65 0 0 65 0 0 65 0 0 65 0 0
65 0 0 65 0 0 65 0 0 65 0 0
65 0 0 65 0 0 98 8 8 106 8 8
115 41 0 131 65 0 115 41 0 131 65 0
156 90 16 156 90 16 156 90 16 131 65 0
156 90 16 172 123 24 172 123 24 156 90 16
131 65 0 115 41 0 115 41 0 98 8 8
82 0 0 82 0 0 82 0 0 82 0 0
65 0 0 82 0 0 65 0 0 65 0 0
65 0 0 65 0 0 65 0 0 65 0 0
65 0 0 65 0 0 65 0 0 82 0 0
115 41 0 131 65 0 131 65 0 156 90 16
172 123 24 156 90 16 131 65 0 131 65 0
98 8 8 65 0 0 65 0 0 65 0 0
65 0 0 65 0 0 82 0 0 98 8 8
82 0 0 115 41 0 106 8 8 65 0 0
65 0 0 65 0 0 65 0 0 65 0 0
65 0 0 65 0 0 65 0 0 65 0 0
65 0 0 106 8 8 82 0 0 115 41 0
131 65 0 131 65 0 115 41 0 131 65 0
156 90 16 131 65 0 115 41 0 131 65 0
131 65 0 156 90 16 156 90 16 115 41 0
115 41 0 98 8 8 65 0 0 82 0 0
65 0 0 98 8 8 82 0 0 82 0 0
65 0 0 82 0 0 65 0 0 65 0 0
65 0 0 65 0 0 65 0 0 65 0 0
65 0 0 65 0 0 82 0 0 65 0 0
115 41 0 131 65 0 131 65 0 131 65 0
156 90 16 131 65 0 115 41 0 115 16 16
82 0 0 82 0 0 65 0 0 65 0 0
65 0 0 65 0 0 65 0 0 82 0 0
98 8 8 106 8 8 106 8 8 65 0 0
65 0 0 65 0 0 65 0 0 82 0 0
98 8 8 98 8 8 106 8 8 115 16 16
106 8 8 106 8 8 106 8 8 98 8 8
115 41 0 115 41 0 115 41 0 98 8 8
115 41 0 115 41 0 115 41 0 115 41 0
131 65 0 131 65 0 115 41 0 115 41 0
65 0 0 65 0 0 65 0 0 65 0 0
65 0 0 65 0 0 65 0 0 82 0 0
98 8 8 106 8 8 82 0 0 82 0 0
82 0 0 65 0 0 65 0 0 65 0 0
65 0 0 106 8 8 115 41 0 65 0 0
98 8 8 106 8 8 98 8 8 115 41 0
131 65 0 115 41 0 115 41 0 98 8 8
98 8 8 82 0 0 65 0 0 65 0 0
65 0 0 65 0 0 65 0 0 65 0 0
65 0 0 98 8 8 98 8 8 82 0 0
65 0 0 65 0 0 82 0 0 98 8 8
98 8 8 115 41 0 115 41 0 115 41 0
98 8 8 82 0 0 98 8 8 98 8 8
98 8 8 98 8 8 106 8 8 98 8 8
82 0 0 115 41 0 115 41 0 115 41 0
115 41 0 115 41 0 65 0 0 65 0 0
65 0 0 65 0 0 65 0 0 65 0 0
65 0 0 65 0 0 65 0 0 82 0 0
106 8 8 115 41 0 98 8 8 82 0 0
98 8 8 106 8 8 106 8 8 106 8 8
115 41 0 115 41 0 131 65 0 115 41 0
82 0 0 98 8 8 115 16 16 115 41 0
115 41 0 106 8 8 106 8 8 98 8 8
65 0 0 65 0 0 82 0 0 65 0 0
65 0 0 65 0 0 65 0 0 65 0 0
65 0 0 65 0 0 98 8 8 115 41 0
115 41 0 131 65 0 115 41 0 131 65 0
131 65 0 115 41 0 115 41 0 115 41 0
82 0 0 82 0 0 82 0 0 65 0 0
82 0 0 98 8 8 82 0 0 98 8 8
98 8 8 115 41 0 115 41 0 115 41 0
115 41 0 98 8 8 65 0 0 65 0 0
65 0 0 65 0 0 65 0 0 65 0 0
65 0 0 65 0 0 65 0 0 82 0 0
106 8 8 115 41 0 115 41 0 98 8 8
98 8 8 106 8 8 115 41 0 115 41 0
131 65 0 156 90 16 156 90 16 131 65 0
115 41 0 131 65 0 115 41 0 98 8 8
98 8 8 98 8 8 82 0 0 65 0 0
82 0 0 65 0 0 65 0 0 65 0 0
65 0 0 65 0 0 65 0 0 65 0 0
65 0 0 65 0 0 115 16 16 131 65 0
156 90 16 156 90 16 156 90 16 156 90 16
156 90 16 131 24 24 131 65 0 106 8 8
65 0 0 65 0 0 65 0 0 65 0 0
65 0 0 65 0 0 82 0 0 82 0 0
106 8 8 106 8 8 115 41 0 106 8 8
98 8 8 65 0 0 82 0 0 65 0 0
65 0 0 65 0 0 65 0 0 65 0 0
65 0 0 65 0 0 65 0 0 82 0 0
106 8 8 106 8 8 115 41 0 82 0 0
98 8 8 115 41 0 115 41 0 131 65 0
156 90 16 172 123 24 172 123 24 156 90 16
131 65 0 115 41 0 98 8 8 82 0 0
65 0 0 65 0 0 65 0 0 65 0 0
65 0 0 65 0 0 65 0 0 65 0 0
65 0 0 65 0 0 65 0 0 65 0 0
65 0 0 65 0 0 106 8 8 131 65 0
131 65 0 156 90 16 197 156 41 197 156 41
197 156 41 156 90 16 131 65 0 65 0 0
65 0 0 65 0 0 65 0 0 65 0 0
65 0 0 65 0 0 65 0 0 98 8 8
115 41 0 98 8 8 106 8 8 82 0 0
65 0 0 82 0 0 65 0 0 65 0 0
65 0 0 65 0 0 65 0 0 65 0 0
65 0 0 65 0 0 65 0 0 82 0 0
82 0 0 106 8 8 98 8 8 106 8 8
98 8 8 82 0 0 106 8 8 115 41 0
131 65 0 156 90 16 156 90 16 131 65 0
131 65 0 115 41 0 98 8 8 98 8 8
65 0 0 65 0 0 65 0 0 65 0 0
65 0 0 65 0 0 65 0 0 65 0 0
82 0 0 82 0 0 65 0 0 65 0 0
65 0 0 65 0 0 106 8 8 115 41 0
131 65 0 156 90 16 172 123 24 172 123 24
172 123 24 131 65 0 115 41 0 82 0 0
65 0 0 65 0 0 65 0 0 65 0 0
65 0 0 65 0 0 65 0 0 106 8 8
115 41 0 115 41 0 115 41 0 98 8 8
65 0 0 65 0 0 65 0 0 65 0 0
65 0 0 65 0 0 65 0 0 65 0 0
65 0 0 65 0 0 65 0 0 82 0 0
82 0 0 82 0 0 98 8 8 98 8 8
82 0 0 65 0 0 65 0 0 65 0 0
115 41 0 131 65 0 131 65 0 131 65 0
131 65 0 115 41 0 82 0 0 82 0 0
82 0 0 65 0 0 65 0 0 65 0 0
65 0 0 65 0 0 65 0 0 65 0 0
65 0 0 82 0 0 98 8 8 65 0 0
65 0 0 65 0 0 115 41 0 115 41 0
131 65 0 131 65 0 156 90 16 156 90 16
156 90 16 131 65 0 115 41 0 82 0 0
82 0 0 65 0 0 65 0 0 65 0 0
65 0 0 65 0 0 65 0 0 106 8 8
98 8 8 106 8 8 106 8 8 106 8 8
65 0 0 82 0 0 65 0 0 65 0 0
65 0 0 65 0 0 65 0 0 65 0 0
65 0 0 65 0 0 82 0 0 82 0 0
98 8 8 106 8 8 106 8 8 65 0 0
65 0 0 65 0 0 65 0 0 65 0 0
82 0 0 106 8 8 65 0 0 98 8 8
106 8 8 82 0 0 98 8 8 98 8 8
82 0 0 82 0 0 65 0 0 65 0 0
65 0 0 65 0 0 65 0 0 65 0 0
65 0 0 65 0 0 115 41 0 131 65 0
115 41 0 115 41 0 115 41 0 131 65 0
115 41 0 115 41 0 115 41 0 115 41 0
115 41 0 115 41 0 98 8 8 106 8 8
106 8 8 65 0 0 82 0 0 65 0 0
65 0 0 65 0 0 82 0 0 106 8 8
115 41 0 115 41 0 115 41 0 106 8 8
98 8 8 98 8 8 98 8 8 106 8 8
82 0 0 82 0 0 82 0 0 82 0 0
98 8 8 106 8 8 106 8 8 98 8 8
98 8 8 115 41 0 106 8 8 98 8 8
65 0 0 65 0 0 65 0 0 65 0 0
65 0 0 82 0 0 65 0 0 65 0 0
65 0 0 82 0 0 98 8 8 98 8 8
65 0 0 65 0 0 65 0 0 82 0 0
65 0 0 65 0 0 65 0 0 65 0 0
65 0 0 65 0 0 115 41 0 156 90 16
156 90 16 131 65 0 131 65 0 131 65 0
115 41 0 115 41 0 106 8 8 65 0 0
115 41 0 131 65 0 131 65 0 115 41 0
115 41 0 106 8 8 82 0 0 65 0 0
65 0 0 65 0 0 65 0 0 115 41 0
156 90 16 156 90 16 115 41 0 115 41 0
65 0 0 106 8 8 106 8 8 98 8 8
65 0 0 65 0 0 98 8 8 98 8 8
106 8 8 115 41 0 115 41 0 82 0 0
82 0 0 131 65 0 131 65 0 106 8 8
65 0 0 65 0 0 65 0 0 65 0 0
65 0 0 82 0 0 65 0 0 65 0 0
65 0 0 65 0 0 65 0 0 98 8 8
65 0 0 65 0 0 65 0 0 65 0 0
65 0 0 82 0 0 82 0 0 65 0 0
65 0 0 115 41 0 131 65 0 172 123 24
172 123 24 172 123 24 172 123 24 131 65 0
131 65 0 115 41 0 98 8 8 98 8 8
82 0 0 115 41 0 115 41 0 98 8 8
115 41 0 115 41 0 82 0 0 65 0 0
65 0 0 98 8 8 115 41 0 156 90 16
172 106 65 156 90 16 156 90 16 131 65 0
131 65 0 115 41 0 115 16 16 106 8 8
82 0 0 82 0 0 98 8 8 98 8 8
106 8 8 106 8 8 115 41 0 106 8 8
106 8 8 131 65 0 131 65 0 115 41 0
106 8 8 98 8 8 65 0 0 65 0 0
65 0 0 65 0 0 65 0 0 65 0 0
65 0 0 65 0 0 106 8 8 98 8 8
65 0 0 65 0 0 65 0 0 65 0 0
65 0 0 65 0 0 98 8 8 98 8 8
115 41 0 131 65 0 156 90 16 172 123 24
172 123 24 197 156 41 197 156 41 172 123 24
131 65 0 115 41 0 98 8 8 65 0 0
65 0 0 65 0 0 65 0 0 98 8 8
106 8 8 115 41 0 115 41 0 106 8 8
115 41 0 115 41 0 131 65 0 172 106 65
172 123 24 156 90 16 156 90 16 131 65 0
131 65 0 115 41 0 82 0 0 65 0 0
65 0 0 65 0 0 82 0 0 82 0 0
98 8 8 82 0 0 106 8 8 98 8 8
106 8 8 131 65 0 131 65 0 98 8 8
115 41 0 115 41 0 106 8 8 106 8 8
106 8 8 98 8 8 65 0 0 65 0 0
65 0 0 106 8 8 106 8 8 106 8 8
82 0 0 82 0 0 82 0 0 82 0 0
98 8 8 106 8 8 115 41 0 106 8 8
115 41 0 156 90 16 172 123 24 172 123 24
172 123 24 197 156 41 197 156 41 172 123 24
131 65 0 115 41 0 65 0 0 65 0 0
65 0 0 65 0 0 65 0 0 65 0 0
65 0 0 98 8 8 82 0 0 115 16 16
115 41 0 115 41 0 156 90 16 156 90 16
156 90 16 172 123 24 131 65 0 115 41 0
65 0 0 65 0 0 65 0 0 65 0 0
65 0 0 65 0 0 65 0 0 98 8 8
106 8 8 98 8 8 65 0 0 82 0 0
65 0 0 106 8 8 98 8 8 98 8 8
106 8 8 106 8 8 131 65 0 131 65 0
131 65 0 131 65 0 115 41 0 106 8 8
82 0 0 106 8 8 106 8 8 65 0 0
65 0 0 65 0 0 82 0 0 82 0 0
98 8 8 106 8 8 106 8 8 115 41 0
115 41 0 131 65 0 156 90 16 172 123 24
172 123 24 197 156 41 172 123 24 156 90 16
115 41 0 115 41 0 65 0 0 65 0 0
65 0 0 65 0 0 65 0 0 65 0 0
65 0 0 65 0 0 98 8 8 115 16 16
115 41 0 156 90 16 156 90 16 172 106 65
156 90 16 156 90 16 115 41 0 106 8 8
65 0 0 65 0 0 65 0 0 65 0 0
65 0 0 65 0 0 82 0 0 82 0 0
98 8 8 106 8 8 82 0 0 65 0 0
65 0 0 65 0 0 98 8 8 106 8 8
131 65 0 131 65 0 115 41 0 131 65 0
131 65 0 131 65 0 131 65 0 115 41 0
98 8 8 82 0 0 65 0 0 65 0 0
65 0 0 65 0 0 65 0 0 65 0 0
65 0 0 65 0 0 65 0 0 65 0 0
65 0 0 115 41 0 131 65 0 172 123 24
172 123 24 172 123 24 172 123 24 156 90 16
131 65 0 115 41 0 65 0 0 65 0 0
65 0 0 65 0 0 65 0 0 65 0 0
65 0 0 65 0 0 115 41 0 115 41 0
115 41 0 131 65 0 172 106 65 131 65 0
131 65 0 131 65 0 115 41 0 106 8 8
98 8 8 65 0 0 65 0 0 65 0 0
65 0 0 65 0 0 65 0 0 82 0 0
98 8 8 98 8 8 106 8 8 82 0 0
65 0 0 65 0 0 98 8 8 106 8 8
131 65 0 131 65 0 131 65 0 115 41 0
106 8 8 98 8 8 98 8 8 131 65 0
115 41 0 98 8 8 65 0 0 65 0 0
65 0 0 65 0 0 65 0 0 65 0 0
65 0 0 65 0 0 65 0 0 65 0 0
65 0 0 106 8 8 131 65 0 131 65 0
172 123 24 172 123 24 172 123 24 156 90 16
131 65 0 115 41 0 65 0 0 65 0 0
65 0 0 65 0 0 65 0 0 65 0 0
65 0 0 106 8 8 131 65 0 115 41 0
115 41 0 115 41 0 131 65 0 131 65 0
131 65 0 115 41 0 131 65 0 131 65 0
115 41 0 65 0 0 65 0 0 65 0 0
65 0 0 65 0 0 65 0 0 82 0 0
98 8 8 98 8 8 106 8 8 65 0 0
65 0 0 82 0 0 98 8 8 106 8 8
131 65 0 131 65 0 131 65 0 115 41 0
106 8 8 98 8 8 131 65 0 156 90 16
156 90 16 115 41 0 98 8 8 65 0 0
65 0 0 65 0 0 65 0 0 65 0 0
65 0 0 65 0 0 65 0 0 65 0 0
65 0 0 82 0 0 115 41 0 115 41 0
156 90 16 172 123 24 172 123 24 131 65 0
131 65 0 115 41 0 65 0 0 65 0 0
65 0 0 65 0 0 65 0 0 65 0 0
65 0 0 106 8 8 131 65 0 115 41 0
115 41 0 115 41 0 131 65 0 106 8 8
115 41 0 131 65 0 131 65 0 131 65 0
131 65 0 115 41 0 65 0 0 65 0 0
65 0 0 65 0 0 65 0 0 98 8 8
98 8 8 115 41 0 106 8 8 98 8 8
65 0 0 82 0 0 106 8 8 106 8 8
131 65 0 131 65 0 115 41 0 115 41 0
115 41 0 115 41 0 131 65 0 131 65 0
131 65 0 115 41 0 98 8 8 82 0 0
65 0 0 65 0 0 65 0 0 65 0 0
65 0 0 65 0 0 65 0 0 65 0 0
65 0 0 65 0 0 115 41 0 115 41 0
131 65 0 172 123 24 172 123 24 131 65 0
131 65 0 115 41 0 98 8 8 65 0 0
65 0 0 65 0 0 65 0 0 65 0 0
106 8 8 115 41 0 106 8 8 131 65 0
156 90 16 131 65 0 115 41 0 106 8 8
106 8 8 115 41 0 131 65 0 131 65 0
131 65 0 131 65 0 115 41 0 98 8 8
65 0 0 82 0 0 98 8 8 98 8 8
115 41 0 115 41 0 115 41 0 106 8 8
82 0 0 98 8 8 98 8 8 106 8 8
115 41 0 115 41 0 106 8 8 115 41 0
115 41 0 115 41 0 115 41 0 115 41 0
115 41 0 98 8 8 65 0 0 82 0 0
82 0 0 82 0 0 65 0 0 65 0 0
65 0 0 65 0 0 65 0 0 65 0 0
65 0 0 65 0 0 115 41 0 115 41 0
115 41 0 156 90 16 156 90 16 115 41 0
115 41 0 82 0 0 106 8 8 82 0 0
82 0 0 65 0 0 65 0 0 65 0 0
106 8 8 115 41 0 115 41 0 156 90 16
156 90 16 115 41 0 98 8 8 65 0 0
65 0 0 106 8 8 131 65 0 131 65 0
131 65 0 131 65 0 131 65 0 115 41 0
106 8 8 82 0 0 82 0 0 106 8 8
115 41 0 131 65 0 115 41 0 115 41 0
82 0 0 98 8 8 98 8 8 106 8 8
106 8 8 106 8 8 106 8 8 115 41 0
115 41 0 82 0 0 82 0 0 106 8 8
115 41 0 65 0 0 65 0 0 65 0 0
65 0 0 82 0 0 82 0 0 65 0 0
65 0 0 65 0 0 65 0 0 65 0 0
65 0 0 65 0 0 115 41 0 115 41 0
115 41 0 115 41 0 115 41 0 115 41 0
115 41 0 115 41 0 106 8 8 82 0 0
82 0 0 65 0 0 65 0 0 82 0 0
65 0 0 115 41 0 115 41 0 115 41 0
131 65 0 115 41 0 106 8 8 65 0 0
65 0 0 65 0 0 65 0 0 115 41 0
131 65 0 131 65 0 131 65 0 131 65 0
82 0 0 98 8 8 82 0 0 98 8 8
115 41 0 131 65 0 131 65 0 115 41 0
98 8 8 82 0 0 98 8 8 98 8 8
98 8 8 98 8 8 106 8 8 98 8 8
106 8 8 106 8 8 115 16 16 98 8 8
98 8 8 65 0 0 65 0 0 65 0 0
65 0 0 65 0 0 82 0 0 82 0 0
65 0 0 65 0 0 65 0 0 65 0 0
65 0 0 65 0 0 115 41 0 115 41 0
131 65 0 115 41 0 115 41 0 115 41 0
115 41 0 115 41 0 115 41 0 98 8 8
82 0 0 98 8 8 82 0 0 65 0 0
65 0 0 65 0 0 65 0 0 65 0 0
65 0 0 65 0 0 98 8 8 98 8 8
65 0 0 65 0 0 65 0 0 65 0 0
115 41 0 131 65 0 131 65 0 131 65 0
115 41 0 82 0 0 82 0 0 106 8 8
106 8 8 115 41 0 131 65 0 115 41 0
74 49 24 98 8 8 82 0 0 82 0 0
98 8 8 82 0 0 98 8 8 98 8 8
106 8 8 98 8 8 98 8 8 106 8 8
98 8 8 65 0 0 65 0 0 65 0 0
65 0 0 65 0 0 82 0 0 106 8 8
98 8 8 65 0 0 65 0 0 65 0 0
65 0 0 82 0 0 115 41 0 115 41 0
98 8 8 115 41 0 106 8 8 65 0 0
65 0 0 65 0 0 106 8 8 106 8 8
82 0 0 98 8 8 82 0 0 82 0 0
82 0 0 65 0 0 65 0 0 65 0 0
65 0 0 65 0 0 65 0 0 106 8 8
106 8 8 65 0 0 65 0 0 65 0 0
106 8 8 131 65 0 131 82 49 131 82 49
115 41 0 98 8 8 115 41 0 131 65 0
115 41 0 106 8 8 115 16 16 98 8 8
65 0 0 65 0 0 82 0 0 65 0 0
65 0 0 98 8 8 98 8 8 115 16 16
98 8 8 98 8 8 106 8 8 106 8 8
106 8 8 65 0 0 65 0 0 65 0 0
65 0 0 65 0 0 65 0 0 106 8 8
106 8 8 82 0 0 82 0 0 82 0 0
65 0 0 82 0 0 106 8 8 115 41 0
98 8 8 82 0 0 82 0 0 82 0 0
82 0 0 82 0 0 82 0 0 82 0 0
82 0 0 65 0 0 82 0 0 65 0 0
82 0 0 65 0 0 65 0 0 65 0 0
65 0 0 65 0 0 65 0 0 106 8 8
115 41 0 106 8 8 65 0 0 82 0 0
82 0 0 131 65 0 131 82 49 131 65 0
98 8 8 98 8 8 115 41 0 131 65 0
115 41 0 98 8 8 65 0 0 82 0 0
65 0 0 82 0 0 65 0 0 82 0 0
98 8 8 106 8 8 115 41 0 115 41 0
98 8 8 65 0 0 82 0 0 115 41 0
115 41 0 106 8 8 65 0 0 82 0 0
82 0 0 82 0 0 106 8 8 106 8 8
106 8 8 106 8 8 98 8 8 106 8 8
98 8 8 82 0 0 98 8 8 106 8 8
106 8 8 82 0 0 65 0 0 65 0 0
65 0 0 98 8 8 98 8 8 98 8 8
65 0 0 65 0 0 82 0 0 65 0 0
65 0 0 65 0 0 82 0 0 65 0 0
65 0 0 65 0 0 65 0 0 106 8 8
115 41 0 106 8 8 65 0 0 106 8 8
115 16 16 131 65 0 131 65 0 131 65 0
106 8 8 115 41 0 98 8 8 115 41 0
106 8 8 106 8 8 65 0 0 82 0 0
65 0 0 65 0 0 65 0 0 82 0 0
98 8 8 106 8 8 82 0 0 98 8 8
98 8 8 98 8 8 98 8 8 115 41 0
115 41 0 106 8 8 98 8 8 115 16 16
106 8 8 115 41 0 115 41 0 115 41 0
131 65 0 115 41 0 106 8 8 106 8 8
82 0 0 82 0 0 65 0 0 65 0 0
82 0 0 82 0 0 65 0 0 65 0 0
65 0 0 65 0 0 98 8 8 98 8 8
65 0 0 65 0 0 65 0 0 65 0 0
65 0 0 82 0 0 65 0 0 82 0 0
82 0 0 65 0 0 65 0 0 106 8 8
98 8 8 115 41 0 115 41 0 115 41 0
115 41 0 115 41 0 131 65 0 131 65 0
115 41 0 131 65 0 115 41 0 115 41 0
106 8 8 106 8 8 65 0 0 82 0 0
65 0 0 82 0 0 82 0 0 65 0 0
65 0 0 65 0 0 65 0 0 65 0 0
65 0 0 82 0 0 98 8 8 98 8 8
115 41 0 131 65 0 156 90 16 131 65 0
156 90 16 131 65 0 156 90 16 131 65 0
156 90 16 131 65 0 131 65 0 115 41 0
82 0 0 82 0 0 82 0 0 65 0 0
65 0 0 65 0 0 65 0 0 65 0 0
65 0 0 65 0 0 65 0 0 82 0 0
65 0 0 65 0 0 65 0 0 65 0 0
65 0 0 65 0 0 65 0 0 65 0 0
98 8 8 82 0 0 106 8 8 106 8 8
106 8 8 115 41 0 115 41 0 131 65 0
131 65 0 115 41 0 115 41 0 106 8 8
131 65 0 131 65 0 131 65 0 115 41 0
106 8 8 106 8 8 65 0 0 65 0 0
65 0 0 82 0 0 65 0 0 65 0 0
82 0 0 65 0 0 65 0 0 65 0 0
65 0 0 65 0 0 65 0 0 98 8 8
98 8 8 131 65 0 156 90 16 131 65 0
156 90 16 172 123 24 172 123 24 172 123 24
156 90 16 156 90 16 131 65 0 131 65 0
98 8 8 82 0 0 98 8 8 82 0 0
65 0 0 65 0 0 65 0 0 65 0 0
65 0 0 65 0 0 65 0 0 65 0 0
82 0 0 65 0 0 65 0 0 65 0 0
65 0 0 82 0 0 65 0 0 65 0 0
65 0 0 106 8 8 98 8 8 106 8 8
115 41 0 115 41 0 115 41 0 115 16 16
115 41 0 98 8 8 115 41 0 115 41 0
131 65 0 131 65 0 131 65 0 131 65 0
115 41 0 106 8 8 82 0 0 82 0 0
82 0 0 82 0 0 65 0 0 65 0 0
65 0 0 65 0 0 65 0 0 65 0 0
65 0 0 65 0 0 65 0 0 65 0 0
98 8 8 106 8 8 115 41 0 156 90 16
172 123 24 197 156 41 197 156 41 197 156 41
172 123 24 156 90 16 156 90 16 156 90 16
131 65 0 106 8 8 98 8 8 98 8 8
98 8 8 82 0 0 65 0 0 65 0 0
65 0 0 65 0 0 65 0 0 65 0 0
98 8 8 106 8 8 106 8 8 98 8 8
98 8 8 82 0 0 65 0 0 65 0 0
65 0 0 65 0 0 115 41 0 115 41 0
115 41 0 115 41 0 106 8 8 106 8 8
82 0 0 98 8 8 106 8 8 115 41 0
115 41 0 131 65 0 131 65 0 131 65 0
115 41 0 106 8 8 115 41 0 106 8 8
115 41 0 106 8 8 115 41 0 106 8 8
65 0 0 65 0 0 65 0 0 65 0 0
65 0 0 65 0 0 65 0 0 65 0 0
65 0 0 106 8 8 115 41 0 156 90 16
172 123 24 197 156 41 213 189 65 213 189 65
213 189 65 213 189 65 172 123 24 172 123 24
172 123 24 156 90 16 156 90 16 115 41 0
106 8 8 98 8 8 65 0 0 65 0 0
65 0 0 65 0 0 82 0 0 98 8 8
115 41 0 131 65 0 115 41 0 106 8 8
82 0 0 98 8 8 65 0 0 65 0 0
65 0 0 65 0 0 106 8 8 98 8 8
106 8 8 106 8 8 65 0 0 65 0 0
65 0 0 65 0 0 82 0 0 98 8 8
106 8 8 131 65 0 156 90 16 115 41 0
115 41 0 115 41 0 115 41 0 115 41 0
131 65 0 131 65 0 115 41 0 115 41 0
65 0 0 65 0 0 65 0 0 65 0 0
65 0 0 65 0 0 65 0 0 65 0 0
65 0 0 65 0 0 106 8 8 115 41 0
172 123 24 197 156 41 213 189 65 238 222 82
255 255 115 255 255 65 238 222 82 213 189 65
213 189 65 197 156 41 172 123 24 156 90 16
106 8 8 98 8 8 65 0 0 65 0 0
65 0 0 65 0 0 65 0 0 106 8 8
115 41 0 131 65 0 131 65 0 98 8 8
106 8 8 106 8 8 98 8 8 65 0 0
65 0 0 82 0 0 82 0 0 82 0 0
82 0 0 82 0 0 65 0 0 65 0 0
65 0 0 65 0 0 65 0 0 65 0 0
65 0 0 115 16 16 131 65 0 131 65 0
115 41 0 115 41 0 115 16 16 115 41 0
156 90 16 156 90 16 156 90 16 131 65 0
115 41 0 65 0 0 65 0 0 65 0 0
65 0 0 65 0 0 65 0 0 65 0 0
65 0 0 65 0 0 65 0 0 115 41 0
131 65 0 197 156 41 213 189 65 238 222 82
255 255 32 255 255 115 255 255 32 255 255 32
255 255 32 213 189 65 197 156 41 156 90 16
131 65 0 98 8 8 65 0 0 65 0 0
65 0 0 65 0 0 65 0 0 82 0 0
106 8 8 115 41 0 115 41 0 106 8 8
115 41 0 106 8 8 106 8 8 65 0 0
82 0 0 65 0 0 82 0 0 82 0 0
82 0 0 65 0 0 65 0 0 65 0 0
65 0 0 65 0 0 65 0 0 65 0 0
65 0 0 65 0 0 65 0 0 115 41 0
115 41 0 115 41 0 115 16 16 115 41 0
156 90 16 172 123 24 172 123 24 156 90 16
115 41 0 115 41 0 65 0 0 65 0 0
65 0 0 65 0 0 65 0 0 65 0 0
65 0 0 65 0 0 65 0 0 106 8 8
131 65 0 131 65 0 197 156 41 213 189 65
255 255 106 255 255 0 238 222 82 213 189 65
213 189 65 238 222 82 213 189 65 197 156 41
156 90 16 115 41 0 65 0 0 65 0 0
65 0 0 65 0 0 65 0 0 82 0 0
98 8 8 65 0 0 106 8 8 98 8 8
106 8 8 106 8 8 106 8 8 82 0 0
65 0 0 82 0 0 82 0 0 82 0 0
65 0 0 65 0 0 65 0 0 65 0 0
65 0 0 65 0 0 65 0 0 65 0 0
65 0 0 65 0 0 65 0 0 65 0 0
106 8 8 106 8 8 98 8 8 106 8 8
156 90 16 156 90 16 172 123 24 172 123 24
156 90 16 131 65 0 115 41 0 65 0 0
65 0 0 65 0 0 65 0 0 65 0 0
65 0 0 65 0 0 98 8 8 115 41 0
131 65 0 172 123 24 172 123 24 197 156 41
213 189 65 238 222 82 213 189 65 213 189 65
213 189 65 197 156 41 197 156 41 172 123 24
131 65 0 131 65 0 106 8 8 82 0 0
65 0 0 65 0 0 106 8 8 106 8 8
106 8 8 82 0 0 82 0 0 82 0 0
106 8 8 115 41 0 115 41 0 115 41 0
106 8 8 82 0 0 65 0 0 82 0 0
82 0 0 65 0 0 65 0 0 65 0 0
65 0 0 65 0 0 65 0 0 65 0 0
65 0 0 65 0 0 65 0 0 65 0 0
98 8 8 98 8 8 98 8 8 106 8 8
131 65 0 156 90 16 172 123 24 172 123 24
172 123 24 156 90 16 131 65 0 115 41 0
65 0 0 65 0 0 65 0 0 65 0 0
65 0 0 65 0 0 115 41 0 115 41 0
131 65 0 172 123 24 172 123 24 172 123 24
197 156 41 172 123 24 172 123 24 172 123 24
172 123 24 172 123 24 156 90 16 156 90 16
156 90 16 115 41 0 106 8 8 98 8 8
98 8 8 106 8 8 115 41 0 115 41 0
106 8 8 82 0 0 82 0 0 65 0 0
98 8 8 106 8 8 106 8 8 115 41 0
115 41 0 82 0 0 82 0 0 65 0 0
82 0 0 65 0 0 65 0 0 65 0 0
65 0 0 65 0 0 65 0 0 65 0 0
65 0 0 65 0 0 65 0 0 65 0 0
82 0 0 98 8 8 98 8 8 115 41 0
115 41 0 131 65 0 131 65 0 172 123 24
172 123 24 172 123 24 156 90 16 131 65 0
131 65 0 131 65 0 98 8 8 98 8 8
98 8 8 115 16 16 131 65 0 156 90 16
156 90 16 156 90 16 156 90 16 172 123 24
172 123 24 156 90 16 115 41 0 115 41 0
115 41 0 115 41 0 115 41 0 131 65 0
131 65 0 115 41 0 106 8 8 98 8 8
115 16 16 98 8 8 115 41 0 106 8 8
82 0 0 65 0 0 65 0 0 65 0 0
65 0 0 98 8 8 98 8 8 98 8 8
106 8 8 98 8 8 65 0 0 82 0 0
65 0 0 65 0 0 65 0 0 65 0 0
65 0 0 65 0 0 65 0 0 65 0 0
65 0 0 65 0 0 65 0 0 65 0 0
65 0 0 98 8 8 115 41 0 131 65 0
131 65 0 156 90 16 131 65 0 172 123 24
197 156 41 197 156 41 172 123 24 172 123 24
172 123 24 156 90 16 115 41 0 115 41 0
131 65 0 131 65 0 156 90 16 156 90 16
172 106 65 156 90 16 156 90 16 172 123 24
156 90 16 115 41 0 115 41 0 106 8 8
65 0 0 65 0 0 65 0 0 65 0 0
131 65 0 115 41 0 82 0 0 82 0 0
106 8 8 115 41 0 115 41 0 65 0 0
65 0 0 65 0 0 65 0 0 65 0 0
65 0 0 65 0 0 98 8 8 106 8 8
106 8 8 106 8 8 65 0 0 65 0 0
65 0 0 65 0 0 65 0 0 65 0 0
65 0 0 65 0 0 65 0 0 65 0 0
65 0 0 65 0 0 65 0 0 65 0 0
65 0 0 98 8 8 131 65 0 156 90 16
156 90 16 156 90 16 156 90 16 156 90 16
197 156 41 197 156 41 197 156 41 197 156 41
197 156 41 172 123 24 156 90 16 131 65 0
131 65 0 131 65 0 156 90 16 172 106 65
156 90 16 131 65 0 156 90 16 156 90 16
115 41 0 115 41 0 65 0 0 65 0 0
65 0 0 65 0 0 65 0 0 65 0 0
106 8 8 115 41 0 65 0 0 65 0 0
65 0 0 65 0 0 98 8 8 98 8 8
82 0 0 65 0 0 65 0 0 65 0 0
65 0 0 65 0 0 65 0 0 115 41 0
115 41 0 106 8 8 98 8 8 65 0 0
65 0 0 65 0 0 65 0 0 65 0 0
65 0 0 65 0 0 65 0 0 65 0 0
65 0 0 65 0 0 65 0 0 65 0 0
65 0 0 65 0 0 156 90 16 156 90 16
172 123 24 172 123 24 172 123 24 131 65 0
156 90 16 172 123 24 172 123 24 172 123 24
172 123 24 172 123 24 172 123 24 131 65 0
131 65 0 131 65 0 131 65 0 131 65 0
115 41 0 115 41 0 131 65 0 156 90 16
106 8 8 98 8 8 82 0 0 65 0 0
65 0 0 65 0 0 65 0 0 65 0 0
65 0 0 115 41 0 106 8 8 65 0 0
65 0 0 65 0 0 65 0 0 82 0 0
98 8 8 98 8 8 65 0 0 65 0 0
65 0 0 98 8 8 65 0 0 131 65 0
131 65 0 98 8 8 98 8 8 98 8 8
65 0 0 65 0 0 65 0 0 65 0 0
65 0 0 65 0 0 65 0 0 65 0 0
65 0 0 65 0 0 65 0 0 65 0 0
65 0 0 115 41 0 156 90 16 131 65 0
172 123 24 172 123 24 172 123 24 156 90 16
115 41 0 131 65 0 172 123 24 172 123 24
172 123 24 172 123 24 156 90 16 115 41 0
115 41 0 106 8 8 115 16 16 131 65 0
131 65 0 98 8 8 131 65 0 131 65 0
98 8 8 82 0 0 82 0 0 65 0 0
65 0 0 65 0 0 65 0 0 65 0 0
65 0 0 115 41 0 115 16 16 65 0 0
65 0 0 65 0 0 65 0 0 65 0 0
65 0 0 98 8 8 82 0 0 98 8 8
98 8 8 115 41 0 131 65 0 131 65 0
131 65 0 98 8 8 98 8 8 82 0 0
106 8 8 106 8 8 65 0 0 65 0 0
65 0 0 65 0 0 65 0 0 65 0 0
65 0 0 65 0 0 65 0 0 65 0 0
65 0 0 131 65 0 156 90 16 131 65 0
156 90 16 156 90 16 172 123 24 172 123 24
131 65 0 115 41 0 131 65 0 156 90 16
172 123 24 172 123 24 131 65 0 115 41 0
106 8 8 98 8 8 115 41 0 115 41 0
131 65 0 115 41 0 115 41 0 115 41 0
106 8 8 98 8 8 82 0 0 82 0 0
65 0 0 65 0 0 65 0 0 65 0 0
106 8 8 115 41 0 115 16 16 65 0 0
65 0 0 65 0 0 65 0 0 65 0 0
65 0 0 82 0 0 106 8 8 106 8 8
106 8 8 106 8 8 106 8 8 106 8 8
115 41 0 115 41 0 106 8 8 106 8 8
106 8 8 106 8 8 98 8 8 98 8 8
106 8 8 115 41 0 106 8 8 98 8 8
98 8 8 82 0 0 98 8 8 98 8 8
115 41 0 131 65 0 156 90 16 131 65 0
131 65 0 156 90 16 131 65 0 131 65 0
131 65 0 115 41 0 131 65 0 115 41 0
156 90 16 156 90 16 115 41 0 115 41 0
65 0 0 82 0 0 98 8 8 98 8 8
106 8 8 106 8 8 106 8 8 106 8 8
98 8 8 82 0 0 82 0 0 82 0 0
65 0 0 82 0 0 65 0 0 82 0 0
115 41 0 115 41 0 115 41 0 65 0 0
65 0 0 65 0 0 65 0 0 65 0 0
65 0 0 65 0 0 106 8 8 106 8 8
115 41 0 65 0 0 65 0 0 65 0 0
115 16 16 115 16 16 115 16 16 98 8 8
98 8 8 106 8 8 106 8 8 106 8 8
106 8 8 115 41 0 106 8 8 115 41 0
98 8 8 115 41 0 98 8 8 115 41 0
115 41 0 131 65 0 131 65 0 115 41 0
115 41 0 115 41 0 82 0 0 115 41 0
115 41 0 65 0 0 115 41 0 131 65 0
115 41 0 115 41 0 115 41 0 115 41 0
82 0 0 82 0 0 82 0 0 115 41 0
115 41 0 115 41 0 65 0 0 65 0 0
65 0 0 65 0 0 65 0 0 65 0 0
82 0 0 82 0 0 82 0 0 106 8 8
106 8 8 115 41 0 115 41 0 106 8 8
65 0 0 65 0 0 65 0 0 65 0 0
65 0 0 65 0 0 106 8 8 106 8 8
115 41 0 115 41 0 106 8 8 65 0 0
115 41 0 115 41 0 98 8 8 98 8 8
82 0 0 82 0 0 82 0 0 106 8 8
106 8 8 106 8 8 106 8 8 98 8 8
115 41 0 131 65 0 156 90 16 156 90 16
156 90 16 115 41 0 115 41 0 115 41 0
115 41 0 115 41 0 98 8 8 106 8 8
106 8 8 82 0 0 106 8 8 115 41 0
115 41 0 115 41 0 106 8 8 115 41 0
115 41 0 106 8 8 115 41 0 115 41 0
131 65 0 156 90 16 131 65 0 131 65 0
131 65 0 65 0 0 65 0 0 65 0 0
65 0 0 65 0 0 98 8 8 115 41 0
115 41 0 131 65 0 131 65 0 115 41 0
115 41 0 115 41 0 115 41 0 106 8 8
65 0 0 65 0 0 98 8 8 82 0 0
115 41 0 131 65 0 115 41 0 131 65 0
131 65 0 115 41 0 106 8 8 98 8 8
65 0 0 65 0 0 65 0 0 65 0 0
82 0 0 106 8 8 115 41 0 115 41 0
131 65 0 172 123 24 172 123 24 156 98 57
156 90 16 131 65 0 115 41 0 115 41 0
115 41 0 115 41 0 65 0 0 65 0 0
65 0 0 65 0 0 82 0 0 106 8 8
106 8 8 106 8 8 115 41 0 115 41 0
115 41 0 131 65 0 131 65 0 131 65 0
156 90 16 156 90 16 156 90 16 156 90 16
156 90 16 156 90 16 115 41 0 65 0 0
65 0 0 65 0 0 65 0 0 106 8 8
131 65 0 131 65 0 156 90 16 172 123 24
156 90 16 156 90 16 131 65 0 115 41 0
106 8 8 65 0 0 98 8 8 98 8 8
115 41 0 156 90 16 156 90 16 131 65 0
115 41 0 115 41 0 98 8 8 98 8 8
82 0 0 82 0 0 82 0 0 65 0 0
106 8 8 115 41 0 115 41 0 115 41 0
156 90 16 172 123 24 172 106 65 172 123 24
131 65 0 131 65 0 156 90 16 115 41 0
115 41 0 115 41 0 65 0 0 65 0 0
65 0 0 65 0 0 65 0 0 65 0 0
82 0 0 106 8 8 115 41 0 115 41 0
131 65 0 156 90 16 156 90 16 156 90 16
156 90 16 172 123 24 172 123 24 172 123 24
172 123 24 156 90 16 156 90 16 65 0 0
65 0 0 65 0 0 65 0 0 131 65 0
131 65 0 156 90 16 156 90 16 172 123 24
197 156 41 197 156 41 172 123 24 156 90 16
131 65 0 115 41 0 115 41 0 115 41 0
131 65 0 156 90 16 172 123 24 131 65 0
115 41 0 115 41 0 98 8 8 65 0 0
82 0 0 98 8 8 82 0 0 65 0 0
106 8 8 115 41 0 131 65 0 115 41 0
156 90 16 172 123 24 172 106 65 156 90 16
131 65 0 131 65 0 156 90 16 115 41 0
115 41 0 115 41 0 65 0 0 65 0 0
65 0 0 65 0 0 65 0 0 65 0 0
65 0 0 82 0 0 106 8 8 115 41 0
131 65 0 156 98 57 172 123 24 172 123 24
172 123 24 172 123 24 172 123 24 172 123 24
156 90 16 156 90 16 156 90 16 131 65 0
65 0 0 65 0 0 115 41 0 131 65 0
131 65 0 131 65 0 131 65 0 172 123 24
197 156 41 197 156 41 197 156 41 197 156 41
172 123 24 172 123 24 156 90 16 172 123 24
172 123 24 172 123 24 172 123 24 156 90 16
115 41 0 106 8 8 65 0 0 65 0 0
65 0 0 65 0 0 65 0 0 82 0 0
82 0 0 82 0 0 115 41 0 115 41 0
115 41 0 131 65 0 131 65 0 156 90 16
131 65 0 156 90 16 131 65 0 131 65 0
115 41 0 115 41 0 82 0 0 82 0 0
65 0 0 65 0 0 65 0 0 65 0 0
65 0 0 65 0 0 65 0 0 106 8 8
115 41 0 156 90 16 156 90 16 172 123 24
172 123 24 172 123 24 156 90 16 156 90 16
131 65 0 131 65 0 131 65 0 156 90 16
156 90 16 156 90 16 156 90 16 131 65 0
115 41 0 65 0 0 115 41 0 131 65 0
172 123 24 197 156 41 197 156 41 197 156 41
197 156 41 197 156 41 197 156 41 197 156 41
197 156 41 197 156 41 172 123 24 156 90 16
131 65 0 65 0 0 65 0 0 65 0 0
65 0 0 65 0 0 65 0 0 65 0 0
65 0 0 82 0 0 82 0 0 98 8 8
115 41 0 115 41 0 115 41 0 156 90 16
156 90 16 156 90 16 131 65 0 131 65 0
98 8 8 98 8 8 98 8 8 98 8 8
65 0 0 65 0 0 65 0 0 65 0 0
65 0 0 65 0 0 65 0 0 65 0 0
115 41 0 115 41 0 131 65 0 156 90 16
131 65 0 131 65 0 131 65 0 131 65 0
131 65 0 131 65 0 131 65 0 131 65 0
156 90 16 172 123 24 172 123 24 156 90 16
115 41 0 65 0 0 65 0 0 115 41 0
131 65 0 172 123 24 197 156 41 197 156 41
172 123 24 213 189 65 197 156 41 197 156 41
172 123 24 197 156 41 156 90 16 131 65 0
131 65 0 115 41 0 82 0 0 65 0 0
65 0 0 65 0 0 65 0 0 65 0 0
65 0 0 65 0 0 65 0 0 106 8 8
115 41 0 106 8 8 106 8 8 131 65 0
131 65 0 131 65 0 131 65 0 115 41 0
82 0 0 98 8 8 98 8 8 82 0 0
82 0 0 65 0 0 65 0 0 65 0 0
65 0 0 65 0 0 65 0 0 82 0 0
106 8 8 98 8 8 115 16 16 156 90 16
131 65 0 131 65 0 115 41 0 131 65 0
115 41 0 106 8 8 65 0 0 65 0 0
156 90 16 172 123 24 172 123 24 156 90 16
65 0 0 65 0 0 65 0 0 65 0 0
115 41 0 131 65 0 131 65 0 172 123 24
172 123 24 172 123 24 172 123 24 172 123 24
156 90 16 131 65 0 131 65 0 131 65 0
115 41 0 115 41 0 98 8 8 65 0 0
65 0 0 65 0 0 65 0 0 65 0 0
65 0 0 65 0 0 65 0 0 65 0 0
106 8 8 106 8 8 115 41 0 115 41 0
115 41 0 82 0 0 115 41 0 82 0 0
65 0 0 65 0 0 98 8 8 106 8 8
106 8 8 82 0 0 65 0 0 65 0 0
65 0 0 65 0 0 65 0 0 65 0 0
115 41 0 115 41 0 115 16 16 115 41 0
115 41 0 65 0 0 82 0 0 65 0 0
82 0 0 65 0 0 82 0 0 98 8 8
115 41 0 115 41 0 156 90 16 131 65 0
115 41 0 65 0 0 82 0 0 106 8 8
115 41 0 115 41 0 115 41 0 156 90 16
131 65 0 131 65 0 156 90 16 131 65 0
115 41 0 106 8 8 98 8 8 82 0 0
65 0 0 82 0 0 82 0 0 82 0 0
82 0 0 65 0 0 65 0 0 65 0 0
65 0 0 65 0 0 65 0 0 65 0 0
82 0 0 106 8 8 115 16 16 115 41 0
115 41 0 65 0 0 65 0 0 65 0 0
65 0 0 65 0 0 65 0 0 106 8 8
115 41 0 115 41 0 98 8 8 65 0 0
65 0 0 98 8 8 65 0 0 115 41 0
115 41 0 115 41 0 115 41 0 115 41 0
106 8 8 65 0 0 65 0 0 65 0 0
65 0 0 65 0 0 65 0 0 82 0 0
82 0 0 82 0 0 98 8 8 115 41 0
115 41 0 106 8 8 115 41 0 115 41 0
115 41 0 115 41 0 131 65 0 82 0 0
131 65 0 98 8 8 131 65 0 115 41 0
115 41 0 65 0 0 65 0 0 65 0 0
65 0 0 65 0 0 65 0 0 82 0 0
82 0 0 65 0 0 65 0 0 65 0 0
65 0 0 65 0 0 65 0 0 65 0 0
98 8 8 115 16 16 115 41 0 98 8 8
98 8 8 82 0 0 65 0 0 65 0 0
65 0 0 65 0 0 65 0 0 65 0 0
115 41 0 115 41 0 98 8 8 98 8 8
98 8 8 115 41 0 115 41 0 131 65 0
131 65 0 115 41 0 115 41 0 115 41 0
106 8 8 65 0 0 65 0 0 65 0 0
65 0 0 65 0 0 65 0 0 65 0 0
65 0 0 82 0 0 115 16 16 115 41 0
131 65 0 131 65 0 131 65 0 131 65 0
131 65 0 131 65 0 115 41 0 131 65 0
115 41 0 115 41 0 131 65 0 131 65 0
115 41 0 65 0 0 65 0 0 65 0 0
65 0 0 65 0 0 65 0 0 65 0 0
82 0 0 82 0 0 82 0 0 98 8 8
106 8 8 115 41 0 106 8 8 106 8 8
106 8 8 115 41 0 115 41 0 98 8 8
106 8 8 98 8 8 65 0 0 65 0 0
65 0 0 65 0 0 65 0 0 65 0 0
65 0 0 115 41 0 106 8 8 115 16 16
115 41 0 115 41 0 115 41 0 115 41 0
131 65 0 131 65 0 115 41 0 115 41 0
65 0 0 65 0 0 65 0 0 65 0 0
65 0 0 65 0 0 65 0 0 65 0 0
65 0 0 65 0 0 82 0 0 115 41 0
131 65 0 156 90 16 156 90 16 156 90 16
131 65 0 131 65 0 115 41 0 115 41 0
115 16 16 115 41 0 115 41 0 115 41 0
98 8 8 65 0 0 65 0 0 65 0 0
65 0 0 65 0 0 65 0 0 65 0 0
65 0 0 65 0 0 82 0 0 82 0 0
115 41 0 131 65 0 115 41 0 115 41 0
115 41 0 115 41 0 115 41 0 131 65 0
115 41 0 98 8 8 65 0 0 65 0 0
65 0 0 65 0 0 65 0 0 65 0 0
65 0 0 82 0 0 98 8 8 98 8 8
98 8 8 98 8 8 115 41 0 131 65 0
131 65 0 65 0 0 115 41 0 115 41 0
65 0 0 65 0 0 65 0 0 65 0 0
65 0 0 65 0 0 65 0 0 65 0 0
65 0 0 65 0 0 82 0 0 106 8 8
115 41 0 131 65 0 131 65 0 115 41 0
115 41 0 115 41 0 115 41 0 115 41 0
106 8 8 106 8 8 115 41 0 115 41 0
98 8 8 82 0 0 82 0 0 65 0 0
65 0 0 65 0 0 65 0 0 65 0 0
65 0 0 65 0 0 82 0 0 82 0 0
82 0 0 106 8 8 115 41 0 98 8 8
115 41 0 106 8 8 98 8 8 115 41 0
106 8 8 82 0 0 82 0 0 82 0 0
