P3
# Converted to P3 by scripts/convert_to_p3.py
64 64
255
65 0 0 65 0 0 82 0 0 65 0 0
82 0 0 98 8 8 106 8 8 106 8 8
106 8 8 115 16 16 115 16 16 115 41 0
115 16 16 98 8 8 98 8 8 65 0 0
65 0 0 65 0 0 65 0 0 65 0 0
65 0 0 82 0 0 65 0 0 65 0 0
82 0 0 82 0 0 98 8 8 82 0 0
115 41 0 115 41 0 115 41 0 115 41 0
115 41 0 115 41 0 115 41 0 115 41 0
131 65 0 115 41 0 115 41 0 115 41 0
115 41 0 115 41 0 115 41 0 65 0 0
65 0 0 65 0 0 65 0 0 65 0 0
65 0 0 65 0 0 82 0 0 98 8 8
106 8 8 106 8 8 106 8 8 106 8 8
98 8 8 115 16 16 115 41 0 115 41 0
115 41 0 106 8 8 82 0 0 65 0 0
65 0 0 65 0 0 82 0 0 82 0 0
82 0 0 106 8 8 115 41 0 115 16 16
106 8 8 115 16 16 106 8 8 115 41 0
115 41 0 106 8 8 82 0 0 82 0 0
82 0 0 65 0 0 65 0 0 65 0 0
65 0 0 65 0 0 82 0 0 82 0 0
82 0 0 98 8 8 98 8 8 82 0 0
106 8 8 131 65 0 131 65 0 115 41 0
115 41 0 115 41 0 115 41 0 115 41 0
115 41 0 115 41 0 115 41 0 115 41 0
115 41 0 131 65 0 131 65 0 115 41 0
115 41 0 98 8 8 65 0 0 82 0 0
82 0 0 82 0 0 82 0 0 82 0 0
98 8 8 106 8 8 82 0 0 106 8 8
106 8 8 115 41 0 115 16 16 115 41 0
115 16 16 98 8 8 98 8 8 82 0 0
82 0 0 65 0 0 82 0 0 82 0 0
98 8 8 115 41 0 106 8 8 82 0 0
82 0 0 106 8 8 106 8 8 115 41 0
115 41 0 115 41 0 98 8 8 65 0 0
65 0 0 65 0 0 65 0 0 65 0 0
65 0 0 65 0 0 82 0 0 65 0 0
82 0 0 98 8 8 115 41 0 106 8 8
106 8 8 115 16 16 115 41 0 106 8 8
106 8 8 106 8 8 106 8 8 106 8 8
98 8 8 82 0 0 82 0 0 82 0 0
106 8 8 115 41 0 115 41 0 115 41 0
115 41 0 106 8 8 106 8 8 98 8 8
82 0 0 98 8 8 98 8 8 98 8 8
82 0 0 82 0 0 82 0 0 82 0 0
106 8 8 115 41 0 115 41 0 115 16 16
98 8 8 98 8 8 82 0 0 65 0 0
65 0 0 65 0 0 82 0 0 98 8 8
106 8 8 115 16 16 82 0 0 82 0 0
82 0 0 98 8 8 115 41 0 115 41 0
131 65 0 131 65 0 131 65 0 115 41 0
115 41 0 115 41 0 106 8 8 65 0 0
65 0 0 82 0 0 82 0 0 82 0 0
82 0 0 115 41 0 115 41 0 106 8 8
106 8 8 106 8 8 82 0 0 106 8 8
106 8 8 106 8 8 82 0 0 65 0 0
65 0 0 65 0 0 65 0 0 65 0 0
82 0 0 82 0 0 115 41 0 115 41 0
106 8 8 115 41 0 115 41 0 106 8 8
98 8 8 106 8 8 106 8 8 82 0 0
65 0 0 65 0 0 82 0 0 82 0 0
82 0 0 115 16 16 106 8 8 98 8 8
82 0 0 82 0 0 65 0 0 65 0 0
65 0 0 65 0 0 82 0 0 98 8 8
82 0 0 98 8 8 98 8 8 82 0 0
82 0 0 115 41 0 115 41 0 115 41 0
131 65 0 156 90 16 156 90 16 156 90 16
131 65 0 115 41 0 115 41 0 98 8 8
82 0 0 82 0 0 82 0 0 98 8 8
98 8 8 115 41 0 115 41 0 115 41 0
115 41 0 115 41 0 106 8 8 106 8 8
106 8 8 82 0 0 65 0 0 65 0 0
65 0 0 65 0 0 65 0 0 65 0 0
65 0 0 82 0 0 82 0 0 106 8 8
115 41 0 106 8 8 115 41 0 115 41 0
106 8 8 106 8 8 106 8 8 98 8 8
65 0 0 65 0 0 65 0 0 82 0 0
82 0 0 115 41 0 115 41 0 106 8 8
82 0 0 82 0 0 65 0 0 82 0 0
65 0 0 82 0 0 82 0 0 65 0 0
82 0 0 82 0 0 106 8 8 98 8 8
115 41 0 115 41 0 131 65 0 115 41 0
131 65 0 156 90 16 172 123 24 156 90 16
156 90 16 115 41 0 115 41 0 115 41 0
65 0 0 65 0 0 82 0 0 98 8 8
115 41 0 131 65 0 115 41 0 115 41 0
131 65 0 106 8 8 106 8 8 98 8 8
82 0 0 65 0 0 65 0 0 65 0 0
65 0 0 65 0 0 65 0 0 65 0 0
65 0 0 65 0 0 82 0 0 82 0 0
115 16 16 106 8 8 115 41 0 115 41 0
115 41 0 106 8 8 115 41 0 106 8 8
98 8 8 82 0 0 82 0 0 98 8 8
106 8 8 106 8 8 115 41 0 106 8 8
106 8 8 82 0 0 82 0 0 82 0 0
82 0 0 82 0 0 82 0 0 82 0 0
82 0 0 82 0 0 65 0 0 65 0 0
115 41 0 115 41 0 131 65 0 131 65 0
131 65 0 156 90 16 172 123 24 197 156 41
172 123 24 131 65 0 115 41 0 106 8 8
98 8 8 65 0 0 82 0 0 82 0 0
98 8 8 115 41 0 106 8 8 115 41 0
131 65 0 115 41 0 106 8 8 106 8 8
98 8 8 82 0 0 65 0 0 65 0 0
65 0 0 65 0 0 65 0 0 65 0 0
65 0 0 65 0 0 65 0 0 98 8 8
115 41 0 115 16 16 106 8 8 131 65 0
131 65 0 115 41 0 115 41 0 115 41 0
106 8 8 106 8 8 106 8 8 106 8 8
115 41 0 115 41 0 131 65 0 115 41 0
106 8 8 106 8 8 82 0 0 82 0 0
65 0 0 82 0 0 82 0 0 82 0 0
82 0 0 65 0 0 65 0 0 65 0 0
82 0 0 115 41 0 115 41 0 115 41 0
115 41 0 156 90 16 172 123 24 197 156 41
172 123 24 131 65 0 115 41 0 131 65 0
115 41 0 115 41 0 82 0 0 82 0 0
106 8 8 131 65 0 131 65 0 115 41 0
115 41 0 106 8 8 106 8 8 106 8 8
106 8 8 98 8 8 82 0 0 65 0 0
65 0 0 65 0 0 65 0 0 65 0 0
65 0 0 65 0 0 82 0 0 65 0 0
106 8 8 115 41 0 115 41 0 156 90 16
156 90 16 131 65 0 131 65 0 131 65 0
131 65 0 131 65 0 131 65 0 131 65 0
131 65 0 115 41 0 131 65 0 131 65 0
115 41 0 115 41 0 106 8 8 65 0 0
65 0 0 82 0 0 65 0 0 82 0 0
65 0 0 65 0 0 65 0 0 65 0 0
65 0 0 65 0 0 98 8 8 106 8 8
115 41 0 131 65 0 172 123 24 172 123 24
172 123 24 156 90 16 131 65 0 131 65 0
115 41 0 115 41 0 98 8 8 98 8 8
115 16 16 115 41 0 131 65 0 131 65 0
115 41 0 115 41 0 106 8 8 82 0 0
106 8 8 98 8 8 82 0 0 65 0 0
65 0 0 65 0 0 65 0 0 65 0 0
65 0 0 65 0 0 65 0 0 106 8 8
115 41 0 115 41 0 115 41 0 156 90 16
156 90 16 131 65 0 131 65 0 131 65 0
156 90 16 139 90 49 131 65 0 131 65 0
131 65 0 131 65 0 131 65 0 106 8 8
115 41 0 131 65 0 115 41 0 106 8 8
82 0 0 82 0 0 65 0 0 65 0 0
65 0 0 65 0 0 65 0 0 65 0 0
65 0 0 82 0 0 82 0 0 98 8 8
115 41 0 115 41 0 156 90 16 156 90 16
172 123 24 156 90 16 131 65 0 131 65 0
82 0 0 98 8 8 82 0 0 82 0 0
98 8 8 115 41 0 115 41 0 115 41 0
115 41 0 115 41 0 106 8 8 106 8 8
98 8 8 82 0 0 82 0 0 82 0 0
65 0 0 65 0 0 65 0 0 65 0 0
65 0 0 65 0 0 98 8 8 115 41 0
115 41 0 131 65 0 131 65 0 156 90 16
156 90 16 156 90 16 131 65 0 131 65 0
156 90 16 156 90 16 131 65 0 131 65 0
131 65 0 115 41 0 106 8 8 115 41 0
115 41 0 115 41 0 115 41 0 106 8 8
65 0 0 82 0 0 65 0 0 82 0 0
65 0 0 65 0 0 65 0 0 65 0 0
65 0 0 65 0 0 65 0 0 65 0 0
115 41 0 115 41 0 131 65 0 156 90 16
172 123 24 156 90 16 131 65 0 131 65 0
82 0 0 65 0 0 65 0 0 65 0 0
65 0 0 82 0 0 106 8 8 106 8 8
106 8 8 115 41 0 106 8 8 106 8 8
98 8 8 82 0 0 82 0 0 82 0 0
82 0 0 98 8 8 82 0 0 65 0 0
65 0 0 106 8 8 82 0 0 115 41 0
131 65 0 131 65 0 115 41 0 131 65 0
156 90 16 156 90 16 131 65 0 131 65 0
131 65 0 131 65 0 131 65 0 115 41 0
115 41 0 106 8 8 106 8 8 106 8 8
106 8 8 106 8 8 106 8 8 106 8 8
82 0 0 82 0 0 82 0 0 82 0 0
65 0 0 65 0 0 65 0 0 65 0 0
65 0 0 65 0 0 82 0 0 65 0 0
115 41 0 115 41 0 115 41 0 115 41 0
172 123 24 131 65 0 131 65 0 106 8 8
82 0 0 82 0 0 65 0 0 65 0 0
65 0 0 65 0 0 65 0 0 82 0 0
106 8 8 106 8 8 106 8 8 82 0 0
106 8 8 82 0 0 98 8 8 106 8 8
115 41 0 115 41 0 106 8 8 115 41 0
115 41 0 115 41 0 106 8 8 98 8 8
115 41 0 131 65 0 131 65 0 106 8 8
131 65 0 115 41 0 131 65 0 115 41 0
115 41 0 115 41 0 106 8 8 106 8 8
98 8 8 98 8 8 98 8 8 98 8 8
82 0 0 82 0 0 82 0 0 82 0 0
98 8 8 106 8 8 98 8 8 82 0 0
82 0 0 82 0 0 65 0 0 65 0 0
65 0 0 82 0 0 98 8 8 82 0 0
106 8 8 115 41 0 98 8 8 115 41 0
131 65 0 115 41 0 115 41 0 98 8 8
82 0 0 82 0 0 65 0 0 65 0 0
65 0 0 65 0 0 65 0 0 65 0 0
82 0 0 106 8 8 115 41 0 106 8 8
82 0 0 106 8 8 115 41 0 131 65 0
131 65 0 131 65 0 131 65 0 115 41 0
115 41 0 106 8 8 98 8 8 98 8 8
106 8 8 98 8 8 115 41 0 115 16 16
115 41 0 115 41 0 106 8 8 115 41 0
106 8 8 98 8 8 82 0 0 65 0 0
65 0 0 65 0 0 65 0 0 65 0 0
65 0 0 65 0 0 65 0 0 82 0 0
106 8 8 115 41 0 106 8 8 98 8 8
98 8 8 82 0 0 82 0 0 82 0 0
82 0 0 115 16 16 115 16 16 115 16 16
98 8 8 106 8 8 115 41 0 115 16 16
115 41 0 115 41 0 106 8 8 98 8 8
65 0 0 65 0 0 82 0 0 65 0 0
65 0 0 65 0 0 65 0 0 65 0 0
65 0 0 82 0 0 115 41 0 131 65 0
131 65 0 131 65 0 131 65 0 156 90 16
172 123 24 156 90 16 156 90 16 131 65 0
115 41 0 115 41 0 106 8 8 82 0 0
82 0 0 98 8 8 82 0 0 115 16 16
115 41 0 115 41 0 106 8 8 106 8 8
106 8 8 82 0 0 65 0 0 65 0 0
65 0 0 65 0 0 65 0 0 65 0 0
65 0 0 65 0 0 65 0 0 82 0 0
106 8 8 115 41 0 115 41 0 98 8 8
98 8 8 106 8 8 106 8 8 98 8 8
106 8 8 115 41 0 115 41 0 115 41 0
115 41 0 115 41 0 115 41 0 115 41 0
106 8 8 106 8 8 98 8 8 65 0 0
82 0 0 82 0 0 65 0 0 65 0 0
65 0 0 65 0 0 65 0 0 65 0 0
65 0 0 65 0 0 115 41 0 156 90 16
156 90 16 156 90 16 156 90 16 197 156 41
197 156 41 172 123 24 172 123 24 131 65 0
115 41 0 98 8 8 106 8 8 98 8 8
82 0 0 82 0 0 98 8 8 106 8 8
131 65 0 115 41 0 115 41 0 106 8 8
82 0 0 65 0 0 65 0 0 65 0 0
65 0 0 65 0 0 65 0 0 65 0 0
65 0 0 65 0 0 65 0 0 82 0 0
82 0 0 98 8 8 106 8 8 98 8 8
115 16 16 106 8 8 106 8 8 106 8 8
106 8 8 131 65 0 131 65 0 115 41 0
115 41 0 115 41 0 106 8 8 106 8 8
82 0 0 82 0 0 65 0 0 65 0 0
65 0 0 65 0 0 82 0 0 65 0 0
65 0 0 65 0 0 65 0 0 65 0 0
65 0 0 82 0 0 106 8 8 115 41 0
131 65 0 156 90 16 172 123 24 213 189 65
213 189 65 197 156 41 172 123 24 115 41 0
115 41 0 115 41 0 106 8 8 65 0 0
82 0 0 65 0 0 82 0 0 106 8 8
115 41 0 115 41 0 115 41 0 106 8 8
82 0 0 65 0 0 65 0 0 65 0 0
65 0 0 65 0 0 65 0 0 65 0 0
65 0 0 65 0 0 65 0 0 82 0 0
65 0 0 82 0 0 98 8 8 115 41 0
106 8 8 98 8 8 106 8 8 106 8 8
98 8 8 131 65 0 131 65 0 106 8 8
131 65 0 115 41 0 106 8 8 106 8 8
82 0 0 82 0 0 82 0 0 65 0 0
65 0 0 65 0 0 65 0 0 65 0 0
82 0 0 65 0 0 65 0 0 65 0 0
65 0 0 82 0 0 106 8 8 131 65 0
131 65 0 156 90 16 172 123 24 172 123 24
197 156 41 172 123 24 131 65 0 115 41 0
115 41 0 115 41 0 106 8 8 65 0 0
8 8 8 65 0 0 65 0 0 115 41 0
131 65 0 131 65 0 115 41 0 106 8 8
82 0 0 82 0 0 65 0 0 65 0 0
65 0 0 65 0 0 65 0 0 65 0 0
65 0 0 65 0 0 65 0 0 82 0 0
82 0 0 82 0 0 98 8 8 98 8 8
82 0 0 82 0 0 98 8 8 98 8 8
98 8 8 115 41 0 115 16 16 115 41 0
115 16 16 115 41 0 106 8 8 98 8 8
82 0 0 82 0 0 82 0 0 65 0 0
65 0 0 65 0 0 65 0 0 65 0 0
65 0 0 65 0 0 82 0 0 65 0 0
82 0 0 82 0 0 106 8 8 115 41 0
115 41 0 131 65 0 156 90 16 156 90 16
156 90 16 156 90 16 131 65 0 131 65 0
131 65 0 115 41 0 106 8 8 98 8 8
82 0 0 65 0 0 65 0 0 115 41 0
106 8 8 115 41 0 115 41 0 115 41 0
82 0 0 82 0 0 82 0 0 82 0 0
65 0 0 65 0 0 65 0 0 65 0 0
65 0 0 65 0 0 82 0 0 82 0 0
98 8 8 106 8 8 106 8 8 65 0 0
65 0 0 65 0 0 65 0 0 82 0 0
82 0 0 82 0 0 65 0 0 82 0 0
106 8 8 82 0 0 98 8 8 98 8 8
82 0 0 82 0 0 65 0 0 65 0 0
65 0 0 65 0 0 65 0 0 65 0 0
65 0 0 82 0 0 82 0 0 106 8 8
115 16 16 98 8 8 115 41 0 115 41 0
115 41 0 115 41 0 106 8 8 115 41 0
115 41 0 131 65 0 131 65 0 131 65 0
131 65 0 106 8 8 106 8 8 106 8 8
65 0 0 65 0 0 82 0 0 115 41 0
131 65 0 131 65 0 115 41 0 115 41 0
106 8 8 106 8 8 98 8 8 98 8 8
98 8 8 98 8 8 82 0 0 82 0 0
106 8 8 115 41 0 115 41 0 98 8 8
98 8 8 115 41 0 106 8 8 98 8 8
65 0 0 65 0 0 65 0 0 65 0 0
65 0 0 65 0 0 65 0 0 65 0 0
82 0 0 82 0 0 82 0 0 98 8 8
82 0 0 65 0 0 65 0 0 65 0 0
65 0 0 65 0 0 65 0 0 65 0 0
82 0 0 98 8 8 106 8 8 106 8 8
115 41 0 115 41 0 115 41 0 115 41 0
115 41 0 115 41 0 106 8 8 65 0 0
106 8 8 131 65 0 131 65 0 131 65 0
131 65 0 131 65 0 106 8 8 106 8 8
106 8 8 82 0 0 82 0 0 131 65 0
156 90 16 156 90 16 131 65 0 115 41 0
65 0 0 106 8 8 106 8 8 98 8 8
82 0 0 82 0 0 106 8 8 106 8 8
115 41 0 131 65 0 131 65 0 98 8 8
82 0 0 115 41 0 115 41 0 106 8 8
65 0 0 65 0 0 65 0 0 65 0 0
65 0 0 65 0 0 65 0 0 65 0 0
82 0 0 82 0 0 65 0 0 98 8 8
82 0 0 65 0 0 65 0 0 65 0 0
65 0 0 82 0 0 82 0 0 82 0 0
98 8 8 106 8 8 106 8 8 115 41 0
115 41 0 115 41 0 115 41 0 115 41 0
106 8 8 98 8 8 82 0 0 82 0 0
82 0 0 115 16 16 131 65 0 115 41 0
131 65 0 131 65 0 115 41 0 106 8 8
106 8 8 115 41 0 131 65 0 156 90 16
172 123 24 172 123 24 156 90 16 131 65 0
131 65 0 115 41 0 106 8 8 106 8 8
82 0 0 98 8 8 106 8 8 106 8 8
115 41 0 115 41 0 131 65 0 115 41 0
115 41 0 156 90 16 156 90 16 115 41 0
106 8 8 98 8 8 65 0 0 65 0 0
65 0 0 65 0 0 82 0 0 98 8 8
98 8 8 98 8 8 82 0 0 98 8 8
82 0 0 82 0 0 82 0 0 65 0 0
82 0 0 82 0 0 98 8 8 106 8 8
106 8 8 115 41 0 106 8 8 115 41 0
115 41 0 115 41 0 131 65 0 115 41 0
106 8 8 82 0 0 82 0 0 65 0 0
65 0 0 65 0 0 98 8 8 115 41 0
115 41 0 131 65 0 131 65 0 131 65 0
156 90 16 131 65 0 156 90 16 172 123 24
197 156 41 172 123 24 156 90 16 131 65 0
115 41 0 106 8 8 82 0 0 65 0 0
65 0 0 65 0 0 82 0 0 98 8 8
106 8 8 106 8 8 115 41 0 115 41 0
115 41 0 131 65 0 156 90 16 115 41 0
115 41 0 115 41 0 106 8 8 115 41 0
115 41 0 115 16 16 82 0 0 98 8 8
106 8 8 115 41 0 106 8 8 106 8 8
82 0 0 82 0 0 82 0 0 98 8 8
98 8 8 106 8 8 106 8 8 115 41 0
115 41 0 131 65 0 131 65 0 115 41 0
115 41 0 115 41 0 131 65 0 115 41 0
98 8 8 65 0 0 65 0 0 65 0 0
65 0 0 65 0 0 65 0 0 65 0 0
106 8 8 115 41 0 115 41 0 156 90 16
172 123 24 172 123 24 197 156 41 197 156 41
197 156 41 197 156 41 156 90 16 115 41 0
65 0 0 65 0 0 65 0 0 65 0 0
65 0 0 65 0 0 65 0 0 82 0 0
106 8 8 115 41 0 106 8 8 106 8 8
106 8 8 131 65 0 115 41 0 115 41 0
115 41 0 115 41 0 131 65 0 131 65 0
156 90 16 156 90 16 131 65 0 131 65 0
106 8 8 115 41 0 106 8 8 65 0 0
65 0 0 82 0 0 98 8 8 98 8 8
98 8 8 106 8 8 106 8 8 115 41 0
115 41 0 115 41 0 115 41 0 115 41 0
115 41 0 115 41 0 115 41 0 106 8 8
82 0 0 82 0 0 65 0 0 65 0 0
65 0 0 65 0 0 65 0 0 65 0 0
82 0 0 98 8 8 115 41 0 131 65 0
156 90 16 172 123 24 197 156 41 197 156 41
172 123 24 156 90 16 131 65 0 106 8 8
65 0 0 65 0 0 65 0 0 65 0 0
65 0 0 65 0 0 65 0 0 65 0 0
98 8 8 106 8 8 106 8 8 82 0 0
106 8 8 115 41 0 131 65 0 131 65 0
156 90 16 131 65 0 131 65 0 131 65 0
156 90 16 156 90 16 156 90 16 131 65 0
106 8 8 106 8 8 65 0 0 65 0 0
65 0 0 65 0 0 65 0 0 82 0 0
82 0 0 82 0 0 82 0 0 98 8 8
106 8 8 106 8 8 115 41 0 115 41 0
115 41 0 115 41 0 115 41 0 106 8 8
98 8 8 65 0 0 65 0 0 65 0 0
65 0 0 65 0 0 65 0 0 82 0 0
65 0 0 98 8 8 115 41 0 131 65 0
156 90 16 156 90 16 197 156 41 172 123 24
172 123 24 156 90 16 115 41 0 106 8 8
98 8 8 65 0 0 65 0 0 65 0 0
65 0 0 65 0 0 65 0 0 65 0 0
65 0 0 98 8 8 106 8 8 106 8 8
106 8 8 115 41 0 131 65 0 131 65 0
156 90 16 156 90 16 131 65 0 131 65 0
156 90 16 131 65 0 115 41 0 131 65 0
131 65 0 115 16 16 82 0 0 65 0 0
65 0 0 65 0 0 65 0 0 65 0 0
65 0 0 65 0 0 82 0 0 82 0 0
82 0 0 106 8 8 115 41 0 106 8 8
106 8 8 115 41 0 115 41 0 106 8 8
98 8 8 82 0 0 65 0 0 65 0 0
65 0 0 65 0 0 65 0 0 65 0 0
65 0 0 106 8 8 115 41 0 131 65 0
131 65 0 156 90 16 156 90 16 156 90 16
156 90 16 131 65 0 106 8 8 115 41 0
115 41 0 65 0 0 65 0 0 65 0 0
65 0 0 65 0 0 65 0 0 65 0 0
65 0 0 65 0 0 106 8 8 98 8 8
106 8 8 131 65 0 131 65 0 131 65 0
156 90 16 156 90 16 156 90 16 131 65 0
115 41 0 131 65 0 156 90 16 139 90 49
139 90 49 131 65 0 106 8 8 82 0 0
65 0 0 65 0 0 65 0 0 65 0 0
65 0 0 65 0 0 65 0 0 65 0 0
82 0 0 98 8 8 98 8 8 106 8 8
106 8 8 106 8 8 106 8 8 98 8 8
98 8 8 98 8 8 65 0 0 65 0 0
65 0 0 65 0 0 65 0 0 65 0 0
65 0 0 106 8 8 115 41 0 131 65 0
156 90 16 131 65 0 131 65 0 115 41 0
131 65 0 131 65 0 131 65 0 156 90 16
131 65 0 115 41 0 65 0 0 65 0 0
65 0 0 65 0 0 65 0 0 65 0 0
65 0 0 65 0 0 106 8 8 98 8 8
98 8 8 115 41 0 131 65 0 131 65 0
156 90 16 156 90 16 131 65 0 115 41 0
115 41 0 115 41 0 156 90 16 131 65 0
131 65 0 115 41 0 115 16 16 82 0 0
82 0 0 65 0 0 65 0 0 65 0 0
65 0 0 65 0 0 65 0 0 65 0 0
65 0 0 82 0 0 106 8 8 106 8 8
106 8 8 106 8 8 115 41 0 98 8 8
98 8 8 82 0 0 65 0 0 82 0 0
82 0 0 82 0 0 65 0 0 65 0 0
106 8 8 115 41 0 115 41 0 131 65 0
156 90 16 156 90 16 131 65 0 115 41 0
115 41 0 115 41 0 131 65 0 156 90 16
156 90 16 131 65 0 115 41 0 98 8 8
65 0 0 65 0 0 65 0 0 65 0 0
82 0 0 98 8 8 106 8 8 82 0 0
98 8 8 115 41 0 115 41 0 131 65 0
131 65 0 131 65 0 115 41 0 115 41 0
131 65 0 115 41 0 115 41 0 115 41 0
115 41 0 98 8 8 65 0 0 82 0 0
82 0 0 82 0 0 82 0 0 82 0 0
65 0 0 65 0 0 65 0 0 65 0 0
65 0 0 82 0 0 106 8 8 106 8 8
106 8 8 106 8 8 106 8 8 98 8 8
98 8 8 82 0 0 82 0 0 82 0 0
82 0 0 82 0 0 82 0 0 82 0 0
106 8 8 115 41 0 115 41 0 131 65 0
156 90 16 115 41 0 131 65 0 106 8 8
98 8 8 106 8 8 115 41 0 156 90 16
156 90 16 131 65 0 115 41 0 115 41 0
106 8 8 82 0 0 65 0 0 82 0 0
106 8 8 106 8 8 106 8 8 106 8 8
98 8 8 115 41 0 131 65 0 115 41 0
131 65 0 115 41 0 115 41 0 131 65 0
115 41 0 98 8 8 98 8 8 106 8 8
106 8 8 65 0 0 65 0 0 65 0 0
82 0 0 82 0 0 82 0 0 65 0 0
65 0 0 65 0 0 65 0 0 65 0 0
65 0 0 82 0 0 106 8 8 106 8 8
106 8 8 106 8 8 98 8 8 82 0 0
82 0 0 82 0 0 82 0 0 82 0 0
82 0 0 82 0 0 82 0 0 82 0 0
82 0 0 106 8 8 115 41 0 115 41 0
131 65 0 115 41 0 115 41 0 106 8 8
82 0 0 65 0 0 65 0 0 115 41 0
131 65 0 131 65 0 82 0 0 115 41 0
82 0 0 98 8 8 98 8 8 106 8 8
115 41 0 115 41 0 115 41 0 115 16 16
115 16 16 82 0 0 131 65 0 115 41 0
106 8 8 98 8 8 115 41 0 106 8 8
106 8 8 115 41 0 115 41 0 106 8 8
98 8 8 65 0 0 65 0 0 65 0 0
65 0 0 65 0 0 82 0 0 82 0 0
82 0 0 65 0 0 65 0 0 65 0 0
82 0 0 82 0 0 106 8 8 106 8 8
115 41 0 106 8 8 106 8 8 106 8 8
106 8 8 82 0 0 98 8 8 82 0 0
82 0 0 98 8 8 82 0 0 82 0 0
65 0 0 65 0 0 65 0 0 65 0 0
65 0 0 82 0 0 115 41 0 106 8 8
106 8 8 65 0 0 65 0 0 65 0 0
115 41 0 115 41 0 131 65 0 131 65 0
115 41 0 98 8 8 82 0 0 115 41 0
115 41 0 115 41 0 115 41 0 115 16 16
106 8 8 106 8 8 115 41 0 115 41 0
98 8 8 98 8 8 98 8 8 98 8 8
115 41 0 115 41 0 115 41 0 115 41 0
98 8 8 65 0 0 65 0 0 65 0 0
65 0 0 65 0 0 65 0 0 82 0 0
98 8 8 106 8 8 115 41 0 115 41 0
115 41 0 115 41 0 115 41 0 115 41 0
115 41 0 115 41 0 106 8 8 106 8 8
82 0 0 82 0 0 98 8 8 106 8 8
106 8 8 98 8 8 82 0 0 82 0 0
82 0 0 82 0 0 65 0 0 65 0 0
65 0 0 65 0 0 106 8 8 106 8 8
106 8 8 82 0 0 65 0 0 65 0 0
106 8 8 115 41 0 156 90 16 156 90 16
115 41 0 98 8 8 115 41 0 115 41 0
131 65 0 115 41 0 115 16 16 98 8 8
106 8 8 106 8 8 115 41 0 106 8 8
98 8 8 98 8 8 106 8 8 106 8 8
98 8 8 106 8 8 106 8 8 106 8 8
106 8 8 82 0 0 65 0 0 65 0 0
65 0 0 65 0 0 65 0 0 82 0 0
82 0 0 115 41 0 131 65 0 131 65 0
131 65 0 131 65 0 115 41 0 115 41 0
115 41 0 106 8 8 106 8 8 106 8 8
106 8 8 98 8 8 98 8 8 98 8 8
106 8 8 65 0 0 82 0 0 65 0 0
82 0 0 82 0 0 82 0 0 82 0 0
82 0 0 82 0 0 98 8 8 106 8 8
115 41 0 106 8 8 82 0 0 82 0 0
82 0 0 115 41 0 156 90 16 131 65 0
98 8 8 98 8 8 115 41 0 115 41 0
115 41 0 106 8 8 82 0 0 82 0 0
65 0 0 98 8 8 106 8 8 106 8 8
106 8 8 106 8 8 98 8 8 106 8 8
98 8 8 82 0 0 98 8 8 106 8 8
106 8 8 82 0 0 65 0 0 82 0 0
82 0 0 82 0 0 82 0 0 82 0 0
98 8 8 131 65 0 131 65 0 156 90 16
131 65 0 106 8 8 106 8 8 106 8 8
106 8 8 106 8 8 106 8 8 98 8 8
106 8 8 106 8 8 106 8 8 98 8 8
106 8 8 106 8 8 98 8 8 65 0 0
65 0 0 65 0 0 65 0 0 65 0 0
82 0 0 82 0 0 106 8 8 106 8 8
115 41 0 106 8 8 82 0 0 98 8 8
115 16 16 115 41 0 156 90 16 131 65 0
115 41 0 115 41 0 106 8 8 115 41 0
106 8 8 106 8 8 65 0 0 65 0 0
65 0 0 65 0 0 65 0 0 82 0 0
106 8 8 98 8 8 82 0 0 82 0 0
98 8 8 98 8 8 82 0 0 82 0 0
98 8 8 82 0 0 98 8 8 106 8 8
82 0 0 82 0 0 82 0 0 82 0 0
115 41 0 115 41 0 115 41 0 115 41 0
115 41 0 106 8 8 106 8 8 106 8 8
106 8 8 82 0 0 82 0 0 82 0 0
82 0 0 82 0 0 98 8 8 106 8 8
106 8 8 106 8 8 98 8 8 82 0 0
65 0 0 82 0 0 65 0 0 65 0 0
82 0 0 82 0 0 98 8 8 115 41 0
115 41 0 115 41 0 115 41 0 106 8 8
115 41 0 115 41 0 156 90 16 115 41 0
115 41 0 115 41 0 115 41 0 115 41 0
106 8 8 106 8 8 65 0 0 65 0 0
65 0 0 82 0 0 82 0 0 65 0 0
65 0 0 65 0 0 65 0 0 65 0 0
82 0 0 82 0 0 98 8 8 98 8 8
98 8 8 115 16 16 115 41 0 115 41 0
115 41 0 115 41 0 131 65 0 115 41 0
131 65 0 131 65 0 131 65 0 115 41 0
115 41 0 115 41 0 115 41 0 82 0 0
65 0 0 65 0 0 65 0 0 65 0 0
65 0 0 65 0 0 82 0 0 98 8 8
106 8 8 82 0 0 65 0 0 65 0 0
82 0 0 82 0 0 98 8 8 98 8 8
98 8 8 106 8 8 106 8 8 115 41 0
115 41 0 115 41 0 131 65 0 131 65 0
115 41 0 115 41 0 131 65 0 115 41 0
131 65 0 156 90 16 131 65 0 115 41 0
106 8 8 106 8 8 65 0 0 65 0 0
65 0 0 82 0 0 65 0 0 65 0 0
82 0 0 65 0 0 65 0 0 65 0 0
65 0 0 82 0 0 65 0 0 98 8 8
98 8 8 115 16 16 115 41 0 115 41 0
115 41 0 131 65 0 156 90 16 156 90 16
131 65 0 131 65 0 131 65 0 156 90 16
131 65 0 115 41 0 98 8 8 82 0 0
65 0 0 65 0 0 65 0 0 65 0 0
65 0 0 65 0 0 65 0 0 65 0 0
82 0 0 82 0 0 82 0 0 65 0 0
82 0 0 98 8 8 98 8 8 106 8 8
106 8 8 106 8 8 106 8 8 115 41 0
131 65 0 131 65 0 115 41 0 115 41 0
115 41 0 115 41 0 115 41 0 131 65 0
156 90 16 156 90 16 156 90 16 131 65 0
115 41 0 106 8 8 82 0 0 82 0 0
65 0 0 82 0 0 65 0 0 65 0 0
65 0 0 65 0 0 65 0 0 65 0 0
65 0 0 65 0 0 65 0 0 65 0 0
98 8 8 115 41 0 115 41 0 131 65 0
156 90 16 156 90 16 172 123 24 172 123 24
156 90 16 131 65 0 156 90 16 156 90 16
156 90 16 115 41 0 115 16 16 98 8 8
98 8 8 82 0 0 82 0 0 65 0 0
65 0 0 65 0 0 65 0 0 65 0 0
98 8 8 106 8 8 115 41 0 98 8 8
98 8 8 98 8 8 98 8 8 98 8 8
106 8 8 106 8 8 115 41 0 131 65 0
131 65 0 115 41 0 115 41 0 106 8 8
82 0 0 106 8 8 115 41 0 115 41 0
131 65 0 131 65 0 131 65 0 131 65 0
131 65 0 115 41 0 115 41 0 106 8 8
82 0 0 82 0 0 82 0 0 98 8 8
65 0 0 65 0 0 65 0 0 65 0 0
65 0 0 65 0 0 65 0 0 65 0 0
65 0 0 106 8 8 115 41 0 156 90 16
172 123 24 172 123 24 197 156 41 197 156 41
197 156 41 172 123 24 172 123 24 172 123 24
172 123 24 156 90 16 156 90 16 115 41 0
106 8 8 98 8 8 65 0 0 65 0 0
82 0 0 82 0 0 82 0 0 98 8 8
115 41 0 115 41 0 115 41 0 106 8 8
98 8 8 106 8 8 98 8 8 98 8 8
106 8 8 106 8 8 106 8 8 115 41 0
115 41 0 115 41 0 82 0 0 82 0 0
82 0 0 65 0 0 82 0 0 98 8 8
115 41 0 131 65 0 131 65 0 131 65 0
131 65 0 131 65 0 115 41 0 115 41 0
115 41 0 115 41 0 98 8 8 82 0 0
65 0 0 65 0 0 65 0 0 65 0 0
65 0 0 65 0 0 65 0 0 65 0 0
65 0 0 65 0 0 115 41 0 115 41 0
172 123 24 172 123 24 197 156 41 197 156 41
213 189 65 197 156 41 197 156 41 213 189 65
197 156 41 172 123 24 156 90 16 156 90 16
106 8 8 98 8 8 65 0 0 65 0 0
65 0 0 65 0 0 65 0 0 98 8 8
115 41 0 131 65 0 115 41 0 98 8 8
106 8 8 115 41 0 106 8 8 98 8 8
98 8 8 106 8 8 115 41 0 115 41 0
115 41 0 98 8 8 65 0 0 65 0 0
65 0 0 65 0 0 65 0 0 65 0 0
65 0 0 115 16 16 115 41 0 115 41 0
115 41 0 131 65 0 131 65 0 115 41 0
131 65 0 131 65 0 115 41 0 106 8 8
82 0 0 65 0 0 65 0 0 65 0 0
65 0 0 65 0 0 65 0 0 65 0 0
65 0 0 82 0 0 65 0 0 115 41 0
156 90 16 172 123 24 197 156 41 213 189 65
213 189 65 213 189 65 213 189 65 213 189 65
213 189 65 197 156 41 197 156 41 156 90 16
115 41 0 98 8 8 65 0 0 65 0 0
65 0 0 65 0 0 65 0 0 82 0 0
106 8 8 115 41 0 115 41 0 106 8 8
115 41 0 115 41 0 106 8 8 82 0 0
106 8 8 106 8 8 115 41 0 106 8 8
115 41 0 82 0 0 65 0 0 65 0 0
65 0 0 65 0 0 65 0 0 65 0 0
65 0 0 65 0 0 65 0 0 115 41 0
115 41 0 115 41 0 115 41 0 115 41 0
131 65 0 156 90 16 131 65 0 131 65 0
98 8 8 82 0 0 65 0 0 65 0 0
65 0 0 65 0 0 65 0 0 82 0 0
82 0 0 82 0 0 82 0 0 106 8 8
115 41 0 172 123 24 197 156 41 197 156 41
213 189 65 213 189 65 213 189 65 197 156 41
197 156 41 197 156 41 172 123 24 156 90 16
131 65 0 115 16 16 82 0 0 65 0 0
65 0 0 65 0 0 65 0 0 82 0 0
82 0 0 82 0 0 98 8 8 98 8 8
106 8 8 106 8 8 115 16 16 106 8 8
106 8 8 106 8 8 106 8 8 115 41 0
106 8 8 65 0 0 65 0 0 65 0 0
65 0 0 65 0 0 65 0 0 65 0 0
65 0 0 65 0 0 65 0 0 65 0 0
106 8 8 106 8 8 115 16 16 115 41 0
131 65 0 131 65 0 131 65 0 156 90 16
131 65 0 106 8 8 82 0 0 65 0 0
65 0 0 82 0 0 65 0 0 82 0 0
82 0 0 82 0 0 106 8 8 115 41 0
115 41 0 172 123 24 172 123 24 172 123 24
172 123 24 197 156 41 172 123 24 172 123 24
172 123 24 172 123 24 156 90 16 131 65 0
115 41 0 115 41 0 106 8 8 82 0 0
65 0 0 65 0 0 82 0 0 98 8 8
82 0 0 82 0 0 82 0 0 82 0 0
106 8 8 115 41 0 115 41 0 115 41 0
115 41 0 106 8 8 106 8 8 106 8 8
82 0 0 65 0 0 65 0 0 65 0 0
65 0 0 65 0 0 65 0 0 65 0 0
65 0 0 65 0 0 65 0 0 65 0 0
98 8 8 98 8 8 106 8 8 115 41 0
115 41 0 131 65 0 156 90 16 156 90 16
131 65 0 115 41 0 115 41 0 98 8 8
82 0 0 82 0 0 82 0 0 82 0 0
82 0 0 82 0 0 115 41 0 115 41 0
156 90 16 172 123 24 156 90 16 156 90 16
172 123 24 156 90 16 156 90 16 156 90 16
156 90 16 156 90 16 131 65 0 131 65 0
131 65 0 131 65 0 82 0 0 82 0 0
98 8 8 82 0 0 98 8 8 82 0 0
82 0 0 82 0 0 82 0 0 65 0 0
98 8 8 115 41 0 115 41 0 131 65 0
115 41 0 106 8 8 98 8 8 82 0 0
65 0 0 65 0 0 65 0 0 65 0 0
65 0 0 65 0 0 65 0 0 65 0 0
65 0 0 65 0 0 65 0 0 65 0 0
82 0 0 98 8 8 106 8 8 115 41 0
156 90 16 131 65 0 131 65 0 156 90 16
156 90 16 115 41 0 115 41 0 115 41 0
115 16 16 115 41 0 106 8 8 106 8 8
106 8 8 115 41 0 131 65 0 156 90 16
156 90 16 156 90 16 131 65 0 156 90 16
156 90 16 131 65 0 106 8 8 106 8 8
98 8 8 82 0 0 82 0 0 115 41 0
131 65 0 131 65 0 106 8 8 98 8 8
115 41 0 98 8 8 98 8 8 82 0 0
82 0 0 65 0 0 65 0 0 65 0 0
82 0 0 115 41 0 131 65 0 115 41 0
115 41 0 106 8 8 82 0 0 82 0 0
82 0 0 65 0 0 65 0 0 65 0 0
65 0 0 65 0 0 65 0 0 65 0 0
65 0 0 65 0 0 65 0 0 65 0 0
65 0 0 98 8 8 131 65 0 131 65 0
156 90 16 156 90 16 115 41 0 172 123 24
172 123 24 156 90 16 115 41 0 115 41 0
131 65 0 115 41 0 115 41 0 115 41 0
115 41 0 131 65 0 156 90 16 156 90 16
156 90 16 131 65 0 131 65 0 156 90 16
131 65 0 106 8 8 106 8 8 82 0 0
65 0 0 65 0 0 65 0 0 65 0 0
115 41 0 115 41 0 98 8 8 82 0 0
98 8 8 106 8 8 98 8 8 82 0 0
82 0 0 82 0 0 82 0 0 65 0 0
98 8 8 106 8 8 115 41 0 115 41 0
115 41 0 115 41 0 82 0 0 82 0 0
82 0 0 65 0 0 65 0 0 65 0 0
65 0 0 65 0 0 65 0 0 65 0 0
65 0 0 65 0 0 65 0 0 65 0 0
65 0 0 98 8 8 156 90 16 156 90 16
156 90 16 172 123 24 156 90 16 131 65 0
172 123 24 156 90 16 131 65 0 131 65 0
131 65 0 131 65 0 131 65 0 115 41 0
131 65 0 131 65 0 172 123 24 172 123 24
156 90 16 131 65 0 156 90 16 131 65 0
106 8 8 82 0 0 82 0 0 65 0 0
65 0 0 65 0 0 65 0 0 65 0 0
106 8 8 106 8 8 65 0 0 65 0 0
65 0 0 65 0 0 82 0 0 82 0 0
82 0 0 82 0 0 98 8 8 106 8 8
106 8 8 98 8 8 82 0 0 131 65 0
131 65 0 115 41 0 106 8 8 82 0 0
65 0 0 65 0 0 65 0 0 65 0 0
65 0 0 65 0 0 65 0 0 65 0 0
65 0 0 65 0 0 65 0 0 65 0 0
65 0 0 65 0 0 156 90 16 156 90 16
156 90 16 156 90 16 156 90 16 131 65 0
131 65 0 115 41 0 115 41 0 115 41 0
131 65 0 131 65 0 115 41 0 115 41 0
115 41 0 131 65 0 131 65 0 131 65 0
115 41 0 115 41 0 156 90 16 156 90 16
82 0 0 82 0 0 65 0 0 65 0 0
65 0 0 65 0 0 65 0 0 65 0 0
65 0 0 98 8 8 65 0 0 65 0 0
65 0 0 65 0 0 65 0 0 82 0 0
98 8 8 98 8 8 115 41 0 115 41 0
82 0 0 115 16 16 82 0 0 131 65 0
131 65 0 115 16 16 98 8 8 98 8 8
65 0 0 65 0 0 65 0 0 65 0 0
65 0 0 65 0 0 65 0 0 65 0 0
65 0 0 65 0 0 65 0 0 65 0 0
65 0 0 115 41 0 131 65 0 131 65 0
131 65 0 172 123 24 156 90 16 156 90 16
106 8 8 115 41 0 106 8 8 115 41 0
115 41 0 115 41 0 106 8 8 98 8 8
106 8 8 115 41 0 106 8 8 115 41 0
131 65 0 98 8 8 115 41 0 115 41 0
98 8 8 82 0 0 65 0 0 65 0 0
65 0 0 65 0 0 65 0 0 65 0 0
65 0 0 106 8 8 106 8 8 65 0 0
65 0 0 65 0 0 65 0 0 65 0 0
65 0 0 98 8 8 82 0 0 115 41 0
115 41 0 115 41 0 131 65 0 131 65 0
156 90 16 106 8 8 98 8 8 82 0 0
106 8 8 106 8 8 82 0 0 65 0 0
65 0 0 65 0 0 65 0 0 65 0 0
82 0 0 82 0 0 82 0 0 65 0 0
65 0 0 131 65 0 156 90 16 115 41 0
131 65 0 156 90 16 156 90 16 156 90 16
115 41 0 98 8 8 106 8 8 106 8 8
106 8 8 106 8 8 98 8 8 98 8 8
82 0 0 82 0 0 115 41 0 115 41 0
115 41 0 115 41 0 115 41 0 115 41 0
106 8 8 98 8 8 82 0 0 82 0 0
65 0 0 65 0 0 65 0 0 65 0 0
98 8 8 115 41 0 115 41 0 82 0 0
82 0 0 82 0 0 65 0 0 65 0 0
65 0 0 82 0 0 98 8 8 106 8 8
115 41 0 115 41 0 115 41 0 115 41 0
115 41 0 115 41 0 115 41 0 115 41 0
115 41 0 106 8 8 98 8 8 98 8 8
106 8 8 115 41 0 106 8 8 98 8 8
98 8 8 82 0 0 106 8 8 115 16 16
131 65 0 131 65 0 131 65 0 115 41 0
131 65 0 131 65 0 115 41 0 115 41 0
106 8 8 98 8 8 98 8 8 98 8 8
106 8 8 98 8 8 98 8 8 98 8 8
65 0 0 82 0 0 98 8 8 98 8 8
115 41 0 115 41 0 115 41 0 115 41 0
98 8 8 82 0 0 82 0 0 82 0 0
82 0 0 82 0 0 65 0 0 82 0 0
98 8 8 115 41 0 115 41 0 82 0 0
82 0 0 65 0 0 65 0 0 65 0 0
65 0 0 65 0 0 106 8 8 106 8 8
115 41 0 98 8 8 65 0 0 82 0 0
115 41 0 115 41 0 115 41 0 115 16 16
106 8 8 115 41 0 106 8 8 106 8 8
106 8 8 115 41 0 106 8 8 115 41 0
98 8 8 115 16 16 115 41 0 131 65 0
131 65 0 131 65 0 131 65 0 115 41 0
115 41 0 115 41 0 98 8 8 106 8 8
115 41 0 82 0 0 98 8 8 98 8 8
98 8 8 82 0 0 82 0 0 82 0 0
82 0 0 82 0 0 98 8 8 115 16 16
115 41 0 115 41 0 82 0 0 65 0 0
65 0 0 65 0 0 65 0 0 65 0 0
82 0 0 82 0 0 82 0 0 98 8 8
98 8 8 115 41 0 115 41 0 98 8 8
82 0 0 82 0 0 82 0 0 82 0 0
65 0 0 65 0 0 106 8 8 106 8 8
115 41 0 115 16 16 98 8 8 82 0 0
115 41 0 106 8 8 106 8 8 106 8 8
98 8 8 82 0 0 82 0 0 106 8 8
115 41 0 115 41 0 106 8 8 98 8 8
115 41 0 115 41 0 131 65 0 156 90 16
156 90 16 156 90 16 131 65 0 115 41 0
115 41 0 115 41 0 98 8 8 106 8 8
98 8 8 82 0 0 82 0 0 82 0 0
82 0 0 65 0 0 82 0 0 65 0 0
65 0 0 82 0 0 106 8 8 115 41 0
131 65 0 131 65 0 131 65 0 115 41 0
115 41 0 65 0 0 65 0 0 65 0 0
65 0 0 82 0 0 82 0 0 98 8 8
115 41 0 115 41 0 115 41 0 106 8 8
106 8 8 106 8 8 98 8 8 98 8 8
82 0 0 82 0 0 98 8 8 82 0 0
106 8 8 115 41 0 106 8 8 115 41 0
115 41 0 115 41 0 106 8 8 82 0 0
82 0 0 82 0 0 82 0 0 65 0 0
82 0 0 82 0 0 98 8 8 106 8 8
115 41 0 131 65 0 156 90 16 164 106 57
197 156 41 172 123 24 156 90 16 131 65 0
115 41 0 115 41 0 82 0 0 82 0 0
65 0 0 65 0 0 82 0 0 82 0 0
82 0 0 82 0 0 82 0 0 65 0 0
98 8 8 106 8 8 115 16 16 131 65 0
156 90 16 156 90 16 156 90 16 156 90 16
131 65 0 131 65 0 115 41 0 65 0 0
65 0 0 65 0 0 82 0 0 98 8 8
115 41 0 115 41 0 131 65 0 131 65 0
131 65 0 131 65 0 115 41 0 106 8 8
98 8 8 82 0 0 106 8 8 106 8 8
115 16 16 131 65 0 131 65 0 115 41 0
106 8 8 106 8 8 82 0 0 82 0 0
82 0 0 82 0 0 82 0 0 65 0 0
82 0 0 82 0 0 106 8 8 106 8 8
131 65 0 131 65 0 156 90 16 172 123 24
172 123 24 172 123 24 172 123 24 131 65 0
115 41 0 115 41 0 98 8 8 82 0 0
65 0 0 65 0 0 65 0 0 65 0 0
65 0 0 82 0 0 82 0 0 82 0 0
98 8 8 115 41 0 106 8 8 131 65 0
156 90 16 172 123 24 172 123 24 172 123 24
156 90 16 156 90 16 131 65 0 65 0 0
65 0 0 65 0 0 82 0 0 115 41 0
115 41 0 115 41 0 131 65 0 131 65 0
131 65 0 156 90 16 131 65 0 131 65 0
131 65 0 106 8 8 115 41 0 131 65 0
156 90 16 131 65 0 156 90 16 106 8 8
106 8 8 98 8 8 82 0 0 65 0 0
82 0 0 82 0 0 82 0 0 65 0 0
82 0 0 98 8 8 98 8 8 106 8 8
131 65 0 131 65 0 164 106 57 172 123 24
164 106 57 156 90 16 156 90 16 115 41 0
115 16 16 115 41 0 98 8 8 65 0 0
65 0 0 65 0 0 65 0 0 65 0 0
65 0 0 65 0 0 82 0 0 82 0 0
98 8 8 115 41 0 131 65 0 156 90 16
156 90 16 172 123 24 172 123 24 172 123 24
156 90 16 156 90 16 156 90 16 131 65 0
82 0 0 82 0 0 115 41 0 131 65 0
131 65 0 115 41 0 106 8 8 131 65 0
131 65 0 131 65 0 131 65 0 156 90 16
139 90 49 156 90 16 156 90 16 172 123 24
172 123 24 156 90 16 156 90 16 131 65 0
106 8 8 82 0 0 65 0 0 65 0 0
65 0 0 65 0 0 65 0 0 65 0 0
65 0 0 82 0 0 82 0 0 98 8 8
115 41 0 131 65 0 156 90 16 172 123 24
172 123 24 172 123 24 156 90 16 131 65 0
115 41 0 115 41 0 98 8 8 82 0 0
65 0 0 82 0 0 65 0 0 65 0 0
65 0 0 65 0 0 65 0 0 82 0 0
82 0 0 115 16 16 115 41 0 156 90 16
172 123 24 172 123 24 172 123 24 172 123 24
131 65 0 139 32 32 131 65 0 156 90 16
156 90 16 156 90 16 156 90 16 131 65 0
131 65 0 98 8 8 106 8 8 106 8 8
106 8 8 131 65 0 131 65 0 115 41 0
156 90 16 164 106 57 172 123 24 197 156 41
197 156 41 172 123 24 131 65 0 131 65 0
115 16 16 82 0 0 65 0 0 65 0 0
65 0 0 65 0 0 65 0 0 65 0 0
65 0 0 65 0 0 82 0 0 82 0 0
98 8 8 106 8 8 131 65 0 156 90 16
172 123 24 172 123 24 156 90 16 131 65 0
115 41 0 106 8 8 106 8 8 98 8 8
65 0 0 65 0 0 65 0 0 65 0 0
65 0 0 65 0 0 65 0 0 65 0 0
82 0 0 82 0 0 115 41 0 131 65 0
156 90 16 156 90 16 156 90 16 156 90 16
131 65 0 131 65 0 131 65 0 131 65 0
156 90 16 156 90 16 156 90 16 156 90 16
131 65 0 106 8 8 98 8 8 82 0 0
98 8 8 106 8 8 131 65 0 156 90 16
156 90 16 172 123 24 197 156 41 197 156 41
172 123 24 156 90 16 131 65 0 115 41 0
131 65 0 115 41 0 82 0 0 65 0 0
65 0 0 65 0 0 65 0 0 65 0 0
65 0 0 65 0 0 65 0 0 82 0 0
98 8 8 106 8 8 115 41 0 131 65 0
156 90 16 131 65 0 131 65 0 115 41 0
98 8 8 98 8 8 98 8 8 82 0 0
82 0 0 65 0 0 65 0 0 65 0 0
65 0 0 65 0 0 65 0 0 82 0 0
82 0 0 82 0 0 115 41 0 131 65 0
115 41 0 156 90 16 131 65 0 131 65 0
115 41 0 98 8 8 82 0 0 65 0 0
131 65 0 131 65 0 156 90 16 156 90 16
98 8 8 106 8 8 106 8 8 65 0 0
65 0 0 98 8 8 98 8 8 131 65 0
131 65 0 156 90 16 172 123 24 156 90 16
156 90 16 131 65 0 115 41 0 115 41 0
115 41 0 115 41 0 98 8 8 82 0 0
65 0 0 65 0 0 65 0 0 65 0 0
65 0 0 65 0 0 65 0 0 65 0 0
82 0 0 82 0 0 115 41 0 115 41 0
131 65 0 115 41 0 115 41 0 115 41 0
106 8 8 106 8 8 98 8 8 115 41 0
106 8 8 82 0 0 65 0 0 65 0 0
65 0 0 65 0 0 65 0 0 65 0 0
106 8 8 115 41 0 115 41 0 115 41 0
115 41 0 106 8 8 98 8 8 98 8 8
115 41 0 98 8 8 82 0 0 106 8 8
106 8 8 115 41 0 131 65 0 156 90 16
131 65 0 98 8 8 106 8 8 82 0 0
65 0 0 82 0 0 98 8 8 115 41 0
131 65 0 131 65 0 156 90 16 131 65 0
115 41 0 115 41 0 106 8 8 82 0 0
82 0 0 65 0 0 65 0 0 65 0 0
82 0 0 65 0 0 65 0 0 65 0 0
65 0 0 65 0 0 65 0 0 65 0 0
82 0 0 98 8 8 131 65 0 131 65 0
115 41 0 82 0 0 106 8 8 106 8 8
106 8 8 106 8 8 106 8 8 115 41 0
115 41 0 115 41 0 106 8 8 65 0 0
65 0 0 98 8 8 65 0 0 115 41 0
115 41 0 115 41 0 115 41 0 82 0 0
82 0 0 82 0 0 82 0 0 82 0 0
82 0 0 98 8 8 106 8 8 106 8 8
106 8 8 115 41 0 106 8 8 131 65 0
131 65 0 106 8 8 106 8 8 98 8 8
82 0 0 98 8 8 115 16 16 106 8 8
131 65 0 115 41 0 131 65 0 131 65 0
115 41 0 82 0 0 82 0 0 82 0 0
65 0 0 65 0 0 65 0 0 65 0 0
65 0 0 82 0 0 82 0 0 65 0 0
65 0 0 65 0 0 65 0 0 65 0 0
98 8 8 106 8 8 115 41 0 115 41 0
106 8 8 106 8 8 106 8 8 106 8 8
106 8 8 106 8 8 106 8 8 82 0 0
115 41 0 115 41 0 106 8 8 115 41 0
115 41 0 115 41 0 115 41 0 131 65 0
131 65 0 115 41 0 82 0 0 82 0 0
82 0 0 65 0 0 65 0 0 65 0 0
82 0 0 82 0 0 98 8 8 98 8 8
98 8 8 106 8 8 115 41 0 131 65 0
131 65 0 131 65 0 115 41 0 106 8 8
115 41 0 115 41 0 106 8 8 115 41 0
115 41 0 115 41 0 131 65 0 131 65 0
115 41 0 65 0 0 65 0 0 65 0 0
65 0 0 65 0 0 65 0 0 65 0 0
65 0 0 65 0 0 82 0 0 98 8 8
106 8 8 115 41 0 106 8 8 106 8 8
115 41 0 131 65 0 115 41 0 106 8 8
82 0 0 98 8 8 98 8 8 98 8 8
65 0 0 65 0 0 65 0 0 82 0 0
82 0 0 98 8 8 106 8 8 115 41 0
115 41 0 115 41 0 115 41 0 115 41 0
131 65 0 115 41 0 82 0 0 82 0 0
65 0 0 65 0 0 65 0 0 65 0 0
65 0 0 82 0 0 82 0 0 98 8 8
82 0 0 98 8 8 98 8 8 131 65 0
131 65 0 131 65 0 131 65 0 115 41 0
115 41 0 115 41 0 115 16 16 115 41 0
115 41 0 115 41 0 115 41 0 115 41 0
106 8 8 65 0 0 65 0 0 65 0 0
65 0 0 65 0 0 65 0 0 65 0 0
65 0 0 65 0 0 82 0 0 82 0 0
115 41 0 115 41 0 115 41 0 115 41 0
115 41 0 115 41 0 115 16 16 115 41 0
98 8 8 82 0 0 65 0 0 65 0 0
65 0 0 65 0 0 65 0 0 65 0 0
65 0 0 98 8 8 82 0 0 82 0 0
98 8 8 115 41 0 115 41 0 131 65 0
131 65 0 65 0 0 82 0 0 82 0 0
65 0 0 65 0 0 65 0 0 65 0 0
65 0 0 82 0 0 82 0 0 65 0 0
82 0 0 82 0 0 98 8 8 115 41 0
131 65 0 115 41 0 115 41 0 106 8 8
106 8 8 106 8 8 115 41 0 115 41 0
115 41 0 115 41 0 115 41 0 106 8 8
98 8 8 82 0 0 82 0 0 65 0 0
65 0 0 65 0 0 65 0 0 65 0 0
65 0 0 65 0 0 82 0 0 98 8 8
82 0 0 106 8 8 115 41 0 82 0 0
106 8 8 106 8 8 98 8 8 106 8 8
106 8 8 82 0 0 65 0 0 65 0 0
