P3
# Converted to P3 by scripts/convert_to_p3.py
64 64
255
78 60 33 76 59 32 71 56 29 62 51 25
53 45 19 47 41 16 47 40 16 52 42 18
59 46 22 65 49 25 66 50 26 62 48 23
56 45 20 51 42 18 50 42 17 54 44 19
61 47 22 67 50 25 70 51 26 71 52 27
69 51 27 68 50 26 66 49 25 66 49 25
66 50 26 66 50 26 65 49 25 64 48 25
63 48 24 64 48 25 67 50 26 71 54 28
74 57 31 77 59 32 76 59 31 73 56 29
68 52 27 64 49 24 62 47 23 62 46 23
64 48 24 68 50 26 74 54 28 80 58 29
85 62 31 88 64 32 89 65 33 87 64 33
82 62 33 76 58 31 69 54 29 62 50 25
57 47 21 54 45 19 54 44 18 56 44 19
59 46 21 62 47 24 65 48 25 66 49 26
66 49 25 65 49 25 65 49 25 65 49 24
75 59 33 74 58 32 71 56 30 65 52 26
60 48 22 57 46 20 57 47 20 62 50 23
68 54 27 72 57 30 74 57 31 71 55 30
68 52 28 66 50 27 69 52 27 76 56 29
84 62 32 88 65 33 87 64 32 80 60 30
71 53 26 63 48 23 60 47 23 63 48 24
68 53 27 74 57 30 78 60 32 79 61 33
78 61 33 78 60 32 81 61 32 85 63 33
88 64 33 88 64 32 82 60 30 72 55 26
61 49 22 53 44 19 51 43 19 55 46 20
64 51 23 74 56 27 83 62 30 90 65 32
93 67 33 93 67 33 88 64 32 81 60 30
74 55 28 69 52 27 68 52 27 73 55 28
80 59 31 86 63 32 88 64 33 85 63 32
80 59 30 74 55 28 70 52 26 68 51 26
67 51 26 68 51 26 68 51 26 67 51 26
76 58 31 77 59 31 80 61 32 86 63 32
91 66 33 94 68 34 94 68 34 89 66 34
83 63 33 78 60 33 75 59 32 75 59 32
77 59 32 78 60 32 79 60 32 78 60 32
76 58 31 72 55 30 66 51 27 58 47 23
52 43 20 51 42 18 56 45 19 66 51 23
78 59 27 89 65 32 96 69 34 97 70 35
94 68 34 88 64 32 80 58 29 72 53 26
66 49 24 63 47 24 64 48 25 70 53 28
77 58 31 82 61 33 81 62 32 75 58 29
67 53 25 61 49 22 60 49 21 66 52 24
74 57 27 81 61 31 84 62 32 82 61 32
77 58 31 73 56 30 70 54 29 70 54 29
71 56 30 74 58 31 78 59 31 81 61 31
83 62 31 84 62 31 84 61 31 81 60 31
77 59 31 74 58 31 72 57 32 71 57 32
93 67 32 93 67 32 92 66 33 91 66 33
88 65 33 84 63 32 78 59 30 71 55 28
64 51 26 62 50 25 66 52 25 74 56 27
83 62 30 91 65 32 92 66 32 88 64 32
80 59 30 72 54 28 66 50 26 63 48 25
63 47 25 65 48 25 69 50 26 73 53 27
76 56 28 78 57 28 76 56 28 72 53 27
66 49 25 61 46 23 58 44 23 59 44 23
62 46 24 67 49 26 71 53 27 75 56 29
79 59 30 82 61 31 85 62 31 86 62 31
86 61 30 86 60 29 85 59 29 84 60 30
83 61 31 80 61 32 76 59 31 71 56 30
67 53 28 67 52 27 72 54 28 81 60 31
91 66 33 97 69 35 95 68 34 86 62 31
74 54 27 64 47 24 60 45 23 63 48 24
71 53 27 79 59 30 84 63 32 85 64 33
81 61 32 81 61 32 81 62 33 81 62 34
80 62 34 76 60 33 69 55 29 59 49 24
49 42 18 44 39 15 46 40 15 55 45 18
66 52 24 77 59 30 84 63 34 85 65 35
82 63 35 78 61 33 74 59 32 73 57 31
72 56 30 71 55 29 70 54 28 67 52 28
66 52 27 67 52 28 71 54 29 77 58 31
83 61 32 86 62 32 82 60 30 73 54 26
62 48 22 54 43 19 52 42 19 57 45 21
65 51 26 72 56 30 72 58 33 66 58 34
58 56 34 54 56 34 57 57 34 67 60 34
80 64 33 90 67 33 94 67 32 91 64 32
83 60 31 74 56 29 67 52 27 62 50 25
60 48 23 61 48 21 62 49 22 64 50 24
68 52 26 72 55 29 76 57 31 79 59 32
81 61 33 83 62 33 84 63 33 84 63 33
66 51 27 66 51 27 67 51 27 68 52 27
69 52 28 69 52 27 68 51 26 65 50 25
63 48 23 61 46 22 60 46 22 61 47 23
64 49 25 66 50 26 67 51 27 68 51 27
68 51 27 67 51 26 67 51 26 68 51 26
68 52 27 69 52 27 69 53 28 70 53 29
71 54 29 71 53 28 68 52 27 65 51 25
62 49 23 60 48 21 61 49 21 65 51 22
70 54 24 74 57 26 76 57 27 75 55 27
72 53 26 70 52 26 67 52 28 66 55 30
66 58 34 68 61 36 70 63 37 74 64 37
77 63 35 79 61 33 77 58 30 73 54 28
68 50 26 65 48 24 65 48 24 69 51 25
74 55 27 76 57 27 75 57 27 70 55 25
63 51 23 58 48 21 55 46 21 57 46 22
60 48 24 64 49 26 67 50 27 67 51 27
65 49 25 65 49 25 65 48 24 64 47 24
63 47 23 64 47 24 66 49 25 69 52 27
72 55 30 74 57 31 73 56 31 71 54 29
68 51 27 66 49 25 65 49 25 67 50 26
69 53 28 71 55 29 71 55 29 70 54 28
68 51 27 65 49 25 64 47 24 63 46 23
63 46 23 64 47 24 66 49 25 68 51 25
71 53 26 75 56 27 81 60 29 88 65 31
93 68 33 95 68 34 92 66 33 85 62 31
76 56 29 68 51 26 64 47 24 62 46 23
64 46 23 67 48 24 70 51 26 72 54 28
73 56 30 73 57 31 72 57 31 71 55 30
69 53 28 67 50 26 65 49 24 63 48 23
62 48 22 61 48 21 60 48 21 59 47 20
58 45 20 59 45 21 61 47 23 64 49 25
68 52 27 71 55 29 73 57 30 74 57 31
65 48 24 66 49 25 67 50 26 69 53 27
72 55 29 73 57 30 73 57 31 72 56 30
70 54 28 68 51 27 66 49 25 65 48 24
64 48 24 65 49 25 67 50 26 70 53 28
72 56 30 75 58 31 76 59 32 76 59 32
75 59 32 74 57 31 72 56 30 70 55 30
69 55 30 71 56 30 75 58 31 80 61 31
87 64 32 91 66 33 93 67 34 91 67 35
86 64 34 79 60 32 70 55 29 62 50 25
55 45 21 51 43 18 52 43 18 56 46 20
62 50 24 69 54 29 74 58 32 76 59 33
76 59 32 74 58 31 73 57 30 72 55 30
71 53 28 68 51 26 62 47 23 55 43 20
49 40 16 46 40 15 48 42 17 55 46 21
64 52 26 72 56 30 76 58 32 76 57 32
72 54 29 68 51 27 66 49 25 65 49 25
91 67 33 89 66 33 86 63 32 80 59 30
73 55 28 68 51 26 64 48 24 62 46 23
62 46 23 64 47 24 65 49 25 67 51 27
68 53 28 71 55 30 75 58 31 79 60 31
83 62 31 86 63 31 87 64 32 87 64 33
84 63 34 78 61 33 71 56 30 62 51 25
55 45 21 51 42 18 52 43 18 57 46 21
64 51 25 71 56 29 74 57 31 72 55 30
68 51 27 65 48 25 64 48 25 65 50 26
68 53 28 71 56 30 72 57 31 71 55 30
69 53 28 67 50 26 66 49 25 66 49 25
66 49 25 67 50 26 67 50 26 66 49 25
65 48 24 65 48 25 66 50 26 69 52 27
72 55 29 73 57 31 73 56 30 70 55 29
67 52 27 64 49 25 63 48 24 63 48 24
64 49 24 66 50 25 67 50 26 67 51 26
72 56 30 72 56 30 71 55 30 70 54 29
69 52 27 68 51 26 67 51 26 68 51 26
68 51 26 68 52 27 68 52 27 68 51 26
67 50 26 66 49 25 65 48 24 64 48 24
64 47 24 64 48 24 65 49 25 67 51 27
68 53 28 70 54 29 70 55 29 70 54 29
70 53 28 68 52 27 67 50 26 66 49 25
65 49 25 65 49 25 65 49 25 66 49 25
68 50 25 70 52 26 73 54 27 76 57 29
78 59 31 79 60 32 77 59 31 73 55 29
68 51 26 65 48 24 64 48 24 66 50 26
69 54 29 72 57 31 73 57 31 71 56 30
69 53 28 66 50 26 65 48 24 65 48 24
66 49 25 66 49 25 63 47 24 58 45 21
54 43 19 51 42 18 52 43 18 57 46 21
63 50 25 69 54 28 73 56 31 75 57 31
63 47 23 64 47 24 65 49 25 68 52 27
70 55 29 72 57 31 73 58 32 73 58 32
72 57 31 70 55 30 69 53 28 68 52 27
67 51 26 66 50 25 65 49 25 64 48 24
64 48 24 64 48 24 66 49 24 68 50 25
70 51 25 73 53 26 75 55 28 76 57 29
76 59 31 75 59 32 73 57 31 69 54 29
66 51 27 65 49 25 67 50 25 71 53 27
77 57 29 83 62 31 88 65 33 90 67 34
90 67 34 88 65 33 85 63 32 80 59 31
75 56 29 72 54 29 71 54 29 72 55 29
75 58 31 78 59 31 78 59 31 76 57 30
72 54 28 69 51 26 67 49 26 67 50 26
67 51 26 68 51 27 68 52 27 68 51 27
67 50 26 67 50 26 67 50 26 67 50 26
68 51 26 68 52 27 69 52 27 69 52 27
66 49 26 67 49 26 69 51 27 72 54 28
76 57 30 79 59 31 81 61 31 81 61 31
80 59 30 78 57 28 75 55 27 72 52 26
69 51 25 66 49 25 65 49 25 65 49 26
66 50 27 68 52 28 72 55 29 77 58 30
81 61 31 84 63 32 85 64 33 84 64 33
81 62 33 77 60 32 72 57 31 69 53 28
66 50 26 65 49 25 66 50 25 68 52 27
71 55 30 73 57 32 75 58 33 74 58 32
73 56 31 70 54 29 66 52 27 62 49 25
59 48 24 60 49 24 66 53 26 76 59 29
87 65 32 93 68 33 92 66 32 83 61 29
71 53 24 60 47 21 56 45 21 59 48 23
66 53 27 72 57 31 76 59 32 75 57 31
72 54 29 68 51 27 67 49 26 67 50 26
68 51 27 70 53 28 70 54 29 71 54 29
49 41 18 52 42 18 58 46 21 69 52 24
81 60 28 90 66 32 96 69 34 96 70 35
93 69 35 86 65 33 80 60 31 75 56 29
70 53 27 67 50 26 65 49 25 65 49 25
66 50 25 68 51 27 70 53 28 71 55 30
72 56 31 72 57 31 72 57 31 72 56 31
71 55 30 70 54 28 69 52 27 68 51 26
67 50 26 66 49 25 65 49 25 63 49 24
61 49 23 60 49 23 61 49 23 63 50 24
65 50 25 66 49 25 64 48 24 60 45 22
56 43 20 54 42 19 56 44 20 63 48 22
70 53 26 75 56 28 75 55 28 69 52 25
61 47 22 55 44 20 55 44 20 60 48 23
67 53 28 72 57 30 73 57 30 68 54 28
61 49 23 56 45 20 54 44 19 57 45 21
63 49 24 68 52 27 72 55 29 73 55 30
57 45 21 58 45 21 60 47 22 63 48 23
68 50 25 71 53 26 74 55 28 75 57 30
75 58 32 74 58 32 71 56 31 68 53 29
65 50 26 64 48 25 64 48 24 66 49 25
69 52 27 72 54 29 73 56 30 73 56 30
71 54 29 70 53 28 68 51 26 66 50 25
65 49 25 64 48 24 65 48 25 67 49 25
67 49 26 66 49 25 63 47 23 56 45 20
50 42 17 46 40 15 45 39 15 49 41 16
55 43 19 62 47 23 68 50 26 73 54 29
75 56 31 75 57 31 73 56 30 69 53 28
65 50 26 63 48 25 65 48 24 70 51 25
76 55 28 82 59 30 85 62 32 85 63 33
82 62 34 77 60 33 72 57 30 66 53 28
62 49 24 59 47 22 59 46 21 61 47 22
64 49 24 67 51 26 69 52 28 70 53 28
68 50 26 67 50 26 67 49 26 66 49 25
65 48 25 64 48 24 63 47 24 62 47 24
62 47 24 65 49 25 70 52 27 77 57 29
84 61 31 86 63 32 84 62 30 76 58 27
65 52 24 57 47 21 52 44 19 53 44 20
58 45 22 63 47 24 66 49 25 67 49 25
66 49 25 66 49 25 67 50 26 69 53 28
72 55 29 73 56 30 71 55 29 68 53 27
65 50 25 63 48 24 63 48 24 65 50 25
68 53 27 71 55 29 73 56 30 72 56 30
70 54 29 68 52 27 65 49 25 63 47 24
62 47 24 64 48 25 69 51 26 77 57 28
85 62 31 90 66 33 91 66 33 86 63 32
78 58 29 70 53 27 65 49 25 63 47 25
64 47 25 66 49 25 68 50 26 70 52 27
71 54 28 72 55 29 73 56 30 73 56 30
66 49 25 66 49 25 65 49 25 65 48 25
65 48 24 66 49 25 67 50 26 69 53 28
72 55 29 73 57 30 74 57 31 74 57 30
73 55 29 71 53 27 68 50 25 65 48 24
62 46 22 61 46 22 63 48 24 68 52 27
72 55 30 74 57 31 71 56 30 65 52 26
57 46 21 51 43 18 51 43 18 56 46 21
64 51 25 71 56 30 76 59 33 78 60 33
77 59 33 76 58 31 74 57 31 72 56 31
72 56 31 73 57 31 76 59 32 81 61 32
85 63 32 87 64 32 85 62 30 78 57 28
71 52 26 66 49 25 67 50 25 73 54 27
81 60 30 87 64 32 88 64 32 82 60 30
74 54 27 67 50 25 64 48 25 66 50 27
70 53 29 72 56 30 71 56 29 66 53 27
60 49 23 54 45 20 50 43 18 49 42 17
74 58 31 74 57 31 73 57 31 72 56 31
71 56 30 72 56 30 74 57 31 79 59 31
83 61 31 85 63 31 85 63 32 82 62 32
78 60 31 73 57 31 70 55 30 69 54 29
69 53 28 69 52 27 68 51 26 67 50 26
66 49 25 65 49 25 64 48 24 63 47 24
64 47 24 64 48 24 65 49 25 66 51 27
68 53 28 72 56 30 76 59 32 82 63 33
87 65 33 89 65 33 86 63 31 79 58 29
72 53 27 67 50 26 68 51 26 74 55 28
82 61 31 88 65 32 89 65 33 84 62 31
77 57 29 69 51 26 65 48 25 64 48 25
65 49 25 67 50 26 67 51 26 67 51 26
66 50 25 66 49 25 66 49 25 66 49 25
66 49 26 67 50 26 69 52 27 70 54 28
72 55 29 73 57 30 74 58 31 74 58 31
76 60 33 75 59 32 74 57 31 71 55 29
68 52 27 66 49 25 65 48 24 65 48 24
66 49 24 69 51 25 73 54 27 76 57 29
79 59 31 80 61 32 79 61 32 76 59 31
72 57 30 69 55 28 67 54 27 68 53 27
70 53 27 71 53 27 72 53 27 70 51 26
69 50 26 68 50 26 68 50 26 69 52 27
71 54 29 73 56 30 75 59 32 77 60 33
77 61 33 76 59 33 71 56 30 65 52 27
59 47 24 58 45 22 63 47 22 74 53 25
86 61 29 94 65 32 94 65 32 85 60 30
73 53 26 64 48 24 63 48 24 71 53 26
83 60 29 93 65 32 95 66 32 89 62 31
79 57 28 69 51 26 63 48 25 60 47 25
62 49 26 66 53 28 72 56 29 78 60 31
85 63 32 90 66 33 94 68 33 95 68 34
71 55 29 71 54 29 69 53 28 67 51 27
66 49 26 66 49 26 69 51 26 73 54 28
78 58 30 83 62 32 87 65 33 89 66 34
89 65 33 85 62 31 77 57 28 66 50 23
57 45 20 52 42 18 54 44 19 63 49 23
75 56 27 84 61 31 86 62 32 80 58 29
70 52 25 61 47 22 58 46 22 60 48 23
65 52 27 71 56 30 75 58 32 77 59 32
76 58 31 73 55 30 68 52 27 61 49 25
56 47 23 56 47 22 62 49 23 75 54 26
88 60 29 95 62 31 91 60 29 78 54 25
60 46 20 49 41 17 50 42 16 63 48 20
81 56 25 97 63 30 103 66 32 99 64 32
87 59 30 73 52 27 60 46 23 50 42 19
46 39 16 45 39 15 50 42 16 58 46 20
68 52 24 78 58 28 84 61 31 86 62 32
71 54 29 70 53 28 68 52 27 64 49 25
60 46 22 58 46 21 60 47 22 65 50 25
71 55 28 76 58 31 79 60 32 79 60 31
77 57 30 74 55 28 72 53 27 71 52 27
70 52 27 69 51 27 66 49 26 63 48 24
59 46 23 55 44 21 53 42 19 51 41 18
51 41 18 53 43 19 57 46 21 62 50 24
68 54 28 73 57 31 76 59 32 76 59 32
75 57 31 72 55 29 68 52 27 64 50 25
62 49 24 62 49 24 65 52 26 72 56 29
78 61 32 81 63 33 77 60 31 66 53 26
55 46 20 48 41 16 49 42 16 60 48 20
74 57 26 86 64 31 91 67 34 88 64 33
80 58 30 70 51 26 60 46 22 53 42 19
48 40 17 47 40 16 48 41 16 52 43 18
58 45 21 63 47 24 67 49 26 68 49 27
75 56 31 73 55 30 67 52 27 57 47 22
48 41 17 44 39 15 48 41 16 58 47 19
73 55 25 87 64 30 98 70 34 103 73 36
102 73 36 98 71 35 92 67 33 85 62 31
77 56 29 69 51 26 62 47 24 57 45 21
55 44 20 54 44 19 56 45 19 59 46 21
62 47 23 65 48 24 68 50 26 69 51 27
69 52 27 69 52 27 69 53 27 69 53 28
70 53 28 69 53 28 67 52 27 64 50 26
61 49 24 60 49 24 63 50 24 68 53 26
75 56 27 78 57 28 77 56 28 71 53 26
64 48 23 59 46 21 59 46 22 64 50 24
72 55 28 79 60 31 83 62 32 82 61 32
77 59 31 72 55 29 68 52 27 65 50 26
63 48 24 61 47 23 59 46 22 58 45 21
56 45 20 55 44 20 55 44 20 55 44 19
66 49 25 65 48 25 64 48 24 62 46 23
60 46 22 60 46 22 62 48 23 67 52 26
72 56 29 77 59 31 79 60 32 79 60 32
78 58 30 74 55 28 70 52 26 66 50 24
63 48 23 63 47 24 65 48 26 70 50 29
75 52 33 80 54 36 82 56 37 81 57 36
77 57 34 73 56 31 70 54 28 67 52 27
66 51 26 66 50 26 69 51 26 72 53 27
76 56 28 79 58 29 80 59 30 78 58 30
75 56 29 71 53 28 67 51 27 65 49 26
63 48 25 63 47 25 63 47 24 64 47 24
65 48 24 67 49 25 68 51 26 68 52 28
69 53 29 70 55 30 72 57 32 75 59 33
77 60 34 76 60 33 73 58 31 68 54 27
61 49 24 56 45 20 53 43 19 53 43 18
55 44 20 58 45 21 59 46 22 60 47 22
65 49 25 65 49 25 65 49 25 65 48 25
65 48 25 66 49 25 68 51 26 70 53 28
73 56 30 73 57 31 71 56 31 68 53 29
64 50 27 63 48 25 66 48 24 72 51 24
80 56 26 85 60 29 85 64 33 79 66 37
70 66 41 63 65 42 61 63 42 63 61 40
68 59 36 69 54 30 65 48 23 55 41 17
46 35 11 42 32 9 48 36 11 64 44 16
83 54 23 100 63 29 108 69 34 108 71 35
100 69 34 90 64 32 81 60 30 75 56 28
71 53 27 68 51 26 64 48 25 62 46 24
61 45 23 62 47 24 68 50 25 75 55 28
82 60 30 87 64 32 87 64 32 84 62 31
77 57 29 70 52 27 64 49 25 61 47 23
60 46 23 60 46 22 61 47 23 63 48 23
65 49 24 66 49 25 68 50 26 68 50 26
74 58 31 74 57 31 72 56 30 69 53 28
67 50 26 65 49 25 66 49 25 68 52 27
71 55 29 74 57 31 74 57 31 71 55 29
69 52 27 67 50 26 67 50 25 69 51 26
72 54 28 75 57 30 77 60 32 77 61 33
75 61 34 73 60 33 70 57 31 67 54 29
65 51 27 64 49 25 66 49 24 69 51 25
74 54 26 80 58 28 86 63 30 91 66 32
94 67 33 93 66 33 87 63 31 78 58 27
66 52 23 57 47 20 53 44 18 53 43 19
57 45 21 63 48 24 68 50 26 70 52 28
71 54 29 72 56 30 74 58 31 75 59 32
77 60 32 77 59 32 75 57 30 72 55 29
69 52 27 67 50 26 65 48 25 65 48 25
65 49 25 66 49 25 67 50 26 67 50 26
66 49 25 65 49 25 65 49 25 65 49 25
66 49 25 66 49 25 66 49 25 66 49 25
66 49 25 66 49 25 65 49 25 65 48 24
65 48 24 65 48 25 67 50 26 69 52 27
71 55 29 73 56 30 73 56 30 71 55 29
68 52 27 67 50 26 66 50 26 68 52 27
71 54 29 72 56 30 72 56 29 69 53 28
67 51 26 65 49 25 67 50 25 70 53 27
74 56 30 77 59 32 79 60 32 78 59 32
75 56 30 69 52 27 63 47 24 56 44 20
50 41 17 46 40 15 46 40 15 50 41 17
56 44 20 62 47 23 68 51 27 73 55 29
75 57 31 75 58 32 73 58 31 71 55 30
68 52 27 65 50 26 65 49 26 67 51 27
69 53 28 72 56 30 72 56 30 71 55 29
69 52 28 67 50 26 66 49 25 66 48 25
66 49 25 67 49 25 67 50 26 67 50 26
65 49 25 65 49 25 65 49 25 65 49 25
66 49 25 66 49 25 66 49 25 66 49 25
66 49 25 66 49 25 65 49 25 64 48 24
64 47 24 64 48 24 67 50 26 70 53 28
74 56 30 74 57 31 70 55 29 63 50 24
55 45 19 49 40 15 46 38 14 48 39 15
54 42 19 61 46 23 70 52 27 77 57 30
83 61 31 85 63 32 84 62 32 80 60 30
74 55 28 67 51 26 60 47 23 56 45 21
53 44 20 53 44 19 54 45 20 57 45 21
60 47 22 64 48 24 67 50 26 69 52 27
70 53 28 71 55 29 73 57 30 76 59 31
78 60 32 78 60 32 78 59 31 75 57 30
72 55 29 69 52 27 66 50 26 65 49 25
64 48 24 63 48 24 63 48 23 62 47 23
61 47 23 61 47 23 61 47 23 61 47 23
68 50 26 68 50 26 67 50 26 67 49 25
66 49 25 65 48 25 65 48 24 65 48 25
65 49 25 66 49 25 66 49 25 66 49 25
66 49 25 66 49 25 66 49 25 67 49 25
67 48 25 66 48 24 63 48 24 59 48 24
55 48 24 52 49 24 52 48 24 53 47 23
57 47 23 62 48 24 69 51 26 76 56 30
81 60 33 82 62 33 76 58 30 64 51 23
52 42 16 43 37 12 43 36 12 50 42 17
62 50 24 73 57 31 79 61 34 78 60 34
74 56 30 68 51 27 63 47 24 61 45 22
61 45 23 63 47 24 68 50 26 74 55 28
80 59 30 85 63 32 88 65 33 87 65 34
83 62 34 76 58 31 68 53 28 59 48 23
52 43 19 46 40 15 44 38 14 45 39 14
48 40 16 51 42 18 54 44 19 54 44 19
55 44 19 56 44 20 58 46 21 61 48 23
65 51 26 68 52 27 69 53 28 69 52 27
67 50 26 65 48 25 64 48 24 64 48 24
64 49 25 65 49 25 66 49 25 68 48 24
69 47 23 68 48 24 66 52 28 63 58 35
59 65 41 57 68 45 56 68 45 56 63 40
59 56 33 63 50 27 69 49 24 75 52 25
80 56 28 82 59 29 79 58 28 71 52 24
62 45 19 55 40 16 53 39 16 56 42 18
62 47 23 68 52 27 71 55 29 71 54 29
69 52 28 66 50 26 64 48 24 64 47 23
64 47 24 64 48 24 65 49 25 66 50 26
67 51 27 67 52 27 67 52 27 67 51 27
67 50 26 65 49 25 64 48 24 63 48 24
61 49 23 61 49 24 61 50 24 63 50 24
65 50 25 67 50 26 68 50 26 68 50 26
54 43 19 55 44 20 58 46 22 63 50 25
69 55 29 74 58 31 76 60 33 77 60 33
75 59 32 72 56 30 70 54 28 69 52 27
67 51 26 66 49 25 64 47 23 61 45 21
58 44 20 57 44 20 56 46 21 57 49 25
59 52 28 61 55 31 63 56 32 64 55 31
65 53 28 66 50 26 66 48 24 66 48 24
65 47 24 64 47 24 62 47 24 60 47 23
58 46 22 57 46 22 57 46 21 59 46 22
61 46 22 63 47 23 65 47 24 66 48 25
67 49 25 68 50 26 68 51 27 69 52 27
70 53 28 70 54 29 71 55 29 71 55 29
72 55 29 71 55 29 70 53 28 68 51 26
66 49 25 65 48 25 65 49 25 67 50 26
69 52 28 71 54 29 72 54 29 71 54 29
70 52 27 68 50 26 67 49 26 66 49 25
67 50 26 67 50 26 67 50 26 68 50 26
68 51 27 68 51 27 68 52 27 68 51 27
67 51 26 68 51 27 69 53 28 72 54 29
74 56 30 73 56 30 68 53 28 61 49 24
53 45 19 47 41 16 46 40 15 49 40 16
55 42 19 62 45 22 66 47 24 67 48 25
66 48 25 65 48 24 65 48 24 65 49 25
66 49 25 66 49 25 65 48 24 62 46 22
59 45 21 57 45 21 59 47 22 64 50 25
69 54 28 72 56 30 71 55 29 65 52 26
58 47 22 53 43 19 52 42 18 56 44 20
62 48 24 68 52 27 72 54 29 73 54 29
71 54 29 70 53 28 69 53 28 70 54 28
70 55 29 71 55 29 71 54 29 70 53 28
68 51 27 66 49 25 63 47 23 59 45 21
56 44 20 53 43 19 52 43 18 51 43 18
67 50 26 67 50 26 66 49 25 65 49 25
65 48 24 65 48 24 65 48 25 66 50 26
68 52 27 70 54 28 72 56 30 74 58 32
76 60 33 76 60 33 73 57 31 69 54 28
64 50 26 62 48 24 64 48 24 70 52 25
78 57 28 84 62 31 86 64 32 84 63 32
80 60 32 75 58 31 72 56 30 71 56 30
71 56 30 72 56 30 71 55 30 70 54 29
69 52 27 68 50 26 67 50 26 67 49 25
67 49 25 68 50 26 69 52 27 70 53 28
70 54 29 69 54 28 65 53 27 60 49 24
55 46 20 51 43 18 50 41 17 52 41 18
57 43 20 62 46 23 67 50 26 71 54 29
74 57 31 75 58 32 74 58 32 73 57 30
70 54 28 67 51 26 65 48 24 63 47 23
62 47 23 61 47 23 61 47 23 61 47 23
40 30 6 41 32 7 45 35 11 52 40 16
60 47 23 69 53 28 77 59 32 84 63 34
89 66 35 89 66 33 87 63 32 81 60 30
75 55 28 69 51 26 64 48 25 63 47 24
63 48 24 65 49 25 68 50 26 70 52 27
72 53 27 71 52 27 67 50 25 60 47 22
53 43 19 50 42 18 54 45 19 64 52 23
76 59 28 85 64 32 89 64 32 86 60 30
78 54 27 69 50 24 61 48 25 56 51 29
54 56 33 55 60 38 59 63 40 64 64 39
70 63 37 74 60 34 76 57 31 73 54 28
69 51 26 65 49 24 62 47 23 62 47 24
64 48 24 65 49 25 67 50 26 67 50 26
67 50 26 66 50 26 66 50 25 66 49 25
66 49 25 66 49 25 66 49 25 66 49 25
66 49 25 67 50 26 67 50 26 67 50 26
47 40 16 48 41 16 51 42 18 55 45 20
61 47 23 65 50 25 69 51 27 71 52 28
71 52 28 68 51 26 64 48 24 58 45 21
52 43 18 48 41 16 48 41 16 52 43 18
57 45 21 63 48 24 67 50 26 69 51 27
69 50 27 66 49 26 63 48 24 58 45 21
53 43 19 49 42 17 47 41 16 47 41 16
48 42 17 49 42 17 47 40 15 44 37 12
41 33 9 40 32 8 43 33 9 48 36 13
55 42 18 62 47 23 68 52 28 71 55 30
73 57 31 73 57 31 72 56 30 70 54 28
69 52 27 68 50 26 68 50 26 69 52 27
71 54 29 73 56 30 73 56 30 71 55 29
68 52 27 66 50 25 65 48 24 64 48 24
65 48 24 65 49 25 66 49 25 66 49 25
65 49 25 65 48 25 65 48 24 65 48 24
65 48 25 66 49 25 67 50 26 70 53 28
72 55 30 74 57 31 74 57 31 73 56 30
71 53 28 67 50 26 63 47 23 58 45 21
54 43 19 52 43 18 53 43 19 56 45 20
60 47 22 65 49 25 68 50 27 70 51 28
70 51 27 67 50 26 64 48 24 59 45 21
53 42 17 50 40 15 48 39 14 49 40 15
51 42 17 53 44 19 54 45 20 53 45 19
52 44 19 51 43 18 53 44 19 57 45 21
62 47 23 66 49 25 68 50 26 69 50 26
68 50 26 66 49 25 64 48 24 62 47 23
61 47 23 61 47 23 61 47 23 62 47 23
64 48 24 65 49 25 66 49 25 66 49 25
66 49 25 66 49 25 65 49 25 65 49 25
65 49 25 65 49 25 65 49 25 66 50 25
67 50 26 67 51 26 68 51 27 68 51 27
67 50 26 66 49 25 64 48 24 62 47 23
59 46 22 58 45 21 59 46 21 61 47 22
64 48 24 67 50 26 69 51 27 69 51 27
69 51 27 68 50 26 65 49 25 63 48 24
61 47 23 60 46 22 61 46 22 63 47 23
66 48 24 67 49 25 65 50 25 59 49 25
53 49 25 50 50 25 52 51 26 58 53 28
66 55 30 73 57 31 77 57 31 77 56 31
74 53 29 69 51 27 65 48 25 61 47 23
59 46 21 58 45 21 59 46 22 62 48 23
66 49 25 68 50 26 67 50 26 63 48 23
57 45 21 53 43 19 52 43 18 54 44 19
59 45 21 63 47 24 66 49 25 67 49 25
66 49 25 66 49 25 65 49 25 65 48 24
65 48 25 66 49 25 68 50 26 70 52 28
72 54 29 74 56 30 75 57 31 75 58 32
67 49 25 66 49 25 64 48 24 61 47 23
58 45 21 55 44 19 53 43 18 52 42 18
52 42 18 54 43 19 58 45 21 62 47 23
66 49 25 67 50 26 66 49 25 60 47 23
54 45 20 50 43 18 48 42 17 51 41 17
56 42 19 61 45 22 64 49 26 65 54 31
64 58 35 62 60 37 60 59 36 57 55 31
55 49 25 54 45 21 55 42 18 58 43 19
62 46 22 65 48 24 65 49 25 64 49 25
61 47 23 58 45 21 55 44 20 54 44 19
54 44 19 56 45 20 58 46 21 62 47 23
66 49 25 69 50 27 71 52 28 72 53 29
71 54 29 70 54 29 70 53 28 69 53 28
69 52 27 68 50 26 67 50 26 65 49 25
63 48 24 61 48 23 59 47 22 56 45 21
54 43 20 53 42 19 52 41 19 52 41 18
67 49 25 67 50 26 68 51 27 70 52 28
72 54 29 73 55 30 72 55 29 69 54 28
65 52 26 62 50 24 60 49 23 60 49 23
60 48 23 58 46 22 54 43 19 48 38 15
42 34 11 41 33 9 46 36 11 56 43 16
68 52 23 79 58 28 83 60 31 82 58 30
76 53 27 68 48 23 63 44 21 60 44 20
59 45 21 59 47 22 60 48 23 62 48 24
63 48 24 64 48 24 65 48 24 63 47 24
61 47 23 59 46 22 58 45 21 57 45 21
57 45 20 56 44 20 55 43 19 53 42 18
51 41 17 52 42 18 55 44 19 60 47 22
65 51 25 69 53 28 70 54 29 68 53 28
64 50 25 58 46 22 51 41 17 44 37 13
39 33 9 39 32 8 42 35 9 50 40 13
60 47 19 69 53 23 75 57 27 76 59 28
50 41 17 51 42 18 54 44 20 59 48 23
65 52 26 71 56 30 76 60 33 81 62 35
83 63 36 80 62 35 74 58 31 65 53 27
56 47 21 48 42 17 44 39 14 44 37 13
48 38 15 54 41 17 60 44 20 65 47 22
70 50 24 73 53 26 76 56 29 78 59 31
77 60 33 74 58 32 68 53 28 60 47 22
53 40 16 49 37 13 50 37 13 57 42 18
65 49 24 71 54 29 71 55 29 64 52 26
55 46 20 48 41 16 48 41 16 54 44 19
63 50 24 71 55 29 75 58 32 75 58 32
71 56 30 67 54 27 64 52 26 64 50 25
64 49 25 65 48 24 64 48 24 63 47 23
61 47 23 60 46 22 58 45 21 56 44 20
56 43 19 58 43 19 61 45 20 66 48 23
72 52 26 77 56 29 80 58 30 81 59 31
59 45 22 60 46 22 63 48 24 67 52 26
71 55 29 74 57 31 75 58 32 74 57 31
71 54 29 68 51 27 65 49 25 63 48 24
62 47 23 62 47 23 63 48 24 64 48 24
66 49 25 68 50 26 69 52 28 70 53 28
70 54 29 70 55 29 70 55 30 70 55 29
70 54 29 69 52 28 66 50 26 63 47 23
59 45 21 58 44 20 59 44 20 63 47 23
67 50 26 69 52 27 67 51 26 61 48 24
54 45 20 49 42 17 48 41 16 52 43 18
58 46 21 65 50 25 69 52 27 71 53 28
71 53 28 70 52 28 69 51 27 68 51 26
67 50 26 66 50 25 67 50 26 68 50 26
68 50 26 68 50 26 66 49 25 63 48 24
59 46 22 55 45 20 52 43 19 50 42 18
49 42 17 49 41 17 49 41 17 49 41 17
68 50 26 67 50 26 64 48 24 59 46 22
54 44 19 52 43 18 53 44 19 58 48 22
64 52 26 71 55 29 74 57 31 75 57 31
73 54 30 69 51 27 64 48 24 58 45 21
53 43 18 50 42 17 51 42 18 55 45 20
60 47 23 65 50 25 68 51 27 68 50 26
66 49 25 65 48 25 67 50 26 70 53 28
74 57 31 75 58 32 72 57 30 66 52 26
58 47 21 51 42 17 49 40 16 51 41 16
56 43 19 62 47 23 67 50 26 69 53 28
71 54 29 72 55 30 73 57 31 75 58 32
76 58 32 74 57 31 70 54 28 63 50 25
56 46 21 52 43 18 51 42 17 53 43 19
58 45 21 63 48 24 67 50 26 68 50 26
67 50 26 65 49 25 62 47 23 58 45 21
54 44 19 50 42 17 48 41 16 47 41 16
49 41 17 50 42 17 53 44 19 58 47 22
65 51 26 70 55 29 74 57 31 75 59 32
76 59 32 74 58 31 73 56 30 72 55 29
70 53 28 67 50 26 63 47 23 57 45 20
52 42 18 49 41 16 49 42 17 53 43 18
58 45 21 63 47 23 66 49 25 66 49 25
64 48 24 63 48 24 64 48 24 66 49 25
68 50 26 68 50 26 65 49 25 59 47 23
52 45 20 49 44 19 50 45 20 55 48 23
63 52 27 70 55 29 73 56 31 73 55 30
71 53 28 67 50 26 65 49 25 65 48 24
65 48 25 66 49 25 66 49 25 65 49 25
65 49 25 64 48 24 65 49 25 66 49 25
66 49 25 67 50 26 67 50 26 66 49 25
65 49 25 64 48 24 63 48 24 63 48 24
64 48 24 64 48 24 64 48 24 64 48 24
61 47 23 61 47 23 62 47 23 63 48 23
64 48 24 64 48 24 65 48 24 64 48 24
64 47 24 64 48 24 65 48 24 67 49 26
69 50 26 68 50 26 64 48 24 58 45 21
52 42 18 48 41 16 49 41 17 54 44 19
61 48 23 67 51 26 68 51 27 64 50 25
58 47 22 53 44 19 51 42 17 53 41 17
57 43 18 61 46 21 62 50 26 61 54 31
59 59 36 58 62 39 59 62 39 62 60 36
65 57 32 69 53 28 70 50 25 70 49 24
68 49 24 67 49 25 66 49 25 65 50 26
66 50 26 67 50 26 67 51 26 68 51 26
68 51 27 68 50 26 67 50 26 65 49 25
63 48 24 61 46 22 59 46 21 57 45 21
55 44 20 54 44 19 52 43 18 50 42 17
48 41 16 47 41 16 47 40 15 46 40 15
50 42 17 51 42 18 54 44 19 58 46 22
63 49 24 68 52 27 70 54 28 72 54 29
72 54 29 70 53 28 68 52 27 67 51 27
66 50 26 63 49 25 60 47 23 56 45 21
53 43 19 52 43 19 55 44 20 59 48 23
65 51 26 70 55 29 73 56 30 75 56 31
73 54 29 69 51 27 64 48 24 57 45 21
52 43 18 49 41 16 48 41 16 50 41 17
55 42 19 63 46 22 73 51 26 83 58 30
91 65 33 94 68 34 91 67 33 84 61 30
73 54 27 65 48 24 62 47 24 65 50 27
70 55 30 75 59 32 76 59 32 72 56 30
66 51 26 60 46 22 56 44 20 55 44 19
55 45 20 57 47 21 58 48 22 60 48 23
60 48 23 60 47 23 60 46 22 58 45 21
57 45 20 55 44 20 54 44 19 53 44 19
68 50 26 68 50 26 68 50 26 68 51 27
68 52 27 69 53 28 71 54 29 73 56 30
74 57 31 72 55 30 66 51 26 56 45 20
47 39 14 41 35 10 42 35 10 49 39 13
59 45 18 69 50 23 74 53 26 73 53 27
69 51 26 66 49 24 64 48 24 66 48 25
68 50 26 68 50 27 66 49 25 60 47 22
54 44 19 49 42 17 46 40 15 47 40 16
50 42 18 55 45 21 62 48 23 68 51 26
74 55 28 78 58 29 82 59 30 83 60 30
82 60 30 80 59 29 77 57 29 75 56 29
72 54 29 69 53 28 65 51 27 62 49 25
59 48 24 58 48 23 59 49 23 62 51 24
65 52 26 66 53 27 65 52 26 61 49 24
57 46 21 54 44 19 54 44 19 57 45 20
61 47 23 66 49 25 68 50 26 69 51 27
63 47 23 63 47 23 64 48 24 65 49 25
67 51 26 69 53 28 71 54 29 73 56 30
73 56 31 73 55 30 71 53 28 68 50 24
64 47 20 59 43 18 53 40 18 47 37 20
43 36 24 42 36 28 45 39 30 51 42 30
58 46 29 64 48 26 66 50 24 64 49 22
60 47 20 56 45 20 54 44 19 55 44 20
57 45 21 59 46 21 57 45 21 54 44 19
50 42 17 47 40 15 44 39 15 44 39 15
47 40 16 51 42 18 57 45 21 63 48 23
70 52 26 75 55 28 79 58 29 81 59 29
81 59 29 80 58 28 79 58 29 79 58 30
78 58 31 75 56 31 69 53 28 60 48 23
51 43 18 46 40 15 47 40 15 52 42 18
60 46 22 67 50 26 71 52 28 72 52 28
69 51 27 66 49 25 64 48 24 63 48 24
74 58 32 74 57 31 74 57 31 74 56 31
72 55 30 70 53 28 68 52 27 64 50 25
60 48 23 57 47 22 55 47 21 55 46 20
56 46 20 57 46 20 56 45 22 54 43 24
51 42 25 50 41 27 52 42 27 56 44 27
61 46 27 65 48 26 66 49 24 64 49 23
61 47 22 59 46 21 59 46 22 61 47 23
64 48 24 67 50 25 68 50 26 68 50 26
66 49 25 63 48 24 58 46 21 53 43 19
49 42 17 48 41 16 49 42 17 52 44 19
58 47 23 65 51 27 72 56 30 78 60 33
81 62 34 82 63 33 81 62 32 78 59 31
73 54 28 67 50 26 61 46 23 56 43 20
52 42 18 49 41 17 47 41 16 47 41 16
48 41 16 50 42 17 54 44 19 58 46 21
62 48 23 66 49 25 68 50 26 69 50 27
45 35 10 46 35 11 49 37 13 53 40 16
59 44 20 63 47 23 66 49 25 67 50 26
67 50 26 63 48 24 58 45 21 52 42 18
47 40 16 46 40 15 49 42 17 57 47 20
66 53 25 74 57 29 77 58 30 76 57 30
72 54 28 67 50 26 65 48 25 64 48 24
66 49 25 67 50 26 67 50 26 66 49 25
65 49 25 64 48 24 65 48 25 67 49 26
68 50 27 68 50 26 65 49 25 59 46 22
53 43 19 49 42 17 50 42 17 54 44 19
61 48 23 67 51 26 70 53 28 71 53 28
69 52 28 67 50 26 65 49 26 65 49 25
65 49 25 66 49 25 65 49 25 65 49 24
63 48 24 62 47 23 62 47 23 62 47 23
62 48 23 62 47 23 60 47 22 58 46 21
55 44 20 53 43 19 51 43 18 51 42 18
62 46 22 62 47 23 63 47 23 65 48 24
66 49 25 66 49 25 65 49 25 62 48 23
58 46 22 54 44 19 51 42 17 48 41 16
46 40 15 47 40 15 50 41 17 54 44 19
59 46 22 64 49 25 67 50 26 68 51 27
68 51 26 67 50 25 64 48 24 63 47 24
62 46 24 63 48 24 68 51 26 75 55 28
82 60 30 86 63 31 87 63 32 84 61 31
77 56 29 69 51 26 62 47 23 56 44 21
52 42 19 49 41 17 47 41 16 46 40 15
47 40 15 48 41 16 52 42 18 56 44 20
60 46 22 63 48 24 66 49 25 67 49 25
67 49 26 66 49 25 66 49 25 66 49 25
66 49 25 67 50 26 67 50 26 68 50 26
69 50 27 68 50 26 65 49 24 60 46 22
55 44 20 50 42 17 47 41 16 46 40 15
74 57 30 72 56 30 68 53 27 61 49 23
53 45 19 49 42 16 48 41 16 52 43 18
57 46 21 61 47 23 62 47 23 58 43 19
52 39 15 46 35 11 44 34 10 45 35 11
47 38 14 50 41 16 50 42 17 49 42 17
47 41 16 47 41 16 50 42 17 54 44 19
60 47 22 65 49 25 68 50 26 68 50 26
67 49 25 65 49 25 65 49 24 66 50 25
68 50 26 68 50 26 65 49 25 60 47 22
54 44 19 51 42 18 51 42 18 55 44 20
60 47 22 64 48 24 64 48 24 61 47 23
56 45 20 51 43 18 50 42 17 51 42 18
55 43 19 60 46 22 66 50 26 71 54 29
75 57 32 74 57 31 69 54 28 60 47 21
50 39 14 43 33 9 41 31 7 45 34 10
53 40 16 61 46 22 66 50 26 68 51 27
41 31 8 42 32 8 44 33 10 47 36 13
50 40 16 53 43 18 53 44 19 53 44 19
52 44 19 51 43 18 52 43 18 54 43 19
57 44 20 60 46 22 64 47 23 67 49 25
69 50 26 69 50 26 66 49 25 61 47 23
56 45 20 53 43 19 52 43 18 54 44 19
58 46 21 61 47 22 60 46 22 56 44 20
51 42 18 49 41 17 50 43 18 56 47 22
63 52 26 70 56 30 73 57 31 73 56 31
70 53 28 67 50 26 65 48 25 65 48 24
65 48 25 67 49 25 68 50 26 70 51 27
71 51 28 69 51 27 66 49 25 60 46 22
54 44 19 51 42 17 52 43 18 57 46 22
63 50 25 67 51 27 66 50 25 60 45 20
52 38 14 44 33 9 40 31 7 40 32 8
42 35 11 45 39 14 47 41 16 48 42 17
76 56 30 76 56 29 73 55 28 70 52 26
65 49 24 63 48 23 63 48 24 66 50 26
69 51 28 69 51 27 65 48 24 56 41 17
47 34 10 39 30 6 38 29 5 41 32 8
48 38 14 57 44 20 63 49 24 67 51 27
68 51 27 68 50 26 66 49 25 64 48 24
61 47 23 57 45 21 51 42 18 45 38 14
42 35 11 42 35 11 48 39 14 58 46 19
70 54 26 79 60 31 84 63 34 83 61 34
77 57 31 70 52 27 65 48 25 62 47 23
60 46 23 60 46 22 58 46 21 57 45 21
56 45 20 57 45 20 59 45 21 61 46 22
64 47 23 67 49 25 71 52 28 74 55 31
76 58 32 74 57 31 68 53 27 58 45 20
48 37 12 40 31 7 38 29 5 40 31 7
46 37 13 53 42 18 57 46 21 59 47 22
100 72 36 97 70 35 89 65 31 74 57 26
58 47 19 47 40 15 43 38 14 47 39 16
54 43 20 62 47 23 64 48 24 61 45 21
55 41 17 48 37 13 43 36 11 41 35 11
42 37 12 45 39 14 49 42 17 54 44 20
60 46 22 64 48 24 66 49 25 67 50 26
66 50 25 62 48 24 58 45 21 53 41 17
50 37 14 49 36 13 52 38 14 59 43 17
66 49 21 72 54 25 73 56 26 71 54 26
65 51 24 59 46 21 54 43 19 52 42 18
52 42 18 53 43 18 55 44 19 56 46 20
57 47 22 58 48 22 59 49 23 58 48 22
58 47 21 58 46 21 59 46 22 62 47 23
66 49 25 67 49 26 66 48 25 62 45 22
58 42 19 54 40 16 53 40 16 54 41 17
57 44 20 60 47 22 62 48 24 62 49 25
77 56 28 76 56 28 74 55 28 70 54 27
66 52 25 64 51 25 65 52 26 68 54 28
72 56 30 74 56 31 71 55 29 66 51 26
57 47 22 50 43 18 45 40 15 43 39 14
44 39 14 47 41 16 52 43 18 58 46 21
63 48 24 66 49 25 64 48 24 58 45 21
51 42 17 47 40 15 49 42 17 57 47 21
66 53 27 73 56 31 73 56 31 66 52 27
55 46 21 46 40 16 42 37 14 43 37 14
49 40 16 55 44 20 61 47 23 64 50 25
67 51 27 69 53 28 72 55 30 75 56 31
76 57 32 74 56 31 69 53 28 62 49 24
53 44 19 47 41 16 44 39 14 44 39 14
48 41 16 52 43 18 57 45 21 60 47 23
61 48 24 60 48 23 58 46 21 53 42 18
48 38 14 43 35 10 40 33 8 39 32 7
62 47 24 63 47 24 64 48 25 67 50 26
70 52 28 71 53 28 69 53 28 65 51 26
60 49 23 57 47 21 56 46 21 58 47 22
61 48 23 63 48 24 61 47 23 56 45 20
50 42 18 47 41 16 49 41 17 54 44 19
62 47 23 67 49 26 66 49 25 61 47 23
54 43 19 48 41 16 48 41 16 53 44 19
61 48 23 67 51 26 68 52 27 66 51 25
60 49 22 55 46 19 50 43 17 48 41 16
49 41 17 53 43 19 60 47 22 70 54 26
79 60 30 85 64 32 87 64 33 82 61 31
75 55 28 67 50 25 62 46 23 60 45 22
60 46 23 62 47 23 63 48 23 63 48 24
62 48 23 60 47 22 57 45 21 53 43 19
49 41 16 45 39 15 44 38 14 44 38 13
45 38 13 46 38 14 47 39 14 48 39 14
66 49 25 66 49 25 66 49 25 66 49 25
65 48 24 65 48 24 64 48 24 64 48 25
64 48 25 62 47 23 58 45 21 54 41 17
49 37 13 47 35 11 48 35 12 52 38 14
57 43 19 61 46 22 62 48 23 59 47 23
55 45 20 52 43 18 52 43 18 53 43 19
57 45 21 61 47 23 65 49 25 69 52 26
70 53 27 68 51 26 61 45 23 50 37 18
39 28 14 30 21 10 26 20 8 27 23 8
33 29 10 42 37 14 51 44 17 59 48 21
66 51 24 70 53 26 73 53 27 74 53 28
72 52 28 68 50 26 63 48 24 59 46 22
55 44 20 53 44 19 54 43 19 56 44 20
60 46 22 65 48 24 69 51 27 72 54 30
73 56 31 72 56 30 67 53 27 60 48 22
52 41 16 45 36 11 40 32 8 39 31 7
66 49 25 66 49 25 66 49 25 65 49 25
65 49 25 65 49 25 66 49 25 68 50 26
69 51 27 68 50 26 63 48 24 57 44 20
50 40 16 46 39 14 48 41 16 55 45 20
64 51 25 71 56 30 75 58 32 75 57 31
71 53 28 65 49 25 59 45 21 54 43 19
51 42 17 50 42 17 52 43 18 57 45 21
62 48 23 65 49 25 64 48 24 59 45 22
52 41 18 47 38 16 46 38 16 51 41 18
57 44 21 63 47 23 63 48 24 59 47 22
54 44 19 50 42 18 50 42 18 55 44 20
61 47 23 65 49 25 65 49 25 60 47 22
54 44 19 49 41 17 48 41 16 51 43 18
58 45 21 64 48 24 68 50 26 70 51 27
69 52 27 68 51 27 67 50 26 65 49 25
64 48 24 63 47 23 62 46 22 62 46 22
67 50 26 66 49 25 64 48 24 59 46 22
54 44 19 50 42 17 49 41 16 49 42 17
50 42 17 52 43 18 51 42 18 48 41 16
46 39 15 46 40 15 51 43 18 59 49 23
68 55 28 73 58 31 73 56 30 67 50 25
57 43 18 48 36 12 43 33 9 43 34 10
46 37 13 50 41 16 51 43 18 50 43 18
49 42 18 49 42 17 51 43 18 55 45 20
60 47 22 63 48 24 63 49 24 62 48 23
58 46 21 53 44 19 49 41 17 46 40 15
45 39 14 45 39 14 48 40 15 53 43 18
59 46 21 64 48 24 67 49 26 67 49 26
66 49 25 65 49 25 66 50 26 69 52 28
72 55 30 72 56 30 70 55 29 65 52 25
58 47 21 52 43 17 48 41 14 47 40 14
47 40 15 48 41 16 49 42 17 49 42 17
70 51 27 68 50 26 65 49 24 58 46 21
52 43 18 48 41 16 47 41 16 50 42 17
56 44 20 60 47 22 62 48 23 61 47 23
58 46 21 55 45 20 54 44 20 56 45 20
58 46 21 61 47 23 63 47 23 63 48 24
63 48 24 63 48 24 64 48 24 65 49 25
66 50 25 65 49 25 62 47 23 56 44 20
51 41 16 46 39 14 44 37 13 44 38 13
46 39 14 50 42 17 55 45 20 61 48 23
65 50 26 67 50 26 64 47 24 58 43 19
50 37 14 45 34 10 45 34 10 49 37 13
55 42 18 63 47 23 68 51 27 71 52 28
70 52 28 68 50 26 64 48 24 59 46 21
53 43 18 48 41 16 44 39 15 42 38 16
42 38 18 43 38 20 45 39 21 47 40 21
49 41 19 51 42 18 52 43 18 52 43 17
61 47 23 60 47 22 60 47 22 59 46 22
58 46 21 57 45 21 55 44 20 53 44 19
52 43 18 52 43 18 52 42 18 54 42 18
55 42 18 56 42 18 56 42 18 54 42 17
51 41 17 48 41 16 47 41 16 47 41 16
47 41 16 47 41 16 47 41 16 47 41 16
46 41 16 45 40 15 45 39 14 45 38 13
47 36 12 48 36 12 51 37 14 54 40 16
58 43 19 61 46 22 63 48 24 65 49 25
66 49 25 67 50 26 68 50 26 70 52 28
72 54 29 73 55 30 72 55 30 71 53 29
68 52 27 66 50 26 65 49 25 65 49 25
65 49 25 66 49 25 65 49 24 65 49 23
63 48 21 59 47 21 53 44 21 45 39 23
38 36 25 35 34 28 38 35 29 45 38 29
55 44 28 65 49 27 71 52 26 73 53 26
46 40 15 47 40 15 48 41 16 49 41 17
52 42 18 55 44 20 60 46 22 65 49 25
69 52 28 71 52 28 69 51 27 65 48 24
59 44 20 54 40 16 50 39 14 49 39 14
49 40 16 49 42 17 49 42 17 48 42 17
46 41 16 46 40 15 48 41 16 50 42 17
53 43 18 57 45 20 60 46 22 62 48 24
63 49 24 62 48 24 59 47 22 54 45 20
49 42 17 46 40 15 45 39 14 46 40 15
50 41 17 54 44 19 58 46 21 60 48 23
62 50 24 63 51 25 64 51 25 64 50 25
64 49 25 64 48 24 65 48 24 65 48 25
66 49 25 66 49 25 65 49 25 65 48 24
63 46 22 61 44 20 58 43 18 54 42 16
50 41 14 48 41 14 48 42 14 50 43 16
54 44 18 57 45 20 59 46 22 59 46 22
48 41 16 49 42 17 51 43 18 53 44 19
56 46 21 58 47 22 58 46 22 57 44 20
54 42 18 52 40 16 51 39 15 52 39 15
54 40 16 54 40 16 54 40 16 51 39 15
49 38 14 48 38 13 49 40 15 52 42 17
56 45 20 60 47 23 62 49 24 63 49 25
62 48 24 60 46 22 56 45 20 52 43 18
49 41 16 47 40 15 47 41 16 50 42 17
53 43 19 57 45 21 60 47 22 62 48 23
62 48 23 60 47 22 56 44 20 50 41 17
45 39 14 43 38 13 46 40 15 52 44 19
60 49 24 68 54 28 73 55 30 74 54 29
72 51 27 68 49 25 63 49 25 57 50 27
52 53 29 50 55 31 50 55 31 54 54 29
58 51 26 61 49 22 61 46 19 58 44 18
54 42 17 49 41 16 46 41 16 45 40 16
46 40 15 46 40 15 47 40 15 49 40 16
51 40 16 52 39 15 50 37 13 47 34 10
43 31 8 39 29 6 37 28 4 37 28 4
39 30 5 42 33 9 45 39 15 48 47 23
50 54 30 52 58 34 52 57 33 52 52 28
50 44 21 48 38 14 47 34 10 47 34 10
47 37 12 47 39 15 46 41 16 45 41 16
45 41 15 46 40 15 50 42 17 55 44 20
61 47 23 65 48 25 66 49 25 64 48 24
61 47 23 57 45 21 56 44 20 56 45 20
58 46 21 61 47 23 64 49 24 66 50 26
68 52 27 69 52 27 69 52 27 69 51 27
68 50 26 67 49 26 67 51 26 67 53 28
67 56 30 65 57 32 61 55 33 55 50 34
49 44 34 44 39 33 42 36 30 42 36 26
44 38 21 47 40 17 49 42 15 49 42 14
73 58 32 71 57 30 66 52 26 57 45 19
47 36 12 40 31 6 37 28 4 38 30 6
41 34 9 46 38 14 48 41 16 48 41 16
47 40 15 48 41 16 51 44 19 57 50 24
64 56 30 70 60 35 73 62 36 74 61 35
71 57 31 67 53 27 62 48 23 56 45 20
52 43 18 50 42 17 49 41 17 51 42 18
54 43 19 59 46 22 65 49 25 70 53 28
74 56 31 74 57 31 71 55 29 64 52 26
56 47 21 49 42 17 44 39 14 43 38 13
45 39 14 49 42 16 54 44 19 59 46 22
63 48 24 65 48 24 64 48 24 60 46 22
55 44 19 52 42 17 53 42 17 58 44 19
64 46 21 67 48 23 65 47 24 58 44 23
50 41 21 43 38 20 42 38 19 45 40 20
52 43 21 60 46 23 64 48 24 65 49 24
68 51 27 68 51 26 68 51 26 68 50 26
67 49 25 65 48 24 62 47 23 57 45 20
51 43 18 49 42 17 50 42 18 54 44 20
60 47 22 64 48 24 63 47 23 58 44 21
52 41 18 50 41 16 56 45 18 67 52 24
81 60 29 89 66 33 88 65 33 79 60 29
64 51 23 52 44 18 47 40 16 50 41 18
58 45 22 65 48 25 67 50 26 64 49 24
58 46 22 53 44 19 51 43 18 52 43 18
56 45 19 62 47 22 67 50 26 72 52 31
75 55 36 77 56 38 77 55 37 76 52 33
72 50 28 68 49 25 64 50 26 61 55 30
58 59 35 56 62 38 53 61 37 51 56 33
49 50 26 49 44 20 52 41 16 55 42 17
60 45 19 64 48 22 67 50 24 68 51 25
68 50 26 67 50 25 66 49 25 66 49 26
