P3
# Converted to P3 by scripts/convert_to_p3.py
64 64
255
4 0 33 168 0 2 231 0 1 83 0 31
22 0 54 7 0 90 0 0 88 0 0 87
90 0 51 90 0 44 4 0 69 99 0 43
142 0 2 0 0 110 0 0 77 17 0 69
116 0 29 157 0 10 16 0 42 5 0 70
102 0 19 40 0 31 175 0 10 90 0 22
24 0 50 42 0 69 10 0 67 43 0 46
63 0 57 0 0 95 31 0 74 0 0 116
142 0 39 126 0 7 0 0 84 125 0 27
119 0 35 0 0 85 3 0 81 3 0 77
1 0 104 0 0 67 1 0 52 2 0 71
0 0 90 93 0 47 117 0 21 0 0 87
0 0 60 0 0 46 39 0 70 14 0 74
98 0 33 165 0 0 0 0 72 3 0 73
212 0 0 160 0 24 0 0 76 49 0 53
129 0 23 63 0 31 148 0 29 126 0 8
0 0 84 133 0 30 210 0 0 0 0 49
6 0 102 3 0 94 0 0 67 38 0 67
83 0 55 55 0 63 0 0 81 4 0 59
4 0 55 16 0 52 167 0 9 10 0 81
133 0 22 212 0 0 44 0 64 108 0 31
86 0 25 23 0 44 121 0 28 247 0 0
192 0 7 44 0 65 0 0 98 0 0 86
53 0 67 41 0 62 17 0 77 49 0 50
57 0 58 23 0 41 0 0 93 96 0 40
112 0 41 0 0 99 4 0 82 0 0 79
54 0 59 6 0 68 0 0 39 0 0 62
9 0 63 138 0 12 43 0 52 104 0 42
200 0 5 59 0 42 0 0 77 0 0 49
178 0 0 118 0 34 6 0 67 0 0 86
84 0 37 43 0 38 0 0 89 108 0 26
110 0 45 0 0 47 135 0 19 51 0 59
40 0 51 145 0 17 176 0 5 15 0 56
0 0 100 2 0 85 0 0 85 2 0 73
49 0 56 218 0 3 69 0 39 0 0 81
0 0 53 2 0 20 152 0 22 181 0 15
50 0 67 181 0 3 150 0 9 49 0 14
114 0 36 21 0 39 51 0 18 183 0 7
125 0 18 203 0 0 34 0 62 0 0 83
28 0 39 142 0 27 95 0 49 183 0 6
10 0 66 0 0 64 0 0 72 40 0 52
49 0 68 0 0 90 0 0 85 1 0 98
37 0 74 8 0 76 0 0 34 0 0 67
31 0 70 106 0 31 0 0 82 58 0 67
142 0 4 142 0 22 0 0 52 0 0 35
178 0 16 235 0 7 174 0 7 115 0 32
75 0 51 0 0 84 1 0 100 6 0 69
130 0 15 54 0 52 16 0 75 110 0 36
85 0 24 192 0 1 173 0 3 183 0 0
133 0 20 123 0 19 119 0 45 46 0 68
4 0 56 65 0 41 60 0 58 66 0 58
17 0 58 0 0 31 120 0 31 219 0 0
61 0 52 0 0 54 54 0 40 66 0 23
221 0 0 50 0 27 0 0 44 193 0 26
15 0 46 121 0 2 42 0 55 9 0 74
0 0 36 141 0 33 94 0 12 109 0 26
53 0 57 0 0 84 0 0 67 9 0 55
22 0 69 0 0 89 23 0 71 55 0 64
57 0 54 0 0 70 5 0 43 0 0 80
49 0 54 48 0 61 144 0 18 76 0 28
0 0 59 29 0 80 12 0 68 40 0 24
180 0 10 63 0 42 165 0 7 255 0 0
245 0 0 67 0 64 25 0 66 71 0 58
136 0 28 9 0 64 32 0 42 155 0 4
49 0 71 231 0 1 187 0 3 137 0 23
65 0 53 4 0 65 81 0 55 53 0 66
0 0 81 13 0 79 2 0 89 233 0 0
95 0 11 21 0 51 102 0 38 124 0 24
0 0 41 50 0 47 168 0 2 210 0 11
223 0 3 53 0 37 0 0 63 54 0 48
71 0 39 0 0 76 144 0 18 93 0 47
57 0 48 130 0 8 4 0 32 146 0 15
0 0 44 21 0 92 0 0 88 24 0 68
0 0 86 0 0 85 84 0 33 12 0 60
190 0 0 81 0 46 0 0 45 7 0 79
0 0 83 1 0 53 218 0 0 26 0 49
13 0 61 45 0 83 0 0 45 111 0 0
228 0 12 0 0 51 10 0 21 222 0 12
230 0 4 255 0 0 69 0 19 61 0 17
119 0 48 0 0 84 183 0 4 151 0 26
32 0 77 200 0 0 55 0 71 0 0 97
0 0 101 0 0 95 0 0 102 0 0 105
1 0 75 0 0 66 0 0 93 55 0 63
29 0 41 79 0 35 54 0 28 110 0 31
0 0 44 206 0 6 110 0 53 132 0 30
122 0 12 0 0 63 3 0 76 0 0 51
0 0 77 0 0 91 66 0 42 208 0 3
220 0 0 60 0 23 3 0 61 91 0 38
12 0 43 19 0 79 0 0 68 4 0 82
13 0 90 89 0 34 16 0 61 5 0 54
100 0 47 69 0 62 7 0 23 14 0 46
187 0 13 32 0 45 100 0 36 186 0 3
186 0 0 48 0 59 0 0 42 156 0 2
255 0 0 199 0 11 40 0 36 186 0 0
16 0 32 133 0 35 15 0 34 0 0 60
144 0 9 18 0 53 247 0 0 160 0 24
87 0 35 51 0 56 0 0 101 9 0 75
12 0 86 0 0 96 11 0 74 30 0 88
0 0 77 1 0 66 1 0 91 0 0 96
0 0 80 70 0 35 44 0 33 0 0 86
42 0 73 84 0 50 32 0 41 6 0 60
0 0 88 0 0 75 3 0 79 0 0 50
34 0 57 8 0 59 103 0 16 32 0 58
53 0 63 21 0 68 94 0 36 0 0 98
2 0 76 7 0 82 6 0 71 2 0 86
25 0 60 21 0 75 0 0 76 0 0 94
0 0 88 36 0 75 6 0 62 0 0 13
121 0 31 21 0 50 0 0 40 234 0 3
74 0 24 0 0 81 0 0 59 67 0 39
121 0 27 77 0 0 97 0 31 70 0 34
0 0 49 0 0 63 23 0 71 5 0 72
69 0 55 3 0 71 177 0 4 176 0 9
7 0 96 2 0 85 0 0 97 33 0 71
31 0 77 0 0 100 3 0 78 7 0 74
0 0 76 0 0 107 0 0 68 2 0 78
2 0 88 0 0 47 11 0 44 84 0 46
106 0 27 18 0 57 38 0 49 0 0 83
54 0 63 70 0 60 0 0 65 0 0 60
67 0 41 76 0 18 130 0 21 0 0 61
0 0 94 72 0 56 59 0 55 10 0 99
4 0 87 0 0 92 68 0 36 76 0 40
0 0 59 0 0 98 1 0 53 1 0 78
0 0 91 30 0 69 49 0 55 0 0 47
0 0 102 0 0 86 18 0 24 118 0 33
4 0 58 15 0 91 0 0 92 0 0 51
0 0 54 0 0 48 5 0 61 0 0 83
0 0 82 2 0 60 0 0 93 5 0 69
0 0 83 109 0 30 108 0 27 175 0 15
192 0 8 50 0 69 25 0 74 0 0 99
0 0 104 0 0 100 1 0 79 5 0 80
0 0 92 0 0 89 0 0 57 0 0 69
0 0 83 4 0 70 38 0 44 229 0 0
186 0 0 36 0 34 83 0 36 21 0 59
163 0 7 81 0 54 0 0 54 5 0 72
0 0 59 32 0 29 123 0 41 0 0 88
18 0 83 28 0 83 0 0 84 137 0 16
94 0 37 0 0 74 7 0 77 3 0 79
0 0 75 1 0 80 0 0 62 0 0 80
0 0 62 33 0 30 180 0 6 0 0 65
0 0 107 0 0 88 0 0 97 0 0 109
0 0 77 60 0 56 53 0 76 0 0 92
0 0 70 6 0 73 0 0 84 14 0 61
44 0 68 11 0 59 40 0 71 0 0 71
0 0 51 88 0 32 55 0 64 0 0 60
208 0 10 13 0 70 32 0 70 0 0 110
0 0 88 6 0 90 9 0 93 24 0 64
0 0 81 1 0 83 0 0 62 2 0 75
0 0 45 50 0 66 0 0 39 129 0 14
128 0 17 102 0 33 162 0 3 41 0 34
60 0 70 0 0 84 0 0 74 0 0 52
0 0 88 0 0 51 12 0 79 24 0 70
1 0 82 5 0 103 0 0 98 38 0 54
59 0 52 2 0 72 1 0 90 0 0 86
0 0 78 0 0 72 9 0 68 10 0 70
0 0 72 75 0 9 237 0 9 64 0 55
0 0 95 6 0 66 76 0 46 97 0 42
1 0 96 55 0 31 45 0 52 63 0 78
47 0 49 0 0 76 26 0 82 1 0 42
125 0 18 253 1 0 119 0 46 51 0 52
187 0 0 0 0 54 15 0 69 104 0 15
0 0 78 28 0 68 1 0 83 43 0 64
57 0 68 123 0 20 0 0 65 0 0 83
1 0 94 0 0 96 2 0 95 0 0 69
50 0 24 164 0 19 0 0 17 28 0 28
134 0 28 162 0 20 73 0 37 0 0 58
0 0 98 9 0 80 75 0 50 21 0 55
7 0 87 0 0 73 0 0 86 15 0 86
38 0 77 0 0 102 45 0 69 153 0 11
6 0 94 1 0 92 0 0 88 25 0 77
6 0 67 0 0 87 33 0 39 164 0 4
130 0 37 77 0 31 17 0 45 56 0 46
0 0 78 5 0 89 82 0 35 48 0 70
25 0 80 65 0 34 3 0 49 165 0 11
24 0 38 0 0 91 16 0 92 0 0 64
123 0 2 221 0 9 212 0 6 248 0 1
101 0 45 20 0 62 106 0 29 179 0 3
8 0 94 11 0 82 76 0 41 103 0 19
146 0 9 94 0 44 0 0 75 0 0 84
0 0 97 0 0 99 0 0 83 0 0 84
7 0 79 30 0 58 89 0 44 0 0 54
8 0 28 99 0 34 0 0 73 2 0 99
0 0 80 9 0 62 223 0 0 163 0 9
29 0 30 0 0 73 0 0 70 12 0 75
110 0 18 44 0 40 19 0 69 78 0 35
67 0 62 0 0 75 84 0 44 4 0 63
25 0 60 10 0 79 0 0 83 101 0 18
122 0 19 2 0 42 0 0 42 0 0 59
99 0 38 98 0 42 0 0 74 17 0 96
4 0 82 16 0 69 133 0 20 155 0 6
198 0 12 32 0 48 57 0 43 24 0 58
47 0 36 0 0 40 61 0 36 252 0 0
65 0 42 1 0 58 58 0 58 181 0 0
86 0 31 93 0 51 214 0 0 112 0 16
45 0 59 0 0 94 0 0 80 20 0 71
95 0 33 22 0 78 4 0 59 98 0 33
22 0 61 0 0 82 129 0 40 192 0 0
0 0 48 3 0 70 11 0 55 0 0 84
0 0 101 32 0 54 194 0 6 15 0 25
0 0 56 2 0 67 0 0 72 1 0 57
141 0 28 143 0 19 63 0 35 0 0 81
13 0 84 0 0 73 73 0 51 46 0 60
0 0 81 2 0 92 0 0 74 0 0 88
0 0 89 6 0 58 8 0 43 0 0 43
109 0 19 103 0 32 0 0 70 69 0 41
50 0 70 56 0 44 67 0 32 28 0 77
68 0 39 14 0 66 29 0 69 0 0 87
1 0 99 0 0 85 0 0 30 148 0 18
57 0 25 0 0 72 13 0 70 81 0 50
23 0 49 195 0 9 255 0 0 241 0 0
38 0 44 74 0 46 110 0 46 54 0 56
185 0 3 41 0 57 0 0 74 177 0 10
124 0 31 0 0 95 55 0 51 63 0 34
0 0 57 39 0 77 0 0 58 70 0 24
91 0 57 27 0 63 114 0 32 0 0 57
4 0 68 2 1 55 0 0 79 18 0 26
200 0 0 16 0 43 74 0 41 0 0 109
0 0 94 51 0 55 17 0 73 91 0 36
103 0 22 0 0 89 4 0 97 3 0 68
0 0 91 18 0 88 11 0 42 24 0 51
0 0 40 55 0 45 54 0 67 0 0 99
113 0 37 108 0 18 8 0 62 62 0 61
0 0 79 79 0 48 24 0 80 5 0 61
137 0 11 24 0 63 62 0 15 196 0 13
27 0 63 80 0 54 126 0 40 26 0 62
0 0 58 122 0 4 165 0 20 180 0 26
95 0 13 133 0 11 153 0 13 28 0 45
45 0 43 37 0 78 20 0 62 74 0 53
94 0 38 91 0 52 0 0 90 95 0 53
123 0 19 0 0 43 34 0 53 79 0 19
137 0 14 110 0 29 67 0 30 3 0 86
1 0 82 3 0 57 0 0 76 32 0 38
91 0 23 31 0 44 17 0 81 35 0 74
0 0 64 220 0 0 169 0 16 83 0 22
93 0 29 1 0 66 0 0 83 0 0 76
0 0 98 23 0 82 31 0 43 8 0 61
0 0 62 44 0 29 132 0 5 1 0 65
185 0 10 121 0 48 0 0 101 19 0 95
5 0 64 176 0 4 15 0 69 5 0 68
51 0 70 0 0 50 117 0 33 123 0 18
0 0 68 145 0 12 126 0 21 14 0 61
0 0 82 80 0 27 46 0 67 56 0 55
70 0 34 51 0 46 153 0 22 43 0 57
0 0 76 23 0 86 64 0 44 0 0 69
77 0 34 232 0 0 0 0 71 64 0 27
128 0 21 0 0 65 20 0 57 4 0 46
0 0 14 166 0 10 104 0 14 0 0 59
0 0 89 0 0 77 17 0 71 0 0 66
73 0 15 122 0 49 154 0 17 66 0 25
0 0 58 55 0 40 134 0 13 16 0 71
0 0 88 0 0 71 46 0 32 59 0 50
0 0 99 31 0 89 2 0 75 73 0 29
79 0 18 0 0 42 116 0 11 189 0 0
192 0 13 121 0 37 0 0 111 9 0 89
77 0 34 142 0 20 0 0 79 9 0 86
103 0 28 0 0 51 143 0 32 29 0 27
0 0 71 98 0 14 162 0 23 64 0 54
59 0 34 0 0 105 24 0 68 46 0 64
8 0 102 0 0 99 69 0 51 134 0 21
52 0 58 0 0 81 27 0 40 176 0 16
8 0 46 37 0 29 77 0 53 0 0 91
0 0 57 3 0 67 108 0 37 105 0 21
0 0 42 0 0 77 12 0 81 88 0 32
29 0 74 62 0 48 162 0 17 7 0 51
7 0 58 6 0 77 23 0 64 41 0 64
0 0 92 0 0 71 58 0 45 164 0 12
19 0 53 0 0 50 193 0 10 232 0 1
26 0 73 81 0 30 56 0 51 29 0 52
3 0 71 0 0 84 0 0 77 48 0 29
211 0 0 100 0 43 0 0 84 0 0 92
127 0 30 124 0 34 0 0 87 20 0 75
53 0 41 84 0 32 229 0 0 0 0 47
5 0 84 36 0 64 55 0 53 0 0 116
17 0 80 111 0 35 32 0 56 14 0 88
53 0 65 40 0 73 0 0 102 49 0 55
139 0 11 107 0 16 48 0 35 121 0 35
0 0 82 57 0 37 69 0 51 85 0 55
105 0 40 0 0 51 117 0 3 205 0 16
103 0 33 3 0 49 0 0 37 161 0 9
148 0 12 80 0 26 95 0 43 0 0 59
1 0 76 0 0 67 0 0 95 7 0 94
2 0 82 0 0 75 4 0 54 172 0 5
36 0 44 15 0 49 93 0 25 244 0 7
68 0 0 0 0 35 73 0 59 0 0 88
0 0 62 50 0 57 19 0 59 37 0 23
231 0 8 102 0 43 84 0 41 0 0 47
21 0 60 222 0 11 50 0 71 5 0 82
6 0 83 98 0 45 119 0 16 107 0 36
146 0 11 102 0 47 0 0 89 67 0 60
172 0 6 232 0 0 207 0 1 186 0 0
32 0 81 51 0 57 15 0 80 40 0 68
1 0 70 82 0 50 14 0 67 0 0 108
0 0 110 6 0 92 103 0 31 35 0 39
180 0 8 0 0 52 100 0 18 214 0 0
45 0 40 0 0 74 0 0 29 1 0 56
3 0 73 48 0 50 23 0 63 0 0 51
1 0 83 1 0 74 0 0 69 1 0 79
56 0 56 28 0 66 0 0 60 33 0 55
74 0 46 25 0 63 75 0 18 234 0 0
44 0 49 152 0 28 206 0 1 62 0 53
0 0 38 41 0 45 76 0 35 204 0 0
55 0 42 8 0 73 48 0 79 0 0 58
17 0 41 194 0 7 21 0 45 98 0 39
18 0 73 0 0 99 9 0 79 134 0 20
202 0 15 219 0 2 120 0 31 221 0 0
107 0 39 252 0 0 123 0 20 2 0 74
79 0 47 115 0 22 59 0 51 119 0 36
23 0 76 2 0 88 0 0 84 0 0 89
28 0 74 40 0 70 86 0 42 12 0 66
22 0 52 0 0 92 5 0 64 1 0 75
0 0 71 0 0 63 0 0 45 16 0 16
196 0 10 4 0 44 0 0 91 1 0 70
0 0 79 1 0 66 0 0 48 0 0 46
2 0 97 14 0 85 0 0 75 0 0 78
0 0 65 4 0 53 125 0 43 114 0 21
0 0 79 83 0 36 48 0 8 196 0 0
23 0 51 11 0 56 120 0 30 81 0 18
0 0 78 0 0 101 0 0 75 2 0 93
22 0 57 68 0 57 0 0 55 4 0 71
5 0 60 0 0 96 86 0 52 175 0 0
78 0 33 97 0 26 22 0 46 1 0 59
131 0 28 148 0 18 0 0 84 22 0 88
23 0 73 118 0 19 141 0 3 142 0 23
154 0 3 143 0 0 69 0 31 1 0 86
51 0 63 32 0 72 100 0 34 120 0 17
0 0 78 1 0 62 0 0 83 6 0 93
2 0 90 3 0 89 0 0 90 7 0 11
176 0 0 25 0 42 0 0 76 3 0 77
6 0 89 10 0 43 152 0 9 13 0 52
28 0 77 33 0 72 82 0 56 83 0 47
53 0 47 90 0 44 111 0 36 45 0 46
20 0 87 0 0 81 14 0 57 108 0 21
0 0 75 0 0 79 115 0 42 82 0 11
0 0 50 0 0 76 120 0 17 117 0 28
0 0 63 6 0 74 0 0 100 0 0 83
6 0 65 0 0 83 86 0 46 79 0 48
0 0 59 0 0 79 0 0 76 33 0 70
105 0 33 137 0 20 0 0 78 6 0 73
3 0 78 0 0 92 93 0 29 82 0 32
197 0 0 14 0 72 89 0 54 161 0 27
36 0 28 85 0 40 205 0 0 75 0 59
11 0 93 0 0 86 53 0 49 169 0 11
27 0 76 120 0 22 11 0 71 0 0 36
94 0 11 95 0 26 0 0 58 11 0 87
16 0 53 0 0 70 57 0 69 17 0 54
57 0 45 0 0 84 85 0 34 65 0 24
163 0 17 240 0 0 21 0 9 69 0 15
92 0 40 0 0 98 4 0 101 1 0 94
3 0 60 0 0 98 128 0 31 120 0 9
0 0 76 0 0 54 39 0 60 59 0 47
41 0 46 151 0 9 16 0 46 144 0 37
19 0 41 0 0 98 11 0 94 20 0 91
0 0 87 9 0 66 4 0 90 32 0 71
250 0 0 136 0 40 0 0 93 45 0 55
112 0 14 7 0 84 134 0 20 7 0 51
123 0 26 55 0 60 42 0 78 223 0 0
0 0 59 87 0 45 77 0 49 0 0 87
0 0 104 44 0 59 72 0 28 73 0 39
26 0 47 60 0 58 0 0 88 3 0 66
2 0 58 4 0 82 8 0 65 0 0 58
49 0 49 38 0 71 0 0 93 0 0 63
12 0 56 81 0 38 63 0 31 38 0 40
92 0 34 96 0 31 0 0 37 102 0 16
158 0 20 151 0 25 0 0 75 2 0 95
0 0 67 37 0 38 219 0 4 90 0 26
0 0 84 1 0 85 0 0 90 18 0 79
66 0 61 103 0 21 22 0 27 233 0 8
36 0 47 0 0 53 107 0 25 92 0 42
0 0 92 11 0 63 30 0 70 0 0 80
112 0 35 174 0 3 125 0 25 120 0 20
14 0 79 0 0 119 73 0 55 120 0 12
69 0 53 143 0 18 0 0 54 21 0 63
30 0 59 22 0 78 6 0 66 7 0 72
4 0 76 63 0 37 0 0 69 0 0 103
1 0 70 100 0 34 9 0 74 0 0 83
0 0 78 3 0 68 23 0 58 16 0 14
98 0 25 49 0 55 13 0 41 0 0 52
17 0 60 73 0 50 0 0 66 18 0 62
12 0 77 51 0 60 135 0 16 37 0 47
0 0 53 174 0 8 59 0 53 0 0 76
0 0 103 9 0 26 227 0 0 84 0 24
0 0 47 26 0 87 2 0 82 70 0 54
0 0 105 0 0 80 0 0 21 150 0 9
235 0 13 43 0 47 110 0 34 18 0 74
22 0 77 0 0 52 0 0 95 36 0 72
12 0 44 93 0 23 255 0 0 83 0 48
20 0 90 36 0 71 23 0 63 255 0 0
128 0 43 42 0 43 106 0 27 51 0 69
6 0 89 36 0 64 1 0 77 0 0 94
2 0 54 0 0 63 19 0 72 56 0 61
29 0 41 64 0 39 110 0 45 0 0 47
172 0 19 83 0 28 0 0 52 6 0 53
0 0 50 117 0 23 17 0 44 6 0 48
26 0 47 11 0 65 5 0 58 0 0 41
0 0 65 87 0 42 128 0 29 0 0 54
29 0 71 65 0 37 197 0 19 173 0 22
65 0 52 24 0 49 80 0 42 140 0 19
0 0 56 6 0 84 8 0 60 178 0 0
25 0 52 96 0 47 0 0 55 80 0 25
227 0 0 239 0 8 103 0 31 0 0 90
0 0 100 1 0 65 1 0 69 0 0 53
42 0 70 0 0 73 200 0 0 88 0 50
59 0 51 14 0 36 158 0 11 225 0 0
159 0 20 127 0 33 245 0 0 184 0 7
2 0 88 71 0 41 49 0 65 0 0 95
0 0 83 0 0 89 0 0 62 58 0 73
43 0 39 7 0 50 32 0 54 47 0 29
215 0 5 5 0 42 34 0 54 0 0 89
50 0 68 242 0 0 50 0 45 0 0 40
34 0 34 157 0 27 48 0 27 0 0 53
0 0 68 57 0 63 160 0 7 55 0 48
118 0 44 49 0 37 54 0 25 144 0 11
253 0 0 79 0 17 0 0 59 61 0 38
18 0 87 0 0 104 0 0 53 154 0 9
48 0 45 176 0 8 67 0 39 173 0 0
18 0 40 211 0 4 158 0 11 78 0 26
99 0 25 0 0 73 3 0 68 0 0 73
105 0 28 16 0 66 31 0 56 126 0 18
48 0 56 29 0 56 216 0 2 50 0 50
77 0 35 255 0 0 200 0 1 195 0 0
96 0 18 0 0 74 16 0 61 1 0 49
57 0 36 44 0 76 61 0 40 2 0 82
0 0 80 0 0 42 95 0 39 56 0 41
77 0 21 64 0 31 188 0 15 14 0 66
0 0 30 196 0 11 108 0 26 0 0 64
0 0 41 255 0 0 107 0 0 0 0 42
14 0 44 196 0 0 34 0 16 106 0 28
26 0 63 14 0 68 11 0 45 20 0 40
82 0 52 14 0 63 19 0 57 34 0 57
17 0 89 23 0 85 0 0 46 116 0 21
70 0 41 0 0 68 120 0 26 255 0 0
176 0 3 251 0 0 206 0 5 104 0 24
103 0 13 0 0 73 0 0 85 53 0 71
195 0 0 91 0 44 71 0 35 166 0 0
69 0 48 7 0 76 96 0 37 97 0 26
40 0 36 97 0 51 217 0 0 84 0 41
128 0 28 161 0 11 212 0 0 159 0 7
94 0 34 174 0 1 42 0 57 0 0 47
0 0 62 44 0 28 156 0 17 0 0 9
29 0 15 213 0 5 194 0 5 4 0 71
0 0 47 35 0 29 14 0 78 0 0 61
58 0 14 174 0 28 43 0 54 0 0 61
4 0 51 113 0 23 8 0 33 0 0 81
0 0 64 36 0 45 52 0 34 95 0 49
115 0 23 8 0 52 111 0 38 42 0 41
76 0 45 4 0 89 0 0 83 40 0 61
17 0 64 63 0 38 248 0 0 158 0 24
201 0 7 255 0 0 130 0 26 0 0 79
61 0 23 192 0 1 171 0 6 234 0 0
182 0 1 184 0 6 69 0 51 0 0 96
28 0 87 0 0 75 3 0 65 142 0 10
132 0 6 0 0 64 23 0 74 38 0 81
142 0 19 93 0 37 207 0 3 231 0 0
53 0 61 76 0 36 125 0 26 46 0 53
7 0 72 132 0 27 118 0 26 0 0 64
0 0 42 190 0 5 123 0 31 45 0 20
70 0 43 0 0 50 111 0 44 73 0 21
25 0 39 7 0 63 0 0 84 3 0 74
0 0 39 0 0 66 14 0 77 48 0 68
0 0 53 0 0 73 0 0 29 233 0 0
185 0 2 0 0 39 0 0 81 0 0 46
127 0 22 86 0 62 32 0 56 59 0 35
76 0 29 51 0 58 106 0 38 76 0 44
198 0 10 104 0 3 130 0 16 23 0 64
122 0 16 241 0 1 255 0 0 246 0 0
255 0 0 124 0 25 0 0 84 0 0 99
12 0 89 25 0 53 52 0 50 20 0 69
0 0 93 27 0 65 0 0 96 111 0 28
116 0 13 170 0 27 53 0 57 173 0 17
205 0 8 0 0 66 129 0 27 165 0 8
12 0 56 42 0 39 197 0 8 193 0 25
21 0 33 234 0 0 132 0 31 20 0 26
58 0 80 0 0 81 60 0 23 61 0 42
0 0 83 2 0 74 0 0 79 0 0 102
0 0 81 0 0 58 2 0 65 35 0 60
39 0 65 15 0 70 0 0 63 67 0 38
39 0 57 0 0 64 3 0 78 1 0 83
0 0 73 88 0 33 158 0 0 176 0 0
185 0 17 0 0 56 41 0 60 40 0 55
106 0 39 0 0 65 85 0 38 214 0 0
67 0 64 52 0 50 221 0 0 255 0 0
245 0 0 160 0 14 79 0 50 42 0 51
143 0 13 194 0 3 17 0 79 13 0 84
80 0 59 104 0 36 0 0 75 6 0 79
15 0 61 200 0 1 92 0 48 135 0 23
132 0 33 0 0 36 153 0 16 20 0 48
0 0 85 13 0 63 133 0 40 159 0 26
21 0 12 12 0 39 77 0 46 16 0 48
11 0 105 134 0 11 0 0 64 13 0 73
33 0 68 0 0 69 69 0 41 5 0 69
0 0 96 18 0 75 0 0 57 0 0 43
237 0 0 97 0 26 0 0 90 39 0 82
42 0 55 0 0 73 1 0 77 0 0 95
3 0 85 0 0 63 125 0 19 144 0 27
215 0 4 73 0 20 25 0 47 149 0 37
113 0 5 0 0 97 15 0 74 36 0 75
0 0 113 0 0 66 50 0 55 248 0 1
253 0 0 202 0 1 115 0 11 36 0 38
207 0 0 128 0 30 17 0 43 160 0 11
134 0 31 161 0 23 132 0 14 3 0 48
170 0 13 109 0 36 255 0 0 129 0 35
190 0 14 218 0 2 157 0 33 12 0 73
2 0 66 0 0 56 70 0 32 234 0 1
0 0 20 0 0 38 0 0 72 12 0 62
0 0 78 130 0 22 62 0 67 39 0 62
19 0 49 0 0 65 213 0 1 43 0 23
22 0 49 56 0 70 13 0 86 153 0 20
103 0 25 12 0 36 0 0 90 122 0 31
102 0 0 0 0 72 3 0 86 0 0 79
1 0 92 0 0 77 22 0 63 0 0 55
109 0 38 123 0 10 0 0 42 138 0 12
154 0 20 0 0 97 0 0 58 42 0 44
63 0 66 0 0 81 78 0 30 255 0 0
157 0 17 194 0 7 75 0 50 0 0 64
197 0 0 12 0 61 0 0 42 173 0 7
27 0 50 61 0 55 116 0 29 17 0 75
173 0 0 111 0 34 159 0 20 74 0 21
167 0 19 110 0 43 46 0 59 155 0 7
6 0 63 0 0 98 0 0 75 76 0 38
96 0 31 0 0 71 0 0 54 0 0 41
0 0 57 87 0 45 92 0 9 16 0 37
69 0 50 121 0 23 232 0 0 143 0 0
40 0 23 49 0 49 95 0 50 101 0 16
34 0 25 94 0 42 0 0 92 51 0 53
134 0 16 0 0 80 2 0 78 0 0 79
0 0 82 0 0 73 9 0 79 0 0 92
20 0 48 125 0 31 0 0 23 174 0 1
92 0 24 23 0 79 0 0 71 77 0 41
115 0 35 0 0 92 130 0 25 195 0 19
128 0 27 190 0 0 180 0 14 60 0 42
134 0 16 0 0 73 0 0 94 0 0 89
32 0 67 7 0 81 90 0 34 68 0 39
112 0 23 95 0 33 39 0 42 104 0 19
103 0 25 175 0 22 0 0 102 39 0 64
14 0 93 1 0 82 51 0 46 12 0 52
74 0 29 73 0 58 18 0 67 75 0 51
3 0 31 2 0 54 6 0 94 13 0 63
218 0 1 181 0 0 34 0 9 102 0 44
0 0 53 0 0 52 10 0 84 0 0 77
12 0 47 35 0 68 9 0 73 5 0 43
202 0 4 20 0 88 0 0 87 0 0 86
0 0 72 0 0 82 0 0 78 3 0 96
0 0 72 125 0 10 86 0 12 121 0 28
255 0 0 107 0 23 64 0 51 16 0 82
8 0 72 0 0 69 67 0 64 16 0 50
112 0 38 63 0 51 58 0 68 184 0 12
10 0 46 0 0 100 90 0 58 46 0 50
0 0 101 0 0 110 40 0 66 153 0 8
159 0 14 38 0 44 65 0 41 29 0 80
74 0 36 255 0 0 84 0 48 18 0 72
7 0 69 90 0 31 5 0 72 0 0 81
0 0 49 183 0 0 186 0 0 103 0 32
0 0 25 11 0 45 20 0 83 111 0 44
129 0 31 129 0 6 3 0 37 0 0 95
50 0 49 54 0 48 0 0 84 38 0 62
5 0 51 2 0 58 34 0 50 85 0 43
233 0 3 6 0 46 79 0 52 13 0 60
0 0 77 2 0 73 4 0 85 4 0 100
0 0 55 144 0 22 181 0 26 163 0 36
251 0 0 17 0 57 151 0 5 109 0 31
32 0 67 0 0 19 4 0 85 0 0 65
0 0 110 34 0 70 85 0 49 0 0 107
0 0 70 60 0 63 174 0 8 26 0 55
22 0 70 62 0 62 155 0 14 30 0 61
104 0 38 106 0 34 106 0 53 32 0 55
66 0 46 223 0 0 255 0 0 87 0 29
0 0 79 0 0 80 77 0 64 42 0 40
0 0 24 206 0 0 182 0 6 0 0 31
2 0 43 1 0 55 0 0 53 10 0 59
2 0 45 92 0 9 84 0 33 0 0 63
157 0 12 246 0 0 0 0 54 30 0 61
0 0 54 103 0 19 210 0 5 115 0 9
156 0 11 73 0 28 182 0 2 3 0 43
0 0 69 115 0 19 117 0 44 0 0 91
11 0 37 221 0 10 252 0 0 230 0 0
131 0 32 44 0 57 43 0 73 114 0 15
128 0 8 17 0 36 185 0 18 47 0 66
63 0 57 113 0 35 49 0 63 0 0 110
2 0 101 0 0 79 0 0 88 104 0 36
147 0 16 73 0 45 153 0 0 188 0 1
92 0 36 148 0 21 119 0 28 102 0 35
20 0 87 80 0 40 155 0 13 50 0 30
23 0 35 179 0 2 103 0 9 99 0 46
108 0 24 228 0 0 58 0 18 0 0 39
4 0 56 1 0 53 0 0 60 15 0 46
28 0 66 76 0 23 74 0 36 0 0 47
21 0 45 90 0 33 87 0 29 0 0 64
58 0 48 255 0 0 107 0 17 0 0 46
2 0 65 22 0 80 89 0 43 0 0 56
0 0 84 49 0 58 56 0 47 14 0 72
16 0 46 246 0 6 140 0 8 55 0 3
92 0 41 0 0 96 39 0 81 90 0 22
47 0 64 144 0 21 223 0 5 130 0 27
86 0 32 12 0 98 14 0 85 16 0 86
30 0 73 13 0 78 76 0 45 65 0 52
166 0 15 88 0 55 90 0 19 146 0 11
199 0 0 19 0 57 84 0 42 129 0 31
222 0 4 221 0 10 12 0 45 79 0 38
24 0 42 90 0 34 0 0 68 10 0 70
255 0 0 179 0 21 0 0 35 6 0 77
0 0 59 2 0 54 0 0 75 1 0 62
0 0 70 3 0 80 0 0 51 0 0 65
0 0 69 0 0 70 36 0 47 95 0 31
44 0 42 167 0 7 104 0 0 0 0 57
4 0 66 0 0 74 3 0 73 40 0 71
0 0 88 0 0 76 0 0 90 83 0 22
240 0 1 207 0 1 0 0 22 23 0 74
8 0 72 0 0 99 24 0 78 188 0 2
255 0 0 112 0 20 28 0 16 137 0 23
86 0 39 22 0 84 25 0 77 83 0 48
0 0 105 75 0 50 165 0 3 145 0 24
95 0 50 93 0 14 148 0 8 6 0 70
4 0 83 5 0 72 9 0 69 109 0 20
250 0 0 207 0 1 55 0 48 54 0 34
50 0 52 0 0 97 25 0 79 12 0 29
215 0 0 53 0 24 0 0 62 99 0 36
45 0 27 0 0 46 4 0 86 0 0 71
0 0 60 0 0 84 4 0 79 0 0 61
3 0 47 0 0 84 0 0 66 141 0 24
23 0 42 22 0 67 49 0 56 0 0 58
5 0 71 0 0 73 121 0 17 123 0 13
0 0 76 20 0 78 16 0 46 93 0 9
255 0 0 212 0 0 3 0 25 0 0 92
137 0 20 32 0 77 17 0 69 113 0 14
212 0 11 28 0 41 0 0 32 126 0 38
172 0 8 106 0 35 73 0 58 85 0 38
54 0 70 8 0 96 84 0 51 62 0 55
56 0 59 133 0 20 244 0 0 77 0 45
11 0 84 110 0 28 0 0 56 113 0 32
255 0 0 176 0 0 232 0 1 60 0 45
22 0 59 12 0 83 0 0 80 42 0 67
90 0 31 9 0 62 0 0 91 58 0 56
61 0 37 63 0 17 101 0 31 79 0 37
18 0 46 144 0 29 229 0 3 85 0 48
0 0 43 74 0 55 109 0 44 96 0 0
0 0 44 1 0 98 0 0 99 3 0 73
0 0 77 31 0 46 151 0 15 102 0 34
0 0 71 8 0 93 9 0 55 82 0 5
144 0 2 67 0 31 3 0 85 0 0 59
98 0 23 90 0 34 43 0 47 33 0 48
177 0 12 11 0 49 0 0 21 169 0 19
222 0 4 90 0 41 198 0 0 69 0 59
57 0 55 57 0 54 64 0 50 77 0 57
44 0 70 137 0 24 255 0 0 52 0 36
0 0 91 108 0 31 57 0 39 0 0 56
153 0 22 136 0 13 230 0 2 208 0 6
15 0 65 0 0 77 0 0 64 103 0 49
12 0 49 121 0 10 23 0 73 0 0 64
201 0 4 218 0 1 44 0 19 99 0 24
192 0 3 247 0 0 146 0 12 0 0 32
93 0 22 209 0 5 134 0 14 145 0 32
0 0 63 75 0 42 149 0 22 2 0 81
3 0 83 81 0 20 0 0 59 8 0 46
178 0 0 49 0 59 0 0 39 146 0 9
9 0 48 4 0 83 2 0 100 16 0 68
11 0 72 41 0 40 223 0 0 242 0 0
255 0 0 66 0 52 51 0 34 210 0 0
98 0 38 54 0 48 185 0 0 48 0 55
0 0 112 0 0 75 15 0 77 112 0 30
91 0 38 39 0 61 76 0 43 0 0 83
0 0 75 71 0 28 100 0 42 102 0 42
120 0 28 0 0 43 209 0 1 141 0 26
5 0 34 7 0 72 5 0 64 15 0 27
92 0 36 203 0 4 44 0 52 0 0 76
62 0 13 180 0 6 70 0 33 34 0 38
56 0 18 249 0 0 90 0 37 76 0 33
106 0 0 36 0 26 42 0 23 201 0 1
78 0 60 0 0 49 170 0 9 150 0 23
8 0 89 40 0 60 0 0 73 1 0 54
86 0 44 29 0 59 24 0 53 8 0 62
15 0 71 49 0 71 6 0 50 44 0 37
58 0 27 27 0 43 128 0 42 127 0 33
159 0 14 134 0 22 220 0 3 244 0 0
171 0 2 76 0 34 0 0 95 17 0 79
20 0 82 4 0 93 10 0 46 190 0 0
102 0 36 0 0 102 0 0 76 0 0 70
35 0 70 96 0 30 100 0 43 65 0 47
71 0 54 149 0 21 20 0 57 95 0 26
33 0 74 0 0 72 40 0 83 26 0 45
204 0 3 105 0 18 1 0 67 3 0 81
0 0 35 3 0 89 0 0 67 100 0 31
41 0 21 60 0 31 179 0 12 128 0 11
0 0 55 0 0 74 3 0 44 7 0 62
0 0 69 0 0 65 146 0 15 255 0 0
68 0 5 7 0 66 0 0 91 0 0 90
0 0 86 0 0 93 0 0 105 0 0 94
21 0 52 127 0 21 2 0 59 0 0 49
7 0 92 111 0 35 37 0 59 0 0 84
29 0 72 8 0 61 35 0 31 119 0 27
92 0 52 13 0 96 19 0 82 0 0 111
45 0 67 25 0 58 51 0 44 251 0 0
234 0 4 29 0 59 13 0 66 45 0 58
0 0 62 130 0 10 105 0 24 128 0 37
65 0 65 194 0 11 66 0 58 72 0 45
53 0 69 135 0 36 71 0 28 158 0 12
147 0 8 93 0 14 63 0 23 78 0 50
0 0 33 1 0 54 0 0 90 46 0 55
86 0 20 0 0 27 64 0 50 50 0 36
0 0 80 0 0 60 41 0 27 206 0 8
46 0 21 6 0 55 208 0 3 121 0 24
163 0 6 58 0 40 7 0 78 4 0 87
0 0 94 11 0 66 38 0 71 30 0 74
22 0 21 232 0 0 193 0 4 3 0 33
138 0 29 221 0 0 123 0 23 53 0 73
67 0 50 121 0 14 10 0 67 0 0 83
0 0 98 1 0 102 4 0 89 83 0 42
0 0 85 55 0 45 38 0 56 126 0 23
255 0 0 165 0 23 155 0 26 255 0 0
57 0 43 114 0 32 253 0 0 195 0 4
34 0 62 78 0 55 105 0 17 160 0 0
215 0 0 255 0 0 72 0 30 18 0 69
0 0 63 87 0 32 14 0 57 87 0 38
7 0 76 0 0 71 0 0 83 10 0 57
42 0 57 0 0 70 0 0 72 0 0 64
1 0 71 0 0 59 0 0 46 100 0 23
46 0 41 24 0 43 175 0 7 0 0 39
111 0 50 227 0 0 195 0 0 211 0 0
123 0 40 194 0 7 121 0 29 73 0 45
17 0 42 151 0 7 201 0 5 167 0 14
226 0 0 73 0 52 234 0 0 130 0 34
2 0 70 45 0 63 106 0 34 81 0 56
69 0 47 0 0 61 134 0 23 203 0 0
84 0 46 40 0 68 30 0 73 0 0 80
178 0 1 208 0 4 165 0 18 214 0 0
32 0 33 0 0 68 57 0 28 127 0 21
1 0 56 119 0 25 127 0 11 88 0 42
67 0 61 182 0 2 229 0 4 205 0 1
145 0 13 0 0 74 98 0 50 68 0 31
90 0 33 136 0 30 0 0 45 8 0 59
137 0 24 63 0 45 3 0 64 2 0 68
1 0 65 1 0 47 1 0 63 0 0 73
0 0 55 96 0 4 168 0 16 0 0 38
0 0 51 41 0 42 77 0 44 107 0 40
139 0 9 71 0 36 56 0 63 93 0 42
23 0 34 42 0 34 66 0 28 221 0 7
255 0 0 136 0 25 132 0 15 75 0 37
18 0 58 25 0 73 45 0 16 208 0 2
176 0 10 8 0 69 31 0 69 116 0 28
217 0 0 118 0 21 5 0 83 0 0 78
179 0 0 105 0 58 76 0 73 48 0 46
44 0 47 9 0 85 0 0 64 136 0 19
96 0 50 82 0 47 124 0 16 28 0 77
23 0 75 156 0 8 43 0 48 230 0 0
202 0 16 0 0 42 62 0 54 38 0 33
158 0 0 84 0 38 100 0 41 206 0 0
109 0 19 18 0 45 0 0 66 0 0 70
0 0 78 1 0 63 5 0 39 3 0 89
0 0 50 28 0 28 183 0 16 7 0 46
2 0 61 0 0 56 0 0 58 0 0 65
49 0 38 50 0 23 90 0 50 43 0 52
43 0 48 0 0 83 0 0 49 146 0 7
224 0 4 68 0 42 17 0 51 2 0 67
0 0 83 87 0 36 0 0 57 108 0 35
255 0 0 106 0 47 12 0 56 126 0 22
166 0 0 172 0 0 73 0 53 0 0 70
247 0 0 171 0 4 85 0 42 149 0 18
76 0 40 84 0 36 0 0 106 61 0 48
254 0 0 102 0 32 48 0 59 57 0 52
192 0 8 192 0 11 26 0 55 225 0 0
104 0 57 136 0 26 15 0 60 171 0 8
132 0 39 0 0 43 51 0 24 204 0 9
0 0 57 0 0 62 8 0 94 19 0 67
28 0 55 0 0 63 0 0 63 4 0 84
0 0 68 99 0 0 132 0 34 0 0 71
1 0 64 11 0 56 70 0 47 109 0 16
172 0 0 95 0 31 166 0 13 0 0 86
0 0 101 70 0 54 22 0 31 99 0 13
213 0 8 0 0 89 0 0 114 1 0 107
0 0 89 1 0 107 0 0 104 67 0 44
200 0 8 61 0 36 83 0 45 83 0 40
166 0 15 174 0 21 0 0 81 164 0 24
158 0 25 144 0 9 83 0 38 118 0 22
6 0 69 14 0 69 4 0 94 123 0 53
186 0 6 11 0 92 0 0 97 41 0 55
170 0 13 90 0 17 125 0 25 238 0 3
68 0 54 140 0 14 73 0 40 255 0 0
167 0 27 0 0 18 51 0 49 34 0 44
0 0 71 1 0 67 4 0 52 2 0 54
32 0 52 106 0 42 107 0 38 177 0 1
163 0 15 98 0 40 72 0 25 0 0 61
0 0 64 7 0 21 188 0 1 28 0 41
111 0 20 27 0 20 13 0 49 107 0 57
1 0 74 30 0 72 2 0 68 92 0 7
227 0 5 20 0 51 58 0 57 0 0 98
22 0 83 0 0 80 40 0 80 172 0 24
143 0 17 229 0 0 177 0 13 85 0 49
176 0 4 143 0 21 15 0 83 219 0 0
131 0 25 161 0 11 120 0 31 115 0 39
156 0 13 22 0 64 0 0 38 160 0 2
80 0 39 33 0 66 14 0 66 65 0 58
20 0 78 122 0 25 223 0 0 196 0 6
61 0 38 214 0 0 33 0 21 138 0 11
242 0 0 17 0 19 212 0 5 53 0 30
0 0 32 3 0 66 0 0 66 2 0 67
0 0 66 128 0 25 190 0 0 64 0 45
14 0 40 50 0 30 160 0 7 3 0 32
0 0 63 25 0 36 111 0 14 0 0 48
57 0 58 9 0 45 4 0 26 175 0 0
45 0 44 0 0 63 1 0 80 209 0 9
236 0 0 21 0 32 96 0 29 0 0 112
33 0 81 1 0 69 22 0 71 66 0 75
91 0 42 157 0 19 227 0 0 179 0 3
223 0 0 86 0 46 0 0 84 81 0 19
202 0 0 34 0 38 243 0 0 175 0 25
69 0 58 107 0 33 175 0 0 81 0 23
56 0 37 121 0 16 184 0 14 164 0 10
0 0 95 0 0 101 235 0 6 215 0 3
19 0 75 101 0 50 177 0 0 24 0 63
146 0 24 4 0 29 93 0 0 187 0 0
3 0 6 0 0 65 0 0 81 1 0 64
0 0 72 18 0 57 60 0 41 0 0 89
0 0 79 4 0 60 159 0 6 17 0 33
0 0 37 83 0 27 47 0 31 0 0 65
18 0 63 50 0 61 0 0 54 76 0 46
32 0 67 0 0 59 10 0 22 232 0 0
216 0 7 40 0 41 25 0 78 35 0 83
4 0 90 13 0 95 4 0 80 0 0 93
16 0 63 138 0 26 174 0 20 0 0 68
91 0 28 190 0 7 55 0 71 46 0 55
39 0 70 63 0 28 122 0 33 64 0 68
12 0 87 156 0 0 186 0 0 222 0 0
220 0 0 200 0 6 180 0 11 169 0 21
29 0 85 66 0 77 245 0 0 248 0 0
74 0 48 65 0 56 130 0 38 187 0 14
18 0 76 75 0 38 0 0 27 66 0 43
12 0 33 0 0 59 0 0 74 0 0 81
0 0 46 24 0 52 78 0 54 0 0 41
1 0 61 9 0 48 168 0 13 26 0 68
0 0 57 0 0 86 0 0 29 0 0 69
14 0 56 43 0 42 18 0 54 10 0 64
0 0 74 0 0 92 15 0 37 126 0 5
93 0 22 116 0 31 0 0 75 22 0 71
18 0 74 33 0 73 37 0 50 0 0 82
118 0 29 233 0 0 138 0 24 61 0 46
21 0 48 116 0 14 231 0 1 245 0 5
23 0 53 140 0 25 102 0 45 60 0 55
85 0 36 164 0 9 159 0 0 188 0 5
243 0 0 205 0 6 142 0 21 255 0 0
215 0 0 202 0 7 118 0 39 239 0 4
231 0 0 132 0 13 92 0 24 137 0 19
54 0 54 161 0 8 169 0 22 92 0 36
11 0 30 0 0 52 0 0 87 13 0 78
46 0 58 0 0 77 6 0 73 1 0 50
4 0 56 0 0 45 77 0 46 47 0 53
100 0 39 11 0 54 9 0 55 0 0 55
2 0 59 0 0 48 73 0 22 57 0 35
3 0 64 34 0 80 0 0 69 0 0 49
178 0 10 138 0 33 0 0 66 5 0 82
8 0 97 0 0 105 0 0 87 76 0 46
213 0 0 71 0 41 68 0 60 211 0 1
230 0 0 169 0 7 176 0 3 235 0 5
88 0 20 173 0 3 255 0 0 70 0 39
8 0 83 179 0 0 67 0 30 92 0 51
255 0 0 255 0 0 177 0 5 206 0 0
142 0 37 98 0 44 171 0 15 237 0 0
135 0 24 171 0 9 220 0 0 176 0 11
0 0 60 160 0 21 255 0 0 109 0 7
0 0 46 4 0 64 0 0 63 15 0 62
30 0 57 6 0 29 153 0 9 1 0 33
0 0 60 0 0 64 70 0 28 105 0 23
161 0 1 94 0 21 83 0 32 0 0 42
0 0 91 0 0 78 6 0 64 24 0 49
5 0 37 118 0 22 3 0 92 0 0 65
69 0 20 105 0 39 44 0 60 16 0 67
0 0 98 0 0 82 68 0 53 190 0 3
107 0 31 23 0 65 72 0 43 113 0 34
161 0 18 255 0 0 0 0 62 110 0 40
255 0 0 143 0 9 158 0 17 229 0 0
40 0 66 80 0 44 50 0 51 49 0 46
98 0 31 225 0 10 183 0 19 214 0 0
111 0 48 91 0 51 176 0 6 220 0 0
67 0 47 99 0 32 255 0 0 171 0 16
0 0 46 106 0 41 250 0 0 81 0 20
0 0 63 2 0 85 2 0 59 0 0 52
33 0 76 28 0 40 220 0 10 68 0 48
32 0 68 14 0 53 9 0 28 46 0 52
0 0 57 26 0 65 4 0 53 0 0 57
27 0 75 27 0 67 125 0 30 15 0 55
37 0 49 66 0 24 5 0 77 3 0 41
0 0 92 94 0 44 79 0 48 0 0 89
13 0 74 30 0 63 40 0 60 97 0 36
37 0 54 111 0 37 4 0 65 7 0 73
123 0 18 108 0 34 100 0 34 164 0 22
144 0 17 9 0 48 0 0 70 108 0 40
218 0 0 94 0 53 63 0 58 14 0 43
143 0 15 164 0 15 234 0 0 117 0 33
107 0 27 44 0 55 133 0 22 221 0 3
161 0 18 188 0 4 248 0 0 103 0 40
156 0 25 97 0 41 236 0 0 137 0 26
0 0 59 0 0 83 4 0 79 0 0 47
121 0 13 81 0 24 54 0 10 111 0 43
0 0 65 11 0 59 0 0 57 0 0 62
22 0 68 135 0 30 134 0 17 23 0 37
66 0 40 18 0 38 88 0 23 86 0 54
36 0 50 0 0 66 0 0 64 7 0 54
73 0 36 37 0 58 15 0 85 0 0 105
12 0 75 38 0 70 0 0 83 18 0 85
0 0 81 5 0 92 68 0 44 1 0 95
35 0 84 50 0 54 39 0 57 198 0 0
154 0 0 102 0 15 66 0 38 92 0 29
252 0 0 213 0 0 42 0 40 82 0 36
167 0 15 61 0 37 92 0 39 85 0 33
118 0 23 173 0 2 32 0 76 9 0 79
181 0 0 185 0 0 227 0 1 209 0 0
148 0 17 59 0 20 217 0 1 41 0 54
0 0 72 25 0 66 0 0 70 0 0 75
58 0 34 19 0 25 0 0 27 0 0 56
0 0 96 0 0 68 38 0 69 12 0 58
0 0 24 210 0 0 241 0 0 111 0 27
47 0 18 55 0 52 0 0 58 0 0 105
0 0 85 4 0 56 0 0 86 57 0 43
181 0 5 4 0 79 0 0 93 0 0 108
0 0 78 0 0 83 142 0 23 11 0 59
73 0 48 66 0 29 167 0 9 103 0 47
30 0 79 65 0 65 0 0 99 78 0 43
107 0 23 83 0 42 192 0 0 116 0 5
212 0 0 212 0 3 81 0 36 136 0 32
23 0 48 8 0 32 58 0 36 217 0 0
125 0 20 218 0 0 172 0 8 4 0 15
191 0 1 217 0 1 217 0 2 255 0 0
88 0 51 88 0 35 255 0 0 38 0 70
0 0 92 17 0 78 0 0 63 0 0 87
5 0 83 11 0 64 0 0 43 0 0 43
16 0 60 68 0 58 165 0 2 0 0 29
92 0 32 232 0 0 200 0 0 88 0 40
0 0 47 30 0 71 48 0 72 13 0 68
1 0 65 0 0 71 8 0 53 154 0 18
174 0 14 104 0 31 41 0 53 40 0 79
0 0 96 8 0 95 16 0 67 6 0 70
228 0 6 41 0 51 135 0 13 198 0 3
48 0 48 0 0 106 9 0 87 87 0 36
152 0 38 180 0 14 41 0 29 159 0 4
58 0 51 162 0 11 185 0 11 64 0 43
119 0 28 151 0 29 53 0 29 162 0 19
196 0 0 179 0 8 34 0 48 40 0 38
224 0 4 192 0 0 238 0 0 199 0 3
43 0 47 203 0 10 205 0 0 172 0 1
40 0 53 14 0 72 0 0 66 3 0 64
0 0 69 130 0 38 61 0 23 0 0 13
36 0 13 209 0 12 55 0 19 25 0 25
205 0 7 211 0 0 255 0 0 121 0 31
0 0 66 43 0 69 74 0 45 0 0 77
0 0 78 1 0 71 0 0 65 131 0 27
178 0 7 202 0 0 16 0 64 1 0 91
16 0 79 41 0 74 2 0 71 47 0 59
248 0 0 134 0 21 25 0 58 124 0 32
30 0 69 52 0 77 37 0 54 29 0 39
157 0 0 207 0 0 0 0 49 104 0 41
137 0 23 105 0 37 138 0 8 180 0 16
64 0 46 97 0 27 164 0 8 0 0 64
58 0 58 32 0 68 0 0 78 9 0 68
186 0 2 186 0 0 237 0 0 138 0 3
0 0 67 229 0 5 44 0 59 173 0 5
155 0 15 0 0 85 1 0 83 0 0 70
26 0 77 37 0 56 15 0 58 0 0 58
27 0 43 137 0 11 0 0 57 58 0 21
114 0 31 210 0 3 208 0 0 115 0 16
0 0 41 143 0 12 95 0 25 0 0 85
120 0 32 22 0 39 17 0 69 37 0 49
29 0 29 80 0 57 0 0 86 27 0 48
55 0 61 9 0 87 0 0 87 123 0 25
210 0 4 14 0 74 39 0 54 29 0 75
94 0 25 105 0 38 87 0 30 19 0 82
162 0 26 85 0 56 0 0 99 115 0 32
183 0 0 97 0 23 244 0 0 253 0 0
159 0 22 48 0 38 162 0 13 48 0 45
15 0 65 27 0 61 85 0 37 0 0 48
203 0 0 100 0 25 155 0 9 35 0 46
38 0 68 247 0 0 51 0 64 81 0 60
206 0 0 0 0 81 0 0 54 129 0 20
54 0 49 0 0 41 22 0 66 51 0 74
27 0 72 164 0 1 69 0 34 11 0 60
176 0 21 148 0 28 124 0 24 38 0 39
67 0 9 109 0 5 0 0 89 55 0 62
236 0 1 26 0 32 1 0 63 0 0 75
0 0 55 31 0 63 50 0 37 4 0 23
7 0 84 31 0 79 10 0 50 209 0 2
226 0 0 28 0 71 16 0 79 49 0 77
94 0 49 0 0 94 112 0 31 117 0 31
179 0 3 0 0 78 6 0 85 175 0 12
205 0 5 85 0 26 162 0 18 92 0 29
68 0 56 173 0 0 109 0 10 23 0 51
46 0 78 144 0 27 62 0 60 140 0 28
142 0 15 19 0 67 44 0 72 0 0 90
128 0 40 218 0 0 105 0 10 21 0 71
217 0 6 76 0 41 134 0 15 160 0 24
0 0 64 0 0 66 111 0 37 70 0 7
104 0 20 32 0 71 10 0 74 46 0 47
146 0 31 0 0 85 27 0 64 97 0 32
37 0 61 52 0 29 162 0 0 220 0 1
246 0 1 78 0 8 0 0 69 3 0 65
17 0 52 126 0 34 104 0 4 0 0 39
7 0 40 178 0 13 180 0 18 255 0 0
248 0 0 31 0 50 115 0 30 107 0 47
0 0 87 46 0 55 213 0 12 64 0 44
3 0 75 62 0 67 231 0 6 233 0 3
138 0 25 34 0 54 0 0 71 21 0 51
0 0 97 76 0 49 69 0 33 47 0 38
95 0 51 231 0 0 107 0 33 151 0 15
0 0 83 41 0 56 55 0 64 121 0 19
156 0 17 132 0 31 94 0 22 99 0 19
226 0 0 116 0 12 100 0 38 131 0 22
0 0 49 1 0 68 36 0 61 7 0 10
172 0 6 14 0 60 0 0 85 83 0 40
6 0 62 61 0 42 7 0 93 62 0 50
14 0 72 34 0 41 64 0 22 196 0 0
206 0 1 16 0 51 0 0 84 0 0 71
23 0 59 127 0 16 88 0 42 0 0 84
0 0 26 107 0 24 255 0 0 227 0 0
131 0 17 43 0 23 225 0 0 100 0 35
34 0 56 41 0 63 157 0 33 13 0 67
0 0 74 207 0 8 87 0 47 0 0 97
0 0 75 16 0 75 2 0 100 26 0 54
51 0 62 47 0 67 91 0 57 0 0 89
105 0 19 135 0 29 126 0 30 108 0 17
0 0 81 0 0 93 129 0 23 117 0 22
76 0 53 85 0 49 31 0 75 64 0 64
121 0 52 113 0 21 0 0 64 180 0 0
55 0 46 0 0 88 12 0 75 0 0 72
68 0 52 16 0 43 32 0 50 30 0 47
0 0 68 174 0 0 122 0 29 0 0 54
106 0 18 102 0 2 41 0 36 79 0 32
146 0 15 103 0 13 0 0 58 0 0 60
126 0 32 242 0 0 122 0 35 30 0 79
10 0 60 0 0 33 207 0 0 169 0 16
