P3
# Converted to P3 by scripts/convert_to_p3.py
64 64
255
16 32 8 16 32 8 16 32 8 16 32 8
16 32 8 16 49 8 24 65 16 24 65 16
32 82 24 24 65 16 16 49 8 16 49 8
16 49 8 16 32 8 16 32 8 16 32 8
16 32 8 16 32 8 16 32 8 16 32 8
16 32 8 16 49 8 24 65 16 32 82 24
32 82 24 32 82 24 32 82 24 32 82 24
24 65 16 32 82 24 24 65 16 24 65 16
16 49 8 16 49 8 16 49 8 24 65 16
24 65 16 41 98 32 32 82 24 32 82 24
24 65 16 16 49 8 16 49 8 16 32 8
16 32 8 16 32 8 16 32 8 16 32 8
16 32 8 16 32 8 16 32 8 16 32 8
16 49 8 32 82 24 16 49 8 16 49 8
16 32 8 16 49 8 16 32 8 16 32 8
16 32 8 16 32 8 16 32 8 16 32 8
16 32 8 16 32 8 16 32 8 16 32 8
16 32 8 16 49 8 32 82 24 24 65 16
32 82 24 16 49 8 16 49 8 16 49 8
16 49 8 16 49 8 16 32 8 16 32 8
16 32 8 16 32 8 16 32 8 16 32 8
16 32 8 16 49 8 24 65 16 24 65 16
32 82 24 32 82 24 32 82 24 32 82 24
32 82 24 24 65 16 16 49 8 16 49 8
16 49 8 16 49 8 16 49 8 16 49 8
16 49 8 16 49 8 24 65 16 32 82 24
24 65 16 24 65 16 24 65 16 16 49 8
16 49 8 16 49 8 16 32 8 16 32 8
16 49 8 16 32 8 16 32 8 16 32 8
16 32 8 16 49 8 32 82 24 32 82 24
16 49 8 16 49 8 16 49 8 16 32 8
16 32 8 16 32 8 16 32 8 16 32 8
16 32 8 16 32 8 16 32 8 16 32 8
16 49 8 16 49 8 16 49 8 32 82 24
16 32 8 32 82 24 16 32 8 16 32 8
16 49 8 24 65 16 16 49 8 16 32 8
16 32 8 16 32 8 16 32 8 16 32 8
16 32 8 16 49 8 16 49 8 24 65 16
32 82 24 32 82 24 32 82 24 32 82 24
24 65 16 32 82 24 16 49 8 16 49 8
16 49 8 16 49 8 16 32 8 16 32 8
16 32 8 16 32 8 16 32 8 16 32 8
24 65 16 32 82 24 24 65 16 32 82 24
32 82 24 16 49 8 16 49 8 16 49 8
16 32 8 16 32 8 16 32 8 16 32 8
16 32 8 16 32 8 16 49 8 24 65 16
32 82 24 16 49 8 16 49 8 16 32 8
16 32 8 16 32 8 16 32 8 16 32 8
16 32 8 16 32 8 16 32 8 16 49 8
16 49 8 16 49 8 16 32 8 16 32 8
32 82 24 24 65 16 32 82 24 16 49 8
24 65 16 24 65 16 24 65 16 24 65 16
16 32 8 16 49 8 16 32 8 16 32 8
16 32 8 16 32 8 16 49 8 24 65 16
32 82 24 32 82 24 32 82 24 41 98 32
41 98 32 24 65 16 16 32 8 16 32 8
16 32 8 16 32 8 16 32 8 16 32 8
16 32 8 16 32 8 16 32 8 16 32 8
16 32 8 16 49 8 32 82 24 41 98 32
32 82 24 24 65 16 24 65 16 16 49 8
16 32 8 16 32 8 16 32 8 16 32 8
16 32 8 16 32 8 16 32 8 16 32 8
24 65 16 32 82 24 24 65 16 16 49 8
16 32 8 16 32 8 16 32 8 16 32 8
16 32 8 16 32 8 16 49 8 16 49 8
16 32 8 16 32 8 16 32 8 16 49 8
32 82 24 32 82 24 16 49 8 24 65 16
16 32 8 32 82 24 24 65 16 24 65 16
16 49 8 16 32 8 16 32 8 16 32 8
16 32 8 16 49 8 16 49 8 32 82 24
32 82 24 41 98 32 41 98 32 41 98 32
32 82 24 32 82 24 16 49 8 16 32 8
16 32 8 16 32 8 16 32 8 16 32 8
16 32 8 16 32 8 16 32 8 16 32 8
16 32 8 16 32 8 16 49 8 24 65 16
41 98 32 41 98 32 49 115 41 41 98 32
32 82 24 16 32 8 16 32 8 16 32 8
16 32 8 16 32 8 16 32 8 16 32 8
16 49 8 32 82 24 41 98 32 24 65 16
16 49 8 16 49 8 16 32 8 16 32 8
16 49 8 24 65 16 24 65 16 16 32 8
16 49 8 24 65 16 16 49 8 32 82 24
32 82 24 16 49 8 32 82 24 16 32 8
16 49 8 16 32 8 16 32 8 16 49 8
24 65 16 16 49 8 16 32 8 16 32 8
16 32 8 16 32 8 24 65 16 32 82 24
32 82 24 41 98 32 41 98 32 49 115 41
32 82 24 32 82 24 24 65 16 16 32 8
16 32 8 16 32 8 16 32 8 16 32 8
16 32 8 16 32 8 16 32 8 16 32 8
16 32 8 16 32 8 16 32 8 16 49 8
32 82 24 41 98 32 57 131 41 41 98 32
49 115 41 32 82 24 24 65 16 16 49 8
16 32 8 16 32 8 16 32 8 16 32 8
16 49 8 32 82 24 57 131 41 41 98 32
32 82 24 32 82 24 24 65 16 16 49 8
24 65 16 32 82 24 32 82 24 16 49 8
24 65 16 24 65 16 16 49 8 24 65 16
24 65 16 32 82 24 16 49 8 16 32 8
16 32 8 16 32 8 16 32 8 16 49 8
32 82 24 24 65 16 16 49 8 16 32 8
16 32 8 16 32 8 16 49 8 16 49 8
32 82 24 41 98 32 41 98 32 49 115 41
32 82 24 32 82 24 24 65 16 24 65 16
16 32 8 16 32 8 16 32 8 16 32 8
16 32 8 16 32 8 16 32 8 16 32 8
16 32 8 16 32 8 16 32 8 16 32 8
16 49 8 32 82 24 49 115 41 49 115 41
57 131 41 41 98 32 32 82 24 32 82 24
24 65 16 16 32 8 16 32 8 16 32 8
24 65 16 41 98 32 32 82 24 32 82 24
32 82 24 24 65 16 16 49 8 16 49 8
16 32 8 24 65 16 16 49 8 24 65 16
24 65 16 24 65 16 16 49 8 16 49 8
24 65 16 24 65 16 24 65 16 16 32 8
16 32 8 16 32 8 16 32 8 16 32 8
24 65 16 32 82 24 24 65 16 16 49 8
16 49 8 16 49 8 16 49 8 24 65 16
24 65 16 41 98 32 41 98 32 41 98 32
32 82 24 32 82 24 32 82 24 24 65 16
16 49 8 16 32 8 16 32 8 16 32 8
16 32 8 16 32 8 16 32 8 16 32 8
16 32 8 16 32 8 16 32 8 16 32 8
16 32 8 24 65 16 41 98 32 41 98 32
57 131 41 57 131 41 41 98 32 41 98 32
32 82 24 32 82 24 24 65 16 24 65 16
32 82 24 41 98 32 32 82 24 32 82 24
32 82 24 24 65 16 16 49 8 16 32 8
16 32 8 16 49 8 16 32 8 16 49 8
16 32 8 16 49 8 24 65 16 24 65 16
16 49 8 24 65 16 16 32 8 16 32 8
16 32 8 16 32 8 16 32 8 16 32 8
16 49 8 32 82 24 32 82 24 32 82 24
32 82 24 32 82 24 32 82 24 32 82 24
32 82 24 32 82 24 41 98 32 41 98 32
32 82 24 32 82 24 24 65 16 24 65 16
16 49 8 16 32 8 16 32 8 16 32 8
16 32 8 16 32 8 16 32 8 16 32 8
16 32 8 16 32 8 16 32 8 16 32 8
16 49 8 16 49 8 32 82 24 41 98 32
57 131 41 57 131 41 57 131 41 41 98 32
57 131 41 41 98 32 41 98 32 41 98 32
32 82 24 32 82 24 32 82 24 32 82 24
32 82 24 24 65 16 16 49 8 16 49 8
16 49 8 16 49 8 16 32 8 16 32 8
16 32 8 16 32 8 16 32 8 16 49 8
16 49 8 16 49 8 16 49 8 16 32 8
16 32 8 16 32 8 16 32 8 16 32 8
24 65 16 32 82 24 41 98 32 32 82 24
24 65 16 16 49 8 16 49 8 16 49 8
16 49 8 16 49 8 32 82 24 32 82 24
32 82 24 32 82 24 32 82 24 16 49 8
16 32 8 16 32 8 16 49 8 16 32 8
16 32 8 16 32 8 16 32 8 16 32 8
16 32 8 16 32 8 16 32 8 16 49 8
16 49 8 16 49 8 32 82 24 57 131 41
74 156 57 57 131 41 57 131 41 41 98 32
41 98 32 41 98 32 41 98 32 32 82 24
32 82 24 32 82 24 32 82 24 32 82 24
24 65 16 24 65 16 24 65 16 16 49 8
16 49 8 16 49 8 16 32 8 16 32 8
16 32 8 16 32 8 16 32 8 16 32 8
16 49 8 16 49 8 16 49 8 16 32 8
16 32 8 16 32 8 16 32 8 16 32 8
16 49 8 32 82 24 32 82 24 32 82 24
16 49 8 16 32 8 16 32 8 16 32 8
16 32 8 16 49 8 16 49 8 24 65 16
32 82 24 41 98 32 32 82 24 24 65 16
16 49 8 16 32 8 16 32 8 16 32 8
24 65 16 16 32 8 16 32 8 16 32 8
16 32 8 16 49 8 16 49 8 16 49 8
16 49 8 16 49 8 32 82 24 41 98 32
57 131 41 57 131 41 41 98 32 41 98 32
32 82 24 24 65 16 24 65 16 16 32 8
16 32 8 24 65 16 16 49 8 16 49 8
32 82 24 24 65 16 16 49 8 16 49 8
32 82 24 24 65 16 16 49 8 16 32 8
16 32 8 16 32 8 16 32 8 16 32 8
16 32 8 16 32 8 24 65 16 16 32 8
16 32 8 16 32 8 16 32 8 16 32 8
16 49 8 24 65 16 16 49 8 16 49 8
16 32 8 16 32 8 16 32 8 16 32 8
16 32 8 16 32 8 16 32 8 16 49 8
24 65 16 32 82 24 41 98 32 24 65 16
24 65 16 16 32 8 16 32 8 16 32 8
16 32 8 16 49 8 32 82 24 24 65 16
16 49 8 16 49 8 16 32 8 16 32 8
16 49 8 16 49 8 24 65 16 41 98 32
41 98 32 49 115 41 32 82 24 32 82 24
16 49 8 16 32 8 16 32 8 16 32 8
16 32 8 16 32 8 16 32 8 16 32 8
16 32 8 24 65 16 32 82 24 32 82 24
41 98 32 32 82 24 16 49 8 16 32 8
16 32 8 16 32 8 16 32 8 16 32 8
16 32 8 16 32 8 24 65 16 24 65 16
16 49 8 16 49 8 16 32 8 16 49 8
24 65 16 16 49 8 16 49 8 16 32 8
16 32 8 16 32 8 16 32 8 16 32 8
16 32 8 16 32 8 16 32 8 16 32 8
16 49 8 24 65 16 32 82 24 32 82 24
32 82 24 24 65 16 16 49 8 16 49 8
16 49 8 16 49 8 24 65 16 32 82 24
32 82 24 24 65 16 24 65 16 16 49 8
16 49 8 24 65 16 16 49 8 32 82 24
41 98 32 41 98 32 32 82 24 16 49 8
16 32 8 16 32 8 16 32 8 16 32 8
16 32 8 16 32 8 16 32 8 16 32 8
16 32 8 16 32 8 16 32 8 32 82 24
49 115 41 49 115 41 41 98 32 24 65 16
16 49 8 16 32 8 16 32 8 16 32 8
16 32 8 16 49 8 16 49 8 24 65 16
16 49 8 16 49 8 16 49 8 32 82 24
24 65 16 16 49 8 16 32 8 16 32 8
16 32 8 16 32 8 16 32 8 16 32 8
16 32 8 16 32 8 16 32 8 16 32 8
16 32 8 24 65 16 32 82 24 41 98 32
41 98 32 32 82 24 41 98 32 32 82 24
32 82 24 16 49 8 16 49 8 16 32 8
16 32 8 24 65 16 32 82 24 32 82 24
24 65 16 24 65 16 32 82 24 24 65 16
32 82 24 32 82 24 32 82 24 16 49 8
16 32 8 16 32 8 16 32 8 16 32 8
16 32 8 16 32 8 16 32 8 16 32 8
16 32 8 16 32 8 16 32 8 24 65 16
24 65 16 32 82 24 32 82 24 32 82 24
32 82 24 24 65 16 24 65 16 16 49 8
24 65 16 16 49 8 24 65 16 32 82 24
32 82 24 32 82 24 32 82 24 32 82 24
32 82 24 16 49 8 16 32 8 16 32 8
16 32 8 16 32 8 16 32 8 16 32 8
16 32 8 16 32 8 16 32 8 16 32 8
16 32 8 16 32 8 24 65 16 41 98 32
41 98 32 41 98 32 49 115 41 41 98 32
32 82 24 24 65 16 16 49 8 16 32 8
16 32 8 16 32 8 16 32 8 16 49 8
16 49 8 32 82 24 32 82 24 32 82 24
32 82 24 49 115 41 24 65 16 24 65 16
16 32 8 16 32 8 16 32 8 16 32 8
16 32 8 16 32 8 16 32 8 16 32 8
16 32 8 16 32 8 16 32 8 16 49 8
16 49 8 16 49 8 24 65 16 32 82 24
32 82 24 32 82 24 32 82 24 32 82 24
32 82 24 32 82 24 32 82 24 41 98 32
41 98 32 57 131 41 57 131 41 41 98 32
24 65 16 16 49 8 16 32 8 16 32 8
16 32 8 16 32 8 16 32 8 16 32 8
16 32 8 16 32 8 16 32 8 16 32 8
16 32 8 16 49 8 24 65 16 32 82 24
41 98 32 49 115 41 49 115 41 49 115 41
32 82 24 16 49 8 16 49 8 16 32 8
16 32 8 16 32 8 16 32 8 16 32 8
16 32 8 16 49 8 24 65 16 32 82 24
41 98 32 41 98 32 32 82 24 24 65 16
16 32 8 16 32 8 16 32 8 16 32 8
16 32 8 16 32 8 16 32 8 16 32 8
16 32 8 16 32 8 16 32 8 16 49 8
16 49 8 16 49 8 16 32 8 16 49 8
16 49 8 24 65 16 32 82 24 24 65 16
32 82 24 32 82 24 32 82 24 32 82 24
49 115 41 57 131 41 57 131 41 57 131 41
32 82 24 32 82 24 24 65 16 16 32 8
16 32 8 16 32 8 16 32 8 16 32 8
16 32 8 16 32 8 16 32 8 16 32 8
16 32 8 16 49 8 32 82 24 32 82 24
41 98 32 41 98 32 57 131 41 41 98 32
32 82 24 24 65 16 16 49 8 16 32 8
16 32 8 16 32 8 16 32 8 16 32 8
16 32 8 16 32 8 16 49 8 24 65 16
32 82 24 41 98 32 32 82 24 32 82 24
24 65 16 16 32 8 16 32 8 16 32 8
16 32 8 16 32 8 16 32 8 16 32 8
16 32 8 16 32 8 16 32 8 16 49 8
16 32 8 16 32 8 16 32 8 16 32 8
16 49 8 32 82 24 24 65 16 24 65 16
24 65 16 24 65 16 24 65 16 16 49 8
32 82 24 41 98 32 41 98 32 41 98 32
32 82 24 24 65 16 32 82 24 16 49 8
16 49 8 16 49 8 16 49 8 16 32 8
16 32 8 16 49 8 16 32 8 16 32 8
16 49 8 16 49 8 32 82 24 32 82 24
32 82 24 41 98 32 32 82 24 41 98 32
41 98 32 32 82 24 16 49 8 16 49 8
16 32 8 16 32 8 16 32 8 16 32 8
16 32 8 16 32 8 16 32 8 24 65 16
32 82 24 32 82 24 32 82 24 24 65 16
24 65 16 24 65 16 24 65 16 16 32 8
16 32 8 16 32 8 16 32 8 16 32 8
16 32 8 16 32 8 16 49 8 16 32 8
16 32 8 16 32 8 16 32 8 16 32 8
16 32 8 16 32 8 24 65 16 24 65 16
16 49 8 16 32 8 16 32 8 16 49 8
16 49 8 32 82 24 32 82 24 32 82 24
24 65 16 16 49 8 16 32 8 16 32 8
16 49 8 24 65 16 16 49 8 16 32 8
16 32 8 16 32 8 16 32 8 16 32 8
16 49 8 16 32 8 24 65 16 16 49 8
16 49 8 16 49 8 16 49 8 24 65 16
24 65 16 24 65 16 32 82 24 16 49 8
16 32 8 16 32 8 16 32 8 16 32 8
16 32 8 16 32 8 16 49 8 32 82 24
32 82 24 24 65 16 24 65 16 16 49 8
16 49 8 16 49 8 16 49 8 24 65 16
16 49 8 16 49 8 16 32 8 16 32 8
16 32 8 16 49 8 16 49 8 16 32 8
16 32 8 16 32 8 16 32 8 16 32 8
16 32 8 16 32 8 24 65 16 16 49 8
24 65 16 16 32 8 16 32 8 16 32 8
16 49 8 16 32 8 16 49 8 16 49 8
16 49 8 16 32 8 16 32 8 16 32 8
16 32 8 16 32 8 16 32 8 16 32 8
24 65 16 32 82 24 16 32 8 16 32 8
16 32 8 16 49 8 16 49 8 16 49 8
16 32 8 16 32 8 16 32 8 16 32 8
16 49 8 16 49 8 24 65 16 24 65 16
24 65 16 16 32 8 16 32 8 16 32 8
16 32 8 16 32 8 16 49 8 24 65 16
32 82 24 32 82 24 16 49 8 16 49 8
16 32 8 16 32 8 16 32 8 16 32 8
16 49 8 32 82 24 16 49 8 16 49 8
16 49 8 16 49 8 16 32 8 16 32 8
16 32 8 16 32 8 16 32 8 16 32 8
16 32 8 16 32 8 16 32 8 32 82 24
16 32 8 16 32 8 16 32 8 16 32 8
16 32 8 16 32 8 16 32 8 16 49 8
16 49 8 16 32 8 16 32 8 16 32 8
16 32 8 16 32 8 16 32 8 16 32 8
16 32 8 16 49 8 32 82 24 16 49 8
16 49 8 16 49 8 16 49 8 16 32 8
16 32 8 16 32 8 16 32 8 16 32 8
16 32 8 16 32 8 16 49 8 16 32 8
24 65 16 16 49 8 16 49 8 16 32 8
16 32 8 16 32 8 16 49 8 32 82 24
24 65 16 16 49 8 16 49 8 16 49 8
16 49 8 16 49 8 16 32 8 16 49 8
16 32 8 16 49 8 16 49 8 32 82 24
24 65 16 16 49 8 16 32 8 16 32 8
16 32 8 16 32 8 16 32 8 16 32 8
16 32 8 16 32 8 24 65 16 16 32 8
32 82 24 16 32 8 16 32 8 16 32 8
16 32 8 16 32 8 16 49 8 24 65 16
16 49 8 16 49 8 16 32 8 16 32 8
16 32 8 16 32 8 16 49 8 16 49 8
16 49 8 24 65 16 16 49 8 32 82 24
32 82 24 16 49 8 16 32 8 16 32 8
16 32 8 16 32 8 16 32 8 16 32 8
16 32 8 16 32 8 16 32 8 16 49 8
16 49 8 24 65 16 24 65 16 16 49 8
16 32 8 16 49 8 24 65 16 24 65 16
32 82 24 16 49 8 16 49 8 16 49 8
16 49 8 16 32 8 16 32 8 16 32 8
16 32 8 16 32 8 16 32 8 16 49 8
24 65 16 32 82 24 16 49 8 16 32 8
16 32 8 16 32 8 16 32 8 16 32 8
16 32 8 16 32 8 16 32 8 32 82 24
32 82 24 16 49 8 16 32 8 16 32 8
16 32 8 16 49 8 16 49 8 16 49 8
16 49 8 16 49 8 16 49 8 16 49 8
16 49 8 16 49 8 16 49 8 24 65 16
24 65 16 24 65 16 24 65 16 16 49 8
32 82 24 32 82 24 16 32 8 16 32 8
16 32 8 16 32 8 16 32 8 16 32 8
16 32 8 16 32 8 16 32 8 16 32 8
16 49 8 16 49 8 16 32 8 24 65 16
24 65 16 24 65 16 16 49 8 32 82 24
24 65 16 24 65 16 16 49 8 16 32 8
16 32 8 16 32 8 16 32 8 16 32 8
16 32 8 16 32 8 16 32 8 16 49 8
16 49 8 16 49 8 24 65 16 16 32 8
16 49 8 16 49 8 24 65 16 16 49 8
16 32 8 16 32 8 24 65 16 32 82 24
32 82 24 24 65 16 24 65 16 16 49 8
16 32 8 16 49 8 16 49 8 16 32 8
16 32 8 16 32 8 16 49 8 16 32 8
16 49 8 16 49 8 16 49 8 16 49 8
24 65 16 24 65 16 32 82 24 24 65 16
16 49 8 24 65 16 24 65 16 16 32 8
16 32 8 16 32 8 16 32 8 16 32 8
16 32 8 16 32 8 16 32 8 16 32 8
16 49 8 16 32 8 24 65 16 24 65 16
16 49 8 24 65 16 32 82 24 24 65 16
24 65 16 16 49 8 16 32 8 16 32 8
16 32 8 16 32 8 16 32 8 16 32 8
16 32 8 16 32 8 16 32 8 16 32 8
16 49 8 16 49 8 16 32 8 16 32 8
16 49 8 24 65 16 16 49 8 32 82 24
24 65 16 32 82 24 32 82 24 41 98 32
41 98 32 32 82 24 32 82 24 24 65 16
16 49 8 16 49 8 16 32 8 16 32 8
16 32 8 16 32 8 16 32 8 16 32 8
16 32 8 16 32 8 16 32 8 16 32 8
16 49 8 16 49 8 24 65 16 16 49 8
24 65 16 16 49 8 24 65 16 32 82 24
16 49 8 16 32 8 16 32 8 16 49 8
16 32 8 16 49 8 16 32 8 16 49 8
16 32 8 16 32 8 16 49 8 16 49 8
32 82 24 24 65 16 24 65 16 16 49 8
16 49 8 16 49 8 16 49 8 16 32 8
16 32 8 16 32 8 16 32 8 16 32 8
16 32 8 16 32 8 16 32 8 16 32 8
16 32 8 16 49 8 16 49 8 16 32 8
16 32 8 16 49 8 16 49 8 24 65 16
32 82 24 32 82 24 41 98 32 41 98 32
32 82 24 41 98 32 32 82 24 41 98 32
32 82 24 24 65 16 16 49 8 16 32 8
16 32 8 16 32 8 16 32 8 16 32 8
16 32 8 16 32 8 16 32 8 16 32 8
16 32 8 16 49 8 16 49 8 32 82 24
24 65 16 32 82 24 24 65 16 32 82 24
32 82 24 32 82 24 16 49 8 16 49 8
16 32 8 16 32 8 16 32 8 16 32 8
16 32 8 16 49 8 16 49 8 16 49 8
16 49 8 16 49 8 16 49 8 16 49 8
16 49 8 16 49 8 16 32 8 16 32 8
16 32 8 16 32 8 16 32 8 16 32 8
16 32 8 16 32 8 16 32 8 16 32 8
16 32 8 16 32 8 16 49 8 16 32 8
16 49 8 24 65 16 24 65 16 16 49 8
32 82 24 32 82 24 41 98 32 32 82 24
32 82 24 24 65 16 16 49 8 41 98 32
24 65 16 32 82 24 24 65 16 24 65 16
16 32 8 16 32 8 16 32 8 16 32 8
16 32 8 16 32 8 16 32 8 16 32 8
16 32 8 16 32 8 24 65 16 32 82 24
24 65 16 16 49 8 16 32 8 16 32 8
16 32 8 16 49 8 32 82 24 32 82 24
16 32 8 16 32 8 16 32 8 16 32 8
16 32 8 16 49 8 16 49 8 24 65 16
16 49 8 16 49 8 16 49 8 16 32 8
16 49 8 16 32 8 16 32 8 16 32 8
16 32 8 16 32 8 16 32 8 16 32 8
16 32 8 16 32 8 16 32 8 16 32 8
16 32 8 16 32 8 16 49 8 16 49 8
16 49 8 16 49 8 24 65 16 32 82 24
41 98 32 41 98 32 32 82 24 32 82 24
24 65 16 16 49 8 16 49 8 16 49 8
16 49 8 16 32 8 16 32 8 16 32 8
24 65 16 16 32 8 16 32 8 16 32 8
16 32 8 16 32 8 16 32 8 16 32 8
16 32 8 16 49 8 32 82 24 24 65 16
24 65 16 16 49 8 16 32 8 16 32 8
16 32 8 16 32 8 16 32 8 24 65 16
24 65 16 16 49 8 16 32 8 16 32 8
16 49 8 16 49 8 24 65 16 16 49 8
16 49 8 16 49 8 16 49 8 16 32 8
16 32 8 16 32 8 16 32 8 16 32 8
16 32 8 16 32 8 16 32 8 16 32 8
16 32 8 16 32 8 16 32 8 16 32 8
16 32 8 16 32 8 16 32 8 16 49 8
16 32 8 16 32 8 32 82 24 41 98 32
32 82 24 41 98 32 24 65 16 32 82 24
16 49 8 16 49 8 32 82 24 24 65 16
16 49 8 16 32 8 16 32 8 16 32 8
16 32 8 16 32 8 16 49 8 16 32 8
16 32 8 16 32 8 16 32 8 16 32 8
16 32 8 24 65 16 24 65 16 16 49 8
24 65 16 16 49 8 16 32 8 16 32 8
16 32 8 16 32 8 16 32 8 16 32 8
16 49 8 32 82 24 16 49 8 16 49 8
16 49 8 16 49 8 16 49 8 16 49 8
16 49 8 16 49 8 16 49 8 16 32 8
16 32 8 16 32 8 16 32 8 16 32 8
16 32 8 16 32 8 16 32 8 16 32 8
16 32 8 16 32 8 16 32 8 16 32 8
16 32 8 16 32 8 16 49 8 16 32 8
32 82 24 24 65 16 32 82 24 32 82 24
32 82 24 32 82 24 24 65 16 24 65 16
16 49 8 24 65 16 32 82 24 32 82 24
16 49 8 16 32 8 16 32 8 16 32 8
16 32 8 16 32 8 16 32 8 24 65 16
16 49 8 16 49 8 16 49 8 16 32 8
16 32 8 24 65 16 32 82 24 16 49 8
16 49 8 24 65 16 16 49 8 16 49 8
16 32 8 16 32 8 16 32 8 16 32 8
16 32 8 16 49 8 32 82 24 24 65 16
16 49 8 16 49 8 16 49 8 16 49 8
16 49 8 16 49 8 24 65 16 16 49 8
16 32 8 16 32 8 16 32 8 16 32 8
16 32 8 16 32 8 16 32 8 16 32 8
16 32 8 16 32 8 16 32 8 16 32 8
16 32 8 16 32 8 32 82 24 16 32 8
16 49 8 32 82 24 24 65 16 32 82 24
32 82 24 16 32 8 32 82 24 16 49 8
24 65 16 32 82 24 49 115 41 32 82 24
16 49 8 16 32 8 16 32 8 16 32 8
16 32 8 16 32 8 16 32 8 16 32 8
16 49 8 24 65 16 24 65 16 24 65 16
24 65 16 24 65 16 32 82 24 32 82 24
24 65 16 24 65 16 32 82 24 24 65 16
16 49 8 24 65 16 16 49 8 16 49 8
16 49 8 16 49 8 16 49 8 32 82 24
16 32 8 16 32 8 16 32 8 16 32 8
16 32 8 16 49 8 16 49 8 16 49 8
16 49 8 16 32 8 16 32 8 16 32 8
16 32 8 16 32 8 16 32 8 16 32 8
16 32 8 16 32 8 16 32 8 16 49 8
16 32 8 32 82 24 16 49 8 32 82 24
32 82 24 16 32 8 24 65 16 16 49 8
16 32 8 32 82 24 16 49 8 24 65 16
24 65 16 32 82 24 32 82 24 24 65 16
16 49 8 16 32 8 16 32 8 16 32 8
16 32 8 16 32 8 16 32 8 16 32 8
16 32 8 16 32 8 32 82 24 32 82 24
32 82 24 32 82 24 41 98 32 32 82 24
32 82 24 32 82 24 32 82 24 41 98 32
32 82 24 32 82 24 24 65 16 16 49 8
16 49 8 16 49 8 16 32 8 16 32 8
24 65 16 16 49 8 16 32 8 16 32 8
16 32 8 16 32 8 16 49 8 32 82 24
16 49 8 16 49 8 16 32 8 16 32 8
16 32 8 16 32 8 16 32 8 16 32 8
16 32 8 16 32 8 16 32 8 16 49 8
32 82 24 16 49 8 24 65 16 16 32 8
16 32 8 16 32 8 16 32 8 16 32 8
16 32 8 16 32 8 16 32 8 24 65 16
32 82 24 16 49 8 24 65 16 16 49 8
24 65 16 16 49 8 16 32 8 16 32 8
16 32 8 16 32 8 16 32 8 16 32 8
16 32 8 16 32 8 16 49 8 32 82 24
41 98 32 41 98 32 32 82 24 32 82 24
41 98 32 41 98 32 32 82 24 32 82 24
24 65 16 24 65 16 32 82 24 24 65 16
16 49 8 16 32 8 16 32 8 16 32 8
16 49 8 32 82 24 16 49 8 16 49 8
16 49 8 16 32 8 16 49 8 24 65 16
16 49 8 16 49 8 16 32 8 16 32 8
16 32 8 16 32 8 16 32 8 16 32 8
16 32 8 16 32 8 16 49 8 16 49 8
24 65 16 16 32 8 16 32 8 16 32 8
16 32 8 16 32 8 16 32 8 16 32 8
16 49 8 16 49 8 16 49 8 16 49 8
24 65 16 16 49 8 16 49 8 16 49 8
16 49 8 16 49 8 16 32 8 16 32 8
16 32 8 16 32 8 16 32 8 16 32 8
16 32 8 16 32 8 16 32 8 16 49 8
41 98 32 32 82 24 41 98 32 32 82 24
24 65 16 16 49 8 32 82 24 32 82 24
24 65 16 16 49 8 16 49 8 16 49 8
16 32 8 16 32 8 16 32 8 16 32 8
16 32 8 16 49 8 32 82 24 24 65 16
24 65 16 24 65 16 16 49 8 32 82 24
24 65 16 16 49 8 16 49 8 16 32 8
16 32 8 16 32 8 16 49 8 16 49 8
16 49 8 16 49 8 16 49 8 16 49 8
16 32 8 16 32 8 16 32 8 16 32 8
16 32 8 16 32 8 16 32 8 16 32 8
16 32 8 16 49 8 16 32 8 24 65 16
16 49 8 16 49 8 16 32 8 16 32 8
16 32 8 16 49 8 16 49 8 16 49 8
16 32 8 16 32 8 16 32 8 16 32 8
16 32 8 16 32 8 16 32 8 16 32 8
32 82 24 32 82 24 24 65 16 16 49 8
16 49 8 16 32 8 16 32 8 16 49 8
24 65 16 16 49 8 16 49 8 16 49 8
16 32 8 16 32 8 16 32 8 16 32 8
16 32 8 16 32 8 32 82 24 32 82 24
32 82 24 32 82 24 32 82 24 41 98 32
41 98 32 32 82 24 16 49 8 16 49 8
16 32 8 16 32 8 16 49 8 16 32 8
16 49 8 16 32 8 24 65 16 16 32 8
16 32 8 16 32 8 16 32 8 16 32 8
16 32 8 16 32 8 16 32 8 16 32 8
16 32 8 16 32 8 16 32 8 16 32 8
16 32 8 16 32 8 16 49 8 16 49 8
16 32 8 16 32 8 16 32 8 16 32 8
16 32 8 16 32 8 16 32 8 16 49 8
16 32 8 16 32 8 16 32 8 16 32 8
24 65 16 32 82 24 24 65 16 16 32 8
16 32 8 16 32 8 16 32 8 16 32 8
16 32 8 16 32 8 16 49 8 32 82 24
16 49 8 16 49 8 16 32 8 16 32 8
16 32 8 16 32 8 32 82 24 32 82 24
32 82 24 32 82 24 41 98 32 49 115 41
57 131 41 49 115 41 41 98 32 41 98 32
32 82 24 24 65 16 24 65 16 24 65 16
24 65 16 24 65 16 24 65 16 16 32 8
16 32 8 16 32 8 16 32 8 16 32 8
16 32 8 16 32 8 16 32 8 16 32 8
16 49 8 16 32 8 16 32 8 16 32 8
16 32 8 16 49 8 16 32 8 16 49 8
16 32 8 16 32 8 16 32 8 16 32 8
16 32 8 16 32 8 16 49 8 16 32 8
16 49 8 16 32 8 16 49 8 16 32 8
24 65 16 24 65 16 16 49 8 16 32 8
16 32 8 16 32 8 16 32 8 16 32 8
16 32 8 16 32 8 16 32 8 16 32 8
24 65 16 32 82 24 24 65 16 16 32 8
16 32 8 16 49 8 32 82 24 32 82 24
32 82 24 41 98 32 49 115 41 57 131 41
57 131 41 57 131 41 49 115 41 49 115 41
41 98 32 41 98 32 49 115 41 41 98 32
32 82 24 24 65 16 16 49 8 16 49 8
16 32 8 16 32 8 16 32 8 16 32 8
16 32 8 16 32 8 16 32 8 16 32 8
16 32 8 16 32 8 16 32 8 16 32 8
16 32 8 16 32 8 16 49 8 16 32 8
16 49 8 16 32 8 16 49 8 16 32 8
16 32 8 16 32 8 16 32 8 16 49 8
16 32 8 16 49 8 16 32 8 32 82 24
16 49 8 16 49 8 16 49 8 16 32 8
16 32 8 16 32 8 16 32 8 16 32 8
16 32 8 16 32 8 16 32 8 16 32 8
16 49 8 16 32 8 24 65 16 24 65 16
32 82 24 32 82 24 32 82 24 32 82 24
32 82 24 41 98 32 57 131 41 57 131 41
57 131 41 49 115 41 32 82 24 32 82 24
24 65 16 16 49 8 16 49 8 16 49 8
16 49 8 16 49 8 24 65 16 16 49 8
16 49 8 16 32 8 16 32 8 16 32 8
16 32 8 16 32 8 16 32 8 16 49 8
16 32 8 16 32 8 16 32 8 16 32 8
16 32 8 16 32 8 16 32 8 24 65 16
16 49 8 32 82 24 16 32 8 24 65 16
16 32 8 24 65 16 16 32 8 24 65 16
32 82 24 16 32 8 24 65 16 24 65 16
16 32 8 24 65 16 16 32 8 16 49 8
16 32 8 16 32 8 16 32 8 16 32 8
16 32 8 16 32 8 16 32 8 16 32 8
16 49 8 16 32 8 16 32 8 16 32 8
16 49 8 24 65 16 24 65 16 32 82 24
41 98 32 41 98 32 57 131 41 65 148 49
49 115 41 32 82 24 32 82 24 16 49 8
16 49 8 16 32 8 16 32 8 16 32 8
16 32 8 16 49 8 16 32 8 16 49 8
16 49 8 16 49 8 16 49 8 16 32 8
16 32 8 16 49 8 16 32 8 16 32 8
16 32 8 16 32 8 16 32 8 16 32 8
16 32 8 16 32 8 16 32 8 16 32 8
24 65 16 16 32 8 32 82 24 16 49 8
24 65 16 16 49 8 32 82 24 16 49 8
32 82 24 16 49 8 24 65 16 16 32 8
32 82 24 16 49 8 24 65 16 16 49 8
16 49 8 16 32 8 16 32 8 16 32 8
16 32 8 16 32 8 16 32 8 16 32 8
16 49 8 16 32 8 16 32 8 16 32 8
16 32 8 24 65 16 32 82 24 32 82 24
41 98 32 49 115 41 57 131 41 49 115 41
41 98 32 32 82 24 16 49 8 16 32 8
16 32 8 16 32 8 16 32 8 16 32 8
16 32 8 16 32 8 16 32 8 16 49 8
16 49 8 16 49 8 16 49 8 16 49 8
16 49 8 16 32 8 16 49 8 16 32 8
16 49 8 16 32 8 16 32 8 16 32 8
16 32 8 16 32 8 16 32 8 24 65 16
16 49 8 32 82 24 16 32 8 24 65 16
16 32 8 16 32 8 16 32 8 16 49 8
16 32 8 16 49 8 16 49 8 16 32 8
16 49 8 16 49 8 16 49 8 16 49 8
16 32 8 16 32 8 16 32 8 16 32 8
16 32 8 16 32 8 16 32 8 16 32 8
32 82 24 16 49 8 16 32 8 16 32 8
16 32 8 16 49 8 24 65 16 32 82 24
41 98 32 49 115 41 49 115 41 41 98 32
32 82 24 32 82 24 16 49 8 16 32 8
16 32 8 16 32 8 16 32 8 16 32 8
16 32 8 16 32 8 16 32 8 16 32 8
16 32 8 24 65 16 24 65 16 16 49 8
24 65 16 16 49 8 16 32 8 16 49 8
16 32 8 16 32 8 16 32 8 16 32 8
16 32 8 16 32 8 16 32 8 16 49 8
24 65 16 24 65 16 32 82 24 16 32 8
16 49 8 16 32 8 16 49 8 16 49 8
16 32 8 16 49 8 16 32 8 16 49 8
16 32 8 16 49 8 16 32 8 16 32 8
16 32 8 16 32 8 16 32 8 16 32 8
16 32 8 16 32 8 16 32 8 16 49 8
32 82 24 16 49 8 16 32 8 16 32 8
16 32 8 16 49 8 16 49 8 32 82 24
41 98 32 41 98 32 41 98 32 41 98 32
32 82 24 24 65 16 16 32 8 16 32 8
16 32 8 16 32 8 16 32 8 16 32 8
16 32 8 16 32 8 16 32 8 16 32 8
16 32 8 16 32 8 24 65 16 16 49 8
24 65 16 16 49 8 16 49 8 16 49 8
16 32 8 16 32 8 16 32 8 16 32 8
16 32 8 16 49 8 16 32 8 24 65 16
32 82 24 24 65 16 32 82 24 16 49 8
16 32 8 16 49 8 16 32 8 16 32 8
16 49 8 16 49 8 16 32 8 16 32 8
16 49 8 16 32 8 16 49 8 16 32 8
16 49 8 16 49 8 16 32 8 16 32 8
16 32 8 16 32 8 16 49 8 16 49 8
32 82 24 16 49 8 16 49 8 16 32 8
16 49 8 16 49 8 24 65 16 24 65 16
32 82 24 32 82 24 41 98 32 32 82 24
32 82 24 32 82 24 16 32 8 16 32 8
16 32 8 16 32 8 16 32 8 16 32 8
16 32 8 16 32 8 16 32 8 16 32 8
16 32 8 16 32 8 16 49 8 16 49 8
16 49 8 24 65 16 16 49 8 16 32 8
16 49 8 16 49 8 16 32 8 16 49 8
16 49 8 24 65 16 24 65 16 24 65 16
32 82 24 32 82 24 32 82 24 16 32 8
32 82 24 16 32 8 16 49 8 16 32 8
16 49 8 16 32 8 16 32 8 16 49 8
16 32 8 16 32 8 16 32 8 16 49 8
16 49 8 16 49 8 16 32 8 16 49 8
24 65 16 16 49 8 16 49 8 16 32 8
16 49 8 16 32 8 16 32 8 16 32 8
16 32 8 16 32 8 24 65 16 24 65 16
41 98 32 32 82 24 32 82 24 32 82 24
24 65 16 24 65 16 16 32 8 16 32 8
16 32 8 16 32 8 16 32 8 16 32 8
16 32 8 16 32 8 16 32 8 16 32 8
16 32 8 16 32 8 16 49 8 16 49 8
16 49 8 16 49 8 16 49 8 16 49 8
32 82 24 24 65 16 24 65 16 32 82 24
32 82 24 32 82 24 24 65 16 41 98 32
41 98 32 41 98 32 32 82 24 32 82 24
16 49 8 16 49 8 16 32 8 16 32 8
16 32 8 16 32 8 16 32 8 16 32 8
16 32 8 16 32 8 16 32 8 16 49 8
16 49 8 16 49 8 16 49 8 24 65 16
24 65 16 16 49 8 16 32 8 16 32 8
16 32 8 16 32 8 16 32 8 16 32 8
16 32 8 16 32 8 16 49 8 24 65 16
24 65 16 32 82 24 32 82 24 24 65 16
32 82 24 32 82 24 24 65 16 16 32 8
16 32 8 16 32 8 16 32 8 16 32 8
16 32 8 16 32 8 16 32 8 16 32 8
16 32 8 16 32 8 16 49 8 16 49 8
16 49 8 16 49 8 16 49 8 16 49 8
16 49 8 32 82 24 16 49 8 16 49 8
24 65 16 24 65 16 24 65 16 32 82 24
32 82 24 32 82 24 32 82 24 32 82 24
24 65 16 32 82 24 16 32 8 16 32 8
16 32 8 16 32 8 16 32 8 16 32 8
16 32 8 16 32 8 16 32 8 16 32 8
16 49 8 16 49 8 16 49 8 16 32 8
16 32 8 16 49 8 16 32 8 16 32 8
16 32 8 16 32 8 16 32 8 16 32 8
16 32 8 16 32 8 16 49 8 16 49 8
41 98 32 24 65 16 32 82 24 32 82 24
24 65 16 24 65 16 16 49 8 24 65 16
16 32 8 16 32 8 16 32 8 16 32 8
16 32 8 16 32 8 16 32 8 16 32 8
16 32 8 16 32 8 16 49 8 16 49 8
16 49 8 16 49 8 16 49 8 24 65 16
24 65 16 16 49 8 16 49 8 16 49 8
16 49 8 16 32 8 16 49 8 16 49 8
16 49 8 24 65 16 32 82 24 32 82 24
32 82 24 16 49 8 16 49 8 16 32 8
16 32 8 16 32 8 16 32 8 16 32 8
16 32 8 16 32 8 16 32 8 16 32 8
16 49 8 16 49 8 16 32 8 16 32 8
16 32 8 16 32 8 16 49 8 16 32 8
16 32 8 16 32 8 16 32 8 16 32 8
16 32 8 16 32 8 16 49 8 32 82 24
24 65 16 24 65 16 24 65 16 16 49 8
16 32 8 16 32 8 16 32 8 16 32 8
16 49 8 16 49 8 16 32 8 16 32 8
16 32 8 16 32 8 16 32 8 16 32 8
16 32 8 16 32 8 16 49 8 16 49 8
16 49 8 16 49 8 16 49 8 24 65 16
24 65 16 32 82 24 16 49 8 16 32 8
16 32 8 16 32 8 16 49 8 16 32 8
16 49 8 16 49 8 16 49 8 32 82 24
32 82 24 32 82 24 24 65 16 16 32 8
16 32 8 16 32 8 16 32 8 16 32 8
16 32 8 16 32 8 16 32 8 16 32 8
16 32 8 16 49 8 16 32 8 16 32 8
16 32 8 16 32 8 16 49 8 24 65 16
16 49 8 16 32 8 16 32 8 16 32 8
16 32 8 16 32 8 16 32 8 16 32 8
32 82 24 32 82 24 16 49 8 16 32 8
16 32 8 16 32 8 16 32 8 16 32 8
16 32 8 16 32 8 16 49 8 16 32 8
16 32 8 16 32 8 16 32 8 16 32 8
16 32 8 16 49 8 16 49 8 16 49 8
16 49 8 16 49 8 16 49 8 16 49 8
24 65 16 16 49 8 16 49 8 16 32 8
16 32 8 16 32 8 16 32 8 16 32 8
16 32 8 16 49 8 16 32 8 32 82 24
16 49 8 16 49 8 24 65 16 16 32 8
16 32 8 16 32 8 16 32 8 16 32 8
16 32 8 16 32 8 16 32 8 16 32 8
16 32 8 16 49 8 16 49 8 16 32 8
16 32 8 16 32 8 16 32 8 16 49 8
16 49 8 16 32 8 16 32 8 16 32 8
16 32 8 16 32 8 16 49 8 16 32 8
24 65 16 32 82 24 24 65 16 16 32 8
16 32 8 16 32 8 16 32 8 16 32 8
16 32 8 16 32 8 16 32 8 16 32 8
24 65 16 16 32 8 16 32 8 16 32 8
16 32 8 16 49 8 24 65 16 16 49 8
16 49 8 16 49 8 16 49 8 24 65 16
16 49 8 16 49 8 16 49 8 16 32 8
16 32 8 16 32 8 16 32 8 16 32 8
16 32 8 16 32 8 16 49 8 32 82 24
24 65 16 16 49 8 16 49 8 16 49 8
16 32 8 24 65 16 16 32 8 16 32 8
16 32 8 16 32 8 16 32 8 16 32 8
16 49 8 16 49 8 16 49 8 16 49 8
16 49 8 24 65 16 16 32 8 16 49 8
16 32 8 16 32 8 16 32 8 16 32 8
16 32 8 16 32 8 16 49 8 16 49 8
24 65 16 41 98 32 32 82 24 16 49 8
16 32 8 16 32 8 16 32 8 16 32 8
16 32 8 16 32 8 16 32 8 16 32 8
16 32 8 16 49 8 24 65 16 16 49 8
16 49 8 16 49 8 24 65 16 16 49 8
16 49 8 16 49 8 16 32 8 16 49 8
32 82 24 16 49 8 16 49 8 16 32 8
16 32 8 16 32 8 16 32 8 16 32 8
16 32 8 16 32 8 16 49 8 32 82 24
32 82 24 24 65 16 16 49 8 16 49 8
16 49 8 16 49 8 16 49 8 16 32 8
24 65 16 24 65 16 16 32 8 16 49 8
16 49 8 24 65 16 32 82 24 32 82 24
16 49 8 16 32 8 16 32 8 16 32 8
16 32 8 16 32 8 16 32 8 16 32 8
16 32 8 16 32 8 16 32 8 16 32 8
24 65 16 41 98 32 32 82 24 24 65 16
16 49 8 16 32 8 16 32 8 16 32 8
16 32 8 16 32 8 16 32 8 16 32 8
16 32 8 16 49 8 16 49 8 32 82 24
32 82 24 32 82 24 16 49 8 16 49 8
24 65 16 24 65 16 24 65 16 16 49 8
16 49 8 24 65 16 16 49 8 16 32 8
16 32 8 16 32 8 16 32 8 16 32 8
16 32 8 16 32 8 16 32 8 24 65 16
32 82 24 24 65 16 16 49 8 16 32 8
16 32 8 16 32 8 16 32 8 16 32 8
16 32 8 16 32 8 16 32 8 24 65 16
32 82 24 41 98 32 41 98 32 32 82 24
32 82 24 32 82 24 24 65 16 24 65 16
16 32 8 16 32 8 16 32 8 16 32 8
16 32 8 16 32 8 16 32 8 16 49 8
24 65 16 41 98 32 41 98 32 41 98 32
24 65 16 24 65 16 16 49 8 16 49 8
16 32 8 16 32 8 16 32 8 16 49 8
16 49 8 24 65 16 32 82 24 41 98 32
41 98 32 41 98 32 32 82 24 24 65 16
24 65 16 32 82 24 16 49 8 32 82 24
16 49 8 24 65 16 24 65 16 16 49 8
16 32 8 16 32 8 16 32 8 16 32 8
16 32 8 16 32 8 16 49 8 32 82 24
32 82 24 24 65 16 16 49 8 16 32 8
16 49 8 16 32 8 16 32 8 16 32 8
16 32 8 16 32 8 16 32 8 16 32 8
24 65 16 41 98 32 41 98 32 32 82 24
41 98 32 32 82 24 32 82 24 24 65 16
16 49 8 16 49 8 16 49 8 16 32 8
16 32 8 16 32 8 16 32 8 16 49 8
24 65 16 41 98 32 41 98 32 32 82 24
16 49 8 16 49 8 16 49 8 16 32 8
16 49 8 16 49 8 16 49 8 24 65 16
24 65 16 32 82 24 41 98 32 41 98 32
41 98 32 41 98 32 41 98 32 32 82 24
32 82 24 24 65 16 16 49 8 16 49 8
16 32 8 16 32 8 16 32 8 16 32 8
16 32 8 16 49 8 16 32 8 16 32 8
16 32 8 16 32 8 16 49 8 24 65 16
32 82 24 24 65 16 16 49 8 16 49 8
16 49 8 16 32 8 16 49 8 16 32 8
16 32 8 16 32 8 16 32 8 16 49 8
16 49 8 32 82 24 32 82 24 32 82 24
32 82 24 41 98 32 41 98 32 41 98 32
32 82 24 32 82 24 16 49 8 16 49 8
16 49 8 16 32 8 16 49 8 24 65 16
41 98 32 32 82 24 24 65 16 16 49 8
16 32 8 16 32 8 16 32 8 16 32 8
16 32 8 16 32 8 16 49 8 24 65 16
32 82 24 41 98 32 41 98 32 49 115 41
41 98 32 32 82 24 32 82 24 24 65 16
24 65 16 16 32 8 16 32 8 16 32 8
16 32 8 16 32 8 16 32 8 16 32 8
16 32 8 16 32 8 16 49 8 16 49 8
16 32 8 16 49 8 24 65 16 32 82 24
32 82 24 41 98 32 24 65 16 16 49 8
16 49 8 16 49 8 16 49 8 16 32 8
16 32 8 16 32 8 16 49 8 16 49 8
24 65 16 24 65 16 16 49 8 24 65 16
32 82 24 41 98 32 49 115 41 57 131 41
49 115 41 41 98 32 32 82 24 32 82 24
32 82 24 32 82 24 32 82 24 32 82 24
32 82 24 24 65 16 16 49 8 16 32 8
16 32 8 16 32 8 16 32 8 16 32 8
16 32 8 16 32 8 16 32 8 16 49 8
32 82 24 41 98 32 41 98 32 49 115 41
41 98 32 32 82 24 32 82 24 32 82 24
16 32 8 24 65 16 16 49 8 16 32 8
16 32 8 16 32 8 16 32 8 16 32 8
16 32 8 16 32 8 16 32 8 16 32 8
16 32 8 24 65 16 16 49 8 32 82 24
32 82 24 32 82 24 32 82 24 24 65 16
16 49 8 16 49 8 16 49 8 16 49 8
16 49 8 16 49 8 16 49 8 24 65 16
16 49 8 16 49 8 16 32 8 16 32 8
16 49 8 32 82 24 41 98 32 49 115 41
57 131 41 57 131 41 49 115 41 41 98 32
41 98 32 41 98 32 41 98 32 32 82 24
24 65 16 16 49 8 16 32 8 16 32 8
16 32 8 16 32 8 16 32 8 16 32 8
16 32 8 16 32 8 16 32 8 16 32 8
24 65 16 32 82 24 41 98 32 41 98 32
32 82 24 41 98 32 24 65 16 32 82 24
32 82 24 16 49 8 16 49 8 16 32 8
16 32 8 16 32 8 16 32 8 16 32 8
16 32 8 16 32 8 16 32 8 16 32 8
16 32 8 16 49 8 32 82 24 32 82 24
32 82 24 41 98 32 32 82 24 32 82 24
24 65 16 16 49 8 16 49 8 16 49 8
16 49 8 16 49 8 16 49 8 16 49 8
16 49 8 16 49 8 16 32 8 16 32 8
16 32 8 16 32 8 32 82 24 41 98 32
49 115 41 57 131 41 57 131 41 49 115 41
41 98 32 41 98 32 32 82 24 32 82 24
24 65 16 16 49 8 16 32 8 16 32 8
16 32 8 16 32 8 16 32 8 16 32 8
16 32 8 16 32 8 16 32 8 16 32 8
16 49 8 32 82 24 41 98 32 32 82 24
32 82 24 24 65 16 32 82 24 16 49 8
16 32 8 32 82 24 16 49 8 16 32 8
16 32 8 16 32 8 16 32 8 16 32 8
16 32 8 16 32 8 16 32 8 16 32 8
16 32 8 16 32 8 24 65 16 32 82 24
32 82 24 41 98 32 41 98 32 32 82 24
32 82 24 24 65 16 16 49 8 16 49 8
16 49 8 16 49 8 16 49 8 16 49 8
16 49 8 16 32 8 16 32 8 16 32 8
16 32 8 16 32 8 16 32 8 32 82 24
41 98 32 41 98 32 49 115 41 49 115 41
41 98 32 41 98 32 41 98 32 32 82 24
24 65 16 16 49 8 16 32 8 16 32 8
16 32 8 16 32 8 16 32 8 16 32 8
16 32 8 16 32 8 16 32 8 16 32 8
16 49 8 32 82 24 32 82 24 32 82 24
16 49 8 32 82 24 24 65 16 32 82 24
24 65 16 16 49 8 16 49 8 16 32 8
16 32 8 16 32 8 16 32 8 16 32 8
16 32 8 16 32 8 16 32 8 16 32 8
16 32 8 16 32 8 16 49 8 24 65 16
32 82 24 32 82 24 32 82 24 41 98 32
32 82 24 32 82 24 16 49 8 16 32 8
16 49 8 16 49 8 16 49 8 16 49 8
16 32 8 16 32 8 16 32 8 16 32 8
16 32 8 16 32 8 16 32 8 32 82 24
41 98 32 41 98 32 41 98 32 49 115 41
41 98 32 41 98 32 32 82 24 32 82 24
24 65 16 24 65 16 16 49 8 16 32 8
16 32 8 16 32 8 16 32 8 16 32 8
16 32 8 16 32 8 16 32 8 16 32 8
16 32 8 24 65 16 24 65 16 16 49 8
32 82 24 16 32 8 16 49 8 16 49 8
16 49 8 16 32 8 16 49 8 16 49 8
16 49 8 16 32 8 16 32 8 16 32 8
16 32 8 16 32 8 16 32 8 16 32 8
16 49 8 16 49 8 16 49 8 16 49 8
24 65 16 32 82 24 32 82 24 32 82 24
32 82 24 32 82 24 32 82 24 24 65 16
16 49 8 16 32 8 16 49 8 16 49 8
16 49 8 16 32 8 16 32 8 16 32 8
16 32 8 16 49 8 16 32 8 32 82 24
32 82 24 41 98 32 41 98 32 32 82 24
32 82 24 32 82 24 24 65 16 24 65 16
24 65 16 16 49 8 24 65 16 16 49 8
16 32 8 16 32 8 16 32 8 16 32 8
16 32 8 16 32 8 16 32 8 16 32 8
16 32 8 16 49 8 16 49 8 24 65 16
16 32 8 16 32 8 16 49 8 16 32 8
16 49 8 16 49 8 16 32 8 16 49 8
16 49 8 16 49 8 16 49 8 16 32 8
16 32 8 16 49 8 16 32 8 16 49 8
16 49 8 16 49 8 16 49 8 16 32 8
16 32 8 16 49 8 24 65 16 32 82 24
32 82 24 32 82 24 32 82 24 32 82 24
32 82 24 16 49 8 16 32 8 16 49 8
16 49 8 16 32 8 16 32 8 16 49 8
16 32 8 24 65 16 32 82 24 32 82 24
32 82 24 32 82 24 32 82 24 32 82 24
24 65 16 32 82 24 16 49 8 16 49 8
16 32 8 16 32 8 16 32 8 16 49 8
24 65 16 16 49 8 16 49 8 16 49 8
16 32 8 16 32 8 16 32 8 16 32 8
16 32 8 16 49 8 16 49 8 16 32 8
16 32 8 16 32 8 16 32 8 16 49 8
16 32 8 16 32 8 16 32 8 16 32 8
16 49 8 16 49 8 24 65 16 16 49 8
16 49 8 16 49 8 16 49 8 16 49 8
16 49 8 16 49 8 16 32 8 16 32 8
16 32 8 16 32 8 16 32 8 24 65 16
24 65 16 32 82 24 32 82 24 32 82 24
32 82 24 32 82 24 32 82 24 24 65 16
24 65 16 24 65 16 16 49 8 16 49 8
24 65 16 16 49 8 24 65 16 32 82 24
41 98 32 32 82 24 24 65 16 24 65 16
16 49 8 16 32 8 16 32 8 16 32 8
16 32 8 16 32 8 16 32 8 16 32 8
16 32 8 16 49 8 16 49 8 16 32 8
16 32 8 16 32 8 16 32 8 16 32 8
16 49 8 16 49 8 16 49 8 16 32 8
16 32 8 16 32 8 16 32 8 16 32 8
16 32 8 16 32 8 16 32 8 16 32 8
16 32 8 16 49 8 16 49 8 24 65 16
24 65 16 24 65 16 24 65 16 16 49 8
16 49 8 16 49 8 16 32 8 16 32 8
16 32 8 16 32 8 16 32 8 16 32 8
16 49 8 24 65 16 32 82 24 32 82 24
32 82 24 41 98 32 32 82 24 32 82 24
32 82 24 41 98 32 32 82 24 32 82 24
32 82 24 41 98 32 32 82 24 41 98 32
41 98 32 32 82 24 32 82 24 24 65 16
16 49 8 16 32 8 16 32 8 16 32 8
16 32 8 16 32 8 16 32 8 16 32 8
16 32 8 16 32 8 24 65 16 32 82 24
16 32 8 16 32 8 16 32 8 16 32 8
16 49 8 16 49 8 16 32 8 16 32 8
16 32 8 16 32 8 16 32 8 16 32 8
16 32 8 16 32 8 16 32 8 16 32 8
16 32 8 16 49 8 24 65 16 32 82 24
32 82 24 32 82 24 24 65 16 16 49 8
16 49 8 16 32 8 16 32 8 16 32 8
16 32 8 16 32 8 16 32 8 16 32 8
16 49 8 24 65 16 32 82 24 32 82 24
32 82 24 32 82 24 32 82 24 32 82 24
32 82 24 32 82 24 41 98 32 24 65 16
24 65 16 32 82 24 32 82 24 32 82 24
41 98 32 49 115 41 41 98 32 32 82 24
16 49 8 16 49 8 16 49 8 16 32 8
16 32 8 16 32 8 16 32 8 16 32 8
16 32 8 16 32 8 16 32 8 16 49 8
24 65 16 16 49 8 16 32 8 16 32 8
16 49 8 16 32 8 16 32 8 16 32 8
16 32 8 16 32 8 16 32 8 16 32 8
