P3
41 128
255
0   0   0   0   0   0   0   0   0   0   0   0   0   0   0   47  47  47  35  35  35  19  19  19  0   0   0   19  19  19  35  35  35  51  43  19  51  43  19  55  55  55  59  59  59  59  59  59  55  55  55  47  47  47  47  47  47  47  47  47  47  47  47  39  39  39  35  35  35  35  35  35  35  35  35  27  27  27  27  27  27  19  19  19  19  19  19  19  19  19  19  19  19  19  19  19  19  19  19  19  19  19  27  27  27  27  27  27  1   1   1   0   0   0   0   0   0   0   0   0   0   0   0   
0   0   0   0   0   0   47  47  47  27  27  27  27  27  27  35  35  35  19  19  19  0   0   0   0   0   0   19  19  19  35  35  35  47  47  47  47  47  47  55  55  55  67  67  67  55  55  55  55  55  55  47  47  47  47  47  47  47  47  47  47  47  47  35  35  35  35  35  35  35  35  35  27  27  27  27  27  27  27  27  27  19  19  19  19  19  19  19  19  19  19  19  19  19  19  19  19  19  19  19  19  19  27  27  27  27  27  27  1   1   1   51  43  19  0   0   0   0   0   0   0   0   0   
0   0   0   47  47  47  35  35  35  27  27  27  27  27  27  35  35  35  19  19  19  0   0   0   0   0   0   0   0   0   35  35  35  55  55  55  47  47  47  55  55  55  67  67  67  67  67  67  59  59  59  47  47  47  47  47  47  47  47  47  35  35  35  35  35  35  35  35  35  35  35  35  19  35  11  27  27  27  27  27  27  19  19  19  19  19  19  19  19  19  19  19  19  19  19  19  19  19  19  19  19  19  27  27  27  27  27  27  1   1   1   19  19  19  47  47  47  0   0   0   0   0   0   
0   0   0   47  47  47  39  39  39  27  27  27  27  27  27  35  35  35  19  19  19  0   0   0   0   0   0   0   0   0   35  35  35  47  47  47  39  39  39  55  55  55  67  67  67  67  67  67  59  59  59  47  47  47  55  55  55  47  47  47  39  39  39  35  35  35  35  35  35  35  35  35  35  35  35  27  27  27  27  27  27  19  19  19  19  19  19  19  19  19  19  19  19  19  19  19  19  19  19  19  19  19  27  27  27  27  27  27  1   1   1   19  19  19  51  43  19  0   0   0   0   0   0   
0   0   0   47  47  47  39  39  39  27  27  27  27  27  27  35  35  35  31  23  11  19  19  19  0   0   0   0   0   0   35  35  35  47  47  47  39  39  39  47  47  47  47  47  47  47  47  47  47  47  47  47  47  47  47  47  47  47  47  47  47  47  47  47  47  47  35  35  35  35  35  35  35  35  35  27  27  27  27  27  27  19  19  19  19  19  19  19  19  19  19  19  19  19  19  19  19  19  19  19  19  19  27  27  27  27  27  27  31  23  11  19  19  19  39  39  39  0   0   0   0   0   0   
0   0   0   47  47  47  39  39  39  27  27  27  27  27  27  39  39  39  35  35  35  35  35  35  39  39  39  47  47  47  55  55  55  59  59  59  59  59  59  59  59  59  55  55  55  55  55  55  59  59  59  67  67  67  67  67  67  71  71  71  79  79  79  79  79  79  71  71  71  67  67  67  59  59  59  59  59  59  59  59  59  55  55  55  47  47  47  39  39  39  39  39  39  27  27  27  19  19  19  19  19  19  19  19  19  19  19  19  19  19  19  19  19  19  51  43  19  0   0   0   0   0   0   
0   0   0   47  47  47  47  47  47  35  35  35  47  47  47  55  55  55  59  59  59  59  59  59  59  59  59  59  59  59  55  55  55  47  47  47  39  39  39  35  35  35  27  27  27  0   0   0   0   0   0   0   0   0   19  19  19  0   0   0   0   0   0   0   0   0   0   0   0   27  27  27  27  27  27  35  35  35  47  47  47  55  55  55  59  59  59  59  59  59  59  59  59  59  59  59  47  47  47  47  47  47  39  39  39  27  27  27  19  19  19  19  19  19  51  43  19  0   0   0   0   0   0   
0   0   0   47  47  47  55  55  55  55  55  55  55  55  55  55  55  55  35  35  35  19  19  19  47  47  47  19  19  19  0   0   0   35  35  35  27  27  27  0   0   0   23  15  7   119 119 119 71  71  71  11  11  11  0   0   0   19  19  19  79  79  79  47  47  47  19  19  19  19  19  19  19  35  11  0   0   0   27  27  27  35  35  35  47  47  47  35  35  35  27  27  27  0   0   0   35  35  35  35  35  35  55  55  55  47  47  47  47  47  47  35  35  35  47  47  47  0   0   0   0   0   0   
0   0   0   0   0   0   0   0   0   47  47  47  55  55  55  47  47  47  27  27  27  35  35  35  59  59  59  19  19  19  35  35  35  71  71  71  0   0   0   0   0   0   19  19  19  99  99  99  39  39  39  11  11  11  0   0   0   7   7   7   87  87  87  39  39  39  19  19  19  31  23  11  35  35  35  0   0   0   0   0   0   35  35  35  55  55  55  47  47  47  35  35  35  23  15  7   19  19  19  19  19  19  35  35  35  55  55  55  47  47  47  0   0   0   0   0   0   0   0   0   0   0   0   
0   0   0   0   0   0   0   0   0   0   0   0   0   0   0   51  43  19  0   0   0   51  43  19  59  59  59  35  35  35  19  19  19  71  71  71  0   0   0   19  19  19  27  27  27  183 183 183 71  71  71  11  11  11  0   0   0   7   7   7   19  19  19  0   0   0   19  19  19  31  23  11  47  47  47  0   0   0   0   0   0   35  35  35  67  67  67  55  55  55  47  47  47  19  19  19  19  19  19  19  19  19  55  55  55  0   0   0   0   0   0   0   0   0   0   0   0   0   0   0   0   0   0   
0   0   0   0   0   0   0   0   0   0   0   0   0   0   0   35  35  35  0   0   0   39  39  39  59  59  59  35  35  35  35  35  35  91  91  91  0   0   0   19  19  19  27  27  27  111 111 111 79  79  79  11  11  11  0   0   0   0   0   0   39  39  39  0   0   0   19  19  19  35  35  35  47  47  47  19  19  19  0   0   0   47  47  47  99  99  99  67  67  67  47  47  47  27  27  27  19  19  19  19  19  19  55  55  55  0   0   0   0   0   0   0   0   0   0   0   0   0   0   0   0   0   0   
0   0   0   0   0   0   0   0   0   0   0   0   0   0   0   35  35  35  0   0   0   35  35  35  59  59  59  23  15  7   31  23  11  59  59  59  0   0   0   19  19  19  27  27  27  131 131 131 99  99  99  11  11  11  0   0   0   35  35  35  131 131 131 0   0   0   19  19  19  35  35  35  47  47  47  19  19  19  0   0   0   47  47  47  99  99  99  79  79  79  47  47  47  27  27  27  19  19  19  19  19  19  47  47  47  0   0   0   0   0   0   0   0   0   0   0   0   0   0   0   0   0   0   
0   0   0   0   0   0   0   0   0   0   0   0   0   0   0   0   0   0   23  15  7   0   0   0   59  59  59  31  23  11  83  87  59  119 119 119 35  35  35  67  51  27  0   0   0   191 191 191 147 123 99  11  11  11  0   0   0   39  39  39  131 131 131 0   0   0   0   0   0   55  55  55  39  39  39  71  71  71  55  55  55  0   0   0   99  99  99  51  43  19  11  11  11  47  47  47  19  19  19  7   7   7   0   0   0   0   0   0   0   0   0   0   0   0   0   0   0   0   0   0   0   0   0   
0   0   0   0   0   0   0   0   0   0   0   0   0   0   0   0   0   0   23  15  7   19  19  19  59  59  59  23  15  7   23  15  7   75  75  75  19  19  19  47  47  47  0   0   0   179 179 179 99  99  99  7   7   7   0   0   0   35  35  35  111 111 111 19  19  19  0   0   0   55  55  55  39  39  39  87  87  87  55  55  55  0   0   0   111 111 111 27  27  27  11  11  11  47  47  47  19  19  19  19  19  19  0   0   0   0   0   0   0   0   0   0   0   0   0   0   0   0   0   0   0   0   0   
0   0   0   0   0   0   0   0   0   0   0   0   0   0   0   0   0   0   19  19  19  7   7   7   59  59  59  19  19  19  7   7   7   67  67  67  31  23  11  35  35  35  0   0   0   151 151 151 67  67  67  0   0   0   0   0   0   39  39  39  87  87  87  19  19  19  0   0   0   83  63  47  55  55  55  99  99  99  59  59  59  0   0   0   87  87  87  47  47  47  11  11  11  59  59  59  19  19  19  19  19  19  0   0   0   0   0   0   0   0   0   0   0   0   0   0   0   0   0   0   0   0   0   
0   0   0   0   0   0   0   0   0   0   0   0   0   0   0   0   0   0   19  19  19  0   0   0   59  59  59  35  35  35  35  35  35  91  91  91  31  23  11  35  35  35  0   0   0   203 203 203 75  75  75  0   0   0   0   0   0   87  87  87  131 131 131 7   7   7   0   0   0   39  39  39  71  71  71  55  55  55  19  19  19  0   0   0   35  35  35  91  91  91  11  11  11  47  47  47  19  19  19  7   7   7   0   0   0   0   0   0   0   0   0   0   0   0   0   0   0   0   0   0   0   0   0   
0   0   0   0   0   0   0   0   0   0   0   0   0   0   0   0   0   0   19  19  19  7   7   7   59  59  59  23  15  7   31  23  11  59  59  59  35  35  35  131 107 87  0   0   0   151 151 151 99  99  99  39  39  39  55  55  55  19  19  19  55  55  55  35  35  35  0   0   0   7   7   7   19  19  19  11  11  11  0   0   0   0   0   0   35  35  35  91  91  91  11  11  11  47  47  47  19  19  19  7   7   7   0   0   0   0   0   0   0   0   0   0   0   0   0   0   0   0   0   0   0   0   0   
0   0   0   0   0   0   0   0   0   0   0   0   0   0   0   0   0   0   19  19  19  19  19  19  59  59  59  31  23  11  83  87  59  119 119 119 139 139 139 175 151 127 0   0   0   119 119 119 71  71  71  11  11  11  0   0   0   19  19  19  79  79  79  47  47  47  31  23  11  55  55  55  55  55  55  39  39  39  27  27  27  27  27  27  39  39  39  91  91  91  11  11  11  47  47  47  19  19  19  7   7   7   0   0   0   0   0   0   0   0   0   0   0   0   0   0   0   0   0   0   0   0   0   
0   0   0   0   0   0   0   0   0   0   0   0   0   0   0   0   0   0   19  19  19  19  19  19  59  59  59  23  15  7   23  15  7   75  75  75  111 111 111 111 111 111 0   0   0   99  99  99  39  39  39  55  55  55  0   0   0   7   7   7   87  87  87  39  39  39  39  39  39  87  87  87  79  79  79  47  47  47  31  23  11  27  27  27  79  59  35  91  91  91  11  11  11  59  59  59  19  19  19  19  19  19  0   0   0   0   0   0   0   0   0   0   0   0   0   0   0   0   0   0   0   0   0   
0   0   0   0   0   0   0   0   0   0   0   0   0   0   0   0   0   0   19  19  19  23  15  7   59  59  59  19  19  19  7   7   7   67  67  67  107 107 107 55  55  55  0   0   0   183 183 183 71  71  71  0   0   0   0   0   0   7   7   7   19  19  19  0   0   0   0   0   0   35  35  35  35  35  35  35  35  35  31  23  11  71  71  71  27  27  27  91  91  91  11  11  11  59  59  59  19  19  19  7   7   7   0   0   0   0   0   0   0   0   0   0   0   0   0   0   0   0   0   0   0   0   0   
0   0   0   0   0   0   0   0   0   0   0   0   0   0   0   0   0   0   19  19  19  23  15  7   59  59  59  19  19  19  35  35  35  67  67  67  111 111 111 27  27  27  0   0   0   111 111 111 79  79  79  71  71  71  0   0   0   0   0   0   39  39  39  0   0   0   0   0   0   31  23  11  7   7   7   31  23  11  31  23  11  11  11  11  19  19  19  91  91  91  11  11  11  59  59  59  19  19  19  7   7   7   0   0   0   0   0   0   0   0   0   0   0   0   0   0   0   0   0   0   0   0   0   
0   0   0   0   0   0   0   0   0   0   0   0   0   0   0   0   0   0   19  19  19  19  19  19  59  59  59  19  19  19  67  67  67  75  75  75  127 127 127 31  23  11  0   0   0   131 131 131 99  99  99  55  55  55  0   0   0   35  35  35  131 131 131 71  71  71  99  99  99  199 199 199 99  99  99  131 107 87  95  75  55  0   0   0   35  35  35  99  99  99  11  11  11  59  59  59  19  19  19  7   7   7   0   0   0   0   0   0   0   0   0   0   0   0   0   0   0   0   0   0   0   0   0   
0   0   0   0   0   0   0   0   0   0   0   0   0   0   0   0   0   0   19  19  19  19  19  19  59  59  59  67  67  67  87  87  87  107 107 107 151 151 151 47  47  47  0   0   0   191 191 191 147 123 99  39  39  39  0   0   0   39  39  39  131 131 131 0   0   0   71  71  71  179 179 179 131 107 87  95  75  55  55  55  55  0   0   0   47  47  47  91  91  91  11  11  11  59  59  59  19  19  19  7   7   7   0   0   0   0   0   0   0   0   0   0   0   0   0   0   0   0   0   0   0   0   0   
0   0   0   0   0   0   0   0   0   0   0   0   0   0   0   0   0   0   19  19  19  19  19  19  59  59  59  19  19  19  59  59  59  67  67  67  111 111 111 35  35  35  0   0   0   179 179 179 99  99  99  7   7   7   0   0   0   35  35  35  111 111 111 19  19  19  39  39  39  71  71  71  91  91  91  99  99  99  55  55  55  0   0   0   39  39  39  87  87  87  11  11  11  59  59  59  19  19  19  7   7   7   0   0   0   0   0   0   0   0   0   0   0   0   0   0   0   0   0   0   0   0   0   
0   0   0   0   0   0   0   0   0   0   0   0   0   0   0   0   0   0   19  19  19  11  11  11  59  59  59  19  19  19  39  39  39  67  67  67  107 107 107 39  39  39  0   0   0   151 151 151 67  67  67  0   0   0   0   0   0   39  39  39  87  87  87  19  19  19  27  27  27  27  27  27  27  27  27  79  79  79  55  55  55  0   0   0   35  35  35  67  67  67  11  11  11  59  59  59  19  19  19  7   7   7   0   0   0   0   0   0   0   0   0   0   0   0   0   0   0   0   0   0   0   0   0   
0   0   0   0   0   0   0   0   0   0   0   0   0   0   0   0   0   0   19  19  19  11  11  11  59  59  59  19  19  19  39  39  39  67  67  67  107 107 107 35  35  35  0   0   0   203 203 203 75  75  75  0   0   0   0   0   0   87  87  87  131 131 131 7   7   7   31  23  11  39  39  39  55  55  55  55  55  55  39  39  39  0   0   0   27  27  27  87  87  87  19  19  19  59  59  59  19  19  19  7   7   7   0   0   0   0   0   0   0   0   0   0   0   0   0   0   0   0   0   0   0   0   0   
0   0   0   0   0   0   0   0   0   0   0   0   0   0   0   0   0   0   19  19  19  19  19  19  59  59  59  19  19  19  47  47  47  67  67  67  91  91  91  0   0   0   0   0   0   87  87  87  67  67  67  11  11  11  0   0   0   99  99  99  183 183 183 0   0   0   19  19  19  39  39  39  91  91  91  87  87  87  35  35  35  0   0   0   35  35  35  99  99  99  11  11  11  59  59  59  19  19  19  7   7   7   0   0   0   0   0   0   0   0   0   0   0   0   0   0   0   0   0   0   0   0   0   
0   0   0   0   0   0   0   0   0   0   0   0   0   0   0   0   0   0   19  19  19  19  19  19  59  59  59  19  19  19  47  47  47  75  75  75  91  91  91  0   0   0   11  11  11  211 211 211 111 87  67  55  55  55  0   0   0   99  99  99  111 111 111 91  91  91  131 131 131 87  87  87  111 111 111 111 111 111 39  39  39  0   0   0   35  35  35  99  99  99  11  11  11  59  59  59  19  19  19  23  15  7   0   0   0   0   0   0   0   0   0   0   0   0   0   0   0   0   0   0   0   0   0   
0   0   0   0   0   0   0   0   0   0   0   0   0   0   0   0   0   0   19  19  19  19  19  19  59  59  59  35  35  35  99  99  99  151 151 151 47  47  47  0   0   0   19  19  19  231 231 231 71  71  71  7   7   7   0   0   0   119 119 119 71  71  71  39  39  39  71  71  71  71  71  71  71  71  71  87  87  87  59  59  59  0   0   0   35  35  35  99  99  99  11  11  11  59  59  59  19  19  19  7   7   7   0   0   0   0   0   0   0   0   0   0   0   0   0   0   0   0   0   0   0   0   0   
0   0   0   0   0   0   0   0   0   0   0   0   0   0   0   0   0   0   19  19  19  11  11  11  59  59  59  35  35  35  47  47  47  67  67  67  19  19  19  0   0   0   35  35  35  239 239 239 75  75  75  0   0   0   0   0   0   183 183 183 71  71  71  7   7   7   55  55  55  119 119 119 39  39  39  55  55  55  55  55  55  0   0   0   67  67  67  107 107 107 11  11  11  59  59  59  19  19  19  7   7   7   0   0   0   0   0   0   0   0   0   0   0   0   0   0   0   0   0   0   0   0   0   
0   0   0   0   0   0   0   0   0   0   0   0   0   0   0   0   0   0   23  15  7   19  19  19  59  59  59  19  19  19  19  19  19  31  23  11  19  19  19  0   0   0   39  39  39  239 239 239 39  39  39  35  35  35  27  27  27  219 219 219 71  71  71  27  27  27  119 119 119 151 151 151 103 83  63  55  55  55  59  59  59  19  19  19  35  35  35  111 111 111 19  19  19  59  59  59  19  19  19  7   7   7   0   0   0   0   0   0   0   0   0   0   0   0   0   0   0   0   0   0   0   0   0   
0   0   0   0   0   0   0   0   0   0   0   0   0   0   0   0   0   0   19  19  19  19  19  19  59  59  59  19  19  19  19  19  19  75  75  75  31  23  11  0   0   0   55  55  55  239 239 239 95  75  55  39  39  39  11  11  11  203 203 203 111 111 111 75  75  75  47  47  47  111 111 111 99  99  99  79  79  79  75  75  75  19  19  19  19  19  19  99  99  99  27  27  27  59  59  59  23  15  7   7   7   7   0   0   0   0   0   0   0   0   0   0   0   0   0   0   0   0   0   0   0   0   0   
0   0   0   0   0   0   0   0   0   0   0   0   0   0   0   0   0   0   19  19  19  19  19  19  59  59  59  19  19  19  35  35  35  79  79  79  35  35  35  0   0   0   99  99  99  203 203 203 131 107 87  39  39  39  0   0   0   183 183 183 119 95  75  47  47  47  35  35  35  151 151 151 91  91  91  71  71  71  71  71  71  19  19  19  19  19  19  107 107 107 27  27  27  59  59  59  19  19  19  7   7   7   0   0   0   0   0   0   0   0   0   0   0   0   0   0   0   0   0   0   0   0   0   
0   0   0   0   0   0   0   0   0   0   0   0   0   0   0   0   0   0   19  19  19  19  19  19  59  59  59  19  19  19  39  39  39  55  55  55  31  23  11  0   0   0   99  99  99  87  87  87  67  51  27  39  39  39  31  23  11  211 211 211 55  55  55  7   7   7   35  35  35  119 119 119 107 107 107 39  39  39  91  91  91  19  19  19  19  19  19  91  91  91  27  27  27  59  59  59  19  19  19  7   7   7   0   0   0   0   0   0   0   0   0   0   0   0   0   0   0   0   0   0   0   0   0   
0   0   0   0   0   0   0   0   0   0   0   0   0   0   0   0   0   0   19  19  19  23  15  7   59  59  59  19  19  19  35  35  35  39  39  39  31  23  11  7   7   7   55  55  55  199 199 199 91  91  91  107 107 107 55  55  55  199 199 199 79  79  79  91  91  91  127 127 127 183 183 183 71  71  71  55  55  55  91  91  91  19  19  19  19  19  19  99  99  99  35  35  35  59  59  59  19  19  19  7   7   7   0   0   0   0   0   0   0   0   0   0   0   0   0   0   0   0   0   0   0   0   0   
0   0   0   0   0   0   0   0   0   0   0   0   0   0   0   0   0   0   19  19  19  23  15  7   59  59  59  27  27  27  47  47  47  55  55  55  19  19  19  39  39  39  31  23  11  199 199 199 91  99  71  0   0   0   0   0   0   167 167 167 67  67  67  91  91  91  59  59  59  151 151 151 107 107 107 55  55  55  87  87  87  35  35  35  19  19  19  91  91  91  27  27  27  59  59  59  23  15  7   7   7   7   0   0   0   0   0   0   0   0   0   0   0   0   0   0   0   0   0   0   0   0   0   
0   0   0   0   0   0   0   0   0   0   0   0   0   0   0   0   0   0   19  19  19  7   7   7   59  59  59  27  27  27  67  67  67  79  79  79  19  19  19  31  23  11  31  23  11  211 211 211 183 183 183 91  91  91  39  39  39  131 131 131 55  55  55  91  91  91  27  27  27  99  99  99  131 131 131 55  55  55  71  71  71  35  35  35  27  27  27  91  91  91  39  39  39  59  59  59  23  15  7   7   7   7   0   0   0   0   0   0   0   0   0   0   0   0   0   0   0   0   0   0   0   0   0   
0   0   0   0   0   0   0   0   0   0   0   0   0   0   0   0   0   0   19  19  19  19  19  19  59  59  59  19  19  19  67  67  67  39  39  39  31  23  11  0   0   0   119 95  75  231 231 231 191 167 143 111 87  67  19  19  19  167 167 167 71  71  71  91  91  91  39  39  39  99  99  99  203 203 203 131 131 131 35  35  35  19  19  19  39  39  39  75  75  75  35  35  35  47  47  47  19  19  19  7   7   7   0   0   0   0   0   0   0   0   0   0   0   0   0   0   0   0   0   0   0   0   0   
0   0   0   0   0   0   0   0   0   0   0   0   0   0   0   0   0   0   19  19  19  0   0   0   59  59  59  31  23  11  35  35  35  19  19  19  75  75  75  0   0   0   75  75  75  79  79  79  31  23  11  7   7   7   7   7   7   191 167 143 39  39  39  91  91  91  11  11  11  27  27  27  171 171 171 191 191 191 0   0   0   7   7   7   39  39  39  67  67  67  59  59  59  59  59  59  19  19  19  7   7   7   0   0   0   0   0   0   0   0   0   0   0   0   0   0   0   0   0   0   0   0   0   
0   0   0   0   0   0   0   0   0   0   0   0   0   0   0   0   0   0   35  35  35  0   0   0   59  59  59  19  19  19  31  23  11  0   0   0   47  47  47  0   0   0   35  35  35  0   0   0   191 191 191 159 159 159 71  71  71  203 203 203 55  55  55  119 119 119 39  39  39  0   0   0   199 199 199 231 231 231 35  35  35  19  19  19  19  19  19  91  91  91  67  67  67  47  47  47  19  19  19  7   7   7   0   0   0   0   0   0   0   0   0   0   0   0   0   0   0   0   0   0   0   0   0   
0   0   0   0   0   0   0   0   0   0   0   0   0   0   0   0   0   0   35  35  35  19  19  19  59  59  59  31  23  11  47  47  47  19  19  19  35  35  35  39  39  39  71  71  71  7   7   7   211 211 211 191 191 191 159 135 111 231 231 231 87  87  87  131 131 131 87  87  87  19  19  19  199 199 199 211 211 211 0   0   0   39  39  39  23  15  7   67  67  67  67  67  67  47  47  47  19  19  19  7   7   7   0   0   0   0   0   0   0   0   0   0   0   0   0   0   0   0   0   0   0   0   0   
0   0   0   0   0   0   0   0   0   0   0   0   0   0   0   0   0   0   35  35  35  19  19  19  59  59  59  19  19  19  35  35  35  27  27  27  39  39  39  39  39  39  111 87  67  31  23  11  203 203 203 31  23  11  31  23  11  231 231 231 27  27  27  175 151 127 191 191 191 83  63  47  183 183 183 183 159 135 0   0   0   47  47  47  27  27  27  71  71  71  75  75  75  59  59  59  19  19  19  7   7   7   0   0   0   0   0   0   0   0   0   0   0   0   0   0   0   0   0   0   0   0   0   
0   0   0   0   0   0   0   0   0   0   0   0   0   0   0   0   0   0   35  35  35  19  19  19  59  59  59  19  19  19  19  19  19  35  35  35  55  55  55  31  23  11  255 211 187 95  75  55  191 191 191 55  55  55  39  39  39  231 231 231 31  23  11  175 151 127 255 219 219 159 159 159 191 191 191 183 159 135 0   0   0   39  39  39  27  27  27  59  59  59  47  47  47  59  59  59  19  19  19  7   7   7   0   0   0   0   0   0   0   0   0   0   0   0   0   0   0   0   0   0   0   0   0   
0   0   0   0   0   0   0   0   0   0   0   0   0   0   0   0   0   0   31  23  11  19  19  19  59  59  59  23  15  7   23  15  7   0   0   0   47  47  47  11  11  11  151 151 151 99  99  99  179 179 179 71  71  71  71  71  71  231 231 231 11  11  11  191 191 191 191 191 191 127 127 127 191 191 191 183 159 135 0   0   0   27  27  27  35  35  35  75  75  75  59  59  59  59  59  59  19  19  19  7   7   7   0   0   0   0   0   0   0   0   0   0   0   0   0   0   0   0   0   0   0   0   0   
0   0   0   0   0   0   0   0   0   0   0   0   0   0   0   0   0   0   19  19  19  23  15  7   59  59  59  39  39  39  23  15  7   0   0   0   35  35  35  55  55  55  127 127 127 111 111 111 131 131 131 55  55  55  71  71  71  255 219 219 7   7   7   175 151 127 171 171 171 127 127 127 183 183 183 167 143 119 0   0   0   31  23  11  23  15  7   59  59  59  27  27  27  59  59  59  19  19  19  7   7   7   0   0   0   0   0   0   0   0   0   0   0   0   0   0   0   0   0   0   0   0   0   
0   0   0   0   0   0   0   0   0   0   0   0   0   0   0   0   0   0   31  23  11  7   7   7   59  59  59  47  47  47  55  55  55  79  79  79  79  79  79  83  63  47  131 131 131 123 127 99  35  35  35  35  35  35  55  55  55  219 219 219 7   7   7   79  79  79  179 179 179 191 191 191 183 183 183 139 115 91  0   0   0   39  39  39  23  15  7   67  67  67  27  27  27  59  59  59  7   7   7   7   7   7   0   0   0   0   0   0   0   0   0   0   0   0   0   0   0   0   0   0   0   0   0   
0   0   0   0   0   0   0   0   0   0   0   0   0   0   0   0   0   0   35  35  35  19  19  19  59  59  59  39  39  39  55  55  55  67  67  67  79  79  79  55  55  55  99  99  99  231 231 231 99  99  99  7   7   7   99  99  99  231 231 231 19  19  19  7   7   7   95  75  55  111 87  67  203 203 203 91  99  71  0   0   0   35  35  35  7   7   7   75  75  75  67  67  67  47  47  47  11  11  11  7   7   7   0   0   0   0   0   0   0   0   0   0   0   0   0   0   0   0   0   0   0   0   0   
0   0   0   0   0   0   0   0   0   0   0   0   0   0   0   0   0   0   35  35  35  19  19  19  59  59  59  47  47  47  59  59  59  71  71  71  79  79  79  79  79  79  71  71  71  203 203 203 87  87  87  19  19  19  191 191 191 231 231 231 147 147 147 39  39  39  155 127 107 211 211 211 231 231 231 91  99  71  0   0   0   71  71  71  11  11  11  59  59  59  63  47  23  59  59  59  23  15  7   7   7   7   0   0   0   0   0   0   0   0   0   0   0   0   0   0   0   0   0   0   0   0   0   
0   0   0   0   0   0   0   0   0   0   0   0   0   0   0   0   0   0   35  35  35  19  19  19  59  59  59  39  39  39  23  15  7   19  19  19  35  35  35  95  75  55  71  71  71  103 83  63  131 107 87  19  19  19  59  59  59  131 131 131 107 107 107 55  55  55  119 119 119 151 151 151 111 115 87  71  79  51  0   0   0   151 151 151 11  11  11  59  59  59  35  35  35  59  59  59  23  15  7   7   7   7   0   0   0   0   0   0   0   0   0   0   0   0   0   0   0   0   0   0   0   0   0   
0   0   0   0   0   0   0   0   0   0   0   0   0   0   0   0   0   0   35  35  35  19  19  19  59  59  59  19  19  19  7   7   7   23  15  7   35  35  35  95  75  55  211 211 211 71  71  71  99  99  99  7   7   7   0   0   0   31  23  11  7   7   7   7   7   7   43  35  15  95  75  55  83  63  47  39  39  39  67  67  67  119 119 119 11  11  11  59  59  59  27  27  27  59  59  59  7   7   7   7   7   7   0   0   0   0   0   0   0   0   0   0   0   0   0   0   0   0   0   0   0   0   0   
0   0   0   0   0   0   0   0   0   0   0   0   0   0   0   0   0   0   47  47  47  19  19  19  67  67  67  19  19  19  19  19  19  19  19  19  35  35  35  131 107 87  255 219 219 79  79  79  47  47  47  0   0   0   27  27  27  151 151 151 39  39  39  79  79  79  79  79  79  167 167 167 183 159 135 87  87  87  55  55  55  39  39  39  7   7   7   59  59  59  47  47  47  59  59  59  7   7   7   7   7   7   0   0   0   0   0   0   0   0   0   0   0   0   0   0   0   0   0   0   0   0   0   
0   0   0   0   0   0   0   0   0   0   0   0   0   0   0   0   0   0   47  47  47  19  19  19  59  59  59  11  11  11  19  19  19  19  19  19  35  35  35  155 127 107 255 219 199 87  87  87  31  23  11  0   0   0   95  75  55  95  75  55  7   7   7   35  35  35  31  23  11  39  39  39  39  39  39  39  39  39  63  47  23  39  39  39  11  11  11  59  59  59  59  59  59  59  59  59  19  19  19  7   7   7   0   0   0   0   0   0   0   0   0   0   0   0   0   0   0   0   0   0   0   0   0   
0   0   0   0   0   0   0   0   0   0   0   0   0   0   0   0   0   0   47  47  47  19  19  19  59  59  59  11  11  11  19  19  19  19  19  19  35  35  35  147 123 99  123 99  79  111 87  67  31  23  11  0   0   0   123 99  79  147 123 99  183 159 135 183 183 183 159 135 111 131 107 87  87  87  87  111 111 111 99  99  99  39  39  39  11  11  11  59  59  59  35  35  35  59  59  59  19  19  19  7   7   7   0   0   0   0   0   0   0   0   0   0   0   0   0   0   0   0   0   0   0   0   0   
0   0   0   0   0   0   0   0   0   0   0   0   0   0   0   0   0   0   39  39  39  23  15  7   59  59  59  19  19  19  7   7   7   11  11  11  35  35  35  123 99  79  111 87  67  39  39  39  7   7   7   19  19  19  211 211 211 239 239 239 219 219 219 231 231 231 191 191 191 147 123 99  79  79  79  119 119 119 127 127 127 39  39  39  11  11  11  59  59  59  27  27  27  59  59  59  19  19  19  7   7   7   0   0   0   0   0   0   0   0   0   0   0   0   0   0   0   0   0   0   0   0   0   
0   0   0   0   0   0   0   0   0   0   0   0   0   0   0   0   0   0   19  19  19  23  15  7   59  59  59  7   7   7   0   0   0   7   7   7   35  35  35  111 87  67  87  87  87  63  47  23  0   0   0   7   7   7   47  47  47  111 87  67  79  79  79  151 151 151 239 239 239 103 83  63  27  27  27  151 151 151 127 127 127 51  43  19  7   7   7   59  59  59  27  27  27  59  59  59  7   7   7   7   7   7   0   0   0   0   0   0   0   0   0   0   0   0   0   0   0   0   0   0   0   0   0   
0   0   0   0   0   0   0   0   0   0   0   0   0   0   0   0   0   0   19  19  19  23  15  7   59  59  59  19  19  19  71  71  71  51  43  19  83  87  59  155 127 107 119 119 119 71  71  71  147 147 147 35  35  35  99  99  99  91  91  91  19  19  19  139 139 139 239 239 239 103 83  63  0   0   0   171 171 171 111 111 111 39  39  39  111 111 111 35  35  35  11  11  11  59  59  59  19  19  19  19  19  19  0   0   0   0   0   0   0   0   0   0   0   0   0   0   0   0   0   0   0   0   0   
0   0   0   0   0   0   0   0   0   0   0   0   0   0   0   0   0   0   23  15  7   0   0   0   59  59  59  19  19  19  71  71  71  0   0   0   19  19  19  87  87  87  0   0   0   39  39  39  119 119 119 31  23  11  31  23  11  35  35  35  39  39  39  151 151 151 239 239 239 79  79  79  19  19  19  99  99  99  75  75  75  19  19  19  107 107 107 39  39  39  11  11  11  47  47  47  23  15  7   19  19  19  0   0   0   0   0   0   0   0   0   0   0   0   0   0   0   0   0   0   0   0   0   
0   0   0   0   0   0   0   0   0   0   0   0   0   0   0   0   0   0   7   7   7   7   7   7   59  59  59  19  19  19  71  71  71  19  19  19  19  19  19  87  87  87  0   0   0   111 87  67  179 179 179 39  39  39  83  63  47  71  71  71  131 131 131 119 119 119 239 239 239 87  87  87  19  19  19  123 99  79  55  63  39  27  27  27  99  99  99  51  43  19  11  11  11  47  47  47  7   7   7   19  19  19  0   0   0   0   0   0   0   0   0   0   0   0   0   0   0   0   0   0   0   0   0   
0   0   0   0   0   0   0   0   0   0   0   0   0   0   0   0   0   0   19  19  19  0   0   0   59  59  59  35  35  35  71  71  71  31  23  11  19  19  19  91  91  91  31  23  11  59  59  59  179 179 179 35  35  35  119 119 119 39  39  39  131 131 131 119 119 119 239 239 239 55  55  55  35  35  35  111 111 111 35  35  35  51  43  19  99  99  99  51  43  19  11  11  11  47  47  47  19  19  19  7   7   7   0   0   0   0   0   0   0   0   0   0   0   0   0   0   0   0   0   0   0   0   0   
0   0   0   0   0   0   0   0   0   0   0   0   0   0   0   0   0   0   19  19  19  0   0   0   59  59  59  39  39  39  91  91  91  59  59  59  35  35  35  99  99  99  87  87  87  119 119 119 239 239 239 91  91  91  183 183 183 91  91  91  151 151 151 147 123 99  231 231 231 55  55  55  39  39  39  111 111 111 31  23  11  47  47  47  111 111 111 27  27  27  11  11  11  47  47  47  19  19  19  19  19  19  0   0   0   0   0   0   0   0   0   0   0   0   0   0   0   0   0   0   0   0   0   
0   0   0   0   0   0   0   0   0   0   0   0   0   0   0   0   0   0   19  19  19  19  19  19  59  59  59  19  19  19  35  35  35  71  71  71  19  19  19  23  15  7   63  71  43  103 83  63  103 83  63  131 107 87  19  19  19  59  59  59  151 151 151 67  67  67  55  55  55  119 119 119 151 151 151 39  39  39  11  11  11  19  19  19  87  87  87  47  47  47  11  11  11  59  59  59  19  19  19  19  19  19  0   0   0   0   0   0   0   0   0   0   0   0   0   0   0   0   0   0   0   0   0   
0   0   0   0   0   0   0   0   0   0   0   0   0   0   0   0   0   0   19  19  19  7   7   7   59  59  59  35  35  35  19  19  19  71  71  71  31  23  11  19  19  19  39  39  39  19  19  19  203 203 203 87  87  87  19  19  19  191 191 191 231 231 231 91  91  91  39  39  39  155 127 107 211 211 211 99  99  99  43  35  15  19  19  19  35  35  35  91  91  91  11  11  11  47  47  47  19  19  19  7   7   7   0   0   0   0   0   0   0   0   0   0   0   0   0   0   0   0   0   0   0   0   0   
0   0   0   0   0   0   0   0   0   0   0   0   0   0   0   0   0   0   19  19  19  0   0   0   59  59  59  35  35  35  35  35  35  91  91  91  31  23  11  55  55  55  87  87  87  27  27  27  231 231 231 99  99  99  7   7   7   107 107 107 231 231 231 11  11  11  7   7   7   95  75  55  111 87  67  111 111 111 51  43  19  39  39  39  35  35  35  91  91  91  11  11  11  47  47  47  19  19  19  7   7   7   0   0   0   0   0   0   0   0   0   0   0   0   0   0   0   0   0   0   0   0   0   
0   0   0   0   0   0   0   0   0   0   0   0   0   0   0   0   0   0   19  19  19  7   7   7   59  59  59  23  15  7   31  23  11  59  59  59  35  35  35  75  75  75  107 107 107 55  55  55  123 127 99  35  35  35  35  35  35  91  91  91  219 219 219 7   7   7   79  79  79  179 179 179 191 191 191 151 151 151 87  87  87  59  59  59  39  39  39  91  91  91  11  11  11  47  47  47  19  19  19  7   7   7   0   0   0   0   0   0   0   0   0   0   0   0   0   0   0   0   0   0   0   0   0   
0   0   0   0   0   0   0   0   0   0   0   0   0   0   0   0   0   0   19  19  19  19  19  19  59  59  59  31  23  11  83  87  59  119 119 119 139 139 139 159 159 159 179 179 179 127 127 127 111 111 111 131 131 131 55  55  55  99  99  99  255 219 219 7   7   7   175 151 127 171 171 171 127 127 127 183 183 183 159 135 111 67  67  67  79  59  35  91  91  91  11  11  11  59  59  59  19  19  19  19  19  19  0   0   0   0   0   0   0   0   0   0   0   0   0   0   0   0   0   0   0   0   0   
0   0   0   0   0   0   0   0   0   0   0   0   0   0   0   0   0   0   19  19  19  19  19  19  59  59  59  23  15  7   23  15  7   75  75  75  111 111 111 87  87  87  27  27  27  67  67  67  99  99  99  179 179 179 71  71  71  99  99  99  231 231 231 7   7   7   191 191 191 191 191 191 127 127 127 131 131 131 87  87  87  23  15  7   27  27  27  91  91  91  11  11  11  59  59  59  19  19  19  7   7   7   0   0   0   0   0   0   0   0   0   0   0   0   0   0   0   0   0   0   0   0   0   
0   0   0   0   0   0   0   0   0   0   0   0   0   0   0   0   0   0   19  19  19  23  15  7   59  59  59  19  19  19  7   7   7   67  67  67  107 107 107 67  67  67  19  19  19  71  71  71  95  75  55  191 191 191 55  55  55  87  87  87  231 231 231 11  11  11  175 151 127 255 219 219 159 159 159 87  87  87  39  39  39  11  11  11  19  19  19  91  91  91  11  11  11  59  59  59  19  19  19  7   7   7   0   0   0   0   0   0   0   0   0   0   0   0   0   0   0   0   0   0   0   0   0   
0   0   0   0   0   0   0   0   0   0   0   0   0   0   0   0   0   0   19  19  19  23  15  7   59  59  59  19  19  19  35  35  35  67  67  67  111 111 111 67  67  67  19  19  19  71  71  71  31  23  11  203 203 203 31  23  11  87  87  87  231 231 231 11  11  11  175 151 127 191 191 191 83  63  47  87  87  87  95  75  55  35  35  35  35  35  35  99  99  99  11  11  11  59  59  59  19  19  19  7   7   7   0   0   0   0   0   0   0   0   0   0   0   0   0   0   0   0   0   0   0   0   0   
0   0   0   0   0   0   0   0   0   0   0   0   0   0   0   0   0   0   19  19  19  19  19  19  59  59  59  19  19  19  67  67  67  75  75  75  127 127 127 67  67  67  7   7   7   99  99  99  7   7   7   211 211 211 191 191 191 147 123 99  231 231 231 27  27  27  131 131 131 87  87  87  19  19  19  91  91  91  99  99  99  59  59  59  47  47  47  91  91  91  11  11  11  59  59  59  19  19  19  7   7   7   0   0   0   0   0   0   0   0   0   0   0   0   0   0   0   0   0   0   0   0   0   
0   0   0   0   0   0   0   0   0   0   0   0   0   0   0   0   0   0   19  19  19  19  19  19  59  59  59  67  67  67  87  87  87  107 107 107 151 151 151 107 107 107 107 107 107 139 139 139 39  39  39  191 191 191 159 159 159 99  99  99  203 203 203 19  19  19  119 119 119 39  39  39  0   0   0   91  91  91  99  99  99  67  67  67  39  39  39  87  87  87  11  11  11  59  59  59  19  19  19  7   7   7   0   0   0   0   0   0   0   0   0   0   0   0   0   0   0   0   0   0   0   0   0   
0   0   0   0   0   0   0   0   0   0   0   0   0   0   0   0   0   0   19  19  19  19  19  19  59  59  59  19  19  19  59  59  59  67  67  67  111 111 111 75  75  75  19  19  19  87  87  87  79  79  79  31  23  11  7   7   7   75  75  75  191 167 143 19  19  19  31  23  11  11  11  11  27  27  27  79  79  79  87  87  87  39  39  39  35  35  35  67  67  67  11  11  11  59  59  59  19  19  19  7   7   7   0   0   0   0   0   0   0   0   0   0   0   0   0   0   0   0   0   0   0   0   0   
0   0   0   0   0   0   0   0   0   0   0   0   0   0   0   0   0   0   19  19  19  11  11  11  59  59  59  19  19  19  39  39  39  67  67  67  107 107 107 67  67  67  7   7   7   87  87  87  231 231 231 191 167 143 111 87  67  75  75  75  167 167 167 27  27  27  47  47  47  39  39  39  99  99  99  91  91  91  43  35  15  35  35  35  27  27  27  87  87  87  19  19  19  59  59  59  19  19  19  7   7   7   0   0   0   0   0   0   0   0   0   0   0   0   0   0   0   0   0   0   0   0   0   
0   0   0   0   0   0   0   0   0   0   0   0   0   0   0   0   0   0   19  19  19  11  11  11  59  59  59  19  19  19  39  39  39  67  67  67  107 107 107 71  71  71  27  27  27  99  99  99  211 211 211 183 183 183 91  91  91  87  87  87  131 131 131 19  19  19  39  39  39  27  27  27  99  99  99  127 127 127 19  19  19  35  35  35  35  35  35  99  99  99  11  11  11  59  59  59  19  19  19  7   7   7   0   0   0   0   0   0   0   0   0   0   0   0   0   0   0   0   0   0   0   0   0   
0   0   0   0   0   0   0   0   0   0   0   0   0   0   0   0   0   0   19  19  19  19  19  19  59  59  59  19  19  19  47  47  47  67  67  67  91  91  91  199 199 199 67  67  67  127 127 127 199 199 199 79  79  79  0   0   0   67  67  67  167 167 167 27  27  27  11  11  11  59  59  59  151 151 151 191 191 191 35  35  35  39  39  39  35  35  35  99  99  99  11  11  11  59  59  59  19  19  19  23  15  7   0   0   0   0   0   0   0   0   0   0   0   0   0   0   0   0   0   0   0   0   0   
0   0   0   0   0   0   0   0   0   0   0   0   0   0   0   0   0   0   19  19  19  19  19  19  59  59  59  19  19  19  47  47  47  75  75  75  91  91  91  87  87  87  31  23  11  139 139 139 55  55  55  91  91  91  107 107 107 91  91  91  199 199 199 27  27  27  35  35  35  127 127 127 183 183 183 151 151 151 75  75  75  87  87  87  35  35  35  99  99  99  11  11  11  59  59  59  19  19  19  7   7   7   0   0   0   0   0   0   0   0   0   0   0   0   0   0   0   0   0   0   0   0   0   
0   0   0   0   0   0   0   0   0   0   0   0   0   0   0   0   0   0   19  19  19  19  19  19  59  59  59  35  35  35  99  99  99  151 151 151 47  47  47  19  19  19  0   0   0   167 143 119 87  87  87  67  51  27  39  39  39  87  87  87  211 211 211 19  19  19  7   7   7   35  35  35  119 119 119 139 139 139 39  39  39  127 127 127 67  67  67  107 107 107 11  11  11  59  59  59  19  19  19  7   7   7   0   0   0   0   0   0   0   0   0   0   0   0   0   0   0   0   0   0   0   0   0   
0   0   0   0   0   0   0   0   0   0   0   0   0   0   0   0   0   0   19  19  19  11  11  11  59  59  59  35  35  35  47  47  47  67  67  67  19  19  19  27  27  27  0   0   0   99  99  99  203 203 203 131 107 87  39  39  39  67  67  67  183 183 183 51  43  19  47  47  47  35  35  35  151 151 151 139 139 139 35  35  35  67  67  67  35  35  35  111 111 111 19  19  19  59  59  59  19  19  19  7   7   7   0   0   0   0   0   0   0   0   0   0   0   0   0   0   0   0   0   0   0   0   0   
0   0   0   0   0   0   0   0   0   0   0   0   0   0   0   0   0   0   23  15  7   19  19  19  59  59  59  19  19  19  19  19  19  31  23  11  19  19  19  31  23  11  7   7   7   47  47  47  239 239 239 95  75  55  39  39  39  75  75  75  203 203 203 39  39  39  75  75  75  47  47  47  111 111 111 151 151 151 39  39  39  39  39  39  19  19  19  99  99  99  27  27  27  59  59  59  23  15  7   7   7   7   0   0   0   0   0   0   0   0   0   0   0   0   0   0   0   0   0   0   0   0   0   
0   0   0   0   0   0   0   0   0   0   0   0   0   0   0   0   0   0   19  19  19  19  19  19  59  59  59  19  19  19  19  19  19  75  75  75  31  23  11  39  39  39  75  75  75  111 111 111 239 239 239 39  39  39  35  35  35  75  75  75  219 219 219 27  27  27  27  27  27  119 119 119 151 151 151 167 143 119 35  35  35  67  67  67  19  19  19  107 107 107 27  27  27  59  59  59  19  19  19  7   7   7   0   0   0   0   0   0   0   0   0   0   0   0   0   0   0   0   0   0   0   0   0   
0   0   0   0   0   0   0   0   0   0   0   0   0   0   0   0   0   0   19  19  19  19  19  19  59  59  59  19  19  19  35  35  35  79  79  79  35  35  35  59  59  59  87  87  87  99  99  99  239 239 239 75  75  75  0   0   0   67  67  67  183 183 183 27  27  27  7   7   7   55  55  55  119 119 119 139 139 139 35  35  35  67  67  67  19  19  19  91  91  91  27  27  27  59  59  59  19  19  19  7   7   7   0   0   0   0   0   0   0   0   0   0   0   0   0   0   0   0   0   0   0   0   0   
0   0   0   0   0   0   0   0   0   0   0   0   0   0   0   0   0   0   19  19  19  19  19  19  59  59  59  19  19  19  39  39  39  55  55  55  31  23  11  67  67  67  55  55  55  111 87  67  223 223 223 71  71  71  7   7   7   67  67  67  119 119 119 27  27  27  39  39  39  71  71  71  71  71  71  139 139 139 47  47  47  59  59  59  19  19  19  99  99  99  35  35  35  59  59  59  19  19  19  7   7   7   0   0   0   0   0   0   0   0   0   0   0   0   0   0   0   0   0   0   0   0   0   
0   0   0   0   0   0   0   0   0   0   0   0   0   0   0   0   0   0   23  15  7   23  15  7   59  59  59  19  19  19  35  35  35  39  39  39  31  23  11  59  59  59  35  35  35  55  55  55  203 203 203 111 87  67  55  55  55  67  67  67  99  99  99  39  39  39  91  91  91  131 131 131 87  87  87  139 139 139 59  59  59  35  35  35  19  19  19  91  91  91  27  27  27  59  59  59  23  15  7   7   7   7   0   0   0   0   0   0   0   0   0   0   0   0   0   0   0   0   0   0   0   0   0   
0   0   0   0   0   0   0   0   0   0   0   0   0   0   0   0   0   0   23  15  7   23  15  7   59  59  59  27  27  27  47  47  47  55  55  55  19  19  19  75  75  75  107 107 107 167 167 167 203 203 203 67  67  67  11  11  11  67  67  67  99  99  99  67  67  67  0   0   0   19  19  19  91  91  91  151 151 151 39  39  39  39  39  39  27  27  27  91  91  91  39  39  39  59  59  59  23  15  7   7   7   7   0   0   0   0   0   0   0   0   0   0   0   0   0   0   0   0   0   0   0   0   0   
0   0   0   0   0   0   0   0   0   0   0   0   0   0   0   0   0   0   19  19  19  7   7   7   59  59  59  27  27  27  67  67  67  79  79  79  19  19  19  107 107 107 151 151 151 231 231 231 203 203 203 75  75  75  0   0   0   67  67  67  87  87  87  47  47  47  7   7   7   31  23  11  91  91  91  139 139 139 27  27  27  59  59  59  39  39  39  75  75  75  35  35  35  47  47  47  19  19  19  7   7   7   0   0   0   0   0   0   0   0   0   0   0   0   0   0   0   0   0   0   0   0   0   
0   0   0   0   0   0   0   0   0   0   0   0   0   0   0   0   0   0   19  19  19  19  19  19  59  59  59  19  19  19  67  67  67  39  39  39  31  23  11  131 131 131 147 147 147 231 231 231 203 203 203 67  67  67  0   0   0   0   0   0   91  91  91  35  35  35  19  19  19  27  27  27  87  87  87  159 159 159 47  47  47  39  39  39  39  39  39  67  67  67  59  59  59  59  59  59  19  19  19  7   7   7   0   0   0   0   0   0   0   0   0   0   0   0   0   0   0   0   0   0   0   0   0   
0   0   0   0   0   0   0   0   0   0   0   0   0   0   0   0   0   0   19  19  19  0   0   0   59  59  59  31  23  11  35  35  35  19  19  19  75  75  75  171 171 171 87  87  87  139 139 139 203 203 203 99  99  99  7   7   7   0   0   0   87  87  87  39  39  39  19  19  19  39  39  39  91  91  91  191 191 191 87  87  87  27  27  27  19  19  19  91  91  91  67  67  67  47  47  47  19  19  19  7   7   7   0   0   0   0   0   0   0   0   0   0   0   0   0   0   0   0   0   0   0   0   0   
0   0   0   0   0   0   0   0   0   0   0   0   0   0   0   0   0   0   19  19  19  0   0   0   59  59  59  19  19  19  31  23  11  0   0   0   47  47  47  139 139 139 59  59  59  35  35  35  203 203 203 147 123 99  39  39  39  0   0   0   91  91  91  47  47  47  0   0   0   27  27  27  183 183 183 155 127 107 51  43  19  19  19  19  23  15  7   67  67  67  67  67  67  47  47  47  19  19  19  7   7   7   0   0   0   0   0   0   0   0   0   0   0   0   0   0   0   0   0   0   0   0   0   
0   0   0   0   0   0   0   0   0   0   0   0   0   0   0   0   0   0   19  19  19  19  19  19  59  59  59  31  23  11  47  47  47  19  19  19  35  35  35  99  99  99  59  59  59  11  11  11  171 171 171 99  99  99  55  55  55  0   0   0   87  87  87  47  47  47  0   0   0   27  27  27  191 191 191 107 107 107 51  43  19  51  43  19  27  27  27  71  71  71  75  75  75  59  59  59  19  19  19  7   7   7   0   0   0   0   0   0   0   0   0   0   0   0   0   0   0   0   0   0   0   0   0   
0   0   0   0   0   0   0   0   0   35  35  35  1   1   1   1   1   1   1   1   1   19  19  19  47  47  47  19  19  19  0   0   0   0   0   0   0   0   0   0   0   0   0   0   0   0   0   0   47  47  47  87  87  87  119 119 119 87  87  87  39  39  39  11  11  11  0   0   0   0   0   0   0   0   0   0   0   0   0   0   0   0   0   0   7   7   7   19  19  19  0   0   0   0   0   0   0   0   0   0   0   0   19  19  19  35  35  35  51  43  19  87  87  87  0   0   0   0   0   0   0   0   0   
0   0   0   0   0   0   0   0   0   19  19  19  1   1   1   1   1   1   19  19  19  47  47  47  67  67  67  75  75  75  99  99  99  111 111 111 119 119 119 119 119 119 119 119 119 119 119 119 99  99  99  99  99  99  91  91  91  87  87  87  87  87  87  71  71  71  71  71  71  67  67  67  55  55  55  47  47  47  35  35  35  31  23  11  19  19  19  31  23  11  31  23  11  35  35  35  35  35  35  35  35  35  51  43  19  39  39  39  55  55  55  63  71  43  0   0   0   0   0   0   0   0   0   
0   0   0   0   0   0   0   0   0   1   1   1   1   1   1   1   1   1   11  11  11  91  91  91  127 127 127 63  71  43  35  35  35  19  19  19  19  19  19  31  23  11  31  23  11  67  67  67  119 119 119 139 139 139 151 151 151 147 147 147 99  99  99  71  71  71  47  47  47  47  47  47  47  47  47  35  35  35  7   7   7   0   0   0   63  71  43  67  67  67  39  39  39  19  19  19  19  19  19  19  19  19  35  35  35  51  43  19  1   1   1   1   1   1   0   0   0   0   0   0   0   0   0   
0   0   0   0   0   0   0   0   0   1   1   1   1   1   1   1   1   1   1   1   1   35  35  35  47  47  47  19  19  19  0   0   0   0   0   0   0   0   0   0   0   0   0   0   0   0   0   0   47  47  47  99  99  99  127 127 127 99  99  99  35  35  35  0   0   0   0   0   0   0   0   0   0   0   0   0   0   0   0   0   0   0   0   0   19  19  19  19  19  19  0   0   0   0   0   0   0   0   0   0   0   0   19  19  19  35  35  35  47  47  47  79  79  79  0   0   0   0   0   0   0   0   0   
0   0   0   0   0   0   0   0   0   1   1   1   19  19  19  0   0   0   19  19  19  47  47  47  67  67  67  67  67  67  99  99  99  111 111 111 119 119 119 119 119 119 119 119 119 119 119 119 107 107 107 99  99  99  91  91  91  91  91  91  87  87  87  75  75  75  59  59  59  71  71  71  55  55  55  51  43  19  39  39  39  35  35  35  35  35  35  35  35  35  35  35  35  35  35  35  35  35  35  35  35  35  47  47  47  39  39  39  55  55  55  63  71  43  0   0   0   0   0   0   0   0   0   
0   0   0   0   0   0   0   0   0   1   1   1   1   1   1   1   1   1   1   1   1   79  79  79  111 115 87  55  55  55  31  23  11  19  19  19  19  19  19  31  23  11  35  35  35  67  67  67  119 119 119 127 127 127 151 151 151 139 139 139 99  99  99  55  55  55  47  47  47  47  47  47  47  47  47  31  23  11  7   7   7   0   0   0   63  71  43  67  67  67  35  35  35  19  19  19  19  19  19  19  19  19  31  23  11  51  43  19  1   1   1   1   1   1   0   0   0   0   0   0   0   0   0   
0   0   0   0   0   0   0   0   0   1   1   1   7   7   7   1   1   1   1   1   1   31  23  11  39  39  39  19  19  19  0   0   0   0   0   0   0   0   0   0   0   0   0   0   0   11  11  11  55  55  55  99  99  99  119 119 119 79  79  79  35  35  35  0   0   0   0   0   0   0   0   0   11  11  11  0   0   0   0   0   0   0   0   0   19  19  19  19  19  19  7   7   7   0   0   0   0   0   0   0   0   0   19  19  19  39  39  39  47  47  47  71  71  71  0   0   0   0   0   0   0   0   0   
0   0   0   0   0   0   0   0   0   1   1   1   31  23  11  1   1   1   35  35  35  39  39  39  47  47  47  67  67  67  79  79  79  99  99  99  107 107 107 111 111 111 107 107 107 99  99  99  99  99  99  99  99  99  87  87  87  79  79  79  87  87  87  71  71  71  71  71  71  71  71  71  55  55  55  39  39  39  35  35  35  27  27  27  31  23  11  31  23  11  31  23  11  35  35  35  35  35  35  35  35  35  51  43  19  31  23  11  63  71  43  63  71  43  0   0   0   0   0   0   0   0   0   
0   0   0   0   0   0   0   0   0   99  99  99  91  99  71  35  35  35  47  47  47  67  67  67  91  91  91  75  75  75  67  67  67  47  47  47  19  19  19  35  35  35  55  55  55  67  67  67  87  87  87  119 119 119 131 131 131 111 111 111 87  87  87  47  47  47  39  39  39  39  39  39  55  55  55  35  35  35  0   0   0   19  19  19  67  67  67  71  71  71  55  55  55  35  35  35  19  19  19  19  19  19  31  23  11  0   0   0   0   0   0   0   0   0   0   0   0   0   0   0   0   0   0   
0   0   0   0   0   0   0   0   0   0   0   0   0   0   0   35  35  35  47  47  47  79  79  79  107 107 107 99  99  99  67  67  67  47  47  47  0   0   0   19  19  19  35  35  35  47  47  47  67  67  67  99  99  99  119 119 119 91  91  91  47  47  47  19  19  19  19  19  19  19  19  19  39  39  39  19  19  19  0   0   0   35  35  35  99  99  99  99  99  99  79  79  79  39  39  39  19  19  19  19  19  19  35  35  35  0   0   0   0   0   0   0   0   0   0   0   0   0   0   0   0   0   0   
0   0   0   0   0   0   0   0   0   0   0   0   0   0   0   35  35  35  47  47  47  79  79  79  107 107 107 99  99  99  71  71  71  47  47  47  0   0   0   19  19  19  35  35  35  47  47  47  67  67  67  99  99  99  111 111 111 91  91  91  39  39  39  19  19  19  19  19  19  19  19  19  51  43  19  19  19  19  0   0   0   35  35  35  107 107 107 107 107 107 79  79  79  35  35  35  19  19  19  19  19  19  35  35  35  0   0   0   0   0   0   0   0   0   0   0   0   0   0   0   0   0   0   
0   0   0   0   0   0   0   0   0   0   0   0   0   0   0   31  23  11  39  39  39  79  79  79  99  99  99  99  99  99  71  71  71  47  47  47  0   0   0   19  19  19  47  47  47  47  47  47  67  67  67  91  91  91  107 107 107 79  79  79  35  35  35  19  19  19  19  19  19  19  19  19  47  47  47  19  19  19  0   0   0   35  35  35  111 111 111 107 107 107 79  79  79  35  35  35  19  19  19  19  19  19  35  35  35  0   0   0   0   0   0   0   0   0   0   0   0   0   0   0   0   0   0   
0   0   0   0   0   0   0   0   0   0   0   0   0   0   0   19  19  19  35  35  35  71  71  71  99  99  99  99  99  99  79  79  79  47  47  47  0   0   0   27  27  27  39  39  39  47  47  47  55  55  55  79  79  79  99  99  99  71  71  71  35  35  35  19  19  19  19  19  19  19  19  19  47  47  47  19  19  19  0   0   0   35  35  35  111 111 111 107 107 107 67  67  67  35  35  35  19  19  19  19  19  19  31  23  11  0   0   0   0   0   0   0   0   0   0   0   0   0   0   0   0   0   0   
0   0   0   0   0   0   0   0   0   0   0   0   0   0   0   19  19  19  19  19  19  67  67  67  99  99  99  91  91  91  75  75  75  47  47  47  0   0   0   19  19  19  35  35  35  47  47  47  47  47  47  79  79  79  99  99  99  67  67  67  35  35  35  19  19  19  19  19  19  19  19  19  47  47  47  19  19  19  0   0   0   35  35  35  111 111 111 99  99  99  67  67  67  35  35  35  19  19  19  19  19  19  31  23  11  0   0   0   0   0   0   0   0   0   0   0   0   0   0   0   0   0   0   
0   0   0   0   0   0   0   0   0   0   0   0   0   0   0   19  19  19  19  19  19  67  67  67  91  91  91  79  79  79  67  67  67  47  47  47  0   0   0   19  19  19  35  35  35  39  39  39  35  35  35  71  71  71  87  87  87  67  67  67  35  35  35  19  19  19  19  19  19  19  19  19  47  47  47  19  19  19  0   0   0   35  35  35  111 111 111 91  91  91  55  55  55  35  35  35  19  19  19  19  19  19  35  35  35  0   0   0   0   0   0   0   0   0   0   0   0   0   0   0   0   0   0   
0   0   0   0   0   0   0   0   0   0   0   0   0   0   0   19  19  19  19  19  19  47  47  47  79  79  79  79  79  79  67  67  67  59  59  59  0   0   0   19  19  19  27  27  27  35  35  35  39  39  39  59  59  59  79  79  79  67  67  67  35  35  35  19  19  19  19  19  19  27  27  27  47  47  47  19  19  19  0   0   0   35  35  35  99  99  99  87  87  87  47  47  47  35  35  35  19  19  19  19  19  19  31  23  11  0   0   0   0   0   0   0   0   0   0   0   0   0   0   0   0   0   0   
0   0   0   0   0   0   0   0   0   0   0   0   0   0   0   19  19  19  19  19  19  47  47  47  79  79  79  79  79  79  71  71  71  59  59  59  0   0   0   19  19  19  27  27  27  35  35  35  39  39  39  59  59  59  79  79  79  67  67  67  35  35  35  19  19  19  19  19  19  27  27  27  47  47  47  19  19  19  0   0   0   35  35  35  99  99  99  79  79  79  47  47  47  35  35  35  19  19  19  19  19  19  31  23  11  0   0   0   0   0   0   0   0   0   0   0   0   0   0   0   0   0   0   
0   0   0   0   0   0   0   0   0   0   0   0   0   0   0   19  19  19  23  15  7   47  47  47  79  79  79  79  79  79  71  71  71  59  59  59  0   0   0   19  19  19  27  27  27  35  35  35  39  39  39  59  59  59  79  79  79  67  67  67  35  35  35  19  19  19  19  19  19  27  27  27  47  47  47  19  19  19  0   0   0   35  35  35  99  99  99  79  79  79  47  47  47  35  35  35  19  19  19  19  19  19  31  23  11  0   0   0   0   0   0   0   0   0   0   0   0   0   0   0   0   0   0   
0   0   0   0   0   0   0   0   0   0   0   0   0   0   0   19  19  19  0   0   0   47  47  47  79  79  79  79  79  79  71  71  71  47  47  47  0   0   0   19  19  19  27  27  27  35  35  35  39  39  39  59  59  59  79  79  79  67  67  67  35  35  35  19  19  19  19  19  19  27  27  27  47  47  47  19  19  19  0   0   0   47  47  47  99  99  99  79  79  79  47  47  47  35  35  35  19  19  19  19  19  19  35  35  35  0   0   0   0   0   0   0   0   0   0   0   0   0   0   0   0   0   0   
0   0   0   0   0   0   0   0   0   0   0   0   0   0   0   19  35  11  0   0   0   35  35  35  87  87  87  79  79  79  71  71  71  47  47  47  0   0   0   19  19  19  27  27  27  35  35  35  39  39  39  55  55  55  79  79  79  67  67  67  35  35  35  19  19  19  19  19  19  27  27  27  47  47  47  19  19  19  0   0   0   47  47  47  99  99  99  79  79  79  47  47  47  35  35  35  19  19  19  19  19  19  35  35  35  0   0   0   0   0   0   0   0   0   0   0   0   0   0   0   0   0   0   
0   0   0   0   0   0   0   0   0   0   0   0   0   0   0   31  23  11  0   0   0   47  47  47  79  79  79  79  79  79  71  71  71  47  47  47  0   0   0   19  19  19  27  27  27  35  35  35  39  39  39  55  55  55  79  79  79  67  67  67  35  35  35  19  19  19  19  19  19  27  27  27  47  47  47  19  19  19  0   0   0   47  47  47  99  99  99  79  79  79  47  47  47  35  35  35  19  19  19  19  19  19  35  35  35  0   0   0   0   0   0   0   0   0   0   0   0   0   0   0   0   0   0   
0   0   0   0   0   0   0   0   0   0   0   0   0   0   0   31  23  11  0   0   0   39  39  39  91  91  91  79  79  79  71  71  71  47  47  47  0   0   0   19  19  19  27  27  27  35  35  35  39  39  39  55  55  55  79  79  79  67  67  67  35  35  35  19  19  19  19  19  19  27  27  27  47  47  47  19  19  19  0   0   0   47  47  47  99  99  99  79  79  79  47  47  47  35  35  35  19  19  19  19  19  19  35  35  35  0   0   0   0   0   0   0   0   0   0   0   0   0   0   0   0   0   0   
0   0   0   0   0   0   0   0   0   0   0   0   0   0   0   35  35  35  0   0   0   47  47  47  79  79  79  79  79  79  71  71  71  47  47  47  0   0   0   19  19  19  27  27  27  35  35  35  39  39  39  55  55  55  79  79  79  67  67  67  35  35  35  19  19  19  19  19  19  27  27  27  47  47  47  19  19  19  0   0   0   47  47  47  99  99  99  79  79  79  47  47  47  35  35  35  19  19  19  19  19  19  51  43  19  0   0   0   0   0   0   0   0   0   0   0   0   0   0   0   0   0   0   
0   0   0   0   0   0   0   0   0   0   0   0   0   0   0   35  35  35  0   0   0   47  47  47  79  79  79  79  79  79  71  71  71  47  47  47  0   0   0   19  19  19  27  27  27  35  35  35  39  39  39  55  55  55  79  79  79  67  67  67  35  35  35  19  19  19  19  19  19  27  27  27  47  47  47  19  19  19  0   0   0   47  47  47  99  99  99  79  79  79  47  47  47  35  35  35  19  19  19  19  19  19  51  43  19  0   0   0   0   0   0   0   0   0   0   0   0   0   0   0   0   0   0   
0   0   0   0   0   0   0   0   0   0   0   0   0   0   0   35  35  35  0   0   0   47  47  47  79  79  79  79  79  79  71  71  71  47  47  47  0   0   0   19  19  19  27  27  27  35  35  35  39  39  39  55  55  55  71  71  71  67  67  67  35  35  35  19  19  19  19  19  19  27  27  27  47  47  47  19  19  19  0   0   0   47  47  47  99  99  99  79  79  79  47  47  47  35  35  35  19  19  19  19  19  19  51  43  19  0   0   0   0   0   0   0   0   0   0   0   0   0   0   0   0   0   0   
0   0   0   0   0   0   0   0   0   0   0   0   0   0   0   35  35  35  0   0   0   47  47  47  79  79  79  79  79  79  71  71  71  47  47  47  0   0   0   19  19  19  27  27  27  35  35  35  39  39  39  55  55  55  71  71  71  67  67  67  35  35  35  19  19  19  19  19  19  27  27  27  47  47  47  19  19  19  0   0   0   47  47  47  99  99  99  79  79  79  47  47  47  35  35  35  19  19  19  19  19  19  47  47  47  0   0   0   0   0   0   0   0   0   0   0   0   0   0   0   0   0   0   
0   0   0   0   0   0   0   0   0   0   0   0   0   0   0   35  35  35  0   0   0   39  39  39  71  71  71  79  79  79  71  71  71  47  47  47  0   0   0   19  19  19  27  27  27  35  35  35  35  35  35  55  55  55  71  71  71  67  67  67  35  35  35  19  19  19  19  19  19  27  27  27  47  47  47  19  19  19  0   0   0   47  47  47  99  99  99  79  79  79  47  47  47  35  35  35  19  19  19  19  19  19  47  47  47  0   0   0   0   0   0   0   0   0   0   0   0   0   0   0   0   0   0   
0   0   0   0   0   0   0   0   0   0   0   0   0   0   0   35  35  35  0   0   0   35  35  35  71  71  71  79  79  79  71  71  71  47  47  47  0   0   0   19  19  19  27  27  27  35  35  35  35  35  35  55  55  55  71  71  71  67  67  67  35  35  35  19  19  19  19  19  19  27  27  27  47  47  47  19  19  19  0   0   0   47  47  47  99  99  99  79  79  79  47  47  47  27  27  27  19  19  19  19  19  19  47  47  47  0   0   0   0   0   0   0   0   0   0   0   0   0   0   0   0   0   0   
0   0   0   0   0   0   0   0   0   0   0   0   0   0   0   35  35  35  0   0   0   39  39  39  79  79  79  67  67  67  67  67  67  47  47  47  0   0   0   19  19  19  27  27  27  35  35  35  35  35  35  55  55  55  71  71  71  63  71  43  35  35  35  19  19  19  19  19  19  27  27  27  47  47  47  19  19  19  0   0   0   47  47  47  99  99  99  67  67  67  47  47  47  27  27  27  19  19  19  19  19  19  55  55  55  0   0   0   0   0   0   0   0   0   0   0   0   0   0   0   0   0   0   
0   0   0   0   0   0   0   0   0   0   0   0   0   0   0   51  43  19  0   0   0   51  43  19  67  67  67  55  55  55  47  47  47  35  35  35  0   0   0   19  19  19  27  27  27  35  35  35  35  35  35  55  55  55  75  75  75  67  67  67  35  35  35  19  19  19  19  19  19  27  27  27  47  47  47  0   0   0   0   0   0   35  35  35  67  67  67  55  55  55  47  47  47  19  19  19  19  19  19  19  19  19  55  55  55  0   0   0   0   0   0   0   0   0   0   0   0   0   0   0   0   0   0   
0   0   0   0   0   0   0   0   0   47  47  47  47  47  47  47  47  47  27  27  27  35  35  35  67  67  67  47  47  47  35  35  35  35  35  35  0   0   0   0   0   0   19  19  19  39  39  39  35  35  35  67  67  67  75  75  75  67  67  67  35  35  35  19  19  19  19  19  19  27  27  27  35  35  35  0   0   0   0   0   0   35  35  35  55  55  55  47  47  47  35  35  35  23  15  7   19  19  19  27  27  27  35  35  35  35  35  35  47  47  47  0   0   0   0   0   0   0   0   0   0   0   0   
0   0   0   47  47  47  35  35  35  47  47  47  55  55  55  55  55  55  39  39  39  27  27  27  27  27  27  27  27  27  27  27  27  27  27  27  0   0   0   0   0   0   23  15  7   27  27  27  39  39  39  67  67  67  99  99  99  67  67  67  35  35  35  7   7   7   19  19  19  27  27  27  19  35  11  0   0   0   0   0   0   0   0   0   47  47  47  35  35  35  27  27  27  0   0   0   27  27  27  47  47  47  47  47  47  47  47  47  35  35  35  35  35  35  47  47  47  0   0   0   0   0   0   
0   0   0   47  47  47  47  47  47  35  35  35  35  35  35  47  47  47  47  47  47  47  47  47  47  47  47  47  47  47  39  39  39  39  39  39  35  35  35  27  27  27  27  27  27  27  27  27  27  27  27  27  27  27  27  27  27  27  27  27  27  27  27  27  27  27  27  27  27  27  27  27  27  27  27  27  27  27  35  35  35  39  39  39  47  47  47  47  47  47  47  47  47  47  47  47  39  39  39  39  39  39  39  39  39  27  27  27  19  19  19  19  19  19  51  43  19  0   0   0   0   0   0   
0   0   0   47  47  47  39  39  39  27  27  27  27  27  27  39  39  39  35  35  35  35  35  35  39  39  39  47  47  47  55  55  55  55  55  55  59  59  59  59  59  59  59  59  59  59  59  59  59  59  59  59  59  59  55  55  55  55  55  55  55  55  55  55  55  55  55  55  55  47  47  47  47  47  47  47  47  47  47  47  47  47  47  47  47  47  47  39  39  39  39  39  39  27  27  27  19  19  19  19  19  19  19  19  19  19  19  19  19  19  19  19  19  19  51  43  19  0   0   0   0   0   0   
0   0   0   47  47  47  39  39  39  27  27  27  27  27  27  35  35  35  31  23  11  19  19  19  1   1   1   1   1   1   35  35  35  47  47  47  39  39  39  47  47  47  55  55  55  55  55  55  59  59  59  59  59  59  55  55  55  55  55  55  55  55  55  55  55  55  47  47  47  47  47  47  47  47  47  39  39  39  39  39  39  19  19  19  19  19  19  19  19  19  19  19  19  19  19  19  19  19  19  19  19  19  27  27  27  27  27  27  31  23  11  19  19  19  39  39  39  0   0   0   0   0   0   
0   0   0   47  47  47  39  39  39  27  27  27  27  27  27  35  35  35  19  19  19  1   1   1   1   1   1   1   1   1   35  35  35  47  47  47  39  39  39  55  55  55  67  67  67  67  67  67  59  59  59  47  47  47  47  47  47  47  47  47  39  39  39  35  35  35  35  35  35  35  35  35  35  35  35  27  27  27  27  27  27  19  19  19  19  19  19  19  19  19  19  19  19  19  19  19  19  19  19  19  19  19  27  27  27  27  27  27  1   1   1   19  19  19  51  43  19  0   0   0   0   0   0   
0   0   0   47  47  47  35  35  35  27  27  27  27  27  27  35  35  35  19  19  19  1   1   1   1   1   1   1   1   1   35  35  35  55  55  55  47  47  47  55  55  55  67  67  67  67  67  67  59  59  59  47  47  47  47  47  47  47  47  47  39  39  39  35  35  35  35  35  35  35  35  35  35  35  35  27  27  27  27  27  27  19  19  19  19  19  19  19  19  19  19  19  19  19  19  19  19  19  19  19  19  19  27  27  27  27  27  27  1   1   1   19  19  19  47  47  47  0   0   0   0   0   0   
0   0   0   0   0   0   47  47  47  27  27  27  27  27  27  35  35  35  19  19  19  1   1   1   1   1   1   19  19  19  35  35  35  47  47  47  47  47  47  55  55  55  67  67  67  67  67  67  59  59  59  47  47  47  47  47  47  47  47  47  39  39  39  35  35  35  35  35  35  35  35  35  35  35  35  27  27  27  27  27  27  19  19  19  19  19  19  19  19  19  19  19  19  19  19  19  19  19  19  19  19  19  27  27  27  27  27  27  1   1   1   51  43  19  0   0   0   0   0   0   0   0   0   
0   0   0   0   0   0   0   0   0   0   0   0   0   0   0   47  47  47  35  35  35  19  19  19  1   1   1   19  19  19  35  35  35  51  43  19  51  43  19  55  55  55  67  67  67  67  67  67  59  59  59  47  47  47  47  47  47  47  47  47  39  39  39  39  39  39  35  35  35  35  35  35  35  35  35  27  27  27  27  27  27  19  19  19  19  19  19  19  19  19  19  19  19  19  19  19  19  19  19  19  19  19  27  27  27  27  27  27  1   1   1   0   0   0   0   0   0   0   0   0   0   0   0   
0   0   0   0   0   0   0   0   0   0   0   0   0   0   0   0   0   0   0   0   0   0   0   0   0   0   0   0   0   0   0   0   0   27  27  27  27  27  27  55  55  55  67  67  67  67  67  67  59  59  59  47  47  47  47  47  47  47  47  47  35  35  35  35  35  35  35  35  35  35  35  35  35  35  35  27  27  27  27  27  27  19  19  19  19  19  19  19  19  19  27  27  27  0   0   0   0   0   0   0   0   0   0   0   0   0   0   0   0   0   0   0   0   0   0   0   0   0   0   0   0   0   0   
