P3
# Converted to P3 by scripts/convert_to_p3.py
64 64
255
76 54 30 80 54 34 73 52 29 66 49 24
68 50 24 66 48 27 66 50 26 61 45 21
65 45 27 76 56 34 85 64 44 70 53 31
71 56 29 72 56 30 72 56 29 67 52 29
67 51 30 80 59 31 79 58 30 66 51 30
74 55 28 60 46 26 54 38 15 55 38 15
60 40 20 62 41 21 61 45 22 70 51 25
63 44 24 70 48 27 71 49 28 75 53 30
73 53 25 74 53 26 63 45 25 67 46 27
66 46 24 45 32 16 37 24 11 58 36 20
54 36 15 65 43 24 49 43 18 84 60 39
84 60 40 80 60 35 84 59 40 72 55 29
76 55 33 72 55 30 81 56 40 81 59 36
81 56 39 85 59 39 77 56 36 65 49 32
58 42 19 58 41 17 61 45 22 69 50 25
71 52 25 75 53 30 79 53 33 75 53 30
84 62 38 80 60 38 78 61 35 75 59 32
81 62 32 98 69 37 61 44 20 58 41 17
61 44 21 61 46 24 66 45 25 64 45 29
66 48 24 64 47 22 65 48 27 68 50 26
69 52 25 71 50 27 78 59 35 86 56 32
86 60 32 87 59 29 78 55 25 61 43 24
57 37 19 56 41 16 102 70 41 100 69 36
96 66 41 88 65 36 84 63 35 85 63 38
76 59 32 80 59 36 75 55 33 83 62 34
102 71 37 69 48 29 61 42 17 63 44 24
57 43 23 71 52 29 74 53 36 74 53 33
76 55 37 72 54 30 72 51 29 75 51 33
76 52 35 71 52 30 67 46 26 66 46 25
65 46 28 67 47 30 66 46 29 66 46 25
64 44 26 65 41 24 66 50 29 111 74 40
93 66 36 87 64 40 88 63 42 87 64 40
67 53 31 71 55 30 68 52 26 64 48 24
66 48 26 97 66 36 61 44 20 60 45 20
71 55 32 81 61 33 79 61 31 79 61 31
79 59 36 68 53 31 72 52 36 83 62 37
86 62 41 82 64 38 75 61 36 74 55 34
80 61 32 84 61 38 95 67 38 112 74 42
66 49 25 62 41 21 85 62 31 65 50 28
64 49 30 77 57 33 68 53 31 73 57 30
81 62 32 66 51 29 66 50 25 65 49 25
69 54 32 65 41 25 61 48 27 67 51 29
95 67 38 98 82 49 98 77 56 92 65 43
85 60 40 84 59 41 85 61 41 91 66 43
91 69 45 89 69 44 85 60 40 89 64 41
81 61 37 86 61 41 83 62 37 74 58 31
63 45 23 58 41 17 65 49 24 82 61 36
71 57 31 71 52 31 70 54 32 71 53 34
67 51 29 66 49 24 61 44 21 63 47 22
56 52 29 63 49 25 77 60 34 62 41 21
70 54 31 76 59 31 84 62 31 84 62 36
76 57 35 82 61 37 71 56 29 81 56 39
91 65 43 90 67 46 88 66 44 86 62 42
77 58 36 72 57 32 82 60 36 92 66 37
69 54 28 65 41 24 63 49 28 63 48 25
63 49 30 66 51 29 66 50 31 69 53 28
72 51 28 68 47 28 63 47 23 61 45 21
59 44 24 63 43 23 57 53 28 70 54 28
87 62 37 83 62 37 77 58 36 75 55 37
75 55 37 79 58 38 87 61 42 91 65 43
91 68 46 93 66 38 94 69 43 83 58 41
82 57 40 88 63 40 80 61 31 71 55 32
62 45 24 57 41 17 66 49 25 85 63 33
70 54 28 65 49 25 69 53 29 64 48 24
62 46 21 61 45 22 69 51 27 69 50 27
66 49 27 70 50 28 70 48 31 61 40 21
64 48 25 70 54 32 90 66 37 84 59 43
81 59 36 87 62 41 89 70 44 92 72 44
81 60 35 79 58 35 77 57 35 80 61 41
79 54 38 82 60 35 71 54 27 69 52 27
65 46 25 63 42 22 68 47 27 64 45 19
64 44 20 63 44 20 58 42 19 59 42 18
53 35 16 55 36 16 56 37 16 66 47 22
62 43 17 66 48 22 74 53 30 70 51 25
60 42 22 63 47 23 62 44 22 59 43 20
67 50 29 66 50 26 75 53 35 76 56 34
76 57 35 76 56 36 87 67 43 81 56 40
74 54 36 79 59 37 74 57 32 66 53 29
65 46 27 58 40 17 65 48 24 82 61 31
65 48 24 62 46 22 61 45 21 62 45 21
63 43 23 70 54 32 84 60 39 82 60 36
68 51 27 75 57 31 85 59 31 74 56 28
57 41 17 60 44 21 71 50 28 74 53 33
71 55 34 72 57 33 70 50 25 77 61 33
70 54 28 70 54 32 90 63 37 86 57 29
76 56 31 63 44 27 57 41 17 70 50 28
78 56 37 80 57 37 80 57 37 91 64 34
92 64 34 98 68 35 100 68 39 69 53 28
57 40 17 72 57 30 112 73 39 96 67 34
98 68 39 102 69 42 90 63 36 97 66 38
99 68 39 77 59 30 61 44 21 62 45 21
58 41 16 64 48 23 67 48 28 64 46 23
64 49 23 62 43 19 71 43 26 65 43 23
61 46 22 58 40 21 58 37 20 49 44 20
62 45 29 64 45 25 59 42 18 55 40 17
58 41 17 64 47 23 57 40 16 58 42 18
63 45 22 65 50 32 79 58 37 85 63 39
84 63 38 85 61 40 88 65 34 90 63 38
70 51 29 60 40 20 65 48 29 81 56 39
89 68 44 87 67 44 99 67 39 86 61 40
88 63 41 90 65 41 87 63 36 96 68 44
96 74 47 88 70 40 65 49 29 71 55 29
80 59 37 81 62 35 75 56 36 73 57 31
87 65 32 72 57 31 91 66 32 65 44 27
57 41 16 80 61 32 89 65 32 79 60 32
75 58 32 79 60 36 67 53 30 77 58 37
76 59 31 105 78 44 66 50 32 62 46 21
65 49 28 87 64 37 95 66 39 92 71 44
89 69 43 91 64 34 91 65 35 85 62 38
91 64 35 59 43 20 52 35 15 78 56 28
89 61 35 81 62 32 74 57 30 78 57 28
69 53 28 70 54 28 60 44 20 57 41 17
63 46 22 72 55 32 90 65 38 75 56 35
84 62 37 75 58 32 92 65 40 84 62 36
93 66 38 70 54 32 64 46 28 78 57 36
88 62 41 84 59 40 89 64 42 85 60 41
79 60 31 73 56 30 79 59 35 77 57 35
76 55 35 105 73 42 66 49 30 65 48 24
79 60 31 69 54 31 65 49 29 84 62 32
83 62 32 81 62 32 79 58 37 66 45 28
62 41 21 68 51 32 82 61 37 92 65 35
88 64 32 82 61 31 73 56 33 81 60 33
90 64 35 69 48 22 57 41 17 61 40 20
77 57 36 101 68 42 87 63 37 75 58 31
87 62 36 72 57 31 71 55 29 85 62 38
95 67 38 67 50 26 58 42 17 72 55 32
91 66 33 91 66 33 89 65 33 86 64 33
74 58 32 75 58 32 63 47 23 57 40 17
64 48 25 76 57 32 72 55 29 68 53 30
70 55 30 87 64 32 81 61 32 74 56 29
81 55 33 72 55 29 63 40 21 65 49 24
66 49 25 83 63 32 76 58 31 73 57 31
81 61 35 77 57 33 88 62 42 72 56 31
84 63 32 81 61 33 62 42 20 66 49 25
68 52 32 73 57 31 71 56 29 77 58 33
71 56 31 71 54 31 73 53 36 65 51 33
67 41 25 64 49 32 81 58 38 70 55 30
73 57 31 84 62 32 83 61 36 68 52 32
81 61 32 77 58 29 60 44 23 67 42 25
74 57 32 85 61 41 91 65 42 71 55 33
83 62 37 69 53 28 75 55 28 84 62 37
72 57 30 65 49 25 57 41 17 65 49 26
91 65 35 89 65 32 90 65 32 76 59 31
80 60 32 73 56 30 61 46 21 50 33 15
66 50 29 68 53 32 81 65 40 76 55 37
72 56 33 66 50 31 73 57 32 80 60 35
90 63 33 82 61 37 63 42 22 59 42 18
64 49 31 91 67 37 70 55 33 80 61 32
92 67 35 78 61 34 74 57 31 78 58 31
76 55 27 67 51 26 56 39 16 66 50 27
73 57 31 73 57 31 79 58 38 84 60 40
74 54 36 75 60 33 81 60 36 65 50 32
66 42 24 66 51 32 77 58 35 72 55 29
83 62 32 89 66 33 78 60 31 74 58 31
81 61 33 71 55 29 63 47 24 65 49 28
76 59 31 89 65 33 88 64 33 83 61 37
76 59 33 82 61 32 81 61 31 86 64 31
81 61 32 66 49 25 58 41 17 73 57 30
79 60 32 89 66 32 89 65 32 92 65 35
82 61 31 70 53 28 61 39 20 57 41 17
73 57 30 81 58 40 94 69 44 87 62 41
95 75 46 82 65 41 81 59 37 71 55 33
72 57 32 80 60 35 63 47 23 52 35 15
64 45 27 67 48 27 62 43 27 67 47 28
65 50 24 68 48 27 67 43 26 70 48 26
72 53 25 66 49 24 54 38 17 61 45 24
74 58 31 70 53 32 80 58 37 71 53 32
76 57 33 88 69 44 91 65 42 65 49 32
56 39 17 63 43 24 68 53 30 87 64 32
82 61 31 77 56 28 90 63 34 69 53 30
72 53 35 69 53 28 62 45 21 58 41 18
80 60 31 81 61 31 80 60 30 78 59 29
72 56 29 82 61 35 83 62 32 74 58 31
75 58 30 64 48 24 56 40 16 66 50 25
73 56 31 71 54 32 74 58 31 76 58 34
68 52 29 67 51 29 69 48 27 56 40 16
65 48 23 67 50 30 74 53 33 71 54 30
79 60 37 76 55 35 76 56 32 72 52 32
62 46 25 64 49 25 65 47 22 67 49 24
64 46 24 71 50 25 69 50 24 70 52 28
87 61 33 82 66 37 89 63 41 99 69 39
99 81 49 75 59 32 66 45 24 50 32 14
52 36 16 62 43 22 62 43 21 61 42 22
60 41 21 61 44 25 68 47 30 66 46 25
55 38 17 57 38 17 58 42 19 60 43 18
58 43 18 59 42 19 67 46 21 57 41 19
56 40 18 50 33 15 49 32 13 47 30 13
57 41 18 68 51 27 74 53 30 69 53 33
69 53 31 70 51 26 61 45 22 68 47 25
69 52 30 72 55 28 65 47 23 67 46 26
63 42 21 60 40 21 66 45 25 67 47 27
70 49 29 62 45 23 61 45 19 55 37 17
83 59 39 89 64 40 84 60 39 73 53 35
87 66 42 91 73 43 69 53 28 57 41 16
68 52 26 82 61 32 80 60 32 83 63 33
87 64 34 92 66 36 81 62 32 73 58 31
84 60 38 81 63 39 83 59 41 71 54 33
81 62 38 73 57 31 66 40 24 62 47 27
87 60 31 79 60 30 72 56 29 75 58 30
75 56 35 67 52 26 78 56 34 74 58 31
90 65 32 80 61 31 72 56 30 71 55 30
68 52 31 78 57 36 81 60 36 100 68 40
71 54 32 65 44 24 61 41 21 76 53 25
96 73 44 99 68 39 92 65 36 91 68 52
86 69 40 92 65 35 73 56 30 82 60 31
75 56 36 81 61 33 79 58 37 77 56 35
64 41 23 69 53 27 86 66 44 100 72 51
91 69 43 85 60 39 85 61 40 82 58 39
84 60 40 88 62 42 92 65 43 72 57 31
81 58 42 95 75 45 71 54 28 58 41 17
67 50 26 88 65 32 81 61 32 71 56 30
72 55 32 68 53 32 77 57 36 74 54 37
83 58 42 91 68 46 90 64 42 86 66 43
88 68 43 74 58 32 66 41 24 79 58 38
74 55 33 76 59 31 67 53 28 80 60 32
78 60 33 84 63 33 88 65 32 88 65 33
82 61 32 74 58 32 70 54 31 70 54 31
67 52 31 78 54 39 81 61 36 81 58 36
83 62 37 66 42 26 67 50 33 107 78 44
94 68 36 75 56 32 66 52 27 65 48 27
76 57 31 70 55 31 73 57 31 80 61 32
82 61 32 65 51 30 66 52 30 73 56 28
67 41 25 75 59 32 96 75 47 103 71 44
87 64 42 87 62 41 90 67 46 88 62 42
84 63 38 83 62 38 80 60 37 76 59 32
72 55 33 70 53 33 66 49 26 58 41 17
65 48 24 85 62 37 92 66 41 82 61 36
81 57 40 79 58 35 81 56 40 82 58 40
79 57 37 82 60 35 78 58 36 85 64 39
80 55 40 71 53 29 66 42 24 85 62 37
78 58 38 75 59 33 94 67 37 81 62 33
87 64 33 83 62 33 71 55 33 72 56 29
65 50 33 70 54 28 78 59 36 76 60 33
75 56 37 92 71 45 91 65 42 86 68 46
79 57 39 65 44 27 72 56 30 89 70 46
75 55 35 71 56 31 71 52 34 65 49 28
66 52 32 71 55 31 70 54 28 73 57 31
78 58 36 89 62 32 83 61 37 101 68 40
62 41 21 62 46 21 81 60 37 73 58 32
75 58 33 75 58 34 80 59 36 82 61 37
61 45 24 62 47 22 66 47 25 66 51 26
67 51 26 63 44 27 61 44 24 57 41 17
66 50 29 80 59 39 90 65 43 93 70 48
87 62 42 74 58 32 74 55 38 79 59 37
77 58 36 75 59 33 74 59 32 76 54 36
71 54 32 60 40 20 54 36 16 56 37 19
80 54 33 73 49 32 70 50 25 66 48 23
65 45 27 63 44 27 62 46 27 66 46 25
63 47 27 62 42 22 64 43 28 72 47 30
70 52 28 79 58 37 77 56 36 80 59 39
68 50 30 68 46 26 72 55 29 89 64 43
84 59 41 75 59 31 79 57 39 70 55 33
71 54 33 71 55 33 74 57 34 75 59 32
81 61 32 80 61 34 84 61 38 81 61 32
57 41 16 56 39 16 63 44 27 69 49 26
64 45 26 72 48 30 66 48 25 66 51 26
72 52 23 72 51 24 74 51 25 76 54 26
75 55 26 66 47 24 53 35 14 49 31 15
64 44 25 58 43 23 61 45 23 72 50 32
66 49 24 60 44 24 63 46 25 65 48 24
60 44 23 68 48 27 66 48 24 52 40 16
63 42 21 50 32 14 47 30 14 47 29 13
47 29 13 48 30 14 52 35 15 57 40 20
63 46 25 74 49 32 78 54 32 77 55 36
79 61 36 81 63 37 80 59 35 74 50 33
71 48 31 67 48 27 60 44 21 59 38 18
61 40 19 75 56 33 85 59 39 76 55 35
68 52 30 69 53 31 77 57 36 70 53 31
73 53 35 78 54 38 75 54 35 68 52 30
78 57 31 62 44 26 58 40 19 53 36 15
49 31 14 54 37 16 56 36 17 61 44 22
64 46 26 65 48 23 72 51 25 72 52 24
86 60 43 85 60 42 91 67 44 80 59 37
92 71 45 95 76 46 62 46 21 53 36 16
55 37 17 64 48 22 67 49 24 62 44 21
61 44 20 56 40 18 60 44 20 63 45 20
64 48 23 63 48 22 68 48 26 62 53 31
67 52 27 66 45 28 68 48 22 57 41 20
56 39 19 53 36 16 63 41 21 71 55 29
86 61 43 83 59 42 93 66 44 85 61 44
88 64 43 82 62 38 96 72 46 86 66 45
83 62 37 75 59 32 66 51 33 60 41 19
61 45 21 66 50 25 68 47 30 65 46 29
63 46 22 57 41 18 59 41 20 67 46 26
70 49 29 76 50 34 68 49 28 65 49 25
63 48 25 67 49 24 67 48 22 60 44 25
56 36 18 58 41 17 62 41 20 66 50 28
82 62 37 75 59 33 89 63 42 82 60 38
78 57 36 81 57 40 84 68 39 67 51 27
68 52 30 91 77 48 67 50 26 58 42 17
65 48 24 84 63 37 81 62 37 89 65 41
87 64 34 82 62 36 81 61 32 81 61 32
80 61 32 77 60 33 74 59 32 78 59 33
84 63 33 90 66 33 89 62 36 101 71 37
75 52 33 60 42 18 61 46 24 72 55 29
78 58 36 82 58 40 78 57 36 78 57 36
73 56 32 71 55 29 84 68 39 78 56 36
77 58 33 73 57 31 65 45 28 63 45 22
74 58 31 87 62 42 83 60 39 90 65 42
81 61 35 79 59 35 82 60 36 85 61 40
76 57 35 79 59 37 76 59 32 73 56 32
82 62 33 91 67 34 93 66 36 99 69 42
76 55 34 69 52 27 58 46 21 67 49 29
69 54 29 84 60 40 84 59 40 79 57 37
69 58 30 75 57 32 68 52 27 76 60 32
78 57 37 76 55 38 62 45 21 57 40 17
71 55 29 90 66 34 82 61 31 75 58 32
91 65 35 75 56 35 76 59 32 73 57 31
79 58 29 83 62 32 77 60 32 88 65 33
82 61 32 81 61 31 69 55 30 73 54 28
73 56 30 60 39 19 54 44 24 68 52 28
67 52 30 69 52 29 65 50 30 69 53 27
66 51 29 72 55 30 73 56 30 79 58 37
78 57 35 67 49 25 58 40 17 67 47 26
76 58 32 83 59 41 84 62 38 87 61 42
81 66 39 75 57 33 77 60 33 75 58 32
79 59 28 89 66 32 89 66 33 81 61 33
76 59 32 81 60 31 70 56 30 71 52 29
70 53 29 65 49 25 50 45 21 59 39 20
59 44 23 66 50 29 66 53 31 66 54 27
55 46 25 62 42 21 66 50 30 69 49 27
79 58 36 82 60 36 65 49 24 59 42 18
68 50 25 71 53 29 82 61 31 74 57 31
71 57 31 77 58 34 72 55 30 72 56 30
73 57 30 78 59 31 73 53 25 68 51 25
64 48 25 57 41 18 60 42 17 58 43 21
66 52 26 63 48 22 70 48 26 75 58 37
72 57 34 70 56 32 66 49 29 65 41 24
65 45 23 65 49 24 70 54 28 70 58 30
70 58 31 62 50 25 57 41 16 62 44 21
59 53 27 71 53 29 84 61 37 77 57 36
69 53 32 82 59 34 67 52 30 68 53 31
78 57 33 81 60 31 67 50 24 65 49 24
60 44 21 57 41 18 57 40 16 57 43 20
60 42 18 63 44 19 65 43 18 61 41 22
65 45 23 69 51 32 53 49 26 54 45 23
67 41 24 57 41 17 62 46 24 57 39 17
53 37 16 57 41 17 60 45 22 59 44 21
56 38 19 60 41 20 57 42 18 63 46 21
63 45 22 64 46 23 61 46 20 63 44 19
64 45 20 59 42 18 53 39 16 59 42 19
58 42 18 57 41 17 65 45 28 101 67 41
105 77 45 92 72 44 88 69 44 87 67 45
83 69 39 95 74 44 94 72 44 66 49 29
62 40 20 61 41 20 65 45 25 50 45 21
50 45 20 54 45 25 61 41 21 63 40 24
52 40 16 60 40 19 61 42 21 62 46 20
63 47 25 65 44 21 63 43 20 69 43 26
66 43 23 58 42 18 56 40 16 55 39 16
54 36 16 58 41 17 66 50 24 95 66 35
110 73 38 97 67 35 91 64 35 83 66 38
84 67 38 100 69 37 103 69 40 67 48 29
67 49 25 65 47 24 64 48 23 70 54 27
69 52 28 68 53 27 75 56 31 92 64 34
90 63 36 61 41 20 65 48 24 63 48 28
87 67 42 91 70 44 90 70 42 101 68 40
90 63 33 90 70 46 92 65 35 71 54 28
65 48 24 58 41 17 66 50 29 100 70 38
80 57 35 75 57 31 80 57 37 74 55 30
80 60 30 81 60 32 114 76 42 65 51 32
67 51 30 73 56 31 73 56 31 78 56 36
75 53 32 71 52 31 81 60 32 97 65 39
93 67 37 62 45 21 64 48 24 64 48 28
98 67 35 90 64 34 98 68 35 101 69 35
89 63 33 89 65 32 100 69 35 72 54 28
66 49 25 57 41 17 71 55 29 101 69 39
73 55 33 71 54 33 80 59 41 75 59 39
77 58 36 84 60 40 115 75 40 68 53 32
53 49 24 66 46 28 66 50 29 71 55 33
91 65 42 79 59 37 77 60 32 89 65 34
114 74 39 59 41 18 58 41 18 70 54 33
93 68 43 82 61 32 78 59 32 82 61 37
68 53 28 79 63 39 86 60 41 113 75 41
66 49 25 57 41 17 66 49 24 69 51 29
79 60 35 69 54 32 78 60 34 85 63 38
86 64 33 73 58 31 86 62 37 66 45 26
69 50 28 69 53 29 75 59 32 81 59 38
90 65 43 75 59 31 76 59 31 89 65 34
105 77 43 62 42 21 58 41 18 76 59 32
94 67 38 79 60 31 74 58 31 80 61 32
70 54 28 80 58 29 90 65 33 114 74 40
66 49 24 59 40 17 65 49 28 74 55 33
84 60 40 78 58 36 88 66 43 88 68 47
88 66 46 88 61 42 93 68 43 70 54 32
69 54 28 74 58 32 74 58 32 82 57 41
83 58 39 90 64 42 80 56 40 75 56 36
81 59 34 58 41 17 57 41 16 75 58 31
87 63 32 92 66 33 76 57 29 69 55 29
75 58 32 71 55 29 77 58 33 115 75 40
65 48 25 57 41 17 65 49 25 63 48 29
77 59 33 73 57 31 90 64 35 75 58 32
75 56 36 69 53 31 78 59 35 62 40 20
65 48 24 67 51 30 69 53 28 78 58 34
77 59 30 86 63 36 72 57 31 75 56 36
83 58 33 57 41 16 57 41 16 81 61 32
88 65 31 93 66 33 70 54 28 76 58 30
81 61 32 85 63 32 85 63 32 113 76 41
66 50 30 55 47 25 73 57 31 81 57 39
88 63 42 82 57 39 85 68 39 83 59 42
81 59 36 82 61 35 77 60 40 66 50 28
61 55 29 71 53 28 70 53 28 83 62 37
81 65 36 91 65 42 87 61 42 81 57 39
86 61 42 65 41 24 62 41 21 73 57 32
82 62 32 112 74 40 74 57 31 89 62 33
73 57 31 72 55 30 101 70 36 116 76 42
69 53 28 59 42 17 69 53 28 75 59 33
89 65 41 89 65 36 83 62 33 74 59 32
80 61 32 81 62 33 81 61 33 57 41 16
54 37 16 62 45 21 66 49 25 82 62 32
91 63 33 85 63 33 82 62 32 73 57 31
82 62 33 57 40 17 61 41 20 73 58 31
90 65 32 113 74 40 74 57 31 92 63 33
75 58 31 74 56 29 103 70 41 107 78 45
62 46 26 67 51 28 78 58 35 90 64 41
88 70 48 89 67 46 87 62 44 82 57 40
85 61 39 81 62 37 84 62 43 67 50 26
58 47 22 61 49 24 65 49 25 68 53 30
81 62 38 86 61 40 89 64 40 88 64 32
70 52 32 58 41 18 66 41 25 65 50 28
75 57 31 72 53 31 80 59 31 77 58 31
78 58 30 83 61 29 80 59 31 77 56 34
65 49 25 51 35 15 57 41 17 68 52 27
70 49 28 70 54 32 74 55 31 70 50 27
71 49 27 70 49 27 63 45 24 56 39 16
59 43 20 54 38 15 60 44 21 67 51 27
74 56 32 77 57 31 71 53 31 69 53 30
55 39 17 50 32 15 60 42 19 71 55 32
89 65 34 83 61 32 87 63 31 91 66 33
79 60 31 78 58 30 85 61 42 85 62 36
61 39 18 61 42 19 70 53 32 78 58 37
86 62 43 86 63 39 78 56 34 73 57 30
71 54 32 91 69 46 91 71 46 66 50 25
41 47 18 56 46 26 66 46 25 64 41 26
71 50 29 73 55 33 69 51 31 67 43 26
63 43 22 57 41 16 58 41 17 60 39 20
65 45 27 64 45 28 68 49 27 64 49 24
68 50 25 70 51 27 66 46 26 63 46 26
61 44 19 59 38 21 60 38 21 53 36 17
49 31 14 56 40 17 59 44 21 55 38 16
53 36 16 54 36 17 54 37 15 57 39 17
61 44 19 61 43 21 54 37 16 55 37 17
56 41 18 59 42 19 66 46 25 61 45 22
54 37 16 60 44 20 61 46 21 58 42 20
63 46 24 64 49 25 70 54 31 71 52 30
71 52 30 69 55 34 67 50 25 67 50 25
53 47 22 63 46 22 67 43 26 68 47 29
63 46 24 63 46 24 59 44 19 61 40 20
65 40 25 66 46 28 65 47 26 60 44 19
91 66 41 83 56 38 74 56 31 70 54 31
68 52 30 77 57 36 83 62 38 99 67 40
64 49 31 61 41 21 65 42 24 79 54 30
96 74 41 100 70 36 90 72 40 85 69 40
84 69 39 87 61 37 73 58 30 77 57 37
76 55 36 85 61 40 84 62 37 70 54 31
58 41 17 62 46 21 83 64 38 88 70 39
99 68 36 73 58 30 90 65 32 80 61 31
82 61 31 80 61 32 74 57 31 73 57 31
74 58 30 80 61 31 83 62 33 100 69 36
74 58 31 63 42 22 64 45 28 72 54 25
95 72 38 100 69 35 84 69 40 92 65 36
88 62 36 79 64 39 80 56 39 80 59 35
78 60 36 85 61 40 82 60 35 69 53 31
60 40 19 68 52 27 82 62 36 94 70 52
87 67 42 77 56 34 83 60 36 78 57 35
102 69 42 90 65 38 82 58 41 70 55 32
64 49 32 68 55 30 75 56 35 77 59 31
65 50 33 67 41 26 65 49 32 98 82 47
94 68 37 72 54 33 66 49 28 68 51 26
68 52 31 65 51 31 77 58 35 80 60 36
86 61 41 80 59 35 83 60 40 70 54 32
65 41 24 72 57 30 96 74 41 103 72 42
88 61 41 77 57 35 82 61 32 72 55 33
79 60 32 80 61 32 74 58 31 74 57 31
68 53 31 72 55 31 80 60 36 77 58 30
88 62 42 67 41 26 66 49 28 107 79 45
95 68 38 74 56 33 68 52 27 67 52 27
66 52 31 66 50 31 77 57 36 81 58 39
87 61 41 74 56 35 70 55 30 69 51 26
59 41 18 74 58 32 97 74 47 96 76 47
84 64 37 75 58 32 83 62 37 85 62 39
79 59 38 76 55 38 78 58 38 74 58 32
71 56 33 96 68 37 79 61 32 82 63 34
66 51 32 61 41 20 65 49 29 89 65 33
70 55 30 74 56 32 80 60 31 69 52 28
65 49 33 73 55 33 78 57 37 82 57 41
78 58 37 86 69 40 87 61 42 64 49 32
58 41 17 63 43 22 81 60 31 74 58 32
75 56 37 78 59 35 73 58 32 78 58 37
70 54 33 73 55 29 74 58 32 76 59 33
74 55 38 91 70 46 82 58 41 83 66 42
78 57 37 61 40 20 65 49 24 92 64 41
78 55 39 78 59 32 67 52 31 65 49 28
73 57 31 72 56 32 69 54 27 73 56 32
81 61 36 95 66 36 79 59 34 100 68 35
57 41 17 66 47 25 81 60 36 69 53 32
76 59 33 75 59 32 74 58 32 77 58 36
62 47 21 57 42 18 60 45 22 67 47 26
64 48 23 80 54 28 72 50 27 80 53 32
64 44 25 62 41 21 67 52 32 75 59 32
76 60 32 78 61 32 77 61 32 68 53 33
66 50 33 76 56 36 68 52 33 73 56 32
81 61 32 78 62 35 86 64 37 65 51 33
57 41 17 62 44 21 60 44 21 67 52 29
69 52 27 66 47 26 68 51 27 66 50 26
60 45 23 59 42 20 60 44 24 63 47 22
64 47 23 70 51 29 74 50 33 70 50 31
60 44 21 62 46 21 69 52 31 85 60 42
81 59 38 77 60 31 74 57 33 65 51 33
75 59 31 71 56 32 73 56 33 73 56 33
83 62 36 87 65 34 85 62 36 77 57 36
57 40 17 65 43 24 63 44 23 63 48 27
67 48 26 64 48 22 72 51 31 66 51 27
74 52 28 76 55 30 64 47 25 74 52 24
69 50 23 62 44 24 65 44 28 49 43 20
54 36 15 63 39 23 65 48 28 61 43 26
66 47 26 66 46 27 67 47 26 66 51 29
63 48 30 84 61 30 69 52 31 77 56 32
77 57 31 72 51 34 74 55 30 65 45 28
58 41 17 57 40 16 61 44 20 69 51 26
66 49 24 72 52 27 77 53 32 77 53 32
72 52 23 77 52 29 75 52 28 71 50 27
74 55 26 63 46 22 56 39 15 52 34 13
57 40 15 69 53 31 74 54 34 76 55 35
71 52 34 69 52 31 77 57 36 64 48 31
68 52 30 67 51 30 83 57 39 76 56 34
79 56 37 66 47 26 58 40 19 55 39 16
50 32 15 50 32 15 56 37 17 63 47 22
68 49 25 66 48 25 77 53 32 78 56 37
88 62 43 80 63 43 78 57 37 86 64 34
97 66 41 111 74 41 73 58 32 59 43 21
61 45 21 78 54 30 88 60 36 87 57 29
83 55 28 88 56 31 71 51 24 67 50 26
67 51 25 66 50 24 64 45 28 65 46 25
64 49 25 69 49 28 66 46 29 66 45 27
65 41 24 57 41 16 65 49 25 103 71 37
71 55 30 73 56 31 72 55 33 77 60 33
77 60 33 80 60 37 97 70 39 79 58 34
88 71 40 98 76 46 62 46 21 53 46 21
61 45 22 72 52 33 69 50 30 69 50 29
69 50 29 65 45 26 64 41 25 71 51 30
74 50 34 73 49 33 71 50 29 72 48 33
66 48 26 63 45 25 67 48 22 62 45 21
58 42 18 61 45 20 61 45 21 70 53 28
83 63 37 75 55 34 92 66 43 82 59 38
69 53 32 64 48 28 63 48 28 75 56 36
65 50 30 73 55 28 67 50 26 57 41 16
71 56 33 102 71 38 94 67 38 86 64 37
76 57 34 75 58 33 84 63 37 84 63 37
87 62 41 83 62 37 69 52 29 69 53 31
74 57 31 73 58 31 85 61 42 74 58 33
67 41 25 62 42 21 73 55 30 79 60 30
73 57 30 65 49 24 69 53 28 73 57 30
73 57 31 64 50 30 89 62 32 67 52 28
63 47 24 100 70 40 65 46 24 53 50 25
66 50 29 87 61 42 90 69 45 91 69 46
88 65 38 85 61 39 84 60 39 90 70 45
89 64 41 95 67 42 82 59 40 81 59 38
84 62 38 91 65 43 92 66 36 100 70 37
72 52 30 66 50 28 58 41 17 65 49 28
69 53 28 72 57 30 74 58 31 74 55 36
67 51 28 73 56 29 69 51 28 64 49 27
67 51 25 61 47 26 64 44 23 61 41 20
66 50 24 74 59 31 74 58 31 81 61 36
70 54 31 77 56 37 77 59 34 88 63 40
90 65 43 88 63 43 87 68 46 85 64 44
85 69 39 83 61 36 85 61 36 77 58 36
60 40 20 65 47 25 78 57 36 69 52 29
70 55 32 70 54 32 72 56 29 72 55 33
70 54 29 66 50 30 67 52 28 75 59 32
66 51 33 69 52 29 62 41 21 52 50 25
74 58 31 83 59 40 84 62 37 78 57 35
90 63 35 74 56 33 81 59 38 91 64 42
83 65 41 102 69 42 92 66 43 89 65 40
79 58 37 73 54 35 71 56 31 73 54 28
70 52 28 60 43 21 51 34 15 53 36 16
60 44 21 61 44 20 64 48 24 63 47 24
54 36 16 59 45 25 68 49 31 70 52 29
66 47 25 68 48 24 65 46 22 61 44 21
56 39 16 65 48 24 68 53 30 82 59 36
70 55 30 75 55 36 75 55 34 82 58 40
88 67 44 86 66 44 93 74 45 88 64 43
92 67 43 87 62 42 76 58 31 65 46 28
54 36 15 51 36 15 54 39 16 63 43 21
64 45 29 63 44 29 67 51 29 71 51 35
72 56 30 65 49 28 69 52 27 61 45 21
61 45 25 63 43 21 67 50 26 71 58 31
71 50 29 73 56 31 82 61 36 73 57 31
68 53 31 83 59 41 77 56 36 77 56 35
78 58 37 72 53 36 79 57 34 71 53 28
65 49 24 60 41 20 63 41 21 59 43 21
61 47 26 65 49 24 63 42 21 64 48 23
69 50 25 63 47 23 55 37 16 52 35 14
49 31 15 96 67 37 89 68 45 90 69 47
101 70 42 91 65 35 81 62 32 73 56 30
70 54 28 52 35 14 61 41 22 73 51 32
90 64 37 90 63 36 75 52 32 66 50 33
72 55 32 72 53 33 75 55 32 75 50 33
65 49 29 65 44 28 62 42 21 65 40 24
66 47 29 90 62 33 78 57 33 67 51 27
68 52 31 78 57 31 65 49 25 61 45 21
58 41 17 59 42 18 60 44 20 49 31 14
49 31 14 57 40 16 60 44 21 62 45 21
58 37 20 59 42 17 58 42 18 62 42 21
61 46 22 66 50 28 68 54 33 67 49 26
69 46 26 66 42 25 59 39 19 56 40 17
55 37 17 59 41 18 65 46 28 92 70 44
103 77 44 91 71 44 93 66 36 83 67 38
100 69 36 94 73 40 93 73 39 63 47 23
49 32 15 106 71 42 81 57 40 80 59 34
86 61 42 75 57 35 72 56 31 77 57 37
70 55 33 62 42 21 68 50 33 99 83 51
100 76 45 87 64 36 80 59 37 86 61 41
88 63 40 97 66 39 98 68 40 83 58 39
69 53 30 65 45 28 57 41 17 67 50 25
96 67 40 87 64 38 92 66 43 72 55 33
82 62 32 86 64 32 81 62 32 66 49 25
61 45 21 61 45 21 63 46 22 69 53 28
70 53 28 68 52 28 77 56 36 83 67 38
82 66 39 66 49 28 61 44 20 68 52 27
91 64 33 85 67 40 90 70 43 94 73 43
82 66 37 91 65 40 83 68 38 70 55 32
64 47 24 57 41 17 69 54 29 105 74 38
77 58 31 70 53 32 73 57 31 74 55 28
82 62 31 81 60 31 113 76 42 62 46 25
49 32 15 89 64 37 83 62 33 83 60 40
73 53 37 71 54 33 70 54 32 67 52 31
64 49 29 66 41 25 73 54 36 83 66 40
84 59 40 76 56 36 80 59 38 89 64 42
80 59 33 81 60 34 74 58 33 85 61 41
76 59 32 65 46 29 65 41 24 87 64 36
83 61 34 73 57 30 74 58 31 89 65 32
92 67 32 78 60 31 81 58 37 70 54 29
67 47 26 56 39 15 66 49 25 71 55 32
89 65 33 82 62 32 81 60 37 95 69 40
112 75 40 61 44 21 57 40 16 75 59 32
95 67 39 78 56 37 73 54 34 81 60 33
70 52 29 79 58 34 75 60 33 97 81 47
66 50 25 57 41 17 65 48 24 75 52 28
79 61 32 76 59 31 85 63 32 84 63 33
82 62 32 75 58 31 93 66 34 57 40 16
49 32 15 81 61 30 82 62 31 72 55 33
64 48 29 75 58 33 75 59 31 75 59 31
65 50 31 65 41 24 72 56 31 69 53 30
74 58 32 80 58 37 92 65 38 97 66 41
68 53 31 75 56 35 83 59 40 74 56 29
68 52 28 58 40 17 66 49 25 78 57 31
84 56 34 84 62 32 72 56 31 69 53 32
82 60 35 79 59 35 77 57 36 70 54 28
61 44 21 66 50 25 65 49 28 69 53 31
78 59 30 90 65 32 71 57 30 78 57 35
81 58 33 62 45 21 58 41 17 70 54 31
89 64 41 93 65 42 73 54 32 65 51 30
78 58 36 75 56 35 84 62 32 114 75 41
65 48 25 57 41 17 65 48 24 68 51 31
77 59 31 82 62 32 93 66 35 75 58 31
79 60 32 80 61 32 81 61 35 57 41 17
50 32 15 78 58 36 76 56 35 73 58 30
69 53 30 80 60 35 69 54 31 73 57 32
65 50 33 58 41 17 65 48 25 68 52 31
69 52 27 86 64 35 78 58 31 94 68 38
78 61 32 72 55 33 79 59 33 80 61 32
76 57 28 57 41 16 73 57 31 87 60 35
92 63 34 78 59 31 70 54 31 70 53 32
79 56 38 75 55 36 80 60 35 68 51 27
57 41 16 63 47 22 66 49 26 69 54 32
89 62 33 91 66 33 81 61 32 71 56 31
85 63 35 62 46 22 56 40 17 69 53 32
91 66 33 111 74 40 80 60 31 89 62 33
73 58 31 73 55 29 102 70 36 115 75 40
69 53 28 58 41 17 71 54 29 75 59 31
87 64 32 85 63 31 95 68 34 73 58 31
81 61 32 75 58 31 79 59 34 61 41 20
48 30 14 89 63 42 88 65 46 78 59 36
82 63 36 80 65 39 77 58 36 69 53 31
65 50 31 57 40 16 51 33 16 59 41 17
67 44 26 72 49 28 61 44 25 67 48 27
75 51 28 73 52 31 74 57 30 67 50 26
68 46 25 61 43 20 73 57 30 70 56 31
76 58 30 70 55 33 76 60 32 90 66 41
95 66 38 81 59 38 88 63 42 72 56 29
57 41 17 58 42 19 65 48 24 72 56 30
86 63 33 80 61 31 75 57 31 66 50 31
73 52 32 57 40 16 54 37 16 73 57 31
81 61 31 76 58 30 88 64 32 78 59 31
73 56 30 78 58 34 86 63 31 82 61 33
66 50 26 57 40 17 68 53 27 73 56 30
74 57 31 83 63 37 78 59 30 73 57 30
72 55 32 80 61 31 83 65 40 62 41 21
58 40 20 72 56 33 74 56 37 71 50 29
73 51 30 73 52 31 70 50 28 57 42 18
55 40 17 62 45 21 64 49 31 91 71 39
94 72 44 99 67 35 92 64 35 79 63 38
73 50 27 71 49 30 70 48 29 76 53 34
72 50 29 68 48 30 69 52 29 72 55 32
65 49 24 66 50 24 63 48 24 70 50 28
71 53 32 73 49 33 71 50 30 70 50 28
59 42 18 58 40 18 59 42 18 60 43 18
64 47 22 68 47 26 68 43 26 58 42 19
60 40 20 58 42 18 57 41 16 62 48 27
64 48 29 65 50 30 72 53 30 69 53 32
69 53 31 71 52 26 67 51 29 66 50 29
65 47 23 61 43 18 64 43 22 68 43 26
66 42 25 71 50 29 64 47 24 65 49 28
62 44 22 65 45 26 69 53 31 67 42 26
87 63 42 86 61 40 75 55 35 72 55 30
80 55 38 80 55 39 82 59 36 90 63 34
82 59 29 66 42 25 65 50 33 74 57 30
81 60 31 72 56 29 79 60 32 80 61 37
77 56 37 80 59 38 100 69 41 84 67 39
79 59 37 84 61 40 76 57 32 82 61 33
60 44 19 56 39 16 79 56 28 100 67 35
70 54 30 80 59 30 84 59 35 74 56 30
89 65 32 80 60 31 72 55 31 71 55 30
67 51 30 78 56 36 83 61 37 100 68 40
71 54 32 65 45 24 61 41 21 77 54 26
97 74 46 100 69 40 92 65 36 91 68 52
86 69 40 92 65 35 73 57 32 83 62 31
74 55 34 80 60 31 79 57 37 76 56 35
66 41 24 69 51 27 85 65 43 100 73 52
90 70 43 86 60 40 85 61 42 82 57 40
90 69 44 82 57 41 88 61 43 74 58 31
73 57 32 82 58 40 85 63 37 75 56 33
94 66 35 65 41 24 65 49 29 87 62 35
66 50 29 74 50 32 74 59 33 84 61 38
86 65 45 90 63 42 89 64 42 85 61 37
80 56 40 77 57 36 75 55 36 79 60 35
60 41 19 57 41 16 104 72 37 85 63 33
86 63 32 90 66 33 90 66 32 83 63 32
82 61 32 74 58 32 70 54 31 70 54 31
67 52 32 78 54 39 81 61 35 81 58 36
83 61 37 66 41 25 67 50 33 107 78 44
93 68 36 75 56 32 66 52 27 65 48 27
76 57 31 70 55 31 73 56 30 80 61 32
82 61 33 65 52 30 66 52 30 74 56 28
66 48 26 75 59 32 96 75 47 103 71 44
88 64 42 86 62 41 90 67 46 88 62 42
75 58 33 71 54 30 80 60 37 75 59 32
71 55 32 75 59 32 82 63 33 76 60 32
79 61 36 66 41 25 65 50 32 75 57 33
80 56 40 77 57 37 83 63 43 83 62 37
75 59 33 80 59 37 81 58 39 79 58 37
91 64 41 86 60 42 88 62 42 82 61 36
63 42 22 62 42 21 80 61 32 73 58 32
82 62 33 75 60 32 76 59 32 78 58 34
65 50 33 70 54 28 78 59 36 76 59 33
76 56 37 92 71 46 91 66 42 86 68 46
81 58 40 65 40 24 72 56 30 90 70 46
75 55 35 71 56 31 72 52 35 64 49 28
67 52 32 71 55 32 70 54 28 73 57 31
79 58 36 89 62 32 83 61 37 101 68 40
62 42 21 63 46 22 81 60 37 73 58 32
75 58 32 76 59 34 80 59 36 82 61 37
59 44 23 58 42 19 66 47 25 66 51 26
69 52 27 69 49 27 75 52 32 72 52 25
72 50 29 62 41 21 68 49 30 88 64 43
89 64 43 75 55 37 77 55 38 73 57 32
74 59 31 83 62 37 80 58 38 88 62 43
92 70 47 86 61 41 86 63 38 86 64 39
66 49 25 65 44 24 59 43 20 68 51 26
65 45 27 67 47 26 67 52 27 69 50 31
63 47 27 63 47 23 65 44 28 72 51 31
69 51 28 78 58 33 77 56 32 79 59 38
70 53 29 68 46 27 72 55 29 87 63 42
84 59 41 76 59 33 74 54 37 71 54 34
69 54 32 70 55 31 72 56 32 75 58 32
80 61 32 80 61 33 85 62 38 80 61 32
56 40 16 63 47 23 63 48 26 68 51 27
64 48 28 70 47 30 67 51 27 66 50 26
72 51 24 73 52 25 73 51 25 75 53 26
73 51 27 61 43 20 50 30 14 47 30 13
48 29 14 55 40 15 49 40 16 77 56 35
76 51 31 71 49 28 80 59 34 77 56 35
69 48 27 71 48 30 73 52 32 73 49 31
73 50 33 75 52 27 77 58 33 62 46 22
53 36 16 51 33 16 57 40 19 68 50 24
70 50 24 77 52 32 78 57 33 78 61 36
79 61 36 78 57 34 77 52 32 73 49 32
78 54 34 71 46 30 61 45 21 55 38 15
56 39 15 75 56 33 85 60 40 69 51 31
68 52 30 72 52 34 74 53 36 77 56 34
76 57 33 74 55 35 65 51 30 69 54 29
68 52 26 60 46 23 57 39 18 60 39 19
50 32 14 62 45 22 62 45 22 74 51 29
71 49 28 73 52 24 77 53 29 78 54 29
89 63 42 85 60 41 77 60 32 85 64 38
103 71 42 71 54 29 50 45 20 51 33 16
54 39 19 66 46 21 67 52 27 63 46 22
72 51 24 68 47 27 71 51 30 66 47 28
70 49 27 64 45 22 60 45 20 62 44 22
59 43 20 61 44 24 67 51 24 58 40 19
52 35 15 61 43 20 67 51 26 111 74 41
98 67 42 94 68 44 89 62 43 89 64 45
88 64 43 81 59 37 86 60 43 84 59 42
87 67 45 97 76 50 69 53 28 61 42 20
66 49 25 63 46 22 67 46 27 69 49 29
64 47 22 61 45 22 70 48 28 67 48 29
77 54 35 75 54 38 86 60 33 84 57 29
83 56 28 87 58 29 78 55 25 67 51 26
61 44 22 67 45 25 101 69 41 99 69 36
95 65 41 90 66 44 92 66 42 89 63 42
82 58 40 83 58 42 74 58 32 68 53 27
80 60 36 63 50 25 64 43 26 65 50 32
96 68 37 105 78 44 94 73 45 83 63 37
91 67 34 77 61 32 82 61 37 73 57 32
87 65 33 81 61 36 80 60 32 89 65 37
83 63 32 89 66 34 84 63 33 71 55 32
62 42 20 65 45 27 73 57 31 88 62 41
77 56 37 82 61 36 77 57 36 76 56 35
73 56 31 72 57 30 76 56 35 72 56 30
75 57 32 98 74 52 69 52 28 63 41 22
82 59 41 81 57 40 79 57 38 83 59 41
76 58 32 73 57 31 71 53 35 84 61 41
83 61 37 87 62 37 74 55 34 74 55 34
81 61 33 86 64 34 94 67 37 105 78 45
67 51 30 62 46 24 90 63 41 66 49 25
65 49 29 84 64 44 83 57 42 77 56 36
71 55 30 73 52 31 68 51 26 63 47 23
67 51 26 57 51 27 60 39 19 63 44 27
82 58 29 81 62 33 74 56 31 76 59 34
75 58 32 77 58 34 81 62 35 75 59 32
83 62 32 76 59 31 82 62 33 76 59 31
83 62 32 89 65 32 80 61 32 72 57 32
59 40 18 63 51 27 75 59 32 93 66 43
78 59 35 73 58 31 69 54 31 65 50 31
66 51 32 67 50 26 71 55 28 72 55 30
75 52 33 73 56 30 84 60 41 67 45 26
74 58 32 83 57 42 83 61 37 90 63 42
78 58 36 83 62 35 70 52 33 74 57 32
90 66 32 85 64 32 80 61 32 82 61 32
73 57 31 81 61 32 78 61 32 86 63 37
62 45 20 55 50 25 68 53 32 64 48 24
64 48 27 76 55 34 77 57 35 73 58 30
56 39 18 60 45 24 62 48 26 67 48 23
75 53 30 73 49 27 68 48 22 67 47 22
63 44 25 55 40 16 54 37 16 60 44 24
68 53 27 59 44 23 71 50 28 68 49 27
69 53 31 75 56 31 85 60 34 68 53 31
73 56 31 74 58 31 69 52 28 64 44 27
67 47 26 52 43 22 67 52 30 78 57 36
69 53 30 69 53 27 66 47 25 65 41 24
64 45 24 64 47 24 68 53 30 72 49 32
67 47 26 66 46 25 64 47 24 59 41 21
73 56 31 78 58 36 92 66 43 80 59 37
73 56 33 86 62 37 91 65 35 98 68 40
76 56 30 77 58 30 64 50 26 76 58 30
70 54 29 82 61 31 71 53 27 63 49 23
56 39 16 66 46 22 64 47 22 64 45 19
71 48 27 73 53 32 65 46 25 67 46 26
53 36 19 67 51 34 104 77 45 100 69 36
101 70 36 100 69 37 87 61 36 98 68 36
99 69 40 80 57 33 60 44 21 53 36 15
61 41 21 60 44 23 62 43 21 62 42 18
62 44 19 62 43 19 61 43 19 59 42 19
60 42 21 54 37 16 57 41 16 58 39 19
54 38 17 60 40 21 57 38 20 55 40 17
55 40 18 61 40 20 51 46 21 51 32 15
62 40 20 74 50 33 69 48 29 77 56 35
70 51 34 76 57 32 77 62 37 77 55 36
65 45 24 62 45 21 66 49 24 65 49 23
72 52 28 75 56 34 72 55 32 72 53 30
66 49 25 67 50 25 86 58 28 88 61 33
75 56 27 59 43 21 56 39 19 56 40 16
76 56 28 81 60 31 77 57 31 91 63 34
93 66 35 91 65 35 101 68 40 61 40 20
55 45 22 72 56 31 90 64 31 86 63 32
81 61 32 80 61 35 66 52 31 80 61 31
83 62 32 113 74 41 66 50 26 58 42 17
70 53 32 89 67 46 91 72 44 100 68 40
97 65 39 96 64 40 93 65 36 85 63 31
92 64 35 61 44 21 61 41 20 70 54 29
86 69 39 88 63 42 79 57 37 74 53 36
79 57 28 71 54 29 63 48 25 57 40 17
67 50 29 82 59 41 89 62 43 89 63 42
82 59 39 81 61 36 85 66 34 96 67 37
71 52 29 64 40 23 56 39 16 64 48 27
79 58 31 90 64 35 99 68 36 82 61 31
83 63 33 89 65 33 89 65 34 95 68 34
96 74 42 88 70 39 64 47 22 58 40 17
77 59 32 82 61 38 84 60 42 84 62 41
84 61 40 74 55 34 85 62 33 58 41 17
52 45 23 69 53 31 82 61 37 91 64 36
89 63 42 77 56 35 73 56 32 75 58 31
91 64 35 67 48 23 57 41 16 61 41 20
73 58 31 101 71 37 83 64 33 77 58 36
85 62 41 77 57 37 74 55 33 84 62 36
94 67 38 63 46 22 60 41 19 70 54 31
82 63 38 82 61 37 80 58 37 82 60 37
83 62 32 70 55 32 67 46 29 58 41 17
69 53 29 76 58 33 91 66 41 80 56 40
84 62 37 74 58 30 92 65 37 77 60 31
93 66 37 70 53 28 58 41 17 73 57 32
74 59 32 77 59 31 87 65 32 79 60 32
87 64 32 79 60 31 84 62 32 87 64 31
76 56 33 104 73 43 64 48 27 66 46 28
81 57 40 75 56 34 78 57 36 88 65 46
85 60 41 89 66 46 86 61 42 63 41 21
52 49 24 83 62 32 92 66 38 82 60 39
78 58 35 84 59 42 85 61 41 66 50 33
76 57 33 77 58 29 61 44 23 58 41 18
81 61 32 88 64 31 91 66 32 71 55 31
79 58 37 68 53 27 74 55 27 84 62 33
73 57 30 64 48 24 61 41 20 66 49 26
89 63 34 80 61 30 82 62 31 77 60 30
79 60 36 64 48 31 61 46 22 58 41 17
65 49 28 72 53 36 67 53 32 80 60 32
70 56 30 89 64 37 82 61 37 72 55 29
81 55 33 72 55 30 57 41 16 66 49 25
66 50 25 84 62 32 75 58 31 81 61 32
89 65 32 79 58 29 83 62 32 73 56 33
81 61 36 85 60 42 65 49 25 73 58 31
83 58 41 82 61 36 72 57 29 79 57 36
74 57 32 83 62 38 78 57 35 60 41 19
65 46 28 89 63 42 86 61 40 81 59 38
77 58 36 87 67 47 86 60 40 82 58 40
86 61 41 74 54 33 67 47 30 58 40 17
76 59 31 89 65 33 82 62 32 82 61 32
76 59 33 82 61 31 82 61 31 86 63 32
74 58 31 66 49 25 57 41 16 69 53 31
76 57 33 90 64 37 79 60 32 91 65 35
82 61 32 69 53 28 57 40 16 54 37 16
62 46 21 68 53 31 92 65 35 85 63 32
86 63 33 74 57 32 72 56 30 75 56 31
90 63 33 82 61 35 62 42 21 59 42 17
73 57 30 92 66 33 75 59 32 91 67 33
92 67 33 77 60 32 71 54 32 78 58 34
74 57 32 78 57 36 59 43 18 77 57 35
88 63 40 91 65 42 82 61 37 84 61 40
82 58 40 82 59 40 79 64 40 60 41 19
54 47 26 72 52 35 84 58 40 78 56 36
80 56 36 80 62 38 93 69 49 88 63 41
88 62 41 74 57 31 61 45 22 66 46 25
73 56 31 74 57 31 71 56 30 79 59 30
79 59 30 81 61 31 79 59 32 66 51 32
73 57 30 65 49 25 57 41 17 67 51 26
72 57 30 70 54 32 79 60 31 80 60 33
72 54 28 70 53 28 60 43 20 56 39 16
64 48 24 74 58 31 87 64 34 83 63 33
98 68 37 82 62 32 78 60 33 75 58 32
72 57 32 80 61 32 65 48 25 52 35 15
67 49 25 79 60 32 67 51 26 69 52 28
75 52 28 69 48 28 65 50 33 69 52 32
63 43 18 61 46 20 60 40 19 79 58 37
84 63 38 75 59 32 81 60 38 67 50 33
70 54 32 93 73 45 93 72 49 62 41 21
64 45 22 65 46 29 68 48 26 64 45 25
55 47 24 68 44 25 71 54 30 70 54 33
67 43 25 62 46 24 49 32 13 60 43 21
62 42 20 65 50 25 69 53 31 68 53 31
71 55 31 71 52 27 64 45 26 69 47 27
69 52 27 68 51 26 68 46 26 62 45 22
55 38 17 55 38 16 60 43 17 59 44 20
62 47 22 60 43 19 56 39 18 61 43 18
68 51 26 65 47 22 66 50 25 67 50 25
69 52 25 67 51 24 72 52 24 77 57 28
63 46 25 61 46 21 61 44 20 56 37 17
62 41 20 70 52 33 67 50 24 69 49 27
84 57 34 88 67 43 89 71 49 95 75 55
101 74 43 77 56 35 63 46 23 62 45 21
65 47 25 70 50 28 65 50 23 61 45 21
64 45 25 70 49 27 74 50 31 58 41 18
91 65 39 82 58 40 73 57 31 70 55 31
66 54 31 78 57 36 85 63 37 100 69 40
78 57 35 66 42 26 61 41 21 77 53 28
95 73 39 100 69 35 90 71 41 85 69 40
84 68 39 87 60 35 73 56 30 76 55 35
76 56 36 84 60 39 83 61 36 74 56 30
64 47 24 59 38 19 81 62 37 87 69 38
98 67 35 72 56 29 89 65 32 80 60 31
81 61 31 78 58 30 79 59 30 79 59 30
79 59 30 100 68 34 59 43 19 56 40 16
64 48 26 80 59 35 78 58 34 81 61 31
85 63 31 92 65 35 82 63 33 71 56 32
84 60 38 78 59 39 80 59 38 74 58 32
87 62 42 79 58 37 65 46 28 59 44 20
87 56 30 85 59 40 75 56 33 82 60 35
80 59 35 67 50 27 77 55 35 81 61 35
102 69 42 91 65 38 82 57 41 70 54 32
64 48 32 68 55 30 75 56 35 76 58 31
88 62 43 66 41 25 66 50 33 99 82 48
95 68 38 72 55 33 66 49 28 68 51 26
68 52 30 65 51 31 77 58 35 80 60 36
86 61 41 80 59 35 83 60 40 82 64 33
66 50 25 66 48 24 96 74 41 103 72 43
88 62 41 77 58 35 82 61 32 72 55 33
71 56 31 82 62 32 73 58 31 73 58 31
75 58 31 106 71 43 66 49 29 59 41 18
66 50 30 89 62 42 78 58 36 73 57 32
72 55 32 69 54 31 72 56 31 72 55 31
67 51 33 82 60 36 77 58 34 84 60 39
97 64 40 74 58 31 58 40 17 83 62 32
74 56 33 80 59 38 77 57 38 88 62 42
69 52 34 73 56 33 79 58 37 89 62 43
78 59 37 75 55 37 78 58 37 73 58 32
71 55 33 95 68 36 80 61 32 83 63 34
74 54 36 62 41 21 65 50 29 89 65 33
70 56 30 75 56 32 80 60 31 69 53 28
65 50 33 73 56 33 78 57 37 83 58 41
78 58 37 86 70 40 87 61 42 94 73 45
65 48 28 63 44 22 81 60 31 73 57 31
75 55 37 77 59 35 73 58 31 77 57 37
77 58 33 84 63 32 74 58 32 73 58 32
74 55 36 76 58 36 70 55 29 62 41 21
73 57 32 90 70 46 93 66 43 86 61 41
82 58 41 82 61 33 69 53 32 69 53 32
73 57 31 76 57 36 70 55 31 81 60 36
79 56 40 70 53 28 57 41 17 82 62 32
77 58 37 77 59 35 97 66 41 73 57 32
87 65 33 83 62 37 70 55 32 73 53 34
65 49 23 60 44 20 61 46 24 70 50 28
66 50 24 82 55 30 68 51 24 75 54 29
60 44 21 57 41 16 65 50 31 74 58 31
74 58 31 77 59 31 76 59 32 66 51 33
65 50 32 74 54 36 66 50 33 70 54 32
79 60 31 76 61 33 83 62 36 78 56 37
66 46 26 66 44 25 61 45 21 70 54 32
71 54 29 69 49 28 70 53 28 68 52 27
64 47 25 68 49 28 62 46 24 66 46 28
71 50 29 69 53 27 70 50 28 65 41 23
74 58 31 90 70 46 90 65 41 91 65 42
78 57 36 72 53 36 70 55 32 70 55 32
74 58 31 64 49 32 68 53 32 80 58 38
75 58 32 65 48 25 57 41 17 64 45 25
80 55 30 69 49 27 74 52 28 66 46 28
71 50 28 64 49 23 65 48 24 60 45 23
