P3
64 64
255
74 74 74 73 73 73 73 73 73 71 71 71
70 70 70 72 72 72 72 72 72 71 71 71
72 72 72 72 72 72 72 72 72 69 69 69
71 71 71 72 72 72 73 72 72 72 72 73
72 72 73 72 73 73 73 73 74 73 74 74
73 73 74 74 73 72 73 73 74 73 73 74
73 74 74 75 74 73 76 74 74 77 76 74
73 73 73 74 74 74 74 74 74 74 74 74
72 74 75 76 76 76 70 73 75 74 73 73
72 71 71 72 72 71 71 72 73 82 83 83
73 76 77 71 73 75 68 71 72 71 74 75
72 74 76 72 74 77 71 73 72 72 74 77
71 73 75 70 72 72 70 72 72 71 73 72
71 73 72 69 71 74 73 75 77 69 71 74
72 74 73 71 74 72 72 74 73 74 75 74
74 75 74 69 73 77 75 74 73 75 75 75
89 89 89 90 90 90 94 94 94 102 102 102
113 113 113 119 119 119 119 119 119 123 123 123
127 127 127 119 119 119 119 119 119 115 115 115
122 122 122 126 128 129 125 127 129 119 118 116
119 118 116 126 125 124 125 123 122 110 108 107
125 123 121 118 94 75 125 123 121 125 123 121
121 119 117 133 109 85 128 105 78 121 96 74
94 94 94 88 88 88 89 89 89 89 89 89
90 78 70 97 97 97 99 86 73 109 110 111
120 122 124 118 120 122 120 117 114 131 130 128
129 113 104 124 111 98 115 98 90 125 108 100
121 109 96 118 105 90 121 88 53 118 106 90
125 113 100 120 86 54 119 86 54 121 88 52
121 88 53 108 96 79 110 97 86 108 96 80
119 87 51 126 117 87 117 85 52 108 79 48
131 92 57 106 82 62 93 77 53 75 75 75
99 99 99 106 106 106 137 137 137 157 157 157
169 169 169 173 173 173 171 171 171 172 172 172
170 170 170 174 174 174 173 173 173 172 172 172
172 172 172 178 168 156 182 171 160 180 160 136
180 159 136 186 163 138 174 152 130 171 150 128
174 153 131 172 147 122 174 153 130 175 153 131
173 151 129 164 138 112 156 127 104 133 106 83
126 126 126 117 117 117 99 99 99 99 99 99
109 82 64 105 105 105 148 121 91 157 154 151
172 161 147 176 166 154 174 164 152 175 150 128
176 148 122 182 157 129 177 150 124 177 148 124
176 148 123 173 147 118 202 128 77 158 132 97
171 145 117 188 117 70 192 122 71 203 128 78
202 128 77 161 135 100 172 145 119 160 133 97
180 114 63 170 142 118 204 128 79 174 111 64
170 105 61 144 92 48 120 94 67 75 74 74
97 97 97 99 99 99 132 132 132 158 158 158
140 140 140 135 135 135 138 138 138 137 137 137
134 134 134 139 139 139 135 135 135 135 135 135
139 139 139 144 140 137 144 141 137 143 142 140
146 145 143 163 134 113 146 145 143 154 152 150
152 151 149 161 135 111 152 151 149 151 150 148
144 143 141 145 119 96 155 128 105 147 122 97
145 145 145 116 116 116 99 99 99 97 97 97
105 82 65 100 100 100 141 116 92 162 152 140
148 120 94 136 133 129 137 139 141 143 113 93
140 115 92 149 125 96 144 119 95 146 118 98
146 117 98 136 111 84 140 90 53 124 100 67
140 115 91 137 87 50 134 88 46 136 90 48
140 90 53 127 103 71 148 120 100 137 112 85
139 89 52 143 118 85 145 94 51 158 100 58
171 110 61 154 99 57 118 94 67 74 76 78
82 82 82 90 90 90 100 100 100 101 101 101
107 107 107 108 108 108 107 107 107 112 112 112
108 108 108 111 111 111 109 109 109 109 109 109
111 111 111 108 109 110 112 113 114 108 108 109
109 109 110 137 109 83 113 114 114 115 115 116
112 112 113 135 110 84 119 120 120 115 116 116
108 108 109 127 100 74 124 99 74 119 93 70
103 103 103 95 95 95 87 87 87 97 97 97
99 82 58 90 90 90 116 90 67 100 102 104
117 92 72 108 109 110 107 107 107 126 102 77
120 94 71 136 110 79 118 90 69 126 99 73
126 101 76 113 88 69 118 74 41 103 83 54
117 90 69 106 73 38 103 71 35 112 74 36
119 75 41 107 85 54 119 93 70 122 95 73
118 73 40 106 85 57 105 73 36 108 72 40
140 92 51 127 82 43 99 81 55 79 69 55
82 82 82 72 72 72 75 75 75 75 75 75
75 75 75 72 72 72 74 74 74 79 79 79
74 74 74 75 75 75 64 64 64 64 64 64
76 76 76 75 75 74 79 79 79 75 75 74
74 74 74 71 64 54 78 78 78 73 73 73
74 74 74 86 68 51 78 78 77 75 75 75
75 74 74 73 66 56 88 69 52 70 63 54
74 74 74 76 76 76 71 71 71 99 99 99
99 82 58 72 72 72 71 64 54 75 75 74
82 64 47 72 71 71 74 74 74 88 69 52
70 63 54 75 68 59 67 57 50 74 67 57
88 70 52 82 66 41 73 52 23 75 59 33
79 66 57 71 55 29 58 41 17 65 47 23
71 51 22 70 64 54 70 63 53 73 66 56
80 60 31 80 64 40 77 58 30 76 58 29
66 48 20 62 44 17 81 62 33 56 49 40
97 97 97 86 86 86 75 75 75 73 73 73
73 73 73 68 68 68 74 74 74 71 71 71
75 75 75 76 76 76 67 67 67 62 62 62
71 71 71 71 72 72 71 71 71 71 72 72
72 72 73 68 60 52 72 73 73 72 73 73
72 73 73 70 60 48 71 71 72 71 72 72
72 72 73 67 61 51 72 61 50 70 63 54
75 75 75 76 76 76 87 87 87 88 88 88
106 82 65 86 86 87 71 64 54 74 73 73
72 61 50 68 69 69 74 75 75 70 60 49
72 64 55 77 67 60 69 62 52 60 54 43
70 60 48 70 54 28 52 38 15 71 56 30
71 75 79 61 47 23 54 39 16 68 50 22
66 49 22 74 66 57 73 66 57 73 66 57
75 58 30 80 63 39 71 51 23 72 51 24
68 49 21 66 51 23 80 60 31 79 69 55
98 98 98 100 100 100 100 100 100 110 110 110
117 117 117 128 128 128 124 124 124 119 119 119
120 120 120 120 120 120 122 122 122 121 121 121
123 123 123 123 121 119 123 123 121 123 123 121
119 118 116 132 106 82 113 111 109 119 117 115
119 118 116 134 105 85 124 122 120 123 121 119
121 119 118 133 102 83 122 95 74 117 91 68
100 100 100 95 95 95 99 99 99 93 93 93
107 82 65 101 100 98 116 90 67 109 112 114
129 104 80 127 126 125 124 123 122 131 106 82
133 107 83 145 118 92 132 105 82 122 100 69
131 106 82 120 100 72 117 80 43 118 98 69
121 108 93 130 88 47 116 79 42 118 81 42
121 82 44 120 94 71 124 97 74 121 96 68
120 81 43 115 90 70 125 82 43 122 80 42
134 89 48 120 88 50 92 67 33 74 75 77
98 98 98 105 105 105 133 133 133 154 154 154
167 167 167 170 170 170 175 175 175 174 174 174
174 174 174 172 172 172 172 172 172 174 174 174
176 176 176 187 166 142 183 160 136 184 159 133
182 161 137 182 158 132 180 159 135 186 164 141
186 163 138 187 162 137 183 162 139 187 165 142
176 154 132 165 134 116 158 125 108 133 107 85
132 132 132 116 116 116 99 99 99 77 77 77
106 82 65 121 97 75 142 116 93 159 144 130
174 148 125 174 150 127 182 160 135 181 159 133
181 157 131 179 156 130 181 158 131 182 158 132
182 159 132 182 158 131 203 130 80 159 134 103
173 146 116 208 132 81 206 131 81 192 122 72
176 111 64 155 131 98 148 123 97 136 112 78
203 130 80 149 124 91 157 132 102 150 124 90
150 97 54 149 94 53 126 80 44 73 75 78
98 98 98 107 107 107 141 141 141 151 151 151
142 142 142 144 144 144 153 153 153 144 144 144
143 143 143 154 154 154 154 154 154 153 153 153
147 147 147 138 136 135 144 115 94 140 124 115
137 136 134 144 115 95 138 136 134 150 148 146
162 132 111 158 132 107 137 135 133 150 148 146
138 136 134 144 116 95 158 128 109 154 121 104
149 149 149 117 117 117 88 88 88 74 74 74
106 82 65 125 99 75 149 120 96 156 141 127
150 122 96 154 124 102 161 134 111 144 143 142
152 127 102 162 136 112 161 132 112 156 131 107
145 119 95 145 119 95 139 89 51 132 107 80
146 117 98 149 96 54 146 92 54 136 90 48
136 86 51 132 107 78 134 108 85 127 102 74
138 89 51 133 108 80 136 100 67 134 109 82
149 96 53 140 91 51 125 87 53 83 69 49
98 98 98 102 102 102 114 114 114 124 124 124
125 125 125 131 131 131 141 141 141 131 131 131
123 123 123 130 130 130 142 142 142 134 134 134
122 122 122 120 121 121 129 104 80 120 123 125
121 121 122 130 104 81 121 121 122 126 126 127
147 121 96 138 113 81 121 121 122 126 126 127
121 122 122 125 100 76 132 105 83 129 103 80
127 127 127 100 100 100 90 90 90 75 75 75
106 82 65 115 90 70 126 101 76 123 126 128
133 109 80 139 116 82 150 121 99 130 131 131
131 105 82 139 114 89 143 117 90 131 105 81
129 103 80 129 103 80 130 81 48 121 96 73
129 103 79 137 90 49 128 80 48 124 80 43
126 81 45 113 88 57 119 92 71 114 89 57
122 81 41 121 95 73 123 79 38 117 92 64
126 82 45 138 90 49 104 86 58 82 70 53
98 98 98 97 97 97 105 105 105 122 122 122
123 123 123 128 128 128 135 135 135 132 132 132
123 123 123 122 122 122 138 138 138 123 123 123
124 124 124 124 124 124 132 106 83 124 124 123
124 124 124 128 102 79 124 124 124 123 123 123
140 116 83 132 106 83 124 124 124 123 123 123
121 121 121 123 97 74 131 106 82 122 96 73
106 106 106 97 97 97 92 92 92 75 75 75
106 82 65 105 81 64 123 97 74 122 122 122
131 105 83 136 110 82 144 120 91 132 132 132
131 105 82 130 104 81 131 106 81 131 106 83
132 106 83 132 106 83 132 83 49 124 98 75
132 106 83 135 87 49 132 83 49 134 84 50
123 82 41 114 90 57 101 87 78 114 89 57
123 82 41 124 98 74 123 83 42 114 89 55
123 82 41 139 90 50 97 81 58 81 71 58
98 98 98 98 98 98 106 106 106 107 107 107
124 124 124 123 123 123 136 136 136 127 127 127
123 123 123 124 124 124 128 128 128 123 123 123
123 123 123 123 123 123 131 106 83 123 123 123
122 122 122 122 97 74 123 123 123 124 124 124
132 106 82 131 105 82 123 123 123 124 124 124
117 117 117 123 98 74 130 104 81 123 98 74
106 106 106 98 98 98 79 79 79 75 75 75
106 82 65 107 82 65 123 98 74 107 107 107
132 106 82 131 105 82 149 124 98 127 127 127
131 106 82 132 106 83 131 106 83 131 106 82
131 106 82 132 106 83 131 83 49 131 105 82
131 105 82 131 82 49 131 82 48 134 86 49
123 82 41 107 82 65 106 84 70 107 82 65
123 82 42 123 97 74 123 82 41 123 83 43
123 82 41 138 90 50 98 82 58 91 64 28
98 98 98 98 98 98 106 106 106 106 106 106
123 123 123 124 124 124 130 130 130 124 124 124
125 125 125 123 123 123 123 123 123 124 124 124
123 123 123 123 123 123 131 105 82 123 123 123
107 107 107 125 97 72 123 123 123 123 123 123
131 105 82 131 106 82 123 123 123 123 123 123
116 116 116 123 97 74 128 103 79 123 97 74
106 106 106 98 98 98 78 78 78 75 75 75
107 82 65 106 82 65 123 97 74 106 106 106
131 106 82 132 106 82 140 115 82 123 123 123
131 106 83 131 106 82 132 106 83 131 106 82
131 106 83 127 101 78 132 80 46 132 106 82
132 106 83 132 82 49 124 82 42 131 82 49
123 82 41 107 83 66 107 81 64 105 82 64
124 81 40 123 98 74 124 81 41 124 82 41
123 82 41 139 91 50 98 82 58 90 68 35
79 79 79 98 98 98 106 106 106 106 106 106
123 123 123 123 123 123 124 124 124 115 115 115
113 113 113 123 123 123 124 124 124 122 122 122
123 123 123 125 125 125 124 98 74 125 125 125
106 106 106 115 102 90 125 125 125 123 123 123
131 106 82 131 106 82 123 123 123 123 123 123
104 104 104 123 97 74 128 102 79 123 97 74
107 107 107 98 98 98 79 79 79 75 75 75
106 81 64 106 82 65 123 97 74 106 106 106
131 105 82 131 106 82 139 116 84 123 123 123
131 105 82 131 106 82 131 105 82 131 106 83
131 105 82 123 97 74 131 93 65 128 104 82
127 101 78 131 82 49 123 82 41 132 82 49
123 82 41 122 97 74 106 82 65 103 82 62
118 85 49 122 97 74 98 66 32 122 82 43
123 82 41 137 89 49 98 81 56 93 73 40
74 74 74 98 98 98 106 106 106 106 106 106
125 125 125 123 123 123 123 123 123 104 104 104
113 113 113 123 123 123 123 123 123 108 108 108
123 123 123 116 116 116 122 98 75 115 115 115
106 106 106 105 107 109 115 115 115 123 123 123
131 106 82 131 106 82 125 125 125 123 123 123
106 106 106 123 97 74 122 97 73 123 97 74
102 102 102 98 98 98 75 75 75 75 75 75
91 74 50 106 82 65 123 97 74 106 106 106
132 106 83 131 106 82 124 123 121 107 107 107
124 98 75 131 106 82 124 98 75 131 105 81
124 98 75 123 98 74 124 100 77 118 116 115
123 97 74 131 82 49 123 82 41 131 82 49
123 82 41 123 98 74 106 82 65 107 82 66
98 83 59 107 83 66 88 65 32 108 82 64
123 82 41 107 67 32 90 66 34 89 64 31
75 75 75 98 98 98 106 106 106 106 106 106
115 115 115 123 123 123 123 123 123 107 107 107
125 125 125 123 123 123 123 123 123 122 122 122
123 123 123 121 121 121 105 106 107 105 105 105
106 106 106 106 106 105 105 105 105 123 123 123
131 106 82 131 106 82 115 115 115 123 123 123
106 106 106 123 97 74 123 98 74 123 97 74
97 97 97 98 98 98 77 77 77 75 75 75
90 73 49 106 82 65 123 97 74 106 106 106
127 101 78 131 106 82 123 124 124 107 107 107
123 97 74 131 106 82 123 97 74 123 98 76
123 97 74 123 97 74 123 97 73 115 116 116
123 98 74 131 82 49 123 82 41 131 82 49
123 82 41 123 97 74 106 82 65 106 82 65
99 81 58 106 82 65 90 65 32 105 81 65
123 82 41 105 65 31 89 65 32 90 65 33
75 75 75 98 98 98 106 106 106 106 106 106
105 105 105 123 123 123 123 123 123 122 122 122
123 123 123 123 123 123 123 123 123 123 123 123
125 125 125 123 123 123 116 101 88 106 106 106
106 106 106 106 106 106 106 106 106 123 123 123
131 105 82 131 105 82 105 105 105 123 123 123
107 107 107 123 97 74 123 97 74 123 97 74
98 98 98 98 98 98 75 75 75 75 75 75
90 73 50 106 82 65 123 98 74 106 106 106
122 97 74 131 105 82 123 123 123 122 122 122
123 97 74 131 106 82 123 97 74 107 105 104
123 97 74 123 97 74 123 97 74 107 107 106
123 97 74 131 82 49 123 82 41 131 82 49
123 82 41 123 97 74 106 82 65 106 82 65
106 82 65 107 82 65 89 65 32 115 89 69
123 82 41 105 65 31 89 65 32 89 65 32
74 74 74 98 98 98 106 106 106 106 106 106
106 106 106 123 123 123 123 123 123 107 107 107
123 123 123 123 123 123 123 123 123 107 107 107
114 114 114 106 106 106 116 101 87 105 105 105
106 106 106 106 106 106 106 106 106 125 125 125
132 106 83 132 106 83 106 106 106 125 125 125
124 124 124 123 97 74 123 97 74 124 98 75
98 98 98 98 98 98 74 74 74 74 74 74
91 74 49 106 82 66 122 97 74 106 106 106
123 97 74 131 105 82 123 123 123 107 107 107
123 97 74 131 105 82 124 98 75 105 106 106
123 97 74 123 97 74 123 97 74 114 114 114
123 97 74 131 82 48 123 82 41 132 82 49
122 81 41 124 99 75 106 82 65 106 82 65
107 81 65 106 81 65 89 65 32 125 99 75
123 82 41 107 65 31 89 65 32 90 66 33
75 75 75 97 97 97 97 97 97 107 107 107
108 108 108 124 124 124 124 124 124 107 107 107
123 123 123 124 124 124 124 124 124 107 107 107
105 105 105 108 108 108 105 108 110 108 108 108
107 107 107 107 107 107 107 107 107 116 116 116
126 100 78 126 100 78 107 107 107 114 114 114
116 116 116 124 97 75 124 97 75 117 91 71
97 97 97 96 96 96 75 75 75 76 76 76
88 73 50 108 83 64 107 82 65 107 107 107
124 98 75 132 106 83 124 124 124 107 107 107
124 98 75 125 99 76 117 92 71 108 108 108
124 97 75 124 97 75 124 97 75 106 106 106
124 97 75 123 84 43 124 81 41 129 82 48
106 66 32 116 90 70 108 83 67 108 83 67
104 84 63 108 84 67 91 66 33 116 91 72
122 83 43 97 65 31 90 65 32 87 64 32
73 73 73 75 75 75 77 77 77 88 88 88
86 86 86 87 87 87 87 87 87 86 86 86
104 103 103 96 96 96 89 89 89 88 88 88
102 102 102 92 92 91 88 88 87 95 95 95
88 88 88 92 92 91 88 88 88 87 87 87
109 83 64 109 83 64 88 88 88 97 97 97
87 87 87 98 78 59 98 78 59 96 76 57
75 75 75 78 78 77 73 73 73 66 66 66
59 58 56 75 67 55 90 74 51 89 88 88
95 72 56 96 72 56 88 88 88 87 87 87
96 72 56 95 72 56 92 69 54 86 86 86
98 78 59 98 79 59 98 79 59 89 89 89
98 78 59 94 73 40 99 66 32 92 66 34
90 65 32 99 80 62 100 78 55 100 78 56
89 69 48 96 71 52 82 62 32 95 70 51
96 75 39 89 67 34 85 64 34 52 43 18
59 59 59 56 56 56 64 64 64 62 62 62
53 53 53 53 53 53 52 53 54 52 53 54
62 63 64 60 61 61 60 61 62 64 65 66
67 67 67 63 64 64 64 65 65 64 64 65
64 64 65 61 62 62 64 64 65 60 61 61
71 63 51 71 62 51 64 64 65 67 68 68
61 61 62 54 54 52 54 54 52 54 54 53
58 58 59 62 63 63 58 59 59 56 56 57
47 48 48 48 50 53 53 53 52 62 62 62
47 46 45 48 46 45 51 50 50 51 51 50
47 45 44 48 46 45 53 51 49 55 54 54
55 54 52 53 52 49 53 52 49 63 62 62
54 54 52 51 38 13 43 32 14 48 35 11
48 36 12 54 53 49 56 51 38 59 52 36
50 37 13 56 47 33 47 34 11 56 48 34
57 48 34 64 47 23 55 42 18 44 39 15
72 72 72 67 67 67 65 65 65 65 65 65
73 73 73 73 73 73 76 73 70 76 73 70
77 73 70 78 75 72 74 71 68 75 72 69
75 73 72 75 73 72 75 73 72 79 77 76
76 75 73 74 73 71 77 75 72 75 74 71
73 72 73 73 73 73 76 74 73 75 73 72
74 72 71 76 74 73 76 75 74 76 75 74
76 74 72 73 72 70 76 74 72 76 74 73
70 66 65 67 66 64 66 65 64 68 66 64
65 64 64 62 64 67 64 66 67 64 66 67
58 60 63 62 64 67 61 63 66 65 67 68
60 62 65 63 65 68 63 65 68 64 65 67
95 69 42 92 63 29 90 60 29 76 53 26
78 52 23 93 76 59 86 74 69 88 68 51
76 61 37 78 60 35 71 54 27 78 60 33
78 60 33 73 52 24 69 51 24 71 54 26
91 91 91 98 98 98 102 102 102 102 102 102
104 104 104 104 104 104 125 113 103 125 113 103
122 110 100 126 115 104 121 109 99 121 109 99
121 97 75 124 101 80 124 101 80 130 105 83
127 104 83 128 105 85 132 110 85 136 114 85
129 106 85 130 105 82 128 104 82 128 105 84
125 101 79 129 104 82 125 100 78 125 100 78
124 101 80 124 101 81 124 101 80 123 100 80
110 101 75 126 101 80 126 101 79 122 98 78
132 108 81 119 106 90 114 102 92 114 102 92
120 107 91 119 107 91 111 99 83 113 102 92
118 106 90 118 106 90 118 106 90 114 103 93
126 97 71 156 98 56 156 98 57 149 102 66
156 99 55 138 94 66 113 87 61 106 84 63
103 86 62 109 82 64 103 75 44 130 86 46
131 85 44 131 86 45 125 89 61 137 87 49
103 103 103 105 105 105 107 107 107 107 107 107
114 114 114 115 115 115 123 125 127 123 125 127
107 109 111 123 125 127 107 109 111 107 109 110
124 98 74 108 106 105 109 107 106 132 106 82
114 112 111 126 124 123 124 122 121 125 123 121
125 123 121 132 106 82 124 98 75 108 106 105
125 99 75 124 98 75 123 97 74 123 97 74
108 106 105 108 106 105 108 106 105 109 107 106
104 84 65 124 98 75 126 100 76 107 105 103
116 90 69 127 100 73 109 106 102 110 107 103
135 107 81 136 108 82 129 101 74 110 107 103
129 101 74 127 100 73 129 101 74 106 103 99
115 90 71 134 89 48 134 88 47 115 76 40
114 76 42 115 85 65 99 83 57 97 81 57
92 72 51 102 83 62 91 65 32 105 83 61
100 67 34 100 67 33 102 74 47 111 83 45
97 97 97 107 107 107 104 104 104 102 102 102
98 98 98 104 104 104 124 123 123 124 124 123
106 105 105 123 123 123 106 105 105 98 98 98
124 97 74 98 99 99 101 102 102 131 105 82
118 119 119 113 114 114 124 124 125 123 124 125
122 123 123 131 106 83 123 97 74 106 106 107
122 97 74 123 97 74 123 98 75 123 98 75
98 98 99 98 98 99 98 98 99 101 102 102
107 81 65 124 98 75 112 88 68 97 98 98
114 89 69 121 96 74 100 101 102 104 105 106
131 105 83 126 101 79 121 96 74 105 105 106
114 89 70 122 96 74 114 89 70 96 96 97
105 80 64 96 80 47 103 65 30 84 63 31
85 63 31 104 81 65 97 81 57 106 82 64
88 66 47 86 66 45 96 80 56 97 81 57
87 65 32 87 65 32 87 63 30 94 81 49
97 97 97 102 102 102 104 104 104 97 97 97
101 101 101 108 108 108 122 122 122 121 121 121
105 105 105 102 102 102 105 105 105 105 105 105
122 97 75 105 105 105 97 97 97 125 97 73
115 115 115 112 112 112 122 122 122 122 122 122
106 106 106 132 105 81 125 97 73 105 105 105
125 97 73 125 97 74 125 97 73 125 97 74
98 97 97 98 97 97 98 97 97 97 97 97
107 83 65 117 91 71 116 91 71 100 100 100
118 92 72 127 100 76 102 102 101 109 108 108
130 103 80 132 105 82 126 99 76 108 108 108
106 81 65 126 99 76 106 81 65 100 100 100
109 83 65 99 83 47 108 66 31 92 66 33
92 66 33 108 82 66 91 74 50 99 82 59
81 56 40 81 56 40 83 59 42 98 81 57
90 65 32 90 65 32 89 66 33 98 83 49
76 76 76 78 78 78 88 88 88 80 80 80
80 80 80 88 88 88 81 81 81 84 84 84
83 83 83 81 81 81 80 80 80 80 80 80
81 79 78 80 80 80 79 79 79 95 83 74
78 78 78 82 82 82 81 81 80 81 80 80
79 79 79 93 80 70 92 79 71 80 80 80
92 79 70 92 79 69 92 80 69 91 78 68
79 79 79 79 79 79 79 79 79 78 78 78
96 78 56 97 77 58 110 88 65 84 84 84
97 78 59 106 85 63 83 83 83 83 83 83
110 89 65 111 91 66 110 89 66 87 86 85
102 81 61 110 89 65 103 82 62 87 87 85
91 78 68 87 78 60 91 62 32 82 62 33
82 61 33 103 82 61 89 73 49 95 78 54
85 61 37 83 59 42 82 57 41 93 76 53
89 65 33 90 65 33 96 65 33 93 73 41
73 73 73 73 73 73 70 70 70 70 70 70
69 69 69 68 68 68 68 68 68 71 71 71
72 72 72 74 74 74 72 72 72 72 72 72
71 71 71 71 71 71 72 71 71 70 72 74
71 72 72 71 71 72 72 72 72 72 73 73
72 72 73 85 71 50 70 72 74 72 72 73
70 73 75 90 75 55 98 80 63 92 78 56
75 75 75 75 75 75 73 73 73 78 78 78
91 71 50 72 72 70 88 68 48 67 67 67
68 67 65 75 74 73 66 67 68 73 73 73
99 80 58 98 78 58 89 73 50 90 74 51
93 77 52 94 74 55 87 71 46 85 69 48
90 73 56 74 55 42 74 54 37 91 75 50
80 57 39 87 71 47 98 77 55 86 70 47
83 59 39 90 72 48 82 58 40 86 61 42
95 77 52 91 76 52 84 57 38 93 76 51
89 89 89 90 90 90 91 91 91 99 99 99
114 114 114 112 112 112 112 112 112 123 123 123
119 119 119 121 121 121 126 126 126 121 121 121
126 127 129 126 128 130 126 127 129 120 118 116
120 118 116 127 125 124 125 123 122 111 109 107
125 123 122 119 94 73 125 123 121 125 123 122
121 119 117 136 110 85 132 106 78 124 97 74
95 95 95 95 95 95 89 89 89 98 98 98
107 83 66 99 99 100 116 91 70 111 112 113
122 124 127 127 128 130 126 123 120 133 132 130
146 116 97 138 112 88 131 102 86 139 110 89
135 110 85 125 99 76 126 81 44 124 99 74
133 107 86 121 82 44 120 81 45 135 90 49
133 88 48 119 99 70 120 95 68 120 99 71
131 86 47 141 117 85 129 84 47 120 77 42
143 94 53 118 87 50 93 72 44 98 83 50
99 99 99 106 106 106 138 138 138 158 158 158
169 169 169 174 174 174 172 172 172 172 172 172
174 174 174 180 180 180 181 181 181 181 181 181
182 171 160 178 168 156 182 171 160 181 160 136
180 159 136 186 163 138 174 152 130 171 150 128
174 153 131 172 147 123 174 153 130 175 153 131
173 151 129 163 137 113 155 126 104 132 106 83
116 116 116 116 116 116 99 99 99 98 98 98
106 82 65 105 105 105 146 121 91 157 154 150
172 160 147 175 165 153 173 163 151 174 150 128
173 148 123 180 157 131 175 149 125 175 148 125
174 148 124 172 148 120 201 129 79 157 133 100
170 146 119 187 118 72 192 123 72 200 128 79
200 129 78 159 135 101 170 145 122 158 133 99
178 114 64 168 142 118 202 129 80 173 111 65
168 104 61 142 91 50 120 95 69 97 81 48
97 97 97 99 99 99 131 131 131 158 158 158
140 140 140 135 135 135 138 138 138 137 137 137
143 143 143 149 149 149 158 158 158 153 153 153
144 141 137 144 140 137 144 141 137 143 142 140
146 145 143 163 134 113 146 145 143 154 152 150
152 151 149 161 135 111 152 151 149 151 150 148
144 143 141 145 119 96 155 128 105 148 122 97
117 117 117 116 116 116 99 99 99 98 98 98
106 82 65 100 100 100 141 116 92 162 152 140
148 120 94 136 133 129 138 139 141 143 113 93
141 116 91 149 125 95 144 120 95 146 118 98
147 117 97 136 111 83 141 90 52 125 100 67
140 115 91 137 87 49 134 88 46 137 90 48
141 90 52 128 103 70 148 119 99 137 112 85
139 89 52 143 118 85 145 94 51 158 100 58
171 110 61 155 99 57 118 94 67 98 84 50
82 82 82 90 90 90 100 100 100 101 101 101
107 107 107 108 108 108 107 107 107 112 112 112
108 108 108 122 122 122 127 127 127 121 121 121
112 113 114 108 109 110 112 113 114 108 108 109
109 109 110 137 109 83 113 114 114 115 115 116
112 112 113 135 110 84 119 120 120 115 116 116
108 108 109 127 100 74 124 99 74 119 93 70
88 88 88 95 95 95 87 87 87 97 97 97
99 82 58 90 90 90 116 90 67 100 102 104
117 92 72 108 109 110 107 107 107 126 102 77
120 94 71 136 110 79 118 90 69 126 99 73
126 101 76 113 88 69 118 74 41 103 83 54
117 90 69 106 73 38 103 71 35 112 74 36
119 75 41 107 85 54 119 93 70 122 95 73
118 73 40 106 85 57 105 73 36 108 72 40
140 92 51 127 82 43 99 81 55 91 72 40
82 82 82 72 72 72 75 75 75 75 75 75
75 75 75 72 72 72 74 74 74 79 79 79
75 75 75 85 85 85 84 84 84 85 85 85
79 79 79 75 75 74 79 79 79 75 75 74
74 74 74 71 64 54 78 78 78 73 73 73
74 74 74 86 68 51 78 78 77 75 75 75
75 74 74 73 66 56 88 69 52 70 63 54
72 72 72 76 76 76 71 71 71 99 99 99
99 82 58 72 72 72 71 64 54 75 75 74
82 64 47 72 71 71 74 74 74 88 69 52
70 63 54 75 68 59 67 57 50 74 67 57
88 70 52 82 66 41 73 52 23 75 59 33
79 66 57 71 55 29 58 41 17 65 47 23
71 51 22 70 64 54 70 63 53 73 66 56
80 60 31 80 64 40 77 58 30 76 58 29
66 48 20 62 44 17 81 62 33 52 41 16
97 97 97 86 86 86 75 75 75 73 73 73
73 73 73 68 68 68 74 74 74 71 71 71
71 71 71 70 70 70 73 73 73 70 70 69
71 71 70 71 72 72 71 71 71 71 72 72
72 72 73 68 60 52 72 73 73 72 73 73
72 73 73 70 60 48 71 71 72 71 72 72
72 72 73 67 61 51 72 61 50 70 63 54
87 87 87 76 76 76 87 87 87 88 88 88
106 82 65 86 86 87 71 64 54 74 73 73
72 61 50 68 69 69 74 75 75 70 60 49
72 64 55 77 67 60 69 62 52 60 54 43
70 60 48 70 54 28 52 38 15 71 56 30
71 75 79 61 47 23 54 39 16 68 50 22
66 49 22 74 66 57 73 66 57 73 66 57
75 58 30 80 63 39 71 51 23 72 51 24
68 49 21 66 51 23 80 60 31 91 72 40
98 98 98 100 100 100 100 100 100 110 110 110
117 117 117 128 128 128 124 124 124 119 119 119
123 123 123 125 125 125 133 133 133 122 124 126
122 124 125 123 121 119 123 123 121 123 123 121
119 118 116 132 106 82 113 111 109 119 117 115
119 118 116 134 105 85 124 122 120 123 121 119
121 119 118 133 102 83 122 95 74 117 91 68
98 98 98 95 95 95 99 99 99 93 93 93
107 82 65 101 100 98 116 90 67 109 112 114
129 104 80 127 126 125 124 123 122 131 106 82
133 107 83 145 118 92 132 105 82 122 100 69
131 106 82 120 100 72 117 80 43 118 98 69
121 108 93 130 88 47 116 79 42 118 81 42
121 82 44 120 94 71 124 97 74 121 96 68
120 81 43 115 90 70 125 82 43 122 80 42
134 89 48 120 88 50 92 67 33 98 84 50
98 98 98 105 105 105 133 133 133 154 154 154
167 167 167 170 170 170 175 175 175 174 174 174
175 175 175 190 190 190 191 191 191 184 173 161
184 173 161 187 166 142 183 160 136 184 159 133
182 161 137 182 158 132 180 159 135 186 164 141
186 163 138 187 162 137 183 162 139 187 165 142
176 154 132 165 134 116 158 125 108 133 107 85
115 115 115 116 116 116 99 99 99 77 77 77
106 82 65 121 97 75 142 116 93 159 144 130
174 148 125 174 150 127 182 160 135 181 159 133
181 157 131 179 156 130 181 158 131 182 158 132
182 159 132 182 158 131 203 130 80 159 134 103
173 146 116 208 132 81 206 131 81 192 122 72
176 111 64 155 131 98 148 123 97 136 112 78
203 130 80 149 124 91 157 132 102 150 124 90
150 97 54 149 94 53 126 80 44 98 83 50
98 98 98 107 107 107 141 141 141 151 151 151
142 142 142 144 144 144 153 153 153 144 144 144
144 144 144 153 153 153 149 149 149 139 135 132
139 135 132 138 136 135 144 115 94 140 124 115
137 136 134 144 115 95 138 136 134 150 148 146
162 132 111 158 132 107 137 135 133 150 148 146
138 136 134 144 116 95 158 128 109 154 121 104
117 117 117 117 117 117 88 88 88 74 74 74
106 82 65 125 99 75 149 120 96 156 141 127
150 122 96 154 124 102 161 134 111 144 143 142
152 127 102 162 136 112 161 132 112 156 131 107
145 119 95 145 119 95 139 89 51 132 107 80
146 117 98 149 96 54 146 92 54 136 90 48
136 86 51 132 107 78 134 108 85 127 102 74
138 89 51 133 108 80 136 100 67 134 109 82
149 96 53 140 91 51 125 87 53 92 72 39
98 98 98 102 102 102 114 114 114 124 124 124
125 125 125 131 131 131 141 141 141 131 131 131
127 127 127 134 134 134 126 126 126 120 121 122
120 121 122 120 121 121 129 104 80 120 123 125
121 121 122 130 104 81 121 121 122 126 126 127
147 121 96 138 113 81 121 121 122 126 126 127
121 122 122 125 100 76 132 105 83 129 103 80
100 100 100 100 100 100 90 90 90 75 75 75
106 82 65 115 90 70 126 101 76 123 126 128
133 109 80 139 116 82 150 121 99 130 131 131
131 105 82 139 114 89 143 117 90 131 105 81
129 103 80 129 103 80 130 81 48 121 96 73
129 103 79 137 90 49 128 80 48 124 80 43
126 81 45 113 88 57 119 92 71 114 89 57
122 81 41 121 95 73 123 79 38 117 92 64
126 82 45 138 90 49 104 86 58 93 74 40
98 98 98 97 97 97 105 105 105 122 122 122
123 123 123 128 128 128 135 135 135 132 132 132
131 131 131 131 131 131 123 123 123 124 124 124
124 124 124 124 124 124 132 106 83 124 124 123
124 124 124 128 102 79 124 124 124 123 123 123
140 116 83 132 106 83 124 124 124 123 123 123
121 121 121 123 97 74 131 106 82 122 96 73
97 97 97 97 97 97 91 91 91 75 75 75
106 82 65 105 81 64 123 97 74 122 122 122
131 105 83 136 110 82 144 120 91 132 132 132
131 105 82 130 104 81 131 106 81 131 106 83
132 106 83 132 106 83 132 83 49 124 98 75
132 106 83 135 87 49 132 83 49 134 84 50
123 82 41 114 90 57 101 87 78 114 89 57
123 82 41 124 98 74 123 83 42 114 89 55
123 82 41 139 90 50 97 81 58 94 75 42
98 98 98 98 98 98 106 106 106 107 107 107
124 124 124 123 123 123 139 139 139 128 128 128
127 127 127 132 132 132 124 124 124 123 123 123
123 123 123 123 123 123 131 106 83 123 123 123
122 122 122 122 97 74 123 123 123 124 124 124
132 106 82 131 105 82 123 123 123 124 124 124
117 117 117 123 98 74 130 104 81 123 98 74
98 98 98 98 98 98 80 80 80 75 75 75
106 82 65 107 82 65 123 98 74 107 107 107
132 106 82 131 105 82 149 123 98 128 128 128
131 106 82 132 106 83 131 106 83 131 106 82
131 106 82 132 106 83 131 83 49 131 105 82
131 105 82 131 82 49 131 82 48 134 86 49
123 82 41 107 82 65 106 84 70 107 82 65
123 82 42 123 97 74 123 82 41 123 83 42
123 82 41 138 90 50 99 82 58 89 63 31
98 98 98 98 98 98 106 106 106 106 106 106
123 123 123 124 124 124 132 132 132 123 123 123
126 126 126 132 132 132 123 123 123 123 123 123
123 123 123 123 123 123 131 105 82 123 123 123
107 107 107 125 97 72 123 123 123 123 123 123
131 105 82 131 106 82 123 123 123 123 123 123
116 116 116 123 97 74 128 103 79 123 97 74
98 98 98 98 98 98 81 81 81 75 75 75
106 82 65 106 82 65 123 97 74 106 106 106
131 106 82 132 106 82 140 116 83 123 123 123
131 106 82 131 106 82 131 106 82 131 106 82
131 106 82 127 101 78 131 80 46 131 106 83
132 106 83 132 82 49 124 82 42 131 82 49
123 82 41 107 83 66 107 81 64 105 82 64
124 81 40 123 97 74 123 81 41 123 82 41
123 82 41 138 90 50 98 82 58 90 65 33
98 98 98 98 98 98 106 106 106 106 106 106
123 123 123 123 123 123 131 131 131 124 124 124
125 125 125 131 131 131 123 123 123 123 123 123
123 123 123 123 123 123 124 98 75 123 123 123
106 106 106 115 102 90 123 123 123 123 123 123
131 106 82 131 106 82 123 123 123 123 123 123
104 104 104 123 97 74 128 102 79 123 97 74
98 98 98 98 98 98 79 79 79 75 75 75
106 82 65 106 82 65 123 97 74 106 106 106
131 106 82 131 106 82 139 115 82 124 124 124
131 106 82 131 106 82 131 106 82 131 106 82
131 106 82 123 97 74 131 94 66 131 106 82
127 101 78 131 82 49 123 82 41 132 82 49
122 82 41 122 97 74 106 82 65 104 82 62
119 86 49 123 97 74 99 66 32 123 82 41
123 82 41 138 90 50 98 82 58 89 65 32
98 98 98 98 98 98 106 106 106 106 106 106
123 123 123 123 123 123 124 124 124 123 123 123
123 123 123 128 128 128 123 123 123 125 125 125
123 123 123 123 123 123 123 97 74 123 123 123
106 106 106 105 107 109 125 125 125 123 123 123
131 106 82 131 106 82 125 125 125 123 123 123
106 106 106 123 97 74 122 97 73 123 97 74
98 98 98 98 98 98 78 78 78 75 75 75
107 82 65 106 82 65 123 97 74 106 106 106
131 106 82 131 106 82 132 106 82 123 123 123
131 106 82 131 106 82 131 106 82 131 106 82
131 106 82 123 98 74 131 106 83 131 106 83
123 97 74 131 82 49 123 82 41 131 82 49
127 82 45 123 98 74 106 82 65 103 82 62
113 90 58 123 97 74 101 65 31 122 81 41
123 82 41 140 91 50 98 82 58 89 65 32
97 97 97 98 98 98 106 106 106 106 106 106
123 123 123 123 123 123 123 123 123 124 124 124
123 123 123 124 124 124 123 123 123 115 115 115
123 123 123 124 124 124 123 97 74 123 123 123
106 106 106 106 106 105 115 115 115 123 123 123
131 106 82 131 106 82 114 114 114 123 123 123
106 106 106 123 97 74 123 98 74 123 97 74
98 98 98 98 98 98 78 78 78 75 75 75
106 82 65 106 82 65 123 97 74 106 106 106
131 106 82 131 106 82 131 105 82 124 124 124
131 106 82 131 106 82 131 106 82 131 106 82
131 106 82 123 97 74 132 83 51 132 104 79
123 98 74 131 82 49 123 82 41 131 82 48
132 82 49 123 97 74 106 82 65 98 82 57
114 89 57 123 97 74 93 65 32 106 65 29
123 82 41 131 86 45 98 81 57 89 65 32
82 82 82 98 98 98 106 106 106 106 106 106
123 123 123 123 123 123 123 123 123 122 122 122
123 123 123 123 123 123 123 123 123 104 104 104
123 123 123 122 122 122 123 97 74 123 123 123
106 106 106 106 106 106 104 104 104 123 123 123
131 106 82 131 106 82 112 112 112 123 123 123
106 106 106 123 97 74 123 97 74 123 97 74
98 98 98 98 98 98 79 79 79 75 75 75
99 82 58 106 82 65 123 97 74 106 106 106
131 106 82 131 106 82 131 106 83 122 122 122
131 106 82 131 106 82 131 106 82 131 106 82
131 106 82 123 97 74 127 81 42 127 114 103
123 97 74 131 82 49 123 82 41 132 84 51
131 82 49 123 97 74 106 82 65 106 82 65
114 90 56 123 97 74 96 65 32 106 73 48
123 82 41 122 81 41 99 83 60 89 65 32
81 81 81 98 98 98 106 106 106 106 106 106
123 123 123 123 123 123 123 123 123 107 107 107
123 123 123 123 123 123 123 123 123 107 107 107
123 123 123 108 108 108 123 97 74 125 125 125
106 106 106 106 106 106 108 108 108 123 123 123
131 106 82 131 106 82 109 109 109 123 123 123
106 106 106 123 97 74 123 97 74 123 97 74
98 98 98 98 98 98 80 80 80 75 75 75
98 81 57 106 82 65 123 97 74 106 106 106
131 106 82 131 106 82 131 105 82 107 107 107
131 105 82 131 106 82 132 106 83 131 106 82
131 105 82 123 97 74 123 90 57 122 125 126
123 97 74 131 82 49 123 82 41 131 104 80
132 83 49 123 97 74 106 82 65 107 82 65
110 86 61 125 99 75 88 65 32 107 83 68
123 82 41 123 82 41 94 73 45 89 65 32
82 82 82 98 98 98 106 106 106 106 106 106
123 123 123 123 123 123 123 123 123 106 106 106
123 123 123 123 123 123 123 123 123 122 122 122
124 124 124 121 121 121 123 97 74 113 113 113
106 106 106 106 106 106 116 116 116 123 123 123
131 106 82 131 106 82 106 106 106 123 123 123
106 106 106 123 97 74 123 97 74 123 97 74
98 98 98 98 98 98 84 84 84 75 75 75
99 82 58 106 82 65 123 97 74 106 106 106
131 106 82 131 106 82 131 106 85 106 106 106
132 106 83 131 106 82 130 105 81 131 106 82
132 106 83 123 97 74 123 99 77 125 125 124
123 97 74 131 82 49 123 82 41 125 99 76
130 81 48 123 97 74 106 82 65 106 82 65
105 81 65 115 90 70 90 65 32 106 82 65
123 82 41 123 82 41 89 64 30 90 67 35
78 78 78 98 98 98 106 106 106 106 106 106
123 123 123 123 123 123 123 123 123 106 106 106
123 123 123 123 123 123 123 123 123 107 107 107
121 121 121 107 107 107 123 97 74 115 115 115
106 106 106 106 106 106 113 113 113 123 123 123
131 106 82 131 106 82 104 104 104 123 123 123
106 106 106 123 97 74 123 97 74 123 97 74
98 98 98 98 98 98 88 88 88 75 75 75
94 78 54 106 82 65 123 97 74 106 106 106
131 105 82 131 106 82 124 122 121 106 106 106
127 101 78 131 106 82 127 101 78 131 106 83
127 101 78 123 97 74 123 97 74 113 113 113
123 97 74 131 82 49 123 82 41 127 101 78
108 67 33 123 97 74 106 82 65 106 82 65
99 82 58 105 81 64 89 65 32 106 82 65
123 82 41 122 81 41 90 65 33 93 73 40
74 74 74 98 98 98 106 106 106 106 106 106
125 125 125 123 123 123 123 123 123 106 106 106
123 123 123 123 123 123 123 123 123 107 107 107
116 116 116 107 107 107 123 98 75 116 116 116
106 106 106 106 106 106 105 105 105 123 123 123
131 106 82 131 106 82 116 116 116 123 123 123
106 106 106 123 97 74 123 97 74 123 97 74
98 98 98 98 98 98 73 73 73 75 75 75
89 73 49 106 82 65 123 97 74 106 106 106
132 106 83 131 106 82 123 124 124 106 106 106
123 97 74 131 106 82 124 98 75 131 105 81
123 97 74 123 97 74 123 97 74 115 115 115
123 97 74 131 82 49 123 82 41 122 96 73
122 81 40 123 97 74 106 82 65 106 82 65
98 82 57 107 82 65 89 65 32 107 82 65
123 82 41 106 66 32 89 65 32 89 64 31
75 75 75 98 98 98 106 106 106 106 106 106
115 115 115 123 123 123 123 123 123 107 107 107
123 123 123 123 123 123 123 123 123 123 123 123
124 124 124 123 123 123 105 106 107 104 104 104
106 106 106 106 106 106 106 106 106 123 123 123
131 106 82 131 106 82 116 116 116 123 123 123
106 106 106 123 97 74 123 97 74 123 97 74
98 98 98 98 98 98 78 78 78 75 75 75
90 74 50 106 82 65 123 97 74 106 106 106
127 101 78 131 106 82 123 123 123 107 107 107
123 98 74 131 106 82 123 97 74 123 98 76
123 98 74 123 97 74 123 97 74 116 116 116
123 97 74 131 82 49 123 82 41 129 103 79
123 82 41 123 97 74 106 82 65 106 82 65
99 82 58 106 82 65 89 65 32 105 81 64
123 82 41 105 65 31 89 65 32 90 65 33
75 75 75 98 98 98 106 106 106 106 106 106
105 105 105 123 123 123 123 123 123 122 122 122
123 123 123 123 123 123 123 123 123 123 123 123
125 125 125 123 123 123 116 101 88 106 106 106
106 106 106 106 106 106 106 106 106 123 123 123
131 105 82 131 105 82 104 104 104 123 123 123
107 107 107 123 97 74 123 97 74 123 97 74
98 98 98 98 98 98 75 75 75 75 75 75
90 73 49 106 82 65 123 98 74 106 106 106
122 97 74 131 105 82 123 123 123 122 122 122
123 97 74 131 106 82 123 97 74 107 105 104
123 97 74 123 97 74 123 97 74 107 107 107
123 97 74 131 82 49 123 82 41 126 100 78
123 82 41 123 97 74 106 82 65 106 82 65
106 82 65 106 82 65 89 65 32 115 89 70
123 82 41 105 65 31 89 65 32 89 65 32
74 74 74 98 98 98 106 106 106 106 106 106
106 106 106 123 123 123 123 123 123 107 107 107
123 123 123 123 123 123 123 123 123 107 107 107
114 114 114 106 106 106 116 101 87 105 105 105
106 106 106 106 106 106 106 106 106 125 125 125
132 106 83 132 106 83 106 106 106 125 125 125
124 124 124 123 97 74 123 97 74 124 98 75
98 98 98 98 98 98 74 74 74 74 74 74
91 74 49 106 82 66 122 97 74 106 106 106
123 97 74 131 105 82 123 123 123 107 107 107
123 97 74 131 105 82 124 98 75 105 106 106
123 97 74 123 97 74 123 97 74 114 114 114
123 97 74 131 82 48 123 82 41 114 89 69
122 81 41 124 99 75 106 82 65 106 82 65
107 81 65 106 81 65 89 65 32 125 99 75
123 82 41 107 65 31 89 65 32 90 66 33
75 75 75 97 97 97 97 97 97 107 107 107
108 108 108 124 124 124 124 124 124 107 107 107
123 123 123 124 124 124 124 124 124 107 107 107
105 105 105 108 108 108 105 108 110 108 108 108
107 107 107 107 107 107 107 107 107 116 116 116
126 100 78 126 100 78 107 107 107 114 114 114
116 116 116 124 97 75 124 97 75 117 90 71
97 97 97 97 97 97 75 75 75 76 76 76
88 73 50 108 83 64 107 82 65 107 107 107
124 98 75 132 106 83 124 124 124 107 107 107
124 98 75 125 99 76 117 92 71 108 108 108
124 97 75 124 97 75 124 97 75 106 106 106
124 97 75 123 84 43 123 81 41 110 84 67
106 66 32 116 90 70 108 83 67 108 83 67
104 84 63 108 84 67 91 66 33 116 91 72
122 83 43 97 65 31 90 65 32 87 64 32
74 74 74 75 75 75 77 77 77 88 88 88
87 87 87 87 87 87 87 87 87 87 87 87
104 104 104 97 97 97 90 90 90 89 89 89
103 103 103 93 93 93 89 88 88 95 95 95
89 89 89 92 92 92 88 88 88 87 87 87
110 84 65 109 84 64 88 88 88 98 98 98
87 87 87 99 79 60 98 79 59 96 76 57
75 75 75 76 76 76 74 74 74 66 66 66
58 57 56 75 66 55 89 73 51 88 88 88
95 72 55 95 72 56 87 87 87 87 87 87
95 72 56 95 71 55 92 69 54 86 86 86
98 78 58 98 78 59 98 78 59 89 89 89
98 78 59 94 73 40 99 67 32 100 81 62
89 64 32 100 80 62 100 78 55 99 78 56
89 69 48 96 71 52 82 61 32 95 70 51
96 74 39 89 66 34 84 64 34 51 43 17
57 57 57 58 58 58 66 66 66 64 64 64
51 51 51 51 51 51 51 51 51 51 51 51
61 61 61 59 59 59 59 59 59 59 59 59
62 62 62 59 59 59 63 63 63 63 63 63
59 59 59 60 60 60 63 63 63 63 63 63
64 57 47 71 62 51 63 63 63 63 63 63
60 59 59 49 49 47 52 52 51 54 54 52
59 59 59 75 75 75 57 57 57 55 55 55
50 50 50 51 52 54 56 55 53 64 64 64
49 48 47 49 47 47 51 51 51 51 51 51
48 46 46 49 48 47 54 52 51 55 55 54
57 57 54 54 54 52 54 54 52 63 63 62
53 54 52 50 36 12 41 31 13 55 54 53
53 38 14 51 51 50 59 51 37 63 53 35
53 39 16 58 49 35 49 36 12 58 48 33
59 49 34 65 48 23 56 43 19 48 41 16
64 64 64 57 57 57 55 55 55 55 55 55
63 63 63 63 63 63 63 63 63 63 63 63
62 62 63 62 63 64 61 62 63 61 62 63
61 62 62 61 62 63 62 63 64 62 63 63
61 62 62 61 61 62 62 63 63 62 63 63
59 50 43 53 54 55 62 63 63 61 61 61
61 62 62 51 51 50 52 52 51 56 56 54
71 71 72 73 73 73 63 63 63 63 63 63
52 54 56 53 54 56 51 54 55 55 55 55
55 55 54 55 55 54 63 63 64 63 63 64
52 52 50 55 55 54 52 54 56 63 65 67
49 50 52 55 55 54 55 55 54 63 63 65
57 54 54 52 41 16 49 39 16 57 57 55
51 37 14 57 56 54 68 71 74 68 64 56
62 48 22 67 54 30 62 47 22 67 56 36
69 56 33 65 48 22 62 46 19 50 42 17
81 81 81 78 78 78 86 86 86 86 86 86
87 87 87 87 87 87 87 87 87 87 87 87
94 90 87 94 90 87 90 86 83 91 87 84
90 86 83 90 86 83 89 86 83 89 87 86
89 88 86 90 89 87 90 89 87 90 88 86
104 81 57 99 79 58 90 88 86 90 89 87
90 89 87 99 79 59 98 78 58 99 78 58
89 88 86 86 86 86 88 88 88 90 90 90
81 70 59 79 70 58 83 70 61 85 87 88
98 78 59 98 78 59 89 87 86 89 87 86
98 79 60 98 78 59 83 70 62 93 80 71
80 82 67 105 85 63 105 85 63 89 91 75
94 88 62 96 64 31 97 65 31 101 81 61
81 53 24 96 79 62 91 79 71 92 80 73
87 71 45 91 70 48 84 65 37 90 77 66
97 76 55 91 67 36 95 74 47 89 65 33
101 101 101 105 105 105 108 108 108 108 108 108
116 116 116 115 115 115 115 115 115 115 115 115
127 115 105 127 115 105 123 111 101 127 116 105
123 111 101 123 111 101 123 112 101 126 103 83
126 103 82 131 107 85 129 106 85 130 107 87
134 110 85 139 115 85 131 108 87 131 107 85
131 106 84 130 105 84 129 102 79 129 106 86
127 103 81 108 108 108 108 108 108 115 115 115
113 102 73 129 102 77 130 102 78 116 104 94
137 111 83 135 109 82 126 103 83 126 103 82
135 109 82 135 109 82 137 110 82 127 101 78
136 113 83 137 111 83 137 111 83 127 105 80
124 102 77 155 97 56 154 97 56 129 102 79
156 100 55 137 93 65 112 86 60 105 82 60
101 84 60 110 84 69 101 73 42 117 90 70
115 90 71 109 84 60 111 88 65 132 82 47
97 97 97 106 106 106 106 106 106 105 105 105
103 103 103 108 108 108 107 107 107 108 108 108
123 125 126 123 125 126 107 109 110 123 125 126
107 109 110 106 108 110 103 105 106 107 106 104
109 107 105 132 105 82 113 112 110 126 124 122
123 122 121 124 123 121 124 122 121 131 105 82
124 98 74 107 106 105 118 93 72 116 102 89
123 96 73 102 102 102 102 102 102 104 104 104
104 84 66 124 98 75 125 100 76 107 104 101
115 90 69 125 99 75 107 105 104 108 106 105
132 107 82 133 108 83 124 99 75 108 107 106
126 99 75 124 99 74 126 100 75 104 102 101
115 89 69 134 89 48 135 88 48 116 91 71
117 80 42 115 85 65 99 83 57 97 81 58
92 72 51 102 82 61 91 65 32 104 84 63
108 84 66 104 83 61 99 74 47 111 82 45
98 98 98 106 106 106 101 101 101 98 98 98
101 101 101 105 105 105 101 101 101 105 105 105
124 124 123 123 123 122 106 105 105 123 123 122
106 105 105 98 98 97 97 96 96 98 99 99
101 102 102 131 105 82 118 118 119 113 114 114
123 123 124 123 123 124 122 123 123 131 106 82
123 97 74 105 106 106 113 88 68 124 97 72
123 98 74 97 97 97 97 97 97 99 99 99
107 81 65 124 98 75 113 88 68 98 99 99
114 89 69 122 97 74 101 102 102 105 106 106
132 106 83 127 101 79 122 97 74 105 106 106
114 89 70 123 97 74 114 89 70 97 97 97
105 81 64 96 81 47 122 82 41 105 80 64
84 63 31 104 81 65 97 81 57 106 82 64
88 66 47 86 66 45 96 80 56 97 81 57
106 81 65 97 81 57 88 64 30 94 82 48
95 95 95 102 102 102 101 101 101 98 98 98
102 102 102 106 106 106 99 99 99 106 106 106
121 121 121 124 124 124 106 106 106 103 103 103
106 106 106 105 105 105 98 98 98 104 104 104
97 97 97 123 97 74 115 115 115 113 112 112
124 124 124 123 123 122 106 106 106 131 105 82
123 97 74 106 106 106 123 97 74 123 97 74
123 97 74 98 98 98 98 98 98 97 97 97
105 82 64 115 90 69 115 90 69 97 97 97
116 91 70 124 99 75 98 98 98 106 106 106
126 101 78 130 104 81 124 99 75 106 106 106
105 80 64 123 98 74 105 81 64 98 98 98
107 82 65 97 82 48 113 73 36 107 82 65
90 66 33 107 82 66 91 74 50 99 82 59
80 55 41 82 56 40 83 59 42 98 81 57
106 82 65 99 83 60 89 66 33 98 83 50
92 92 92 97 97 97 105 105 105 97 97 97
98 98 98 103 103 103 99 99 99 106 106 106
118 118 118 119 119 119 108 108 108 103 103 103
108 108 108 105 105 105 100 100 100 104 104 104
100 100 100 126 99 76 107 107 107 129 129 129
117 117 117 127 127 127 108 108 108 133 107 84
125 99 75 107 107 107 116 90 71 125 99 76
125 99 76 100 100 100 100 100 100 103 103 103
104 82 63 106 81 66 118 92 72 99 99 99
105 80 65 116 90 70 100 100 100 107 107 107
128 102 78 134 108 84 116 90 70 107 107 107
109 84 67 123 97 74 107 82 66 99 99 99
107 82 66 98 83 50 115 72 34 107 82 66
89 65 32 103 82 62 90 73 49 95 79 54
87 62 37 82 58 40 82 57 41 93 76 54
108 83 68 94 73 45 97 65 32 93 74 40
87 87 87 79 79 79 85 85 85 82 82 82
90 90 90 89 89 89 90 90 90 98 98 98
112 112 112 100 100 100 94 94 94 93 93 93
94 94 94 89 89 89 86 86 86 87 87 87
86 86 86 107 85 62 91 91 91 102 102 102
92 92 92 102 102 102 94 94 94 119 94 74
115 90 70 102 102 102 101 80 61 111 89 66
111 89 66 86 86 86 86 86 86 91 91 91
99 78 58 99 78 57 97 76 56 90 90 90
103 82 62 101 80 61 93 93 93 102 102 102
116 91 71 119 94 74 101 80 61 102 102 102
114 89 69 103 83 62 102 82 61 90 90 90
102 82 61 93 74 40 112 83 50 102 82 61
89 65 32 101 82 60 90 73 49 85 65 44
82 62 31 74 58 32 78 58 36 87 63 38
98 74 49 89 64 30 92 65 32 89 64 31
