P3
64 64
255
75 75 75 75 74 73 69 73 77 74 75 74
74 75 74 72 74 73 71 74 72 72 74 73
69 71 74 73 75 77 69 71 74 71 73 72
71 73 72 70 72 72 70 72 72 71 73 75
72 74 77 71 73 72 72 74 77 72 74 76
71 74 75 68 71 72 71 73 75 73 76 77
82 83 83 71 72 73 72 72 71 72 71 71
74 73 73 70 73 75 76 76 76 72 74 75
74 74 74 74 74 74 74 74 74 73 73 73
77 76 74 76 74 74 75 74 73 73 74 74
73 73 74 73 73 74 74 73 72 73 73 74
73 74 74 73 73 74 72 73 73 72 72 73
72 72 73 73 72 72 72 72 72 71 71 71
69 69 69 72 72 72 72 72 72 72 72 72
71 71 71 72 72 72 72 72 72 70 70 70
71 71 71 73 73 73 73 73 73 74 74 74
75 75 75 93 77 53 106 82 62 131 92 57
108 79 48 117 85 52 126 117 87 119 87 51
108 96 80 110 97 86 108 96 79 121 88 53
121 88 52 119 86 54 120 86 54 125 113 100
118 106 90 121 88 53 118 105 90 121 109 96
125 108 100 115 98 90 124 111 98 129 113 104
131 130 128 120 117 114 118 120 122 120 122 124
109 110 111 99 86 73 97 97 97 90 78 70
89 89 89 89 89 89 88 88 88 94 94 94
121 96 74 128 105 78 133 109 85 121 119 117
125 123 121 125 123 121 118 94 75 125 123 121
110 108 107 125 123 122 126 125 124 119 118 116
119 118 116 125 127 129 126 128 129 122 122 122
115 115 115 119 119 119 119 119 119 127 127 127
123 123 123 119 119 119 119 119 119 113 113 113
102 102 102 94 94 94 90 90 90 89 89 89
75 74 74 120 94 67 144 92 48 170 105 61
174 111 64 204 128 79 170 142 118 180 114 63
160 133 97 172 145 119 161 135 100 202 128 77
203 128 78 192 122 71 188 117 70 171 145 117
158 132 97 202 128 77 173 147 118 176 148 123
177 148 124 177 150 124 182 157 129 176 148 122
175 150 128 174 164 152 176 166 154 172 161 147
157 154 151 148 121 91 105 105 105 109 82 64
99 99 99 99 99 99 117 117 117 126 126 126
133 106 83 156 127 104 164 138 112 173 151 129
175 153 131 174 153 130 172 147 122 174 153 131
171 150 128 174 152 130 186 163 138 180 159 136
180 160 136 182 171 160 178 168 156 172 172 172
172 172 172 173 173 173 174 174 174 170 170 170
172 172 172 171 171 171 173 173 173 169 169 169
157 157 157 137 137 137 106 106 106 99 99 99
74 76 78 118 94 67 154 99 57 171 110 61
158 100 58 145 94 51 143 118 85 139 89 52
137 112 85 148 120 100 127 103 71 140 90 53
136 90 48 134 88 46 137 87 50 140 115 91
124 100 67 140 90 53 136 111 84 146 117 98
146 118 98 144 119 95 149 125 96 140 115 92
143 113 93 137 139 141 136 133 129 148 120 94
162 152 140 141 116 92 100 100 100 105 82 65
97 97 97 99 99 99 116 116 116 145 145 145
147 122 97 155 128 105 145 119 96 144 143 141
151 150 148 152 151 149 161 135 111 152 151 149
154 152 150 146 145 143 163 134 113 146 145 143
143 142 140 144 141 137 144 140 137 139 139 139
135 135 135 135 135 135 139 139 139 134 134 134
137 137 137 138 138 138 135 135 135 140 140 140
158 158 158 132 132 132 99 99 99 97 97 97
79 69 55 99 81 55 127 82 43 140 92 51
108 72 40 105 73 36 106 85 57 118 73 40
122 95 73 119 93 70 107 85 54 119 75 41
112 74 36 103 71 35 106 73 38 117 90 69
103 83 54 118 74 41 113 88 69 126 101 76
126 99 73 118 90 69 136 110 79 120 94 71
126 102 77 107 107 107 108 109 110 117 92 72
100 102 104 116 90 67 90 90 90 99 82 58
97 97 97 87 87 87 95 95 95 103 103 103
119 93 70 124 99 74 127 100 74 108 108 109
115 116 116 119 120 120 135 110 84 112 112 113
115 115 116 113 114 114 137 109 83 109 109 110
108 108 109 112 113 114 108 109 110 111 111 111
109 109 109 109 109 109 111 111 111 108 108 108
112 112 112 107 107 107 108 108 108 107 107 107
101 101 101 100 100 100 90 90 90 82 82 82
56 49 40 81 62 33 62 44 17 66 48 20
76 58 29 77 58 30 80 64 40 80 60 31
73 66 56 70 63 53 70 64 54 71 51 22
65 47 23 58 41 17 71 55 29 79 66 57
75 59 33 73 52 23 82 66 41 88 70 52
74 67 57 67 57 50 75 68 59 70 63 54
88 69 52 74 74 74 72 71 71 82 64 47
75 75 74 71 64 54 72 72 72 99 82 58
99 99 99 71 71 71 76 76 76 74 74 74
70 63 54 88 69 52 73 66 56 75 74 74
75 75 75 78 78 77 86 68 51 74 74 74
73 73 73 78 78 78 71 64 54 74 74 74
75 75 74 79 79 79 75 75 74 76 76 76
64 64 64 64 64 64 75 75 75 74 74 74
79 79 79 74 74 74 72 72 72 75 75 75
75 75 75 75 75 75 72 72 72 82 82 82
79 69 55 80 60 31 66 51 23 68 49 21
72 51 24 71 51 23 80 63 39 75 58 30
73 66 57 73 66 57 74 66 57 66 49 22
68 50 22 54 39 16 61 47 23 71 75 79
71 56 30 52 38 15 70 54 28 70 60 48
60 54 43 69 62 52 77 67 60 72 64 55
70 60 49 74 75 75 68 69 69 72 61 50
74 73 73 71 64 54 86 86 87 106 82 65
88 88 88 87 87 87 76 76 76 75 75 75
70 63 54 72 61 50 67 61 51 72 72 73
71 72 72 71 71 72 70 60 48 72 73 73
72 73 73 72 73 73 68 60 52 72 72 73
71 72 72 71 71 71 71 72 72 71 71 71
62 62 62 67 67 67 76 76 76 75 75 75
71 71 71 74 74 74 68 68 68 73 73 73
73 73 73 75 75 75 86 86 86 97 97 97
74 75 77 92 67 33 120 88 50 134 89 48
122 80 42 125 82 43 115 90 70 120 81 43
121 96 68 124 97 74 120 94 71 121 82 44
118 81 42 116 79 42 130 88 47 121 108 93
118 98 69 117 80 43 120 100 72 131 106 82
122 100 69 132 105 82 145 118 92 133 107 83
131 106 82 124 123 122 127 126 125 129 104 80
109 112 114 116 90 67 101 100 98 107 82 65
93 93 93 99 99 99 95 95 95 100 100 100
117 91 68 122 95 74 133 102 83 121 119 118
123 121 119 124 122 120 134 105 85 119 118 116
119 117 115 113 111 109 132 106 82 119 118 116
123 123 121 123 123 121 123 121 119 123 123 123
121 121 121 122 122 122 120 120 120 120 120 120
119 119 119 124 124 124 128 128 128 117 117 117
110 110 110 100 100 100 100 100 100 98 98 98
73 75 78 126 80 44 149 94 53 150 97 54
150 124 90 157 132 102 149 124 91 203 130 80
136 112 78 148 123 97 155 131 98 176 111 64
192 122 72 206 131 81 208 132 81 173 146 116
159 134 103 203 130 80 182 158 131 182 159 132
182 158 132 181 158 131 179 156 130 181 157 131
181 159 133 182 160 135 174 150 127 174 148 125
159 144 130 142 116 93 121 97 75 106 82 65
77 77 77 99 99 99 116 116 116 132 132 132
133 107 85 158 125 108 165 134 116 176 154 132
187 165 142 183 162 139 187 162 137 186 163 138
186 164 141 180 159 135 182 158 132 182 161 137
184 159 133 183 160 136 187 166 142 176 176 176
174 174 174 172 172 172 172 172 172 174 174 174
174 174 174 175 175 175 170 170 170 167 167 167
154 154 154 133 133 133 105 105 105 98 98 98
83 69 49 125 87 53 140 91 51 149 96 53
134 109 82 136 100 67 133 108 80 138 89 51
127 102 74 134 108 85 132 107 78 136 86 51
136 90 48 146 92 54 149 96 54 146 117 98
132 107 80 139 89 51 145 119 95 145 119 95
156 131 107 161 132 112 162 136 112 152 127 102
144 143 142 161 134 111 154 124 102 150 122 96
156 141 127 149 120 96 125 99 75 106 82 65
74 74 74 88 88 88 117 117 117 149 149 149
154 121 104 158 128 109 144 116 95 138 136 134
150 148 146 137 135 133 158 132 107 162 132 111
150 148 146 138 136 134 144 115 95 137 136 134
140 124 115 144 115 94 138 136 135 147 147 147
153 153 153 154 154 154 154 154 154 143 143 143
144 144 144 153 153 153 144 144 144 142 142 142
151 151 151 141 141 141 107 107 107 98 98 98
82 70 53 104 86 58 138 90 49 126 82 45
117 92 64 123 79 38 121 95 73 122 81 41
114 89 57 119 92 71 113 88 57 126 81 45
124 80 43 128 80 48 137 90 49 129 103 79
121 96 73 130 81 48 129 103 80 129 103 80
131 105 81 143 117 90 139 114 89 131 105 82
130 131 131 150 121 99 139 116 82 133 109 80
123 126 128 126 101 76 115 90 70 106 82 65
75 75 75 90 90 90 100 100 100 127 127 127
129 103 80 132 105 83 125 100 76 121 122 122
126 126 127 121 121 122 138 113 81 147 121 96
126 126 127 121 121 122 130 104 81 121 121 122
120 123 125 129 104 80 120 121 121 122 122 122
134 134 134 142 142 142 130 130 130 123 123 123
131 131 131 141 141 141 131 131 131 125 125 125
124 124 124 114 114 114 102 102 102 98 98 98
81 71 58 97 81 58 139 90 50 123 82 41
114 89 55 123 83 42 124 98 74 123 82 41
114 89 57 101 87 78 114 90 57 123 82 41
134 84 50 132 83 49 135 87 49 132 106 83
124 98 75 132 83 49 132 106 83 132 106 83
131 106 83 131 106 81 130 104 81 131 105 82
132 132 132 144 120 91 136 110 82 131 105 83
122 122 122 123 97 74 105 81 64 106 82 65
75 75 75 92 92 92 97 97 97 106 106 106
122 96 73 131 106 82 123 97 74 121 121 121
123 123 123 124 124 124 132 106 83 140 116 83
123 123 123 124 124 124 128 102 79 124 124 124
124 124 123 132 106 83 124 124 124 124 124 124
123 123 123 138 138 138 122 122 122 123 123 123
132 132 132 135 135 135 128 128 128 123 123 123
122 122 122 105 105 105 97 97 97 98 98 98
91 64 28 98 82 58 138 90 50 123 82 41
123 83 43 123 82 41 123 97 74 123 82 42
107 82 65 106 84 70 107 82 65 123 82 41
134 86 49 131 82 48 131 82 49 131 105 82
131 105 82 131 83 49 132 106 83 131 106 82
131 106 82 131 106 83 132 106 83 131 106 82
127 127 127 149 124 98 131 105 82 132 106 82
107 107 107 123 98 74 107 82 65 106 82 65
75 75 75 79 79 79 98 98 98 106 106 106
123 98 74 130 104 81 123 98 74 117 117 117
124 124 124 123 123 123 131 105 82 132 106 82
124 124 124 123 123 123 122 97 74 122 122 122
123 123 123 131 106 83 123 123 123 123 123 123
123 123 123 128 128 128 124 124 124 123 123 123
127 127 127 136 136 136 123 123 123 124 124 124
107 107 107 106 106 106 98 98 98 98 98 98
90 68 35 98 82 58 139 91 50 123 82 41
124 82 41 124 81 41 123 98 74 124 81 40
105 82 64 107 81 64 107 83 66 123 82 41
131 82 49 124 82 42 132 82 49 132 106 83
132 106 82 132 80 46 127 101 78 131 106 83
131 106 82 132 106 83 131 106 82 131 106 83
123 123 123 140 115 82 132 106 82 131 106 82
106 106 106 123 97 74 106 82 65 107 82 65
75 75 75 78 78 78 98 98 98 106 106 106
123 97 74 128 103 79 123 97 74 116 116 116
123 123 123 123 123 123 131 106 82 131 105 82
123 123 123 123 123 123 125 97 72 107 107 107
123 123 123 131 105 82 123 123 123 123 123 123
124 124 124 123 123 123 123 123 123 125 125 125
124 124 124 130 130 130 124 124 124 123 123 123
106 106 106 106 106 106 98 98 98 98 98 98
93 73 40 98 81 56 137 89 49 123 82 41
122 82 43 98 66 32 122 97 74 118 85 49
103 82 62 106 82 65 122 97 74 123 82 41
132 82 49 123 82 41 131 82 49 127 101 78
128 104 82 131 93 65 123 97 74 131 105 82
131 106 83 131 105 82 131 106 82 131 105 82
123 123 123 139 116 84 131 106 82 131 105 82
106 106 106 123 97 74 106 82 65 106 81 64
75 75 75 79 79 79 98 98 98 107 107 107
123 97 74 128 102 79 123 97 74 104 104 104
123 123 123 123 123 123 131 106 82 131 106 82
123 123 123 125 125 125 115 102 90 106 106 106
125 125 125 124 98 74 125 125 125 123 123 123
122 122 122 124 124 124 123 123 123 113 113 113
115 115 115 124 124 124 123 123 123 123 123 123
106 106 106 106 106 106 98 98 98 79 79 79
89 64 31 90 66 34 107 67 32 123 82 41
108 82 64 88 65 32 107 83 66 98 83 59
107 82 66 106 82 65 123 98 74 123 82 41
131 82 49 123 82 41 131 82 49 123 97 74
118 116 115 124 100 77 123 98 74 124 98 75
131 105 81 124 98 75 131 106 82 124 98 75
107 107 107 124 123 121 131 106 82 132 106 83
106 106 106 123 97 74 106 82 65 91 74 50
75 75 75 75 75 75 98 98 98 102 102 102
123 97 74 122 97 73 123 97 74 106 106 106
123 123 123 125 125 125 131 106 82 131 106 82
123 123 123 115 115 115 105 107 109 106 106 106
115 115 115 122 98 75 116 116 116 123 123 123
108 108 108 123 123 123 123 123 123 113 113 113
104 104 104 123 123 123 123 123 123 125 125 125
106 106 106 106 106 106 98 98 98 74 74 74
90 65 33 89 65 32 105 65 31 123 82 41
105 81 65 90 65 32 106 82 65 99 81 58
106 82 65 106 82 65 123 97 74 123 82 41
131 82 49 123 82 41 131 82 49 123 98 74
115 116 116 123 97 73 123 97 74 123 97 74
123 98 76 123 97 74 131 106 82 123 97 74
107 107 107 123 124 124 131 106 82 127 101 78
106 106 106 123 97 74 106 82 65 90 73 49
75 75 75 77 77 77 98 98 98 97 97 97
123 97 74 123 98 74 123 97 74 106 106 106
123 123 123 115 115 115 131 106 82 131 106 82
123 123 123 105 105 105 106 106 105 106 106 106
105 105 105 105 106 107 121 121 121 123 123 123
122 122 122 123 123 123 123 123 123 125 125 125
107 107 107 123 123 123 123 123 123 115 115 115
106 106 106 106 106 106 98 98 98 75 75 75
89 65 32 89 65 32 105 65 31 123 82 41
115 89 69 89 65 32 107 82 65 106 82 65
106 82 65 106 82 65 123 97 74 123 82 41
131 82 49 123 82 41 131 82 49 123 97 74
107 107 106 123 97 74 123 97 74 123 97 74
107 105 104 123 97 74 131 106 82 123 97 74
122 122 122 123 123 123 131 105 82 122 97 74
106 106 106 123 98 74 106 82 65 90 73 50
75 75 75 75 75 75 98 98 98 98 98 98
123 97 74 123 97 74 123 97 74 107 107 107
123 123 123 105 105 105 131 105 82 131 105 82
123 123 123 106 106 106 106 106 106 106 106 106
106 106 106 116 101 88 123 123 123 125 125 125
123 123 123 123 123 123 123 123 123 123 123 123
122 122 122 123 123 123 123 123 123 105 105 105
106 106 106 106 106 106 98 98 98 75 75 75
90 66 33 89 65 32 107 65 31 123 82 41
125 99 75 89 65 32 106 81 65 107 81 65
106 82 65 106 82 65 124 99 75 122 81 41
132 82 49 123 82 41 131 82 48 123 97 74
114 114 114 123 97 74 123 97 74 123 97 74
105 106 106 124 98 75 131 105 82 123 97 74
107 107 107 123 123 123 131 105 82 123 97 74
106 106 106 122 97 74 106 82 66 91 74 49
74 74 74 74 74 74 98 98 98 98 98 98
124 98 75 123 97 74 123 97 74 124 124 124
125 125 125 106 106 106 132 106 83 132 106 83
125 125 125 106 106 106 106 106 106 106 106 106
105 105 105 116 101 87 106 106 106 114 114 114
107 107 107 123 123 123 123 123 123 123 123 123
107 107 107 123 123 123 123 123 123 106 106 106
106 106 106 106 106 106 98 98 98 74 74 74
87 64 32 90 65 32 97 65 31 122 83 43
116 91 72 91 66 33 108 84 67 104 84 63
108 83 67 108 83 67 116 90 70 106 66 32
129 82 48 124 81 41 123 84 43 124 97 75
106 106 106 124 97 75 124 97 75 124 97 75
108 108 108 117 92 71 125 99 76 124 98 75
107 107 107 124 124 124 132 106 83 124 98 75
107 107 107 107 82 65 108 83 64 88 73 50
76 76 76 75 75 75 96 96 96 97 97 97
117 91 71 124 97 75 124 97 75 116 116 116
114 114 114 107 107 107 126 100 78 126 100 78
116 116 116 107 107 107 107 107 107 107 107 107
108 108 108 105 108 110 108 108 108 105 105 105
107 107 107 124 124 124 124 124 124 123 123 123
107 107 107 124 124 124 124 124 124 108 108 108
107 107 107 97 97 97 97 97 97 75 75 75
52 43 18 85 64 34 89 67 34 96 75 39
95 70 51 82 62 32 96 71 52 89 69 48
100 78 56 100 78 55 99 80 62 90 65 32
92 66 34 99 66 32 94 73 40 98 78 59
89 89 89 98 79 59 98 79 59 98 78 59
86 86 86 92 69 54 95 72 56 96 72 56
87 87 87 88 88 88 96 72 56 95 72 56
89 88 88 90 74 51 75 67 55 59 58 56
66 66 66 73 73 73 78 78 77 75 75 75
96 76 57 98 78 59 98 78 59 87 87 87
97 97 97 88 88 88 109 83 64 109 83 64
87 87 87 88 88 88 92 92 91 88 88 88
95 95 95 88 88 87 92 92 91 102 102 102
88 88 88 89 89 89 96 96 96 104 103 103
86 86 86 87 87 87 87 87 87 86 86 86
88 88 88 77 77 77 75 75 75 73 73 73
44 39 15 55 42 18 64 47 23 57 48 34
56 48 34 47 34 11 56 47 33 50 37 13
59 52 36 56 51 38 54 53 49 48 36 12
48 35 11 43 32 14 51 38 13 54 54 52
63 62 62 53 52 49 53 52 49 55 54 52
55 54 54 53 51 49 48 46 45 47 45 44
51 51 50 51 50 50 48 46 45 47 46 45
62 62 62 53 53 52 48 50 53 47 48 48
56 56 57 58 59 59 62 63 63 58 58 59
54 54 53 54 54 52 54 54 52 61 61 62
67 68 68 64 64 65 71 62 51 71 63 51
60 61 61 64 64 65 61 62 62 64 64 65
64 64 65 64 65 65 63 64 64 67 67 67
64 65 66 60 61 62 60 61 61 62 63 64
52 53 54 52 53 54 53 53 53 53 53 53
62 62 62 64 64 64 56 56 56 59 59 59
71 54 26 69 51 24 73 52 24 78 60 33
78 60 33 71 54 27 78 60 35 76 61 37
88 68 51 86 74 69 93 76 59 78 52 23
76 53 26 90 60 29 92 63 29 95 69 42
64 65 67 63 65 68 63 65 68 60 62 65
65 67 68 61 63 66 62 64 67 58 60 63
64 66 67 64 66 67 62 64 67 65 64 64
68 66 64 66 65 64 67 66 64 70 66 65
76 74 73 76 74 72 73 72 70 76 74 72
76 75 74 76 75 74 76 74 73 74 72 71
75 73 72 76 74 73 73 73 73 73 72 73
75 74 71 77 75 72 74 73 71 76 75 73
79 77 76 75 73 72 75 73 72 75 73 72
75 72 69 74 71 68 78 75 72 77 73 70
76 73 70 76 73 70 73 73 73 73 73 73
65 65 65 65 65 65 67 67 67 72 72 72
137 87 49 125 89 61 131 86 45 131 85 44
130 86 46 103 75 44 109 82 64 103 86 62
106 84 63 113 87 61 138 94 66 156 99 55
149 102 66 156 98 57 156 98 56 126 97 71
114 103 93 118 106 90 118 106 90 118 106 90
113 102 92 111 99 83 119 107 91 120 107 91
114 102 92 114 102 92 119 106 90 132 108 81
122 98 78 126 101 79 126 101 80 110 101 75
123 100 80 124 101 80 124 101 81 124 101 80
125 100 78 125 100 78 129 104 82 125 101 79
128 105 84 128 104 82 130 105 82 129 106 85
136 114 85 132 110 85 128 105 85 127 104 83
130 105 83 124 101 80 124 101 80 121 97 75
121 109 99 121 109 99 126 115 104 122 110 100
125 113 103 125 113 103 104 104 104 104 104 104
102 102 102 102 102 102 98 98 98 91 91 91
111 83 45 102 74 47 100 67 33 100 67 34
105 83 61 91 65 32 102 83 62 92 72 51
97 81 57 99 83 57 115 85 65 114 76 42
115 76 40 134 88 47 134 89 48 115 90 71
106 103 99 129 101 74 127 100 73 129 101 74
110 107 103 129 101 74 136 108 82 135 107 81
110 107 103 109 106 102 127 100 73 116 90 69
107 105 103 126 100 76 124 98 75 104 84 65
109 107 106 108 106 105 108 106 105 108 106 105
123 97 74 123 97 74 124 98 75 125 99 75
108 106 105 124 98 75 132 106 82 125 123 121
125 123 121 124 122 121 126 124 123 114 112 111
132 106 82 109 107 106 108 106 105 124 98 74
107 109 110 107 109 111 123 125 127 107 109 111
123 125 127 123 125 127 115 115 115 114 114 114
107 107 107 107 107 107 105 105 105 103 103 103
94 81 49 87 63 30 87 65 32 87 65 32
97 81 57 96 80 56 86 66 45 88 66 47
106 82 64 97 81 57 104 81 65 85 63 31
84 63 31 103 65 30 96 80 47 105 80 64
96 96 97 114 89 70 122 96 74 114 89 70
105 105 106 121 96 74 126 101 79 131 105 83
104 105 106 100 101 102 121 96 74 114 89 69
97 98 98 112 88 68 124 98 75 107 81 65
101 102 102 98 98 99 98 98 99 98 98 99
123 98 75 123 98 75 123 97 74 122 97 74
106 106 107 123 97 74 131 106 83 122 123 123
123 124 125 124 124 125 113 114 114 118 119 119
131 105 82 101 102 102 98 99 99 124 97 74
98 98 98 106 105 105 123 123 123 106 105 105
124 124 123 124 123 123 104 104 104 98 98 98
102 102 102 104 104 104 107 107 107 97 97 97
98 83 49 89 66 33 90 65 32 90 65 32
98 81 57 83 59 42 81 56 40 81 56 40
99 82 59 91 74 50 108 82 66 92 66 33
92 66 33 108 66 31 99 83 47 109 83 65
100 100 100 106 81 65 126 99 76 106 81 65
108 108 108 126 99 76 132 105 82 130 103 80
109 108 108 102 102 101 127 100 76 118 92 72
100 100 100 116 91 71 117 91 71 107 83 65
97 97 97 98 97 97 98 97 97 98 97 97
125 97 74 125 97 73 125 97 74 125 97 73
105 105 105 125 97 73 132 105 81 106 106 106
122 122 122 122 122 122 112 112 112 115 115 115
125 97 73 97 97 97 105 105 105 122 97 75
105 105 105 105 105 105 102 102 102 105 105 105
121 121 121 122 122 122 108 108 108 101 101 101
97 97 97 104 104 104 102 102 102 97 97 97
93 73 41 96 65 33 90 65 33 89 65 33
93 76 53 82 57 41 83 59 42 85 61 37
95 78 54 89 73 49 103 82 61 82 61 33
82 62 33 91 62 32 87 78 60 91 78 68
87 87 85 103 82 62 110 89 65 102 81 61
87 86 85 110 89 66 111 91 66 110 89 65
83 83 83 83 83 83 106 85 63 97 78 59
84 84 84 110 88 65 97 77 58 96 78 56
78 78 78 79 79 79 79 79 79 79 79 79
91 78 68 92 80 69 92 79 69 92 79 70
80 80 80 92 79 71 93 80 70 79 79 79
81 80 80 81 81 80 82 82 82 78 78 78
95 83 74 79 79 79 80 80 80 81 79 78
80 80 80 80 80 80 81 81 81 83 83 83
84 84 84 81 81 81 88 88 88 80 80 80
80 80 80 88 88 88 78 78 78 76 76 76
93 76 51 84 57 38 91 76 52 95 77 52
86 61 42 82 58 40 90 72 48 83 59 39
86 70 47 98 77 55 87 71 47 80 57 39
91 75 50 74 54 37 74 55 42 90 73 56
85 69 48 87 71 46 94 74 55 93 77 52
90 74 51 89 73 50 98 78 58 99 80 58
73 73 73 66 67 68 75 74 73 68 67 65
67 67 67 88 68 48 72 72 70 91 71 50
78 78 78 73 73 73 75 75 75 75 75 75
92 78 56 98 80 63 90 75 55 70 73 75
72 72 73 70 72 74 85 71 50 72 72 73
72 73 73 72 72 72 71 71 72 71 72 72
70 72 74 72 71 71 71 71 71 71 71 71
72 72 72 72 72 72 74 74 74 72 72 72
71 71 71 68 68 68 68 68 68 69 69 69
70 70 70 70 70 70 73 73 73 73 73 73
98 83 50 93 72 44 118 87 50 143 94 53
120 77 42 129 84 47 141 117 85 131 86 47
120 99 71 120 95 68 119 99 70 133 88 48
135 90 49 120 81 45 121 82 44 133 107 86
124 99 74 126 81 44 125 99 76 135 110 85
139 110 89 131 102 86 138 112 88 146 116 97
133 132 130 126 123 120 127 128 130 122 124 127
111 112 113 116 91 70 99 99 100 107 83 66
98 98 98 89 89 89 95 95 95 95 95 95
124 97 74 132 106 78 136 110 85 121 119 117
125 123 122 125 123 121 119 94 73 125 123 122
111 109 107 125 123 122 127 125 124 120 118 116
120 118 116 126 127 129 126 128 130 126 127 129
121 121 121 126 126 126 121 121 121 119 119 119
123 123 123 112 112 112 112 112 112 114 114 114
99 99 99 91 91 91 90 90 90 89 89 89
97 81 48 120 95 69 142 91 50 168 104 61
173 111 65 202 129 80 168 142 118 178 114 64
158 133 99 170 145 122 159 135 101 200 129 78
200 128 79 192 123 72 187 118 72 170 146 119
157 133 100 201 129 79 172 148 120 174 148 124
175 148 125 175 149 125 180 157 131 173 148 123
174 150 128 173 163 151 175 165 153 172 160 147
157 154 150 146 121 91 105 105 105 106 82 65
98 98 98 99 99 99 116 116 116 116 116 116
132 106 83 155 126 104 163 137 113 173 151 129
175 153 131 174 153 130 172 147 123 174 153 131
171 150 128 174 152 130 186 163 138 180 159 136
181 160 136 182 171 160 178 168 156 182 171 160
181 181 181 181 181 181 180 180 180 174 174 174
172 172 172 172 172 172 174 174 174 169 169 169
158 158 158 138 138 138 106 106 106 99 99 99
98 84 50 118 94 67 155 99 57 171 110 61
158 100 58 145 94 51 143 118 85 139 89 52
137 112 85 148 119 99 128 103 70 141 90 52
137 90 48 134 88 46 137 87 49 140 115 91
125 100 67 141 90 52 136 111 83 147 117 97
146 118 98 144 120 95 149 125 95 141 116 91
143 113 93 138 139 141 136 133 129 148 120 94
162 152 140 141 116 92 100 100 100 106 82 65
98 98 98 99 99 99 116 116 116 117 117 117
148 122 97 155 128 105 145 119 96 144 143 141
151 150 148 152 151 149 161 135 111 152 151 149
154 152 150 146 145 143 163 134 113 146 145 143
143 142 140 144 141 137 144 140 137 144 141 137
153 153 153 158 158 158 149 149 149 143 143 143
137 137 137 138 138 138 135 135 135 140 140 140
158 158 158 131 131 131 99 99 99 97 97 97
91 72 40 99 81 55 127 82 43 140 92 51
108 72 40 105 73 36 106 85 57 118 73 40
122 95 73 119 93 70 107 85 54 119 75 41
112 74 36 103 71 35 106 73 38 117 90 69
103 83 54 118 74 41 113 88 69 126 101 76
126 99 73 118 90 69 136 110 79 120 94 71
126 102 77 107 107 107 108 109 110 117 92 72
100 102 104 116 90 67 90 90 90 99 82 58
97 97 97 87 87 87 95 95 95 88 88 88
119 93 70 124 99 74 127 100 74 108 108 109
115 116 116 119 120 120 135 110 84 112 112 113
115 115 116 113 114 114 137 109 83 109 109 110
108 108 109 112 113 114 108 109 110 112 113 114
121 121 121 127 127 127 122 122 122 108 108 108
112 112 112 107 107 107 108 108 108 107 107 107
101 101 101 100 100 100 90 90 90 82 82 82
52 41 16 81 62 33 62 44 17 66 48 20
76 58 29 77 58 30 80 64 40 80 60 31
73 66 56 70 63 53 70 64 54 71 51 22
65 47 23 58 41 17 71 55 29 79 66 57
75 59 33 73 52 23 82 66 41 88 70 52
74 67 57 67 57 50 75 68 59 70 63 54
88 69 52 74 74 74 72 71 71 82 64 47
75 75 74 71 64 54 72 72 72 99 82 58
99 99 99 71 71 71 76 76 76 72 72 72
70 63 54 88 69 52 73 66 56 75 74 74
75 75 75 78 78 77 86 68 51 74 74 74
73 73 73 78 78 78 71 64 54 74 74 74
75 75 74 79 79 79 75 75 74 79 79 79
85 85 85 84 84 84 85 85 85 75 75 75
79 79 79 74 74 74 72 72 72 75 75 75
75 75 75 75 75 75 72 72 72 82 82 82
91 72 40 80 60 31 66 51 23 68 49 21
72 51 24 71 51 23 80 63 39 75 58 30
73 66 57 73 66 57 74 66 57 66 49 22
68 50 22 54 39 16 61 47 23 71 75 79
71 56 30 52 38 15 70 54 28 70 60 48
60 54 43 69 62 52 77 67 60 72 64 55
70 60 49 74 75 75 68 69 69 72 61 50
74 73 73 71 64 54 86 86 87 106 82 65
88 88 88 87 87 87 76 76 76 87 87 87
70 63 54 72 61 50 67 61 51 72 72 73
71 72 72 71 71 72 70 60 48 72 73 73
72 73 73 72 73 73 68 60 52 72 72 73
71 72 72 71 71 71 71 72 72 71 71 70
70 70 69 73 73 73 70 70 70 71 71 71
71 71 71 74 74 74 68 68 68 73 73 73
73 73 73 75 75 75 86 86 86 97 97 97
98 84 50 92 67 33 120 88 50 134 89 48
122 80 42 125 82 43 115 90 70 120 81 43
121 96 68 124 97 74 120 94 71 121 82 44
118 81 42 116 79 42 130 88 47 121 108 93
118 98 69 117 80 43 120 100 72 131 106 82
122 100 69 132 105 82 145 118 92 133 107 83
131 106 82 124 123 122 127 126 125 129 104 80
109 112 114 116 90 67 101 100 98 107 82 65
93 93 93 99 99 99 95 95 95 98 98 98
117 91 68 122 95 74 133 102 83 121 119 118
123 121 119 124 122 120 134 105 85 119 118 116
119 117 115 113 111 109 132 106 82 119 118 116
123 123 121 123 123 121 123 121 119 122 124 125
122 124 126 133 133 133 125 125 125 123 123 123
119 119 119 124 124 124 128 128 128 117 117 117
110 110 110 100 100 100 100 100 100 98 98 98
98 83 50 126 80 44 149 94 53 150 97 54
150 124 90 157 132 102 149 124 91 203 130 80
136 112 78 148 123 97 155 131 98 176 111 64
192 122 72 206 131 81 208 132 81 173 146 116
159 134 103 203 130 80 182 158 131 182 159 132
182 158 132 181 158 131 179 156 130 181 157 131
181 159 133 182 160 135 174 150 127 174 148 125
159 144 130 142 116 93 121 97 75 106 82 65
77 77 77 99 99 99 116 116 116 115 115 115
133 107 85 158 125 108 165 134 116 176 154 132
187 165 142 183 162 139 187 162 137 186 163 138
186 164 141 180 159 135 182 158 132 182 161 137
184 159 133 183 160 136 187 166 142 184 173 161
184 173 161 191 191 191 190 190 190 175 175 175
174 174 174 175 175 175 170 170 170 167 167 167
154 154 154 133 133 133 105 105 105 98 98 98
92 72 39 125 87 53 140 91 51 149 96 53
134 109 82 136 100 67 133 108 80 138 89 51
127 102 74 134 108 85 132 107 78 136 86 51
136 90 48 146 92 54 149 96 54 146 117 98
132 107 80 139 89 51 145 119 95 145 119 95
156 131 107 161 132 112 162 136 112 152 127 102
144 143 142 161 134 111 154 124 102 150 122 96
156 141 127 149 120 96 125 99 75 106 82 65
74 74 74 88 88 88 117 117 117 117 117 117
154 121 104 158 128 109 144 116 95 138 136 134
150 148 146 137 135 133 158 132 107 162 132 111
150 148 146 138 136 134 144 115 95 137 136 134
140 124 115 144 115 94 138 136 135 139 135 132
139 135 132 149 149 149 153 153 153 144 144 144
144 144 144 153 153 153 144 144 144 142 142 142
151 151 151 141 141 141 107 107 107 98 98 98
93 74 40 104 86 58 138 90 49 126 82 45
117 92 64 123 79 38 121 95 73 122 81 41
114 89 57 119 92 71 113 88 57 126 81 45
124 80 43 128 80 48 137 90 49 129 103 79
121 96 73 130 81 48 129 103 80 129 103 80
131 105 81 143 117 90 139 114 89 131 105 82
130 131 131 150 121 99 139 116 82 133 109 80
123 126 128 126 101 76 115 90 70 106 82 65
75 75 75 90 90 90 100 100 100 100 100 100
129 103 80 132 105 83 125 100 76 121 122 122
126 126 127 121 121 122 138 113 81 147 121 96
126 126 127 121 121 122 130 104 81 121 121 122
120 123 125 129 104 80 120 121 121 120 121 122
120 121 122 126 126 126 134 134 134 127 127 127
131 131 131 141 141 141 131 131 131 125 125 125
124 124 124 114 114 114 102 102 102 98 98 98
94 75 42 97 81 58 139 90 50 123 82 41
114 89 55 123 83 42 124 98 74 123 82 41
114 89 57 101 87 78 114 90 57 123 82 41
134 84 50 132 83 49 135 87 49 132 106 83
124 98 75 132 83 49 132 106 83 132 106 83
131 106 83 131 106 81 130 104 81 131 105 82
132 132 132 144 120 91 136 110 82 131 105 83
122 122 122 123 97 74 105 81 64 106 82 65
75 75 75 91 91 91 97 97 97 97 97 97
122 96 73 131 106 82 123 97 74 121 121 121
123 123 123 124 124 124 132 106 83 140 116 83
123 123 123 124 124 124 128 102 79 124 124 124
124 124 123 132 106 83 124 124 124 124 124 124
124 124 124 123 123 123 131 131 131 131 131 131
132 132 132 135 135 135 128 128 128 123 123 123
122 122 122 105 105 105 97 97 97 98 98 98
89 63 31 99 82 58 138 90 50 123 82 41
123 83 42 123 82 41 123 97 74 123 82 42
107 82 65 106 84 70 107 82 65 123 82 41
134 86 49 131 82 48 131 82 49 131 105 82
131 105 82 131 83 49 132 106 83 131 106 82
131 106 82 131 106 83 132 106 83 131 106 82
128 128 128 149 123 98 131 105 82 132 106 82
107 107 107 123 98 74 107 82 65 106 82 65
75 75 75 80 80 80 98 98 98 98 98 98
123 98 74 130 104 81 123 98 74 117 117 117
124 124 124 123 123 123 131 105 82 132 106 82
124 124 124 123 123 123 122 97 74 122 122 122
123 123 123 131 106 83 123 123 123 123 123 123
123 123 123 124 124 124 132 132 132 127 127 127
128 128 128 139 139 139 123 123 123 124 124 124
107 107 107 106 106 106 98 98 98 98 98 98
90 65 33 98 82 58 138 90 50 123 82 41
123 82 41 123 81 41 123 97 74 124 81 40
105 82 64 107 81 64 107 83 66 123 82 41
131 82 49 124 82 42 132 82 49 132 106 83
131 106 83 131 80 46 127 101 78 131 106 82
131 106 82 131 106 82 131 106 82 131 106 82
123 123 123 140 116 83 132 106 82 131 106 82
106 106 106 123 97 74 106 82 65 106 82 65
75 75 75 81 81 81 98 98 98 98 98 98
123 97 74 128 103 79 123 97 74 116 116 116
123 123 123 123 123 123 131 106 82 131 105 82
123 123 123 123 123 123 125 97 72 107 107 107
123 123 123 131 105 82 123 123 123 123 123 123
123 123 123 123 123 123 132 132 132 126 126 126
123 123 123 132 132 132 124 124 124 123 123 123
106 106 106 106 106 106 98 98 98 98 98 98
89 65 32 98 82 58 138 90 50 123 82 41
123 82 41 99 66 32 123 97 74 119 86 49
104 82 62 106 82 65 122 97 74 122 82 41
132 82 49 123 82 41 131 82 49 127 101 78
131 106 82 131 94 66 123 97 74 131 106 82
131 106 82 131 106 82 131 106 82 131 106 82
124 124 124 139 115 82 131 106 82 131 106 82
106 106 106 123 97 74 106 82 65 106 82 65
75 75 75 79 79 79 98 98 98 98 98 98
123 97 74 128 102 79 123 97 74 104 104 104
123 123 123 123 123 123 131 106 82 131 106 82
123 123 123 123 123 123 115 102 90 106 106 106
123 123 123 124 98 75 123 123 123 123 123 123
123 123 123 123 123 123 131 131 131 125 125 125
124 124 124 131 131 131 123 123 123 123 123 123
106 106 106 106 106 106 98 98 98 98 98 98
89 65 32 98 82 58 140 91 50 123 82 41
122 81 41 101 65 31 123 97 74 113 90 58
103 82 62 106 82 65 123 98 74 127 82 45
131 82 49 123 82 41 131 82 49 123 97 74
131 106 83 131 106 83 123 98 74 131 106 82
131 106 82 131 106 82 131 106 82 131 106 82
123 123 123 132 106 82 131 106 82 131 106 82
106 106 106 123 97 74 106 82 65 107 82 65
75 75 75 78 78 78 98 98 98 98 98 98
123 97 74 122 97 73 123 97 74 106 106 106
123 123 123 125 125 125 131 106 82 131 106 82
123 123 123 125 125 125 105 107 109 106 106 106
123 123 123 123 97 74 123 123 123 123 123 123
125 125 125 123 123 123 128 128 128 123 123 123
123 123 123 124 124 124 123 123 123 123 123 123
106 106 106 106 106 106 98 98 98 98 98 98
89 65 32 98 81 57 131 86 45 123 82 41
106 65 29 93 65 32 123 97 74 114 89 57
98 82 57 106 82 65 123 97 74 132 82 49
131 82 48 123 82 41 131 82 49 123 98 74
132 104 79 132 83 51 123 97 74 131 106 82
131 106 82 131 106 82 131 106 82 131 106 82
124 124 124 131 105 82 131 106 82 131 106 82
106 106 106 123 97 74 106 82 65 106 82 65
75 75 75 78 78 78 98 98 98 98 98 98
123 97 74 123 98 74 123 97 74 106 106 106
123 123 123 114 114 114 131 106 82 131 106 82
123 123 123 115 115 115 106 106 105 106 106 106
123 123 123 123 97 74 124 124 124 123 123 123
115 115 115 123 123 123 124 124 124 123 123 123
124 124 124 123 123 123 123 123 123 123 123 123
106 106 106 106 106 106 98 98 98 97 97 97
89 65 32 99 83 60 122 81 41 123 82 41
106 73 48 96 65 32 123 97 74 114 90 56
106 82 65 106 82 65 123 97 74 131 82 49
132 84 51 123 82 41 131 82 49 123 97 74
127 114 103 127 81 42 123 97 74 131 106 82
131 106 82 131 106 82 131 106 82 131 106 82
122 122 122 131 106 83 131 106 82 131 106 82
106 106 106 123 97 74 106 82 65 99 82 58
75 75 75 79 79 79 98 98 98 98 98 98
123 97 74 123 97 74 123 97 74 106 106 106
123 123 123 112 112 112 131 106 82 131 106 82
123 123 123 104 104 104 106 106 106 106 106 106
123 123 123 123 97 74 122 122 122 123 123 123
104 104 104 123 123 123 123 123 123 123 123 123
122 122 122 123 123 123 123 123 123 123 123 123
106 106 106 106 106 106 98 98 98 82 82 82
89 65 32 94 73 45 123 82 41 123 82 41
107 83 68 88 65 32 125 99 75 110 86 61
107 82 65 106 82 65 123 97 74 132 83 49
131 104 80 123 82 41 131 82 49 123 97 74
122 125 126 123 90 57 123 97 74 131 105 82
131 106 82 132 106 83 131 106 82 131 105 82
107 107 107 131 105 82 131 106 82 131 106 82
106 106 106 123 97 74 106 82 65 98 81 57
75 75 75 80 80 80 98 98 98 98 98 98
123 97 74 123 97 74 123 97 74 106 106 106
123 123 123 109 109 109 131 106 82 131 106 82
123 123 123 108 108 108 106 106 106 106 106 106
125 125 125 123 97 74 108 108 108 123 123 123
107 107 107 123 123 123 123 123 123 123 123 123
107 107 107 123 123 123 123 123 123 123 123 123
106 106 106 106 106 106 98 98 98 81 81 81
90 67 35 89 64 30 123 82 41 123 82 41
106 82 65 90 65 32 115 90 70 105 81 65
106 82 65 106 82 65 123 97 74 130 81 48
125 99 76 123 82 41 131 82 49 123 97 74
125 125 124 123 99 77 123 97 74 132 106 83
131 106 82 130 105 81 131 106 82 132 106 83
106 106 106 131 106 85 131 106 82 131 106 82
106 106 106 123 97 74 106 82 65 99 82 58
75 75 75 84 84 84 98 98 98 98 98 98
123 97 74 123 97 74 123 97 74 106 106 106
123 123 123 106 106 106 131 106 82 131 106 82
123 123 123 116 116 116 106 106 106 106 106 106
113 113 113 123 97 74 121 121 121 124 124 124
122 122 122 123 123 123 123 123 123 123 123 123
106 106 106 123 123 123 123 123 123 123 123 123
106 106 106 106 106 106 98 98 98 82 82 82
93 73 40 90 65 33 122 81 41 123 82 41
106 82 65 89 65 32 105 81 64 99 82 58
106 82 65 106 82 65 123 97 74 108 67 33
127 101 78 123 82 41 131 82 49 123 97 74
113 113 113 123 97 74 123 97 74 127 101 78
131 106 83 127 101 78 131 106 82 127 101 78
106 106 106 124 122 121 131 106 82 131 105 82
106 106 106 123 97 74 106 82 65 94 78 54
75 75 75 88 88 88 98 98 98 98 98 98
123 97 74 123 97 74 123 97 74 106 106 106
123 123 123 104 104 104 131 106 82 131 106 82
123 123 123 113 113 113 106 106 106 106 106 106
115 115 115 123 97 74 107 107 107 121 121 121
107 107 107 123 123 123 123 123 123 123 123 123
106 106 106 123 123 123 123 123 123 123 123 123
106 106 106 106 106 106 98 98 98 78 78 78
89 64 31 89 65 32 106 66 32 123 82 41
107 82 65 89 65 32 107 82 65 98 82 57
106 82 65 106 82 65 123 97 74 122 81 40
122 96 73 123 82 41 131 82 49 123 97 74
115 115 115 123 97 74 123 97 74 123 97 74
131 105 81 124 98 75 131 106 82 123 97 74
106 106 106 123 124 124 131 106 82 132 106 83
106 106 106 123 97 74 106 82 65 89 73 49
75 75 75 73 73 73 98 98 98 98 98 98
123 97 74 123 97 74 123 97 74 106 106 106
123 123 123 116 116 116 131 106 82 131 106 82
123 123 123 105 105 105 106 106 106 106 106 106
116 116 116 123 98 75 107 107 107 116 116 116
107 107 107 123 123 123 123 123 123 123 123 123
106 106 106 123 123 123 123 123 123 125 125 125
106 106 106 106 106 106 98 98 98 74 74 74
90 65 33 89 65 32 105 65 31 123 82 41
105 81 64 89 65 32 106 82 65 99 82 58
106 82 65 106 82 65 123 97 74 123 82 41
129 103 79 123 82 41 131 82 49 123 97 74
116 116 116 123 97 74 123 97 74 123 98 74
123 98 76 123 97 74 131 106 82 123 98 74
107 107 107 123 123 123 131 106 82 127 101 78
106 106 106 123 97 74 106 82 65 90 74 50
75 75 75 78 78 78 98 98 98 98 98 98
123 97 74 123 97 74 123 97 74 106 106 106
123 123 123 116 116 116 131 106 82 131 106 82
123 123 123 106 106 106 106 106 106 106 106 106
104 104 104 105 106 107 123 123 123 124 124 124
123 123 123 123 123 123 123 123 123 123 123 123
107 107 107 123 123 123 123 123 123 115 115 115
106 106 106 106 106 106 98 98 98 75 75 75
89 65 32 89 65 32 105 65 31 123 82 41
115 89 70 89 65 32 106 82 65 106 82 65
106 82 65 106 82 65 123 97 74 123 82 41
126 100 78 123 82 41 131 82 49 123 97 74
107 107 107 123 97 74 123 97 74 123 97 74
107 105 104 123 97 74 131 106 82 123 97 74
122 122 122 123 123 123 131 105 82 122 97 74
106 106 106 123 98 74 106 82 65 90 73 49
75 75 75 75 75 75 98 98 98 98 98 98
123 97 74 123 97 74 123 97 74 107 107 107
123 123 123 104 104 104 131 105 82 131 105 82
123 123 123 106 106 106 106 106 106 106 106 106
106 106 106 116 101 88 123 123 123 125 125 125
123 123 123 123 123 123 123 123 123 123 123 123
122 122 122 123 123 123 123 123 123 105 105 105
106 106 106 106 106 106 98 98 98 75 75 75
90 66 33 89 65 32 107 65 31 123 82 41
125 99 75 89 65 32 106 81 65 107 81 65
106 82 65 106 82 65 124 99 75 122 81 41
114 89 69 123 82 41 131 82 48 123 97 74
114 114 114 123 97 74 123 97 74 123 97 74
105 106 106 124 98 75 131 105 82 123 97 74
107 107 107 123 123 123 131 105 82 123 97 74
106 106 106 122 97 74 106 82 66 91 74 49
74 74 74 74 74 74 98 98 98 98 98 98
124 98 75 123 97 74 123 97 74 124 124 124
125 125 125 106 106 106 132 106 83 132 106 83
125 125 125 106 106 106 106 106 106 106 106 106
105 105 105 116 101 87 106 106 106 114 114 114
107 107 107 123 123 123 123 123 123 123 123 123
107 107 107 123 123 123 123 123 123 106 106 106
106 106 106 106 106 106 98 98 98 74 74 74
87 64 32 90 65 32 97 65 31 122 83 43
116 91 72 91 66 33 108 84 67 104 84 63
108 83 67 108 83 67 116 90 70 106 66 32
110 84 67 123 81 41 123 84 43 124 97 75
106 106 106 124 97 75 124 97 75 124 97 75
108 108 108 117 92 71 125 99 76 124 98 75
107 107 107 124 124 124 132 106 83 124 98 75
107 107 107 107 82 65 108 83 64 88 73 50
76 76 76 75 75 75 97 97 97 97 97 97
117 90 71 124 97 75 124 97 75 116 116 116
114 114 114 107 107 107 126 100 78 126 100 78
116 116 116 107 107 107 107 107 107 107 107 107
108 108 108 105 108 110 108 108 108 105 105 105
107 107 107 124 124 124 124 124 124 123 123 123
107 107 107 124 124 124 124 124 124 108 108 108
107 107 107 97 97 97 97 97 97 75 75 75
51 43 17 84 64 34 89 66 34 96 74 39
95 70 51 82 61 32 96 71 52 89 69 48
99 78 56 100 78 55 100 80 62 89 64 32
100 81 62 99 67 32 94 73 40 98 78 59
89 89 89 98 78 59 98 78 59 98 78 58
86 86 86 92 69 54 95 71 55 95 72 56
87 87 87 87 87 87 95 72 56 95 72 55
88 88 88 89 73 51 75 66 55 58 57 56
66 66 66 74 74 74 76 76 76 75 75 75
96 76 57 98 79 59 99 79 60 87 87 87
98 98 98 88 88 88 109 84 64 110 84 65
87 87 87 88 88 88 92 92 92 89 89 89
95 95 95 89 88 88 93 93 93 103 103 103
89 89 89 90 90 90 97 97 97 104 104 104
87 87 87 87 87 87 87 87 87 87 87 87
88 88 88 77 77 77 75 75 75 74 74 74
48 41 16 56 43 19 65 48 23 59 49 34
58 48 33 49 36 12 58 49 35 53 39 16
63 53 35 59 51 37 51 51 50 53 38 14
55 54 53 41 31 13 50 36 12 53 54 52
63 63 62 54 54 52 54 54 52 57 57 54
55 55 54 54 52 51 49 48 47 48 46 46
51 51 51 51 51 51 49 47 47 49 48 47
64 64 64 56 55 53 51 52 54 50 50 50
55 55 55 57 57 57 75 75 75 59 59 59
54 54 52 52 52 51 49 49 47 60 59 59
63 63 63 63 63 63 71 62 51 64 57 47
63 63 63 63 63 63 60 60 60 59 59 59
63 63 63 63 63 63 59 59 59 62 62 62
59 59 59 59 59 59 59 59 59 61 61 61
51 51 51 51 51 51 51 51 51 51 51 51
64 64 64 66 66 66 58 58 58 57 57 57
50 42 17 62 46 19 65 48 22 69 56 33
67 56 36 62 47 22 67 54 30 62 48 22
68 64 56 68 71 74 57 56 54 51 37 14
57 57 55 49 39 16 52 41 16 57 54 54
63 63 65 55 55 54 55 55 54 49 50 52
63 65 67 52 54 56 55 55 54 52 52 50
63 63 64 63 63 64 55 55 54 55 55 54
55 55 55 51 54 55 53 54 56 52 54 56
63 63 63 63 63 63 73 73 73 71 71 72
56 56 54 52 52 51 51 51 50 61 62 62
61 61 61 62 63 63 53 54 55 59 50 43
62 63 63 62 63 63 61 61 62 61 62 62
62 63 63 62 63 64 61 62 63 61 62 62
61 62 63 61 62 63 62 63 64 62 62 63
63 63 63 63 63 63 63 63 63 63 63 63
55 55 55 55 55 55 57 57 57 64 64 64
89 65 33 95 74 47 91 67 36 97 76 55
90 77 66 84 65 37 91 70 48 87 71 45
92 80 73 91 79 71 96 79 62 81 53 24
101 81 61 97 65 31 96 64 31 94 88 62
89 91 75 105 85 63 105 85 63 80 82 67
93 80 71 83 70 62 98 78 59 98 79 60
89 87 86 89 87 86 98 78 59 98 78 59
85 87 88 83 70 61 79 70 58 81 70 59
90 90 90 88 88 88 86 86 86 89 88 86
99 78 58 98 78 58 99 79 59 90 89 87
90 89 87 90 88 86 99 79 58 104 81 57
90 88 86 90 89 87 90 89 87 89 88 86
89 87 86 89 86 83 90 86 83 90 86 83
91 87 84 90 86 83 94 90 87 94 90 87
87 87 87 87 87 87 87 87 87 87 87 87
86 86 86 86 86 86 78 78 78 81 81 81
132 82 47 111 88 65 109 84 60 115 90 71
117 90 70 101 73 42 110 84 69 101 84 60
105 82 60 112 86 60 137 93 65 156 100 55
129 102 79 154 97 56 155 97 56 124 102 77
127 105 80 137 111 83 137 111 83 136 113 83
127 101 78 137 110 82 135 109 82 135 109 82
126 103 82 126 103 83 135 109 82 137 111 83
116 104 94 130 102 78 129 102 77 113 102 73
115 115 115 108 108 108 108 108 108 127 103 81
129 106 86 129 102 79 130 105 84 131 106 84
131 107 85 131 108 87 139 115 85 134 110 85
130 107 87 129 106 85 131 107 85 126 103 82
126 103 83 123 112 101 123 111 101 123 111 101
127 116 105 123 111 101 127 115 105 127 115 105
115 115 115 115 115 115 115 115 115 116 116 116
108 108 108 108 108 108 105 105 105 101 101 101
111 82 45 99 74 47 104 83 61 108 84 66
104 84 63 91 65 32 102 82 61 92 72 51
97 81 58 99 83 57 115 85 65 117 80 42
116 91 71 135 88 48 134 89 48 115 89 69
104 102 101 126 100 75 124 99 74 126 99 75
108 107 106 124 99 75 133 108 83 132 107 82
108 106 105 107 105 104 125 99 75 115 90 69
107 104 101 125 100 76 124 98 75 104 84 66
104 104 104 102 102 102 102 102 102 123 96 73
116 102 89 118 93 72 107 106 105 124 98 74
131 105 82 124 122 121 124 123 121 123 122 121
126 124 122 113 112 110 132 105 82 109 107 105
107 106 104 103 105 106 106 108 110 107 109 110
123 125 126 107 109 110 123 125 126 123 125 126
108 108 108 107 107 107 108 108 108 103 103 103
105 105 105 106 106 106 106 106 106 97 97 97
94 82 48 88 64 30 97 81 57 106 81 65
97 81 57 96 80 56 86 66 45 88 66 47
106 82 64 97 81 57 104 81 65 84 63 31
105 80 64 122 82 41 96 81 47 105 81 64
97 97 97 114 89 70 123 97 74 114 89 70
105 106 106 122 97 74 127 101 79 132 106 83
105 106 106 101 102 102 122 97 74 114 89 69
98 99 99 113 88 68 124 98 75 107 81 65
99 99 99 97 97 97 97 97 97 123 98 74
124 97 72 113 88 68 105 106 106 123 97 74
131 106 82 122 123 123 123 123 124 123 123 124
113 114 114 118 118 119 131 105 82 101 102 102
98 99 99 97 96 96 98 98 97 106 105 105
123 123 122 106 105 105 123 123 122 124 124 123
105 105 105 101 101 101 105 105 105 101 101 101
98 98 98 101 101 101 106 106 106 98 98 98
98 83 50 89 66 33 99 83 60 106 82 65
98 81 57 83 59 42 82 56 40 80 55 41
99 82 59 91 74 50 107 82 66 90 66 33
107 82 65 113 73 36 97 82 48 107 82 65
98 98 98 105 81 64 123 98 74 105 80 64
106 106 106 124 99 75 130 104 81 126 101 78
106 106 106 98 98 98 124 99 75 116 91 70
97 97 97 115 90 69 115 90 69 105 82 64
97 97 97 98 98 98 98 98 98 123 97 74
123 97 74 123 97 74 106 106 106 123 97 74
131 105 82 106 106 106 123 123 122 124 124 124
113 112 112 115 115 115 123 97 74 97 97 97
104 104 104 98 98 98 105 105 105 106 106 106
103 103 103 106 106 106 124 124 124 121 121 121
106 106 106 99 99 99 106 106 106 102 102 102
98 98 98 101 101 101 102 102 102 95 95 95
93 74 40 97 65 32 94 73 45 108 83 68
93 76 54 82 57 41 82 58 40 87 62 37
95 79 54 90 73 49 103 82 62 89 65 32
107 82 66 115 72 34 98 83 50 107 82 66
99 99 99 107 82 66 123 97 74 109 84 67
107 107 107 116 90 70 134 108 84 128 102 78
107 107 107 100 100 100 116 90 70 105 80 65
99 99 99 118 92 72 106 81 66 104 82 63
103 103 103 100 100 100 100 100 100 125 99 76
125 99 76 116 90 71 107 107 107 125 99 75
133 107 84 108 108 108 127 127 127 117 117 117
129 129 129 107 107 107 126 99 76 100 100 100
104 104 104 100 100 100 105 105 105 108 108 108
103 103 103 108 108 108 119 119 119 118 118 118
106 106 106 99 99 99 103 103 103 98 98 98
97 97 97 105 105 105 97 97 97 92 92 92
89 64 31 92 65 32 89 64 30 98 74 49
87 63 38 78 58 36 74 58 32 82 62 31
85 65 44 90 73 49 101 82 60 89 65 32
102 82 61 112 83 50 93 74 40 102 82 61
90 90 90 102 82 61 103 83 62 114 89 69
102 102 102 101 80 61 119 94 74 116 91 71
102 102 102 93 93 93 101 80 61 103 82 62
90 90 90 97 76 56 99 78 57 99 78 58
91 91 91 86 86 86 86 86 86 111 89 66
111 89 66 101 80 61 102 102 102 115 90 70
119 94 74 94 94 94 102 102 102 92 92 92
102 102 102 91 91 91 107 85 62 86 86 86
87 87 87 86 86 86 89 89 89 94 94 94
93 93 93 94 94 94 100 100 100 112 112 112
98 98 98 90 90 90 89 89 89 90 90 90
82 82 82 85 85 85 79 79 79 87 87 87
