P3
# Converted to P3 by scripts/convert_to_p3.py
64 64
255
127 127 127 131 131 131 139 139 139 144 144 144
144 144 144 143 143 143 143 143 143 143 143 143
143 143 143 143 143 143 142 142 142 142 142 142
142 142 142 142 142 142 143 143 143 142 142 142
141 141 141 139 139 139 137 137 137 146 146 146
158 158 158 156 156 156 143 143 143 143 143 143
155 155 155 157 157 157 145 145 145 138 138 138
140 140 140 143 143 143 143 143 143 143 143 143
143 143 143 143 143 143 142 142 142 142 142 142
143 143 143 141 141 141 139 139 139 144 144 144
154 154 154 162 162 162 162 162 162 154 154 154
144 144 144 139 139 139 141 141 141 143 143 143
142 142 142 142 142 142 142 142 142 142 142 142
143 143 143 143 143 143 143 143 143 143 143 143
143 143 143 143 143 143 142 142 142 143 143 143
143 143 143 139 139 139 131 131 131 127 127 127
111 111 111 117 117 117 128 128 128 133 133 133
131 131 131 129 129 129 130 130 130 130 130 130
129 129 129 130 130 130 131 131 131 132 132 132
132 132 132 131 131 131 130 130 130 132 132 132
135 135 135 135 135 135 134 134 134 139 139 139
148 148 148 146 146 146 137 137 137 138 138 138
148 148 148 150 150 150 140 140 140 133 133 133
132 132 132 131 131 131 130 130 130 129 129 129
130 130 130 131 131 131 132 132 132 131 131 131
131 131 131 131 131 131 133 133 133 139 139 139
147 147 147 153 153 153 153 153 153 147 147 147
139 139 139 133 133 133 131 131 131 131 131 131
131 131 131 132 132 132 132 132 132 131 131 131
130 130 130 129 129 129 130 130 130 130 130 130
129 129 129 130 130 130 131 131 131 133 133 133
134 134 134 128 128 128 117 117 117 111 111 111
81 81 81 91 91 91 108 108 108 114 114 114
109 109 109 104 104 104 106 106 106 106 106 106
105 105 105 107 107 107 111 111 111 114 114 114
114 114 114 111 111 111 110 110 110 114 114 114
123 123 123 128 128 128 127 127 127 127 127 127
129 129 129 128 128 128 126 126 126 129 129 129
135 135 135 137 137 137 131 131 131 123 123 123
116 116 116 110 110 110 106 106 106 105 105 105
105 105 105 108 108 108 112 112 112 112 112 112
110 110 110 113 113 113 122 122 122 130 130 130
135 135 135 138 138 138 138 138 138 135 135 135
130 130 130 122 122 122 113 113 113 110 110 110
111 111 111 114 114 114 114 114 114 111 111 111
107 107 107 105 105 105 106 106 106 106 106 106
105 105 105 106 106 106 110 110 110 115 115 115
116 116 116 106 106 106 90 90 90 82 82 82
66 66 66 77 77 77 97 97 97 105 105 105
99 99 99 93 93 93 93 93 93 93 93 93
94 94 94 97 97 97 101 101 101 103 103 103
103 103 103 102 102 102 104 104 104 110 110 110
119 119 119 123 123 123 123 123 123 121 121 121
122 122 122 121 121 121 121 121 121 123 123 123
127 127 127 129 129 129 125 125 125 117 117 117
107 107 107 99 99 99 96 96 96 94 94 94
92 92 92 95 95 95 101 101 101 104 104 104
105 105 105 109 109 109 118 118 118 125 125 125
128 128 128 129 129 129 129 129 129 128 128 128
125 125 125 118 118 118 109 109 109 104 104 104
102 102 102 103 103 103 103 103 103 101 101 101
97 97 97 94 94 94 93 93 93 93 93 93
94 94 94 97 97 97 100 100 100 105 105 105
107 107 107 96 96 96 76 76 76 66 66 66
68 68 68 78 78 78 97 97 97 107 107 107
105 105 105 98 98 98 95 95 95 95 95 95
99 99 99 103 103 103 104 104 104 103 103 103
102 102 102 106 106 106 113 113 113 119 119 119
121 121 121 121 121 121 121 121 121 123 123 123
126 126 126 125 125 125 122 122 122 122 122 122
126 126 126 128 128 128 125 125 125 117 117 117
107 107 107 102 102 102 101 101 101 99 99 99
95 95 95 95 95 95 100 100 100 108 108 108
115 115 115 119 119 119 121 121 121 124 124 124
128 128 128 130 130 130 130 130 130 128 128 128
124 124 124 121 121 121 120 120 120 115 115 115
107 107 107 103 103 103 103 103 103 104 104 104
103 103 103 99 99 99 95 95 95 95 95 95
99 99 99 103 103 103 103 103 103 106 106 106
108 108 108 97 97 97 78 78 78 68 68 68
73 73 73 82 82 82 100 100 100 111 111 111
111 111 111 105 105 105 101 101 101 102 102 102
106 106 106 109 109 109 109 109 109 106 106 106
106 105 105 113 112 112 125 124 124 131 129 129
129 127 127 125 124 124 125 124 124 130 128 128
136 135 135 135 134 134 128 127 127 129 127 127
135 134 134 138 136 136 132 130 130 122 120 120
112 110 110 108 106 106 110 108 108 109 107 107
103 103 103 100 101 101 103 103 103 112 112 112
123 123 123 127 127 127 125 125 125 125 125 125
131 131 131 135 135 135 135 135 135 131 131 131
125 125 125 125 125 125 127 127 127 122 122 122
110 110 110 104 104 104 105 105 105 108 108 108
109 109 109 106 106 106 102 102 102 102 102 102
106 106 106 109 109 109 107 107 107 108 108 108
109 109 109 99 99 99 82 82 82 73 73 73
72 72 72 82 82 82 100 100 100 110 110 110
109 109 109 105 105 105 105 105 105 105 105 105
106 106 106 107 107 107 108 108 108 107 106 106
108 104 104 116 109 109 128 121 121 134 128 127
133 126 126 130 123 123 130 123 123 134 127 127
141 134 134 140 133 133 133 126 126 135 128 128
144 137 137 147 139 139 138 130 131 125 118 118
114 108 108 111 104 104 111 105 105 111 106 106
108 106 106 104 105 105 104 105 105 111 111 111
122 122 122 126 126 126 124 124 124 126 126 126
134 134 134 140 140 140 140 140 140 134 134 134
126 126 126 124 124 124 126 126 126 121 121 121
109 109 109 103 103 103 105 105 105 108 108 108
107 107 107 106 106 106 105 105 105 105 105 105
106 106 106 107 107 107 106 106 106 108 108 108
108 108 108 98 98 98 81 81 81 72 72 72
71 71 71 81 81 81 99 99 99 108 108 108
107 107 107 105 105 105 106 106 106 107 107 107
106 106 106 106 105 105 105 104 104 101 104 104
96 106 106 97 111 111 105 119 119 110 123 123
109 123 123 107 121 121 106 121 121 109 123 123
112 126 126 111 124 124 106 120 120 109 123 123
117 132 132 120 134 134 112 127 127 103 117 117
97 110 110 93 107 107 93 107 107 98 108 107
103 106 106 105 103 103 104 103 103 109 109 109
120 120 120 124 124 124 122 122 122 126 126 126
135 135 135 142 142 142 142 142 142 135 135 135
126 126 126 122 122 122 123 123 123 121 121 121
113 113 113 107 107 107 105 105 105 105 105 105
105 105 105 106 106 106 107 107 107 107 107 107
106 106 106 105 105 105 103 103 103 108 108 108
112 112 112 103 103 103 82 82 82 71 71 71
71 71 71 81 81 81 98 98 98 108 108 108
107 107 107 105 105 105 106 106 106 107 107 107
106 107 107 105 104 104 102 100 100 94 99 98
84 101 101 80 104 104 82 105 105 84 106 106
83 106 106 81 106 106 81 106 106 81 106 106
81 105 105 80 103 103 79 102 102 80 104 104
84 108 108 85 110 110 83 108 108 81 105 105
81 103 103 79 102 102 79 103 102 84 102 101
95 100 100 101 99 99 102 101 101 108 109 109
120 120 120 124 124 124 122 122 122 125 125 125
135 135 135 142 142 142 142 142 142 135 135 135
126 126 126 121 121 121 122 122 122 124 124 124
122 122 122 116 116 116 107 107 107 103 103 103
105 105 105 107 107 107 107 107 107 107 107 107
107 107 107 104 104 104 102 102 102 110 110 110
121 121 121 112 112 112 85 85 85 69 69 69
71 71 71 82 82 82 103 103 103 113 113 113
109 109 109 105 105 105 105 105 105 106 106 106
107 106 106 104 106 106 99 103 103 101 92 92
110 75 75 115 66 66 113 66 66 113 68 68
116 68 68 117 67 67 118 67 67 118 68 68
120 71 72 122 74 74 122 75 75 121 72 72
117 67 67 116 65 65 116 66 66 116 68 68
115 70 70 115 68 67 115 67 67 109 75 75
101 92 92 98 103 103 105 108 108 114 113 113
122 121 121 124 124 124 124 124 124 128 128 128
135 135 135 140 140 140 140 140 140 135 135 135
128 128 128 123 123 123 122 122 122 125 125 125
126 126 126 122 122 122 113 113 113 107 107 107
106 106 106 106 106 106 106 106 106 106 106 106
106 106 106 106 106 106 106 106 106 116 116 116
127 127 127 116 116 116 86 86 86 69 69 69
69 69 69 85 85 85 112 112 112 122 122 122
112 112 112 104 104 104 105 105 105 107 106 106
109 104 104 101 111 111 97 113 113 120 85 86
165 36 37 190 9 10 189 12 12 187 20 19
196 18 18 201 15 16 204 14 15 208 21 21
216 33 33 221 42 42 221 42 42 216 33 33
208 20 21 203 13 14 201 15 15 197 18 18
188 21 20 190 13 13 190 10 10 164 35 36
118 84 84 99 116 116 112 121 121 124 119 119
124 123 123 124 124 124 128 128 128 132 132 132
137 137 137 140 140 140 140 140 140 136 136 136
131 131 131 126 126 126 122 122 122 122 122 122
124 124 124 125 125 125 122 122 122 116 116 116
109 109 109 105 105 105 106 106 106 106 106 106
105 105 105 109 109 109 115 115 115 125 125 125
129 129 129 114 114 114 85 85 85 69 69 69
69 69 69 86 86 86 117 117 117 126 126 126
112 112 112 102 102 102 104 104 104 107 106 106
108 102 102 99 112 112 96 118 118 129 83 83
192 16 17 228 0 0 230 0 0 228 0 0
238 0 0 245 0 0 251 0 0 255 0 0
255 8 9 255 17 17 255 17 17 255 8 9
255 0 0 251 0 0 245 0 0 238 0 0
227 0 0 229 0 0 228 0 0 190 15 16
127 81 81 100 123 123 115 129 129 130 123 123
125 123 123 124 124 124 129 129 129 134 134 134
138 138 138 139 139 139 139 139 139 138 138 138
137 137 137 134 134 134 129 129 129 124 124 124
122 122 122 125 125 125 127 127 127 121 121 121
109 109 109 103 103 103 105 105 105 105 105 105
103 103 103 109 109 109 120 120 120 130 130 130
130 130 130 112 112 112 84 84 84 70 70 70
69 69 69 86 86 86 116 116 116 125 125 125
111 111 111 101 101 101 105 105 105 107 106 106
108 101 101 99 111 111 97 117 117 126 83 83
180 19 19 213 0 0 218 0 0 216 0 0
223 0 0 230 0 0 238 0 0 246 0 0
251 0 0 254 2 3 254 2 3 251 0 0
246 0 0 239 0 0 230 0 0 223 0 0
216 0 0 218 0 0 214 0 0 178 18 18
124 81 81 101 122 122 115 128 128 129 122 122
125 124 124 124 124 124 129 129 129 134 134 134
137 137 137 139 139 139 139 139 139 139 139 139
139 139 139 136 136 136 131 131 131 126 126 126
123 123 123 125 125 125 126 126 126 120 120 120
108 108 108 103 103 103 106 106 106 106 106 106
103 103 103 108 108 108 119 119 119 129 129 129
130 130 130 112 112 112 85 85 85 70 70 70
69 69 69 85 85 85 114 114 114 125 125 125
116 116 116 105 105 105 104 104 104 107 105 105
111 106 106 105 116 116 99 117 118 121 84 83
165 24 24 194 0 0 199 0 0 198 6 7
204 4 4 210 3 2 218 3 3 225 2 2
230 0 1 232 0 0 232 0 0 230 0 1
225 2 2 218 3 3 210 3 2 204 4 4
198 6 7 199 0 0 194 0 0 165 24 23
119 82 82 102 120 120 115 126 126 126 121 121
124 122 122 124 124 124 130 130 130 135 135 135
137 137 137 140 140 140 141 140 140 135 135 135
125 125 124 116 116 116 113 113 113 116 116 115
121 121 121 125 125 125 125 125 125 120 120 120
113 113 113 107 107 107 105 105 105 105 105 105
107 107 107 113 113 113 119 119 119 127 127 127
129 129 129 113 113 113 84 84 84 68 68 68
69 69 69 85 85 85 113 113 113 129 129 129
126 126 126 114 114 114 105 105 105 107 106 106
119 114 114 114 125 125 102 121 121 119 82 82
164 22 21 191 0 0 193 0 0 193 4 5
203 2 3 209 1 1 213 1 0 220 0 0
228 0 0 233 0 0 233 0 0 228 0 0
220 0 0 213 1 0 209 1 1 203 2 3
193 4 5 193 0 0 191 0 0 164 22 21
119 82 82 102 121 121 116 127 127 126 121 121
123 122 122 125 125 125 134 134 134 138 139 139
138 138 138 141 141 141 144 143 143 129 128 127
101 100 100 82 81 80 81 81 80 97 96 95
117 116 115 128 127 127 126 125 125 122 123 123
122 122 122 115 115 115 106 106 106 106 106 106
115 115 115 122 122 122 122 122 122 126 126 126
129 129 129 113 113 113 84 84 84 68 68 68
70 70 70 85 85 85 113 113 113 130 130 130
130 130 130 120 120 120 110 110 110 113 112 112
125 120 120 119 130 130 104 122 122 118 81 81
159 21 20 185 0 0 188 0 0 189 4 4
198 1 2 204 0 1 209 0 0 215 0 0
223 1 0 229 1 1 229 1 1 223 1 0
215 0 0 209 0 0 204 0 1 198 1 2
189 4 4 188 0 0 185 0 0 160 21 21
118 82 82 103 121 121 116 126 126 127 122 122
125 124 124 128 128 128 136 136 136 140 140 140
137 137 137 142 143 143 145 147 148 122 124 125
80 82 83 52 53 54 53 54 56 78 79 81
110 112 113 127 129 130 126 126 126 123 123 123
127 126 126 121 121 121 111 111 111 111 111 111
121 121 121 127 127 127 123 123 123 126 126 126
128 128 128 114 114 114 87 87 87 73 73 73
70 70 70 85 85 85 113 113 113 129 129 129
128 128 128 122 122 122 119 119 119 122 121 121
127 122 122 118 128 128 104 121 121 116 82 82
152 21 21 176 0 0 182 0 0 183 3 3
190 1 1 196 1 1 204 0 1 211 0 0
216 0 0 218 0 0 218 0 0 216 0 0
211 0 0 204 0 1 196 1 1 190 1 1
183 3 3 182 0 0 176 0 0 152 21 22
116 82 82 103 120 120 116 126 126 128 123 123
129 128 128 132 132 132 137 137 138 139 139 139
137 137 137 142 143 143 144 147 148 120 124 126
78 81 83 49 51 54 50 52 55 75 78 81
107 111 113 126 129 130 126 127 127 123 122 122
125 124 124 123 123 123 120 120 120 120 120 120
123 123 123 125 125 125 123 123 123 125 125 125
127 127 127 116 116 116 94 94 94 83 83 83
68 68 68 84 84 84 113 113 113 128 128 128
126 126 126 122 122 122 124 124 124 126 125 125
127 122 122 116 125 125 104 120 120 115 82 82
148 21 22 171 0 0 176 0 0 177 3 2
184 1 0 190 0 1 198 0 1 205 0 1
210 0 0 213 0 0 213 0 0 210 0 0
205 0 1 198 0 1 190 0 1 184 1 0
177 3 2 176 0 0 171 0 0 148 21 22
115 82 82 104 120 120 116 126 125 128 124 124
131 130 130 134 134 134 138 137 137 138 139 139
137 138 138 142 141 140 147 141 139 135 127 123
109 103 98 91 87 81 91 87 81 106 101 95
125 118 114 133 127 125 127 126 125 121 122 122
122 122 123 124 123 123 125 125 125 125 125 125
123 123 123 123 123 123 122 122 122 125 125 125
126 126 126 116 116 116 98 98 98 88 88 88
68 68 68 84 84 84 113 113 113 129 129 129
127 127 127 122 122 122 123 123 123 126 125 125
127 122 122 116 126 126 104 121 120 115 82 82
146 21 22 165 0 0 167 0 0 169 3 3
178 1 0 185 0 0 190 0 1 197 1 1
205 0 1 210 0 1 210 0 1 205 0 1
197 1 1 190 0 1 185 0 0 178 1 0
169 3 3 167 0 0 165 0 0 146 21 22
115 82 82 104 120 120 116 126 126 128 123 123
130 129 129 133 133 133 138 137 137 138 140 141
138 141 142 142 136 134 151 128 120 155 127 112
153 131 112 151 136 114 151 136 114 153 131 112
153 125 110 145 122 114 129 123 121 121 124 125
122 123 124 124 124 123 125 124 124 124 124 124
124 124 124 123 123 123 123 123 123 125 125 125
126 126 126 116 116 116 97 97 97 87 87 87
73 73 73 87 87 87 114 114 114 128 128 128
126 126 126 122 122 122 122 122 122 124 123 123
127 122 122 117 126 126 105 121 121 114 82 82
142 21 21 160 0 0 162 0 0 164 3 4
173 1 0 179 0 0 184 0 0 191 0 0
199 0 1 204 0 2 204 0 2 199 0 1
191 0 0 184 0 0 179 0 0 173 1 0
164 3 4 162 0 0 160 0 0 142 21 21
114 82 82 104 120 120 116 125 125 128 123 123
131 130 130 135 134 134 138 137 137 138 140 141
137 141 143 139 131 128 149 119 105 162 125 102
176 145 117 184 161 131 184 161 131 177 147 119
165 127 104 147 118 104 129 120 117 120 124 126
122 124 125 124 123 123 123 123 123 123 123 123
123 123 123 123 123 123 122 122 122 126 126 126
128 128 128 118 118 118 97 97 97 85 85 85
83 83 83 94 94 94 115 115 115 126 126 126
126 126 126 122 122 122 123 123 123 125 124 124
126 122 122 118 126 126 106 121 121 111 82 82
134 22 21 151 0 0 158 0 0 160 3 4
165 0 1 170 0 0 179 0 0 186 0 0
192 0 0 195 1 1 195 1 1 192 0 0
186 0 0 179 0 0 170 0 0 165 0 1
160 3 4 158 0 0 151 0 0 134 22 21
112 83 82 105 119 120 115 124 124 128 124 124
135 134 134 138 138 138 139 138 138 138 140 141
137 141 143 136 130 125 139 114 98 148 116 90
161 132 105 170 146 118 169 146 118 162 133 106
150 118 93 136 112 96 125 119 115 121 125 127
122 124 125 124 123 123 123 123 123 123 123 123
124 124 124 123 123 123 121 121 121 126 126 126
132 132 132 122 122 122 98 98 98 85 85 85
88 88 88 98 98 98 118 118 118 128 128 128
126 126 126 122 122 122 123 123 123 125 124 124
126 122 122 118 126 126 107 120 121 109 82 82
126 23 22 141 0 0 150 0 0 155 4 4
159 1 2 164 1 1 172 1 0 179 1 0
184 1 1 187 2 1 187 2 1 184 1 1
179 1 0 172 1 0 164 1 1 159 1 2
155 4 4 150 0 0 141 0 0 126 23 22
109 83 82 107 120 120 118 126 126 131 127 127
138 137 137 140 139 139 138 138 137 140 142 143
144 146 149 137 132 127 123 105 85 119 93 65
126 99 73 133 107 84 132 106 83 127 100 74
120 94 67 119 101 81 123 118 113 126 128 131
124 126 127 123 122 122 123 123 123 123 123 123
123 123 123 123 123 123 123 123 123 129 129 129
135 135 135 124 124 124 99 99 99 85 85 85
86 86 86 99 99 99 122 122 122 132 132 132
127 127 127 121 121 121 122 122 122 125 124 124
126 122 122 119 126 126 108 121 121 108 83 83
120 25 25 131 0 0 139 0 0 146 7 7
154 5 5 159 4 5 163 4 4 169 4 4
177 4 4 181 4 3 181 4 3 177 4 4
169 4 4 163 4 4 159 4 5 154 5 5
146 7 7 139 0 0 132 0 0 119 25 25
108 83 83 109 121 121 123 130 130 135 131 131
139 138 138 138 138 138 136 135 135 144 145 147
155 156 159 142 138 132 109 94 73 90 67 39
92 65 42 96 69 51 96 68 50 93 66 43
92 69 41 104 89 67 123 120 114 132 134 136
127 128 130 122 121 120 123 123 123 123 123 123
123 123 123 124 124 124 127 127 127 133 133 133
136 136 136 123 123 123 99 99 99 85 85 85
84 84 84 99 99 99 125 125 125 135 135 135
128 128 128 121 121 121 122 122 122 125 124 124
126 122 122 119 126 126 108 120 120 106 79 79
116 14 15 126 0 0 134 0 0 143 0 0
154 0 0 159 0 0 162 0 0 168 0 0
178 0 0 184 0 0 184 0 0 178 0 0
168 0 0 162 0 0 159 0 0 154 0 0
143 0 0 134 0 0 126 0 0 115 14 15
105 78 79 109 122 122 126 133 133 138 134 134
140 139 139 136 136 136 134 134 133 147 148 149
162 163 165 147 145 140 105 96 81 77 62 43
73 55 40 74 55 44 74 54 43 75 56 41
81 65 46 100 91 75 125 123 119 135 136 138
128 129 130 121 121 120 123 123 123 123 123 123
122 122 122 125 125 125 130 130 130 136 136 136
136 136 136 122 122 122 98 98 98 85 85 85
84 84 84 99 99 99 125 125 125 135 135 135
128 128 128 121 121 121 122 122 122 125 124 124
126 122 122 118 127 126 107 120 120 105 77 77
115 9 10 125 0 0 134 0 0 143 0 0
155 0 0 160 0 0 163 0 0 169 0 0
179 0 0 186 0 0 186 0 0 179 0 0
169 0 0 163 0 0 160 0 0 155 0 0
143 0 0 134 0 0 126 0 0 114 9 10
104 76 77 109 122 122 125 133 133 138 134 134
140 139 139 136 136 136 135 135 134 146 146 147
160 160 161 149 149 148 114 112 107 85 81 76
74 69 66 70 65 62 70 64 62 76 71 67
88 85 79 108 106 102 128 127 126 134 134 135
127 128 128 121 121 121 123 123 123 123 123 123
122 122 122 125 125 125 130 130 130 136 136 136
136 136 136 122 122 122 98 98 98 85 85 85
86 86 86 99 99 99 122 122 122 132 132 132
127 127 127 122 122 122 122 122 122 125 124 124
125 123 123 119 125 125 111 121 121 111 92 92
122 46 47 132 23 23 138 26 25 143 32 31
151 30 30 155 29 29 157 29 30 162 29 29
169 29 29 173 29 28 173 29 28 169 29 29
162 29 29 157 29 30 155 29 29 151 30 30
144 33 32 138 26 25 132 23 23 122 46 46
111 91 91 112 121 121 123 129 129 134 131 131
139 138 138 138 138 138 137 137 137 143 143 143
151 151 151 148 148 149 128 129 131 103 105 108
83 85 87 70 73 74 70 73 74 84 87 88
105 107 109 122 123 125 129 130 130 129 129 128
125 125 125 122 122 123 123 123 123 123 123 123
123 123 123 124 124 124 127 127 127 133 133 133
136 136 136 123 123 123 99 99 99 85 85 85
88 88 88 98 98 98 118 118 118 128 128 128
126 126 126 122 122 122 123 123 123 124 124 124
124 124 124 122 123 123 119 121 121 123 118 118
133 113 113 139 110 110 140 110 110 140 110 110
142 110 110 143 109 109 143 109 109 145 109 109
147 109 109 148 109 109 148 109 109 147 109 109
145 109 109 143 109 109 143 109 109 142 110 110
141 111 111 141 111 111 140 110 110 133 113 113
123 118 118 118 121 121 121 123 123 129 128 128
137 137 137 140 140 140 139 139 139 139 139 139
140 140 140 144 144 145 141 142 143 120 121 123
88 89 90 66 67 68 65 67 68 88 89 90
118 119 120 133 134 135 129 129 130 123 123 123
123 123 123 123 123 123 123 123 123 123 123 123
123 123 123 123 123 123 123 123 123 129 129 129
135 135 135 124 124 124 99 99 99 85 85 85
83 83 83 94 94 94 115 115 115 126 126 126
126 126 126 122 122 122 123 123 123 123 123 123
124 124 124 123 122 122 124 122 122 128 130 130
135 144 144 138 152 152 138 152 152 137 151 151
137 152 152 137 153 153 136 153 153 136 153 153
135 153 153 134 153 153 134 153 153 135 153 153
136 153 153 136 153 153 137 153 153 136 152 152
135 150 150 136 151 151 138 152 152 135 145 145
128 131 131 122 121 121 121 120 120 126 126 126
134 134 134 139 139 139 139 139 139 137 137 137
135 135 135 142 141 141 147 147 146 128 128 127
91 90 89 64 63 63 64 64 63 89 89 88
121 121 120 136 136 135 128 128 128 120 120 120
122 122 122 124 124 124 123 123 123 123 123 123
124 124 124 123 123 123 121 121 121 126 126 126
132 132 132 122 122 122 98 98 98 85 85 85
73 73 73 87 87 87 114 114 114 128 128 128
126 126 126 122 122 122 123 123 123 123 123 123
123 123 123 124 123 123 124 123 123 125 126 126
127 132 132 129 137 137 131 140 140 134 143 143
137 146 146 138 147 147 137 147 147 137 147 147
136 147 147 136 147 147 136 147 147 136 147 147
136 147 147 138 148 148 139 148 148 135 144 144
129 137 137 126 134 134 127 135 135 127 133 133
125 127 127 123 122 122 122 122 122 125 125 125
130 130 130 135 135 135 138 138 138 138 138 138
136 136 136 142 142 142 146 146 146 127 127 127
90 90 90 65 64 64 65 65 65 88 88 87
117 116 116 131 131 131 127 127 127 121 121 121
123 123 123 123 123 123 123 123 123 123 123 123
123 123 123 123 123 123 122 122 122 126 126 126
128 128 128 118 118 118 97 97 97 85 85 85
68 68 68 84 84 84 113 113 113 129 129 129
127 127 127 122 122 122 124 124 124 124 124 124
124 124 124 123 123 123 123 124 124 122 121 121
121 118 118 123 119 119 128 124 124 134 130 130
138 134 134 140 135 135 140 135 135 139 134 134
140 134 134 140 134 134 140 134 134 140 134 134
139 134 134 140 135 135 141 136 136 135 131 131
126 121 121 120 116 116 120 116 116 122 119 120
124 123 123 124 124 124 123 124 124 125 125 125
129 129 129 134 134 134 137 137 137 139 139 139
138 138 138 142 142 142 144 144 144 124 124 124
89 89 89 65 65 65 66 66 66 86 86 86
112 112 112 127 127 127 126 126 126 122 122 122
123 123 123 124 124 124 124 124 124 124 124 124
124 124 124 123 123 123 123 123 123 125 125 125
126 126 126 116 116 116 97 97 97 87 87 87
68 68 68 84 84 84 113 113 113 128 128 128
126 126 126 122 122 122 125 125 125 125 125 125
123 123 123 123 123 123 123 124 124 123 123 123
122 121 121 124 123 123 129 128 128 135 134 134
139 137 137 140 139 139 139 138 138 138 137 137
139 137 137 139 138 138 139 137 137 139 137 137
138 137 137 140 138 138 140 139 139 135 134 134
126 125 125 121 120 119 121 120 120 123 122 122
125 125 125 125 125 125 123 123 123 125 125 125
129 129 129 134 134 134 137 137 137 138 138 138
137 137 137 142 142 142 145 145 145 125 125 125
89 89 89 65 65 65 66 66 66 87 87 87
113 113 113 128 128 128 126 126 126 122 122 122
122 122 122 123 123 123 125 125 125 125 125 125
123 123 123 123 123 123 122 122 122 125 125 125
126 126 126 116 116 116 98 98 98 88 88 88
70 70 70 85 85 85 113 113 113 129 129 129
128 128 128 122 122 122 120 120 120 120 120 120
123 123 123 125 125 125 124 124 124 123 123 123
123 123 123 125 125 125 128 128 128 132 132 132
135 135 135 138 138 138 139 139 139 139 139 139
138 138 138 138 138 138 139 139 139 139 139 139
138 138 138 139 139 139 140 140 140 135 135 135
127 127 127 123 123 123 124 124 124 124 124 124
121 121 121 120 120 120 122 122 122 125 125 125
128 128 128 133 133 133 138 138 138 139 139 139
137 137 137 142 142 142 145 145 145 125 125 125
89 89 89 65 65 65 66 66 66 87 87 87
114 114 114 129 129 129 126 126 126 122 122 122
125 125 125 123 123 123 120 120 120 120 120 120
123 123 123 125 125 125 123 123 123 125 125 125
127 127 127 116 116 116 94 94 94 83 83 83
70 70 70 85 85 85 113 113 113 130 130 130
130 130 130 120 120 120 111 111 111 111 111 111
121 121 121 127 127 127 124 124 124 122 122 122
122 122 122 123 123 123 123 123 123 126 126 126
130 130 130 134 134 134 137 137 137 138 138 138
137 137 137 137 137 137 138 138 138 138 138 138
137 137 137 138 138 138 139 139 139 135 135 135
125 125 125 122 122 122 125 125 125 121 121 121
112 112 112 111 111 111 120 120 120 125 125 125
124 124 124 128 128 128 136 136 136 140 140 140
138 138 138 142 142 142 145 145 145 125 125 125
89 89 89 65 65 65 66 66 66 87 87 87
114 114 114 128 128 128 126 126 126 123 123 123
127 127 127 121 121 121 111 111 111 111 111 111
121 121 121 127 127 127 123 123 123 126 126 126
128 128 128 114 114 114 87 87 87 73 73 73
69 69 69 85 85 85 113 113 113 129 129 129
126 126 126 114 114 114 105 105 105 106 106 106
115 115 115 123 123 123 125 125 125 125 125 125
126 126 125 124 124 124 124 124 123 125 126 125
130 130 130 135 135 135 138 138 138 140 140 140
141 141 141 140 141 140 139 139 139 139 139 139
140 140 140 142 142 142 141 141 141 136 136 136
128 128 128 124 124 124 123 123 122 116 116 116
106 106 106 107 107 107 119 119 119 125 125 125
123 123 123 125 125 125 134 134 134 138 138 138
137 137 137 142 142 142 145 145 145 125 125 125
89 89 89 65 65 65 66 66 66 87 87 87
114 114 114 129 129 129 126 126 126 122 122 122
122 122 122 115 115 115 106 106 106 106 106 106
115 115 115 122 122 122 122 122 122 126 126 126
129 129 129 113 113 113 84 84 84 68 68 68
69 69 69 85 85 85 114 114 114 125 125 125
116 116 116 106 106 106 105 105 105 105 105 105
107 107 107 114 114 114 123 123 123 128 128 128
126 127 126 123 124 123 123 124 123 126 127 126
131 132 131 134 135 134 134 135 134 137 137 137
141 141 141 140 141 140 136 136 136 136 136 136
140 140 140 141 142 141 138 138 137 133 134 133
128 128 128 121 121 121 113 113 112 106 107 106
104 104 104 110 110 110 120 120 120 124 124 124
123 123 123 124 124 124 130 130 130 135 135 135
136 136 136 143 143 143 145 145 145 125 125 125
89 89 89 65 65 65 66 66 66 87 87 87
113 113 113 129 129 129 127 127 127 119 119 119
113 113 113 107 107 107 105 105 105 105 105 105
107 107 107 113 113 113 119 119 119 127 127 127
129 129 129 113 113 113 84 84 84 68 68 68
69 69 69 86 86 86 116 116 116 125 125 125
111 111 111 101 101 101 105 105 105 106 106 106
104 104 104 106 107 106 114 114 114 120 119 120
121 120 121 120 119 121 120 119 121 122 122 123
126 126 127 127 127 128 126 125 127 128 127 128
132 131 133 132 131 132 127 127 128 127 126 128
131 131 132 132 132 133 128 128 129 125 125 126
123 122 124 117 116 118 109 108 109 102 102 103
101 101 102 109 109 109 121 121 121 126 126 126
125 124 125 124 124 124 129 129 129 133 133 133
136 136 136 143 143 143 146 146 146 125 125 125
89 89 89 65 65 65 66 66 66 86 86 86
113 113 113 130 130 130 129 129 129 119 119 119
108 108 108 103 103 103 106 106 106 106 106 106
103 103 103 108 108 108 119 119 119 129 129 129
130 130 130 112 112 112 85 85 85 70 70 70
69 69 69 86 86 86 117 117 117 126 126 126
112 112 112 102 102 102 104 104 104 107 107 107
106 106 106 104 104 104 103 103 103 103 102 103
104 103 104 105 103 105 104 103 105 105 104 106
106 105 107 106 105 107 106 105 106 106 105 107
107 106 108 107 106 108 106 105 107 106 105 107
107 106 108 107 106 108 106 105 107 105 104 106
105 104 106 103 102 104 101 100 102 97 96 98
96 96 96 105 105 105 120 120 120 127 127 127
125 125 125 124 124 124 129 129 129 134 134 134
136 136 136 143 143 143 146 146 146 125 125 125
89 89 89 65 65 65 66 66 66 86 86 86
112 112 112 130 130 130 130 130 130 120 120 120
109 109 109 103 103 103 105 105 105 105 105 105
103 103 103 109 109 109 120 120 120 130 130 130
130 130 130 112 112 112 84 84 84 70 70 70
69 69 69 85 85 85 112 112 112 122 122 122
112 112 112 104 104 104 105 105 105 107 107 107
107 107 107 106 106 106 102 101 102 90 91 90
76 78 74 68 72 67 69 72 68 71 73 70
70 72 69 70 72 68 70 72 68 70 72 68
69 71 68 69 71 68 70 72 68 70 72 68
69 71 68 69 71 68 70 72 68 70 72 69
71 73 70 70 72 68 71 74 69 77 80 76
91 92 91 105 105 106 117 116 117 122 122 122
123 123 123 124 124 124 128 128 128 132 132 132
135 135 135 143 143 143 146 146 146 125 125 125
89 89 89 65 65 65 65 65 65 87 87 87
115 115 115 129 129 129 125 125 125 115 115 115
109 109 109 105 105 105 106 106 106 106 106 106
105 105 105 109 109 109 115 115 115 125 125 125
129 129 129 114 114 114 85 85 85 69 69 69
71 71 71 82 82 82 103 103 103 113 113 113
109 109 109 105 105 105 105 105 105 106 106 105
104 105 104 110 109 110 111 110 112 87 90 86
45 55 40 22 35 15 26 37 19 32 41 26
30 40 24 29 39 23 29 40 23 29 39 23
29 39 22 29 39 23 29 39 23 29 39 23
29 39 23 29 39 22 29 39 23 30 40 24
32 41 26 26 37 19 23 36 16 46 56 41
88 91 87 111 110 112 111 111 112 111 111 111
121 121 121 124 124 124 124 124 124 127 127 127
134 134 134 144 144 144 146 146 146 125 125 125
89 89 89 65 65 65 65 65 65 88 88 88
117 117 117 127 127 127 116 116 116 106 106 106
106 106 106 106 106 106 106 106 106 106 106 106
106 106 106 106 106 106 106 106 106 116 116 116
127 127 127 116 116 116 86 86 86 69 69 69
71 71 71 81 81 81 98 98 98 108 108 108
107 107 107 105 105 105 106 106 106 106 106 105
103 103 103 112 111 113 117 116 118 87 91 85
31 43 23 0 19 0 4 25 0 13 33 4
11 32 2 10 31 1 10 31 1 10 31 1
10 31 1 10 31 1 10 31 1 10 31 1
10 31 1 10 31 1 10 31 1 11 32 2
13 33 4 4 25 0 0 19 0 30 43 23
88 91 86 116 114 117 109 108 109 105 106 105
119 119 119 124 124 124 122 122 122 125 125 125
133 133 133 145 145 145 147 147 147 125 125 125
89 89 89 65 65 65 65 65 65 87 87 87
112 112 112 121 121 121 110 110 110 102 102 102
104 104 104 107 107 107 107 107 107 107 107 107
107 107 107 104 104 104 102 102 102 110 110 110
121 121 121 112 112 112 85 85 85 69 69 69
71 71 71 81 81 81 99 99 99 108 108 108
107 107 107 105 105 105 107 107 107 106 106 106
103 104 103 111 111 112 116 115 117 87 89 85
32 43 25 2 23 0 6 35 0 15 47 7
12 44 5 12 42 4 12 43 4 12 43 4
12 43 4 12 43 4 12 43 4 12 43 4
12 43 4 12 43 4 12 42 4 12 44 5
15 47 7 6 35 0 2 23 0 33 44 26
88 91 86 116 114 116 109 108 110 106 106 105
119 119 119 124 124 124 122 122 122 125 125 125
134 134 134 145 145 145 147 147 147 125 125 125
89 89 89 66 66 66 67 67 67 84 84 84
103 103 103 112 112 112 108 108 108 103 103 103
105 105 105 106 106 106 107 107 107 107 107 107
106 106 106 105 105 105 103 103 103 108 108 108
112 112 112 103 103 103 82 82 82 71 71 71
71 71 71 81 81 81 100 100 100 110 110 110
109 109 109 105 105 105 104 104 104 104 104 104
103 104 103 112 111 112 115 114 116 87 89 86
37 46 31 10 30 1 13 45 5 20 58 14
18 55 12 18 53 11 18 53 11 18 53 11
18 53 11 18 53 11 18 53 11 18 53 11
18 53 11 18 53 11 18 53 11 18 55 12
20 58 14 13 45 5 10 30 1 37 46 30
86 88 85 112 111 113 109 109 110 108 109 108
121 121 121 125 125 125 124 124 124 125 125 125
132 132 132 142 142 142 144 144 144 124 124 124
88 88 88 66 66 66 68 68 68 82 82 82
98 98 98 108 108 108 108 108 108 106 106 106
107 107 107 106 106 106 104 104 104 104 104 104
106 106 106 107 107 107 106 106 106 108 108 108
108 108 108 98 98 98 81 81 81 72 72 72
71 71 71 81 81 81 99 99 99 110 110 110
110 110 110 104 104 104 100 100 100 100 100 100
102 103 102 113 112 113 116 115 117 87 89 85
36 46 29 8 29 0 11 43 3 19 56 12
17 53 10 16 51 9 16 51 9 16 51 9
16 51 9 16 51 9 16 51 9 16 51 9
16 51 9 16 51 9 16 51 9 17 53 10
19 55 12 11 43 4 9 29 0 34 44 28
82 84 80 108 107 109 108 107 108 108 109 108
121 122 121 126 126 126 124 124 124 124 124 124
129 129 129 138 138 138 140 140 140 121 121 121
88 88 88 67 67 67 68 68 68 83 83 83
99 99 99 108 108 108 107 107 107 106 106 106
107 107 107 105 105 105 100 100 100 100 100 100
105 105 105 107 107 107 106 106 106 107 107 107
108 108 108 98 98 98 81 81 81 71 71 71
71 71 71 81 81 81 99 99 99 109 109 109
108 108 108 101 101 101 97 97 97 97 97 97
99 100 99 111 110 111 115 114 116 87 89 85
35 46 29 7 28 0 10 41 3 18 53 12
16 51 9 16 49 9 16 49 9 16 49 9
16 49 9 16 49 9 16 49 9 16 49 9
16 49 9 16 49 9 16 49 9 16 51 9
18 53 11 11 42 3 8 29 0 33 43 26
80 82 78 106 105 107 108 107 108 107 108 107
117 117 117 121 121 121 123 123 123 125 125 125
128 128 128 135 135 135 137 137 137 119 119 119
87 87 87 67 67 67 68 68 68 83 83 83
100 100 100 110 110 110 108 108 108 105 105 105
105 105 105 102 102 102 98 98 98 98 98 98
102 102 102 105 105 105 105 105 105 108 108 108
110 110 110 100 100 100 81 81 81 71 71 71
71 71 71 81 81 81 100 100 100 108 108 108
103 103 103 97 97 97 97 97 97 96 97 96
96 96 95 107 106 107 114 113 115 88 90 86
36 46 29 7 28 0 10 41 3 18 54 12
16 51 9 16 49 9 16 50 9 16 50 9
16 50 9 16 50 9 16 50 9 16 50 9
16 50 9 16 50 9 16 49 9 16 51 9
18 53 11 11 42 3 8 29 0 33 43 26
79 81 78 107 106 108 109 108 109 104 105 104
108 108 107 112 112 112 120 120 120 126 126 126
128 128 128 135 135 135 137 137 137 119 119 119
87 87 87 67 67 67 68 68 68 83 83 83
100 100 100 110 110 110 108 108 108 104 104 104
101 101 101 98 98 98 97 97 97 97 97 97
98 98 98 101 101 101 104 104 104 108 108 108
110 110 110 99 99 99 81 81 81 71 71 71
71 71 71 82 82 82 101 101 101 108 108 108
101 101 101 95 95 95 98 98 98 97 98 97
94 94 93 104 103 105 114 113 114 89 91 87
36 46 30 7 27 0 10 41 3 18 54 12
16 51 9 16 49 9 16 50 9 16 50 9
16 50 9 16 50 9 16 50 9 16 50 9
16 50 9 16 50 9 16 49 9 16 51 9
18 54 11 11 42 3 8 29 0 33 43 27
80 82 79 109 108 110 111 110 111 103 104 103
103 103 103 107 107 107 118 118 118 127 127 127
130 130 130 136 136 136 139 139 139 120 120 120
88 88 88 67 67 67 68 68 68 83 83 83
99 99 99 110 110 110 109 109 109 103 103 103
98 98 98 96 96 96 98 98 98 98 98 98
96 96 96 98 98 98 103 103 103 109 109 109
110 110 110 99 99 99 81 81 81 71 71 71
71 71 71 82 82 82 101 101 101 108 108 108
101 101 101 96 96 96 98 98 98 98 98 98
94 94 94 104 104 105 114 113 115 89 91 87
36 46 30 7 27 0 10 41 3 18 54 12
16 51 9 16 49 9 16 50 9 16 50 9
16 50 9 16 50 9 16 50 9 16 50 9
16 50 9 16 50 9 16 49 9 16 51 9
18 54 11 11 42 3 8 29 0 33 43 27
81 83 79 109 108 110 111 110 111 104 104 103
104 104 104 108 108 108 118 118 118 126 126 126
130 130 130 136 136 136 139 139 139 121 121 121
89 89 89 69 69 69 70 70 70 84 84 84
100 100 100 110 110 110 109 109 109 104 104 104
99 99 99 97 97 97 98 98 98 98 98 98
97 97 97 99 99 99 104 104 104 110 110 110
110 110 110 99 99 99 81 81 81 71 71 71
71 71 71 81 81 81 99 99 99 106 106 106
102 102 102 96 96 96 96 96 96 96 96 95
95 95 94 105 105 106 112 111 113 86 88 85
35 45 29 7 28 0 11 42 3 18 54 12
16 51 9 16 49 9 16 50 9 16 50 9
16 50 9 16 50 9 16 50 9 16 50 9
16 50 9 16 50 9 16 49 9 16 51 9
18 54 11 11 42 3 8 29 0 33 43 26
79 81 77 106 105 107 108 107 108 102 103 102
104 104 104 110 110 110 120 120 120 127 127 127
128 128 128 133 133 133 136 136 136 118 118 118
84 84 84 62 62 62 63 63 63 80 80 80
99 99 99 110 110 110 107 107 107 102 102 102
100 100 100 97 97 97 96 96 96 96 96 96
97 97 97 100 100 100 102 102 102 107 107 107
110 110 110 100 100 100 81 81 81 71 71 71
72 72 72 80 80 80 94 94 94 102 102 102
102 102 102 96 96 96 92 92 92 92 92 91
94 95 94 105 104 105 108 107 109 82 84 80
34 44 27 8 28 0 11 42 3 18 54 11
16 51 9 16 49 9 16 50 9 16 50 9
16 50 9 16 50 9 16 50 9 16 50 9
16 50 9 16 50 9 16 49 9 16 51 9
18 53 11 11 42 4 9 30 0 32 42 25
75 77 73 101 100 101 102 101 103 98 99 98
103 103 103 111 111 111 122 122 122 127 127 127
125 125 125 128 128 128 131 131 131 113 113 113
81 81 81 59 59 59 59 59 59 77 77 77
100 100 100 109 109 109 103 103 103 98 98 98
99 99 99 97 97 97 92 92 92 92 92 92
97 97 97 99 99 99 98 98 98 103 103 103
109 109 109 101 101 101 82 82 82 71 71 71
72 72 72 79 79 79 92 92 92 100 100 100
99 99 99 93 93 93 89 89 89 89 89 89
92 92 91 102 101 103 106 105 106 80 82 78
34 44 28 9 29 0 12 43 4 19 54 12
17 52 10 17 50 10 17 50 10 17 50 10
17 50 10 17 50 10 17 50 10 17 50 10
17 50 10 17 50 10 17 50 10 17 52 10
19 54 12 12 43 5 10 31 1 32 42 25
73 75 72 98 97 98 99 98 100 97 97 96
103 103 103 109 109 109 117 117 117 121 121 121
122 122 122 125 125 125 126 126 126 115 115 115
96 96 96 84 84 84 86 86 86 95 95 95
102 102 102 104 104 104 99 99 99 96 96 96
97 97 97 94 94 94 90 90 90 90 90 90
94 94 94 97 97 97 96 96 96 100 100 100
106 106 106 99 99 99 81 81 81 71 71 71
72 72 72 80 80 80 93 93 93 98 98 98
94 94 94 90 90 90 89 89 89 89 89 89
88 88 88 98 97 98 104 103 105 82 84 80
36 46 30 11 31 3 14 44 7 21 56 15
20 54 13 19 51 12 19 52 12 19 52 12
19 52 12 19 52 12 19 52 12 19 52 12
19 52 12 19 52 12 19 51 12 19 53 13
21 55 15 15 45 7 13 33 4 34 44 28
74 76 73 98 97 99 99 98 99 97 98 97
104 104 104 106 106 106 108 108 108 113 113 113
120 120 120 124 124 124 124 124 124 122 122 122
121 121 121 125 125 125 130 130 130 123 123 123
106 106 106 96 96 96 96 96 96 97 97 97
93 93 93 90 90 90 89 89 89 89 89 89
90 90 90 93 93 93 95 95 95 100 100 100
102 102 102 94 94 94 80 80 80 72 72 72
72 72 72 80 80 80 95 95 95 99 99 99
92 92 92 87 87 87 89 89 89 89 89 89
86 86 85 96 95 96 105 104 105 80 82 78
29 39 22 0 22 0 4 37 0 12 49 5
10 47 2 9 45 2 9 45 2 9 45 2
9 45 2 9 45 2 9 45 2 9 45 2
9 45 2 9 45 2 9 45 2 10 47 2
11 49 4 4 37 0 2 24 0 26 37 19
71 74 70 98 97 99 100 100 101 99 100 99
106 106 106 105 105 105 103 103 103 108 108 108
120 120 120 125 125 125 124 124 124 124 124 124
128 128 128 137 137 137 142 142 142 130 130 130
106 106 106 93 93 93 97 97 97 98 98 98
91 91 91 88 88 88 89 89 89 89 89 89
88 88 88 91 91 91 96 96 96 101 101 101
100 100 100 92 92 92 79 79 79 72 72 72
71 71 71 80 80 80 95 95 95 99 99 99
93 93 93 88 88 88 89 89 89 89 89 89
86 86 86 96 95 97 104 103 105 78 80 76
24 35 17 0 17 0 0 33 0 7 46 0
5 43 0 4 41 0 4 42 0 4 42 0
4 42 0 4 42 0 4 42 0 4 42 0
5 42 0 5 42 0 4 41 0 5 43 0
6 45 0 0 33 0 0 19 0 21 32 14
69 71 67 98 97 99 101 100 101 99 100 99
106 106 106 106 106 106 104 104 104 108 108 108
119 119 119 126 126 126 126 126 126 121 121 121
116 116 116 116 116 116 119 119 119 114 114 114
101 101 101 96 96 96 98 98 98 97 97 97
91 91 91 88 88 88 89 89 89 89 89 89
88 88 88 91 91 91 96 96 96 101 101 101
100 100 100 92 92 92 79 79 79 72 72 72
73 73 73 80 80 80 93 93 93 97 97 97
93 93 93 89 89 89 89 89 89 89 89 89
87 87 87 96 95 96 104 104 105 89 91 88
54 62 49 34 51 27 37 61 30 42 70 36
40 68 34 39 66 34 39 66 34 40 66 34
39 66 34 40 66 34 40 66 34 39 66 34
38 65 33 38 65 33 39 65 33 40 68 35
42 70 37 37 62 31 36 52 29 52 60 47
83 85 81 99 99 100 98 97 98 96 97 96
103 103 102 104 104 104 105 105 105 110 110 110
119 119 119 126 126 126 126 126 126 118 118 118
106 106 106 99 99 99 98 98 98 99 99 99
99 99 99 98 98 98 97 97 97 95 95 95
91 91 91 89 89 89 89 89 89 89 89 89
89 89 89 91 91 91 94 94 94 99 99 99
101 101 101 94 94 94 80 80 80 72 72 72
75 75 75 80 80 80 88 88 88 93 93 93
91 91 91 89 89 89 90 90 90 88 88 88
88 88 88 93 93 93 103 102 103 107 108 107
106 108 104 104 108 102 104 110 102 103 111 102
102 110 101 102 109 101 102 110 101 103 110 101
103 110 101 103 110 101 103 110 101 102 109 100
101 108 99 100 108 99 102 109 100 103 111 102
104 111 103 104 111 103 104 109 102 105 107 104
105 106 105 101 100 101 93 93 93 92 92 92
97 97 97 101 101 101 104 104 104 110 110 110
119 119 119 126 126 126 126 126 126 119 119 119
109 109 109 100 100 100 97 97 97 98 98 98
99 99 99 98 98 98 93 93 93 90 90 90
90 90 90 90 90 90 89 89 89 89 89 89
90 90 90 90 90 90 90 90 90 95 95 95
100 100 100 94 94 94 80 80 80 72 72 72
69 69 69 75 75 75 85 85 85 91 91 91
90 90 90 89 89 89 91 91 91 90 90 90
89 89 89 91 91 91 98 98 98 110 110 110
123 122 124 130 128 131 130 127 131 129 125 130
131 127 132 131 128 132 131 128 132 131 127 131
131 127 132 131 127 131 130 127 131 132 129 133
135 131 136 135 132 136 132 129 133 129 126 130
127 124 128 128 125 129 129 127 130 124 123 124
112 112 112 99 99 99 90 90 90 89 89 89
94 94 94 99 99 99 103 103 103 110 110 110
121 121 121 127 127 127 127 127 127 121 121 121
111 111 111 103 103 103 99 99 99 98 98 98
97 97 97 95 95 95 90 90 90 88 88 88
89 89 89 90 90 90 91 91 91 91 91 91
90 90 90 89 89 89 87 87 87 92 92 92
97 97 97 92 92 92 79 79 79 72 72 72
58 58 58 67 67 67 83 83 83 92 92 92
91 91 91 89 89 89 91 91 91 91 91 91
90 90 90 89 89 89 92 92 92 96 96 96
101 100 101 105 104 105 108 106 108 111 109 112
116 114 116 117 115 118 117 114 117 116 114 116
116 114 117 115 113 116 114 112 114 120 118 121
130 128 130 131 129 131 121 119 122 111 109 112
105 103 105 103 101 103 103 102 103 102 101 102
98 98 98 93 93 93 90 90 90 90 90 90
95 95 95 99 99 99 102 102 102 110 110 110
121 121 121 128 128 128 128 128 128 121 121 121
111 111 111 102 102 102 98 98 98 96 96 96
92 92 92 91 91 91 89 89 89 89 89 89
89 89 89 90 90 90 91 91 91 91 91 91
90 90 90 89 89 89 88 88 88 91 91 91
93 93 93 88 88 88 78 78 78 72 72 72
52 52 52 62 62 62 82 82 82 94 94 94
93 93 93 88 88 88 86 86 86 87 87 87
89 89 89 91 91 91 89 89 89 86 86 85
83 83 83 84 85 84 89 90 89 95 96 94
98 99 98 100 101 100 101 102 101 101 102 101
101 102 101 100 101 99 99 100 99 105 106 105
114 115 114 116 117 116 107 108 107 95 96 95
85 87 85 81 82 81 83 83 82 84 85 84
84 84 84 85 85 85 88 88 88 92 92 92
96 96 96 100 100 100 104 104 104 110 110 110
117 117 117 121 121 121 121 121 121 117 117 117
109 109 109 104 104 104 100 100 100 96 96 96
90 90 90 88 88 88 89 89 89 91 91 91
91 91 91 89 89 89 87 87 87 87 87 87
89 89 89 91 91 91 90 90 90 90 90 90
90 90 90 86 86 86 78 78 78 74 74 74
53 53 53 63 63 63 81 81 81 93 93 93
94 94 94 86 86 86 78 78 78 78 78 78
87 87 87 92 92 92 90 90 90 86 86 86
85 85 85 88 88 88 93 94 93 96 97 96
96 97 96 98 99 98 103 103 103 105 105 105
104 104 104 103 103 103 103 104 103 105 106 105
107 107 107 109 109 109 107 107 107 100 100 100
89 89 89 85 86 85 88 88 88 85 85 85
77 77 77 77 77 77 85 85 85 92 92 92
96 96 96 100 100 100 105 105 105 107 107 107
109 109 109 109 109 109 109 109 109 109 109 109
107 107 107 105 105 105 100 100 100 95 95 95
90 90 90 87 87 87 87 87 87 90 90 90
92 92 92 87 87 87 78 78 78 78 78 78
87 87 87 92 92 92 90 90 90 89 89 89
89 89 89 86 86 86 79 79 79 75 75 75
54 54 54 65 65 65 85 85 85 95 95 95
92 92 92 83 83 83 76 76 76 76 76 76
84 84 84 90 90 90 92 92 92 92 92 92
92 92 92 94 94 94 98 98 98 99 99 99
99 99 99 100 100 100 104 104 104 108 108 108
109 109 109 108 108 108 107 107 107 106 106 106
106 106 106 107 107 107 107 107 107 103 103 103
96 96 96 91 91 91 90 90 90 85 85 85
77 77 77 77 77 77 87 87 87 95 95 95
97 97 97 100 100 100 104 104 104 106 106 106
106 106 106 106 106 106 106 106 106 106 106 106
106 106 106 104 104 104 100 100 100 96 96 96
93 93 93 92 92 92 91 91 91 92 92 92
90 90 90 84 84 84 76 76 76 76 76 76
84 84 84 90 90 90 91 91 91 93 93 93
94 94 94 87 87 87 75 75 75 69 69 69
53 53 53 66 66 66 87 87 87 94 94 94
85 85 85 76 76 76 77 77 77 77 77 77
78 78 78 83 83 83 90 90 90 94 94 94
94 94 94 93 93 93 94 94 94 96 96 96
99 99 99 100 100 100 101 101 101 104 104 104
109 109 109 108 108 108 103 103 103 103 103 103
107 107 107 108 108 108 104 104 104 100 100 100
96 96 96 90 90 90 83 83 83 77 77 77
75 75 75 81 81 81 90 90 90 95 95 95
95 95 95 96 96 96 100 100 100 104 104 104
107 107 107 109 109 109 109 109 109 107 107 107
104 104 104 100 100 100 96 96 96 94 94 94
93 93 93 94 94 94 94 94 94 90 90 90
83 83 83 78 78 78 77 77 77 77 77 77
78 78 78 82 82 82 89 89 89 96 96 96
97 97 97 86 86 86 67 67 67 57 57 57
54 54 54 63 63 63 79 79 79 83 83 83
74 74 74 67 67 67 67 67 67 68 68 68
68 68 68 72 72 72 80 80 80 84 84 84
84 84 84 82 82 82 81 81 81 84 84 84
91 91 91 94 94 94 92 92 92 94 94 94
99 99 99 98 98 98 93 93 93 93 93 93
98 98 98 100 100 100 95 95 95 90 90 90
86 86 86 79 79 79 72 72 72 67 67 67
66 66 66 71 71 71 80 80 80 84 84 84
82 82 82 83 83 83 89 89 89 95 95 95
99 99 99 101 101 101 101 101 101 99 99 99
95 95 95 89 89 89 84 84 84 81 81 81
82 82 82 84 84 84 84 84 84 80 80 80
72 72 72 68 68 68 68 68 68 68 68 68
68 68 68 72 72 72 79 79 79 86 86 86
86 86 86 77 77 77 61 61 61 52 52 52
56 56 56 59 59 59 63 63 63 65 65 65
63 63 63 56 56 56 49 49 49 49 49 49
56 56 56 62 62 62 64 64 64 64 64 64
65 65 65 63 63 63 62 62 62 67 67 67
76 76 76 81 81 81 80 80 80 79 79 79
81 81 81 81 81 81 79 79 79 79 79 79
80 80 80 82 82 82 81 81 81 76 76 76
67 67 67 62 62 62 61 61 61 56 56 56
49 49 49 50 50 50 60 60 60 65 65 65
63 63 63 66 66 66 75 75 75 81 81 81
82 82 82 81 81 81 81 81 81 82 82 82
81 81 81 75 75 75 66 66 66 62 62 62
63 63 63 65 65 65 64 64 64 64 64 64
62 62 62 56 56 56 49 49 49 49 49 49
56 56 56 62 62 62 64 64 64 64 64 64
65 65 65 62 62 62 58 58 58 55 55 55
57 57 57 56 56 56 54 54 54 55 55 55
58 58 58 51 51 51 39 39 39 39 39 39
51 51 51 58 58 58 55 55 55 53 53 53
54 54 54 53 53 53 52 52 52 58 58 58
68 68 68 74 74 74 74 74 74 72 72 72
71 71 71 71 71 71 72 72 72 72 72 72
71 71 71 73 73 73 74 74 74 68 68 68
57 57 57 53 53 53 57 57 57 52 52 52
40 40 40 39 39 39 50 50 50 55 55 55
53 53 53 57 57 57 68 68 68 74 74 74
73 73 73 70 70 70 70 70 70 73 73 73
74 74 74 69 69 69 58 58 58 52 52 52
53 53 53 54 54 54 53 53 53 55 55 55
58 58 58 51 51 51 39 39 39 39 39 39
51 51 51 58 58 58 55 55 55 53 53 53
53 53 53 55 55 55 57 57 57 58 58 58
