P3
# Converted to P3 by scripts/convert_to_p3.py
64 64
255
127 127 127 131 131 131 139 139 139 144 144 144
144 144 144 143 143 143 143 143 143 143 143 143
143 143 143 143 143 143 142 142 142 142 142 142
142 142 142 142 142 142 143 143 143 142 142 142
141 141 141 139 139 139 137 137 137 146 146 146
158 158 158 156 156 156 143 143 143 143 143 143
155 155 155 157 157 157 145 145 145 138 138 138
140 140 140 143 143 143 143 143 143 143 143 143
143 143 143 143 143 143 142 142 142 142 142 142
143 143 143 141 141 141 139 139 139 144 144 144
154 154 154 162 162 162 162 162 162 154 154 154
144 144 144 139 139 139 141 141 141 143 143 143
142 142 142 142 142 142 142 142 142 142 142 142
143 143 143 143 143 143 143 143 143 143 143 143
143 143 143 143 143 143 142 142 142 143 143 143
143 143 143 139 139 139 131 131 131 127 127 127
111 111 111 117 117 117 128 128 128 133 133 133
131 131 131 129 129 129 130 130 130 130 130 130
129 129 129 130 130 130 131 131 131 132 132 132
132 132 132 131 131 131 130 130 130 132 132 132
135 135 135 135 135 135 134 134 134 139 139 139
148 148 148 146 146 146 137 137 137 138 138 138
148 148 148 150 150 150 140 140 140 133 133 133
132 132 132 131 131 131 130 130 130 129 129 129
130 130 130 131 131 131 132 132 132 131 131 131
131 131 131 131 131 131 133 133 133 139 139 139
147 147 147 153 153 153 153 153 153 147 147 147
139 139 139 133 133 133 131 131 131 131 131 131
131 131 131 132 132 132 132 132 132 131 131 131
130 130 130 129 129 129 130 130 130 130 130 130
129 129 129 130 130 130 131 131 131 133 133 133
134 134 134 128 128 128 117 117 117 111 111 111
81 81 81 91 91 91 108 108 108 114 114 114
109 109 109 104 104 104 106 106 106 106 106 106
105 105 105 107 107 107 111 111 111 114 114 114
114 114 114 111 111 111 110 110 110 114 114 114
123 123 123 128 128 128 127 127 127 127 127 127
129 129 129 128 128 128 126 126 126 129 129 129
135 135 135 137 137 137 131 131 131 123 123 123
116 116 116 110 110 110 106 106 106 105 105 105
105 105 105 108 108 108 112 112 112 112 112 112
110 110 110 113 113 113 122 122 122 130 130 130
135 135 135 138 138 138 138 138 138 135 135 135
130 130 130 122 122 122 113 113 113 110 110 110
111 111 111 114 114 114 114 114 114 111 111 111
107 107 107 105 105 105 106 106 106 106 106 106
105 105 105 106 106 106 110 110 110 115 115 115
116 116 116 106 106 106 90 90 90 82 82 82
66 66 66 77 77 77 97 97 97 105 105 105
99 99 99 93 93 93 93 93 93 93 93 93
94 94 94 97 97 97 101 101 101 103 102 102
103 102 102 102 101 101 103 103 103 109 109 109
118 118 118 123 122 122 122 122 122 121 120 120
121 121 121 121 120 120 121 120 120 123 123 123
127 126 126 128 128 128 125 125 125 117 116 116
107 106 106 99 99 99 96 95 95 94 93 93
92 92 92 95 94 94 100 100 100 103 103 103
104 104 104 109 108 108 118 117 117 124 124 124
127 127 127 129 128 128 129 128 128 127 127 127
124 124 124 118 117 117 109 109 109 104 103 103
102 101 101 103 102 102 103 102 102 101 100 100
97 96 96 94 93 93 93 93 93 93 93 93
94 94 94 97 97 97 100 100 100 105 105 105
107 107 107 96 96 96 76 76 76 66 66 66
68 68 68 78 78 78 97 97 97 107 107 107
105 105 105 98 98 98 95 95 95 95 95 95
99 100 100 103 102 102 103 102 102 102 99 99
101 99 99 105 103 103 113 111 111 118 116 116
121 119 119 120 118 118 120 118 118 122 120 120
125 123 123 125 123 123 121 119 119 122 120 120
125 123 123 128 126 126 124 122 122 116 114 114
106 104 104 101 99 99 101 99 99 99 97 97
94 92 92 94 92 91 99 97 97 106 104 104
113 111 111 118 116 116 120 118 118 122 120 120
126 124 124 128 126 126 128 126 126 126 124 124
122 120 120 120 118 118 118 116 116 113 111 111
105 103 103 101 99 99 102 100 100 103 101 101
102 100 99 98 97 97 95 94 94 95 95 95
99 100 100 103 103 103 103 103 103 106 106 106
108 108 108 97 97 97 78 78 78 68 68 68
73 73 73 82 82 82 100 100 100 111 111 111
111 111 111 105 105 105 101 102 102 101 101 101
106 105 105 109 110 110 110 113 113 108 112 112
107 111 111 114 118 118 126 130 130 131 135 135
129 133 133 126 130 130 126 130 130 130 134 134
137 141 141 136 140 140 129 133 133 129 133 133
136 140 140 138 142 142 132 136 136 122 126 126
112 116 116 109 113 113 110 114 114 109 113 113
105 109 109 102 106 106 105 109 109 115 119 119
126 130 130 131 134 134 128 132 132 129 133 133
135 139 139 140 144 144 140 144 144 135 139 139
129 133 133 128 132 132 131 135 135 126 130 130
114 118 118 107 111 111 108 112 112 111 115 115
112 116 116 108 111 111 102 103 103 101 101 101
106 106 106 109 109 109 107 107 107 108 108 108
109 109 109 99 99 99 82 82 82 73 73 73
72 72 72 82 82 82 100 100 100 110 110 110
109 109 109 105 105 105 105 105 105 105 104 104
106 105 105 108 109 109 111 116 116 110 117 117
109 116 116 115 121 121 127 133 133 133 139 139
131 138 138 128 135 135 128 135 135 132 139 139
139 145 145 137 144 144 130 137 137 132 139 139
142 149 149 145 151 151 136 142 143 124 130 130
113 120 120 109 116 116 110 117 117 111 118 118
110 117 117 108 114 114 108 114 115 115 122 122
127 134 134 132 138 138 130 136 136 132 139 139
141 148 148 148 154 154 148 154 154 141 148 148
132 139 139 130 136 136 132 138 138 127 134 134
115 122 122 108 115 115 109 115 115 112 119 119
112 119 119 110 115 115 106 107 107 104 104 104
106 105 105 107 107 107 106 106 106 108 108 108
108 108 108 98 98 98 81 81 81 72 72 72
71 71 71 81 81 81 99 99 99 108 108 108
107 107 107 105 105 105 106 106 106 107 108 108
107 108 108 104 101 101 99 89 89 95 81 81
95 81 81 100 87 87 108 94 94 112 99 98
112 98 98 110 97 97 110 97 96 113 99 99
117 103 103 115 102 102 111 98 97 113 100 100
121 108 108 123 110 110 116 102 102 106 93 93
99 86 86 96 83 82 96 83 82 98 84 84
98 85 85 97 84 84 96 83 82 100 86 86
108 94 94 111 98 98 110 97 97 113 100 100
120 107 107 126 112 112 126 112 112 120 107 107
113 100 100 110 97 97 111 98 98 108 95 94
100 87 86 96 83 82 97 84 83 97 83 82
96 81 81 99 88 88 105 102 102 108 109 109
107 108 108 105 104 104 103 103 103 108 108 108
112 112 112 103 103 103 82 82 82 71 71 71
71 71 71 81 81 81 98 98 98 108 108 108
107 107 107 105 105 105 105 104 104 108 111 111
109 115 115 99 88 88 80 40 40 70 14 13
71 17 17 75 26 25 77 26 25 78 26 26
77 26 26 77 26 25 77 26 25 78 27 26
79 28 27 78 27 27 77 26 26 78 27 26
80 29 29 81 30 29 79 28 27 76 25 24
74 23 23 73 22 22 73 22 22 74 23 22
74 23 23 74 23 22 73 22 22 74 23 23
76 25 25 77 26 26 77 26 25 78 27 26
80 29 28 81 30 30 81 30 30 80 29 28
78 27 26 77 26 25 77 26 26 76 25 25
74 23 23 73 23 22 74 25 24 72 17 17
70 14 13 80 40 40 100 89 89 110 115 115
109 112 112 103 102 102 101 101 101 110 110 110
121 121 121 112 112 112 85 85 85 69 69 69
71 71 71 82 82 82 103 103 103 113 113 113
109 109 109 104 104 104 104 102 102 108 113 113
110 118 118 97 82 81 73 14 13 60 0 0
61 0 0 65 0 0 63 0 0 62 0 0
62 0 0 62 0 0 62 0 0 62 0 0
61 0 0 61 0 0 62 0 0 62 0 0
61 0 0 60 0 0 61 0 0 63 0 0
64 0 0 64 0 0 64 0 0 64 0 0
64 0 0 64 0 0 64 0 0 63 0 0
62 0 0 62 0 0 62 0 0 62 0 0
61 0 0 60 0 0 60 0 0 61 0 0
62 0 0 62 0 0 62 0 0 62 0 0
63 0 0 64 0 0 65 0 0 61 0 0
59 0 0 73 14 13 97 81 81 110 118 118
109 113 113 104 102 102 105 105 105 116 116 116
127 127 127 116 116 116 86 86 86 69 69 69
69 69 69 85 85 85 112 112 112 122 122 122
112 112 112 103 103 103 104 101 101 109 113 113
110 118 118 99 83 83 78 17 17 67 0 0
68 0 0 71 0 0 70 0 0 69 0 0
69 0 0 70 0 0 70 0 0 69 0 0
69 0 0 69 0 0 69 0 0 69 0 0
69 0 0 69 0 0 69 0 0 70 0 0
70 0 0 71 0 0 71 0 0 70 0 0
70 0 0 71 0 0 71 0 0 70 0 0
70 0 0 69 0 0 70 0 0 69 0 0
69 0 0 68 0 0 68 0 0 69 0 0
69 0 0 70 0 0 69 0 0 70 0 0
70 0 0 71 0 0 72 0 0 68 0 0
67 0 0 78 17 17 99 83 83 109 117 117
107 112 112 108 105 105 115 114 114 125 125 125
129 129 129 114 114 114 85 85 85 69 69 69
69 69 69 86 86 86 117 117 117 126 126 126
112 112 112 101 101 101 104 101 101 108 113 113
108 116 116 99 83 83 83 24 24 74 0 0
75 0 0 78 6 6 78 4 4 77 3 4
77 3 4 77 3 4 77 3 4 77 3 4
78 3 4 78 3 4 77 3 4 78 3 4
78 4 4 78 4 4 78 3 4 77 3 4
77 3 3 77 3 3 77 3 3 77 3 3
77 3 3 77 3 3 77 3 3 77 3 3
77 3 4 77 3 4 77 3 4 77 3 4
78 4 4 78 4 4 78 4 4 78 4 4
77 3 4 77 3 4 77 3 4 77 3 4
77 3 3 77 3 4 78 6 6 75 0 0
74 0 0 83 25 25 101 85 85 108 115 115
105 109 109 108 106 106 119 119 119 130 130 130
130 130 130 112 112 112 84 84 84 70 70 70
69 69 69 86 86 86 116 116 116 125 125 125
111 111 111 101 100 100 104 102 102 109 113 113
108 116 116 98 82 82 81 22 22 73 0 0
74 0 0 76 4 4 76 1 2 76 0 1
76 0 1 76 0 1 76 0 1 76 0 1
76 1 1 76 1 1 76 0 1 76 0 1
76 1 1 76 1 1 76 1 1 76 0 1
76 0 1 76 0 1 76 0 1 76 0 1
76 0 1 76 0 1 76 0 1 76 0 1
76 0 1 76 0 1 76 0 1 76 0 1
76 1 1 76 1 1 76 1 1 76 1 1
76 0 1 76 0 1 76 0 1 76 0 1
76 0 1 76 1 1 77 4 4 74 0 0
72 0 0 82 23 23 101 85 85 108 116 116
104 109 109 107 105 105 119 118 118 129 129 129
130 130 130 112 112 112 85 85 85 70 70 70
69 69 69 85 85 85 114 114 114 125 125 125
116 116 116 105 105 105 103 101 101 108 112 112
112 120 120 103 87 87 82 23 23 71 0 0
72 0 0 76 3 3 75 0 1 75 0 0
75 0 0 75 0 0 75 0 0 75 0 0
75 0 0 75 0 0 75 0 0 75 0 0
75 0 0 75 0 0 75 0 0 75 0 0
75 0 0 75 0 0 75 0 0 75 0 0
75 0 0 75 0 0 75 0 0 75 0 0
75 0 0 75 0 0 75 0 0 75 0 0
75 0 0 75 0 0 75 0 0 75 0 0
75 0 0 75 0 0 75 0 0 75 0 0
75 0 0 75 0 1 75 3 3 73 0 0
72 0 0 81 22 22 98 83 83 108 116 116
109 114 114 112 109 109 119 118 118 127 127 127
129 129 129 113 113 113 84 84 84 68 68 68
69 69 69 85 85 85 113 113 113 129 129 129
126 126 126 113 113 113 104 102 102 109 113 113
120 128 128 112 97 97 85 26 26 70 0 0
72 0 0 76 3 4 75 1 1 75 0 0
75 0 0 75 0 0 75 0 0 75 0 0
75 0 0 75 0 0 75 0 0 75 0 0
75 0 0 75 0 0 75 0 0 75 0 0
75 0 0 75 0 0 75 0 0 75 0 0
75 0 0 75 0 0 75 0 0 75 0 0
75 0 0 75 0 0 75 0 0 75 0 0
75 0 0 75 0 0 75 0 0 75 0 0
75 0 0 75 0 0 75 0 0 75 0 0
75 0 0 75 0 1 76 3 3 73 0 0
72 0 0 80 21 21 96 81 81 110 118 118
118 122 122 121 119 119 122 121 121 126 126 126
129 129 129 113 113 113 84 84 84 68 68 68
70 70 70 85 85 85 113 113 113 130 130 130
130 130 130 119 119 119 110 107 107 114 119 119
126 134 134 117 101 101 87 28 28 70 0 0
72 0 0 77 4 5 76 2 2 75 1 1
75 1 1 75 1 1 75 1 1 75 1 1
75 1 1 75 1 1 75 1 1 75 1 1
75 1 1 75 1 1 75 1 1 75 1 1
75 1 1 75 1 1 75 1 1 75 1 1
75 1 1 75 1 1 75 1 1 75 1 1
75 1 1 75 1 1 75 1 1 75 1 1
75 1 1 75 1 1 75 1 1 75 1 1
75 1 1 75 1 1 75 1 1 75 1 1
75 1 1 76 1 2 76 4 4 73 0 0
72 0 0 82 23 23 101 85 85 117 124 124
124 129 129 125 123 123 123 123 123 126 126 126
128 128 128 114 114 114 87 87 87 73 73 73
70 70 70 85 85 85 113 113 113 129 129 129
128 128 128 121 121 121 119 116 116 123 128 128
128 136 136 115 100 100 87 29 30 72 0 0
74 0 0 78 7 8 77 5 5 77 4 4
77 4 4 77 4 4 77 4 4 77 4 4
77 4 4 77 4 4 77 4 4 77 4 4
77 4 4 77 4 4 77 4 4 77 4 4
77 4 4 77 4 4 77 4 4 77 4 4
77 4 4 77 4 4 77 4 4 77 4 4
77 4 4 77 4 4 77 4 4 77 4 4
77 4 4 77 4 4 77 4 4 77 4 4
77 4 4 77 4 4 77 4 4 77 4 4
77 4 4 77 5 5 78 7 8 74 0 0
72 0 0 85 28 28 110 95 95 125 133 133
126 131 131 123 121 121 122 122 122 125 125 125
127 127 127 116 116 116 94 94 94 83 83 83
68 68 68 84 84 84 113 113 113 128 128 128
126 126 126 122 121 121 123 121 121 128 133 133
129 137 137 112 95 95 82 19 19 66 0 0
68 0 0 72 0 0 71 0 0 71 0 0
71 0 0 71 0 0 71 0 0 71 0 0
71 0 0 71 0 0 71 0 0 71 0 0
71 0 0 71 0 0 71 0 0 71 0 0
71 0 0 71 0 0 71 0 0 71 0 0
71 0 0 71 0 0 71 0 0 71 0 0
71 0 0 71 0 0 71 0 0 71 0 0
71 0 0 71 0 0 71 0 0 71 0 0
71 0 0 71 0 0 71 0 0 71 0 0
71 0 0 71 0 0 73 0 0 68 0 0
65 0 0 82 19 20 114 97 97 130 139 138
127 131 131 121 119 119 122 121 121 125 125 125
126 126 126 116 116 116 98 98 98 88 88 88
68 68 68 84 84 84 113 113 113 129 129 129
127 127 127 122 121 121 122 120 120 128 133 133
129 138 138 112 94 94 80 14 14 62 0 0
65 0 0 70 0 0 69 0 0 68 0 0
68 0 0 68 0 0 68 0 0 68 0 0
68 0 0 68 0 0 68 0 0 68 0 0
69 0 0 69 0 0 68 0 0 68 0 0
68 0 0 68 0 0 68 0 0 68 0 0
68 0 0 68 0 0 68 0 0 68 0 0
68 0 0 68 0 0 68 0 0 68 0 0
69 0 0 69 0 0 69 0 0 69 0 0
68 0 0 68 0 0 68 0 0 68 0 0
68 0 0 68 0 0 70 0 0 65 0 0
62 0 0 80 14 15 113 95 95 130 139 139
127 132 132 121 119 119 122 122 122 125 125 125
126 126 126 116 116 116 97 97 97 87 87 87
73 73 73 87 87 87 114 114 114 128 128 128
126 126 126 122 121 121 122 120 120 125 129 129
127 133 133 116 104 104 96 49 49 85 20 20
87 24 24 90 32 32 89 30 30 88 29 29
88 29 29 88 29 29 88 29 29 88 29 29
88 29 29 88 29 29 88 29 29 88 29 29
87 28 28 87 28 28 88 29 29 88 29 29
89 29 29 89 29 30 89 30 30 89 30 30
89 30 30 89 30 30 89 29 30 88 29 29
88 29 29 88 29 29 88 29 29 88 29 29
87 28 28 87 28 28 87 28 28 87 28 28
88 29 29 88 29 29 88 29 29 88 29 29
89 29 29 89 30 30 90 32 32 87 24 24
86 20 20 96 49 50 116 103 103 127 133 133
125 129 129 122 120 120 122 121 121 126 126 126
128 128 128 118 118 118 97 97 97 85 85 85
83 83 83 94 94 94 115 115 115 126 126 126
126 126 126 122 122 122 123 123 123 123 124 124
123 125 125 124 121 121 125 113 113 126 109 109
126 109 109 126 110 110 125 110 110 125 109 109
125 109 109 125 109 109 125 109 109 125 109 109
125 109 109 125 109 110 125 110 110 125 109 109
124 108 108 123 108 108 125 109 109 125 110 110
126 110 110 126 110 110 127 111 111 127 111 111
127 111 111 127 111 111 126 110 110 126 110 110
125 109 109 125 109 109 125 109 110 125 109 109
124 108 108 123 107 107 123 107 107 124 108 108
125 109 109 125 109 110 125 109 109 125 109 109
126 110 110 126 110 110 126 110 110 126 109 110
127 109 109 126 114 114 124 121 121 123 125 125
123 124 124 123 122 122 121 121 121 126 126 126
132 132 132 122 122 122 98 98 98 85 85 85
88 88 88 98 98 98 118 118 118 128 128 128
126 126 126 122 122 122 124 124 124 122 122 122
121 121 121 128 129 129 139 146 146 146 154 154
145 153 153 143 151 151 145 152 152 145 153 153
145 153 153 145 153 153 145 153 153 145 153 153
145 153 153 145 153 153 145 152 152 146 154 154
148 156 156 148 156 156 146 154 154 144 152 152
144 152 152 143 151 151 142 150 150 142 150 149
142 150 149 142 150 150 143 151 151 144 152 152
145 153 153 145 153 153 145 153 153 146 154 154
148 156 156 149 157 157 149 157 157 148 156 156
146 154 154 145 153 153 145 153 153 145 153 153
144 152 152 143 151 151 143 151 151 144 153 153
144 153 153 138 144 144 127 129 129 122 121 121
122 122 122 124 124 124 123 123 123 129 129 129
135 135 135 124 124 124 99 99 99 85 85 85
86 86 86 99 99 99 122 122 122 132 132 132
127 127 127 122 122 122 123 123 123 123 123 123
122 122 122 126 127 127 134 138 138 138 143 143
137 142 142 138 142 142 141 146 146 143 148 148
143 147 147 142 147 147 142 147 147 143 147 147
143 147 147 142 146 146 141 145 145 146 151 151
154 159 159 155 159 159 146 151 151 140 144 144
138 142 142 135 140 140 132 136 136 130 134 134
130 134 134 132 136 136 135 139 139 139 143 143
142 147 147 142 147 147 141 146 146 145 149 149
152 157 157 158 162 162 158 162 162 152 157 157
145 150 149 141 146 146 142 147 147 142 146 146
138 143 143 137 141 141 137 141 141 136 141 141
133 138 138 128 132 132 125 126 126 123 122 122
122 122 122 124 125 125 127 127 127 133 133 133
136 136 136 123 123 123 99 99 99 85 85 85
84 84 84 99 99 99 125 125 125 135 135 135
128 128 128 121 121 121 123 123 123 123 123 123
123 123 123 125 124 124 128 127 127 129 127 127
129 126 126 130 128 128 135 133 133 137 135 135
137 135 135 136 134 134 137 134 134 137 135 135
137 135 135 135 133 133 134 132 132 142 140 140
155 152 152 155 153 153 143 140 140 133 131 131
130 128 128 127 125 125 122 120 120 119 116 116
119 116 116 122 120 120 127 125 125 132 130 130
136 134 134 136 134 134 135 133 133 141 138 138
152 150 150 160 158 158 160 158 158 152 150 150
141 138 138 135 133 133 136 134 134 135 133 133
130 128 128 129 127 127 130 128 128 128 125 125
122 119 119 120 118 118 122 122 122 123 124 124
123 123 123 125 125 125 130 130 130 136 136 136
136 136 136 122 122 122 98 98 98 85 85 85
84 84 84 99 99 99 125 125 125 135 135 135
128 128 128 121 121 121 123 123 123 123 123 123
123 123 123 125 125 125 130 130 130 132 131 131
130 130 130 132 131 131 136 136 136 139 138 138
139 138 138 138 137 137 138 138 138 138 138 138
139 138 138 137 136 136 135 135 135 144 143 143
156 155 155 157 156 156 144 144 144 134 134 134
132 131 131 129 128 128 124 123 123 121 120 120
121 120 120 124 123 123 129 128 128 134 133 133
138 137 137 137 137 137 136 136 136 142 141 142
153 153 153 162 161 161 162 161 161 153 153 153
142 141 141 136 136 136 137 137 137 137 136 136
132 131 131 130 130 130 132 131 131 130 129 129
124 123 123 121 121 121 123 123 123 123 123 123
123 123 123 125 125 125 130 130 130 136 136 136
136 136 136 122 122 122 98 98 98 85 85 85
86 86 86 99 99 99 122 122 122 132 132 132
127 127 127 122 122 122 123 123 123 123 123 123
123 123 123 125 125 125 129 129 129 131 131 131
132 132 132 134 134 134 138 138 138 140 140 140
139 139 139 138 138 138 138 138 138 139 139 139
139 139 139 138 138 138 137 137 137 142 142 142
150 150 150 151 151 151 143 143 143 136 136 136
134 134 134 130 130 130 126 126 126 123 123 123
123 123 123 125 125 125 128 128 128 133 133 133
138 138 138 139 139 139 138 138 138 141 141 141
149 149 149 154 154 154 154 154 154 149 149 149
141 141 141 138 138 138 139 139 139 138 138 138
134 134 134 131 131 131 131 131 131 129 129 129
125 125 125 123 123 123 123 123 123 123 123 123
123 123 123 124 124 124 127 127 127 133 133 133
136 136 136 123 123 123 99 99 99 85 85 85
88 88 88 98 98 98 118 118 118 128 128 128
126 126 126 122 122 122 123 123 123 123 123 123
123 123 123 123 123 123 124 124 124 126 126 126
130 130 130 135 135 135 138 138 138 140 140 140
139 139 139 138 138 138 138 138 138 139 139 139
139 139 139 138 138 138 138 138 138 139 139 139
142 142 142 142 142 142 140 140 140 137 137 137
134 134 134 130 130 130 125 125 125 123 123 123
123 123 123 123 123 123 123 123 123 128 128 128
137 137 137 140 140 140 139 139 139 139 139 139
141 141 141 143 143 143 143 143 143 141 141 141
139 139 139 139 139 139 139 139 139 138 138 138
135 135 135 130 130 130 126 126 126 124 124 124
124 124 124 124 124 124 123 123 123 123 123 123
123 123 123 123 123 123 123 123 123 129 129 129
135 135 135 124 124 124 99 99 99 85 85 85
83 83 83 94 94 94 115 115 115 126 126 126
126 126 126 122 122 122 123 123 123 123 123 123
124 124 124 123 123 123 122 122 122 124 124 124
128 128 128 132 132 132 136 136 136 138 138 138
139 139 139 138 138 138 139 139 139 139 139 139
139 138 138 139 139 139 139 139 139 138 138 138
137 136 136 138 136 136 139 138 138 138 136 136
133 132 132 128 127 127 125 123 123 124 122 122
124 123 123 123 122 122 122 120 120 126 125 125
134 133 133 139 138 138 140 138 138 138 137 137
138 136 136 137 136 136 136 136 136 137 137 137
138 138 138 139 139 139 138 138 138 136 136 136
132 132 132 128 128 128 124 124 124 122 122 122
123 123 123 124 124 124 123 123 123 123 123 123
124 124 124 123 123 123 121 121 121 126 126 126
132 132 132 122 122 122 98 98 98 85 85 85
73 73 73 87 87 87 114 114 114 128 128 128
126 126 126 122 122 122 123 123 123 123 123 123
123 123 123 123 123 123 123 123 123 123 123 123
124 124 124 127 127 127 131 131 131 135 135 135
138 138 138 139 139 139 139 139 139 138 138 138
139 138 138 139 139 139 139 139 139 138 137 137
138 134 134 140 134 134 141 135 135 137 132 132
130 124 124 125 120 120 125 119 119 125 120 120
125 120 120 125 119 119 124 118 118 126 121 121
132 126 126 137 131 131 139 134 134 140 134 134
139 133 133 138 134 134 137 136 136 138 138 138
139 139 139 138 138 138 135 135 135 131 131 131
127 127 127 124 124 124 123 123 123 123 123 123
123 123 123 123 123 123 123 123 123 123 123 123
123 123 123 123 123 123 122 122 122 126 126 126
128 128 128 118 118 118 97 97 97 85 85 85
68 68 68 84 84 84 113 113 113 129 129 129
127 127 127 122 122 122 124 124 124 124 124 124
124 124 124 123 123 123 124 124 124 123 123 123
122 122 122 124 124 124 129 129 129 134 134 134
138 138 138 139 139 139 139 139 139 138 138 138
138 139 139 139 138 138 139 138 138 138 140 140
136 145 145 137 149 149 137 149 149 132 143 143
122 133 133 117 129 129 118 130 130 120 132 132
120 131 131 119 131 131 119 131 131 121 132 132
125 136 136 130 141 141 134 145 145 136 148 148
136 149 149 137 145 146 138 141 141 139 138 138
139 139 139 137 138 138 134 134 134 129 129 129
124 124 124 122 122 122 123 123 123 124 124 124
123 123 123 124 124 124 124 124 124 124 124 124
124 124 124 123 123 123 123 123 123 125 125 125
126 126 126 116 116 116 97 97 97 87 87 87
68 68 68 84 84 84 113 113 113 128 128 128
126 126 126 122 122 122 125 125 125 125 125 125
123 123 123 123 123 123 124 124 124 123 123 123
122 122 122 124 124 124 129 129 129 135 135 135
138 138 138 140 140 140 139 139 139 138 138 138
138 139 139 139 138 138 139 137 137 137 141 141
134 149 149 134 156 156 134 156 156 129 149 149
119 139 139 113 134 134 114 135 135 116 137 137
116 137 137 115 136 136 115 136 136 117 138 138
122 142 142 127 147 147 131 151 151 133 154 155
134 155 155 135 150 150 137 141 141 139 137 137
139 138 138 137 138 138 134 134 134 129 129 129
124 124 124 122 122 122 123 123 123 124 124 124
123 123 123 123 123 123 125 125 125 125 125 125
123 123 123 123 123 123 122 122 122 125 125 125
126 126 126 116 116 116 98 98 98 88 88 88
70 70 70 85 85 85 113 113 113 129 129 129
128 128 128 122 122 122 120 120 120 120 120 120
123 123 123 125 125 125 124 124 124 123 123 123
123 123 123 125 125 125 128 128 128 132 132 132
136 136 136 138 138 138 139 139 139 139 139 139
139 138 138 138 140 140 138 142 142 141 133 133
146 115 115 150 107 107 152 109 108 148 108 108
142 100 100 138 96 96 139 97 97 141 98 98
141 98 98 140 97 97 140 97 97 141 98 98
144 102 102 147 106 106 150 110 109 151 108 108
150 107 106 146 115 115 141 133 133 139 143 143
139 142 142 138 137 137 133 132 132 128 128 128
125 125 125 123 123 123 123 123 123 124 124 124
125 125 125 123 123 123 120 120 120 120 120 120
123 123 123 125 125 125 123 123 123 125 125 125
127 127 127 116 116 116 94 94 94 83 83 83
70 70 70 85 85 85 113 113 113 130 130 130
130 130 130 120 120 120 111 111 111 111 111 111
121 121 121 127 127 127 125 125 125 123 123 123
123 123 123 123 123 123 124 124 124 127 127 127
131 131 131 135 135 135 139 139 139 140 139 139
140 136 136 137 145 145 136 151 151 146 116 116
165 52 52 177 18 17 178 23 22 175 32 31
174 27 27 174 26 25 176 26 25 177 26 25
176 26 25 176 26 25 176 26 25 176 26 26
176 27 26 176 29 28 175 32 31 177 22 22
177 18 17 165 52 52 146 116 116 137 152 152
139 147 147 137 133 133 129 128 127 123 123 123
123 123 123 123 123 123 123 123 123 125 125 125
127 127 127 121 121 121 111 111 111 111 111 111
121 121 121 127 127 127 123 123 123 126 126 126
128 128 128 114 114 114 87 87 87 73 73 73
69 69 69 85 85 85 113 113 113 129 129 129
126 126 126 114 114 114 105 105 105 106 106 106
115 115 115 123 123 123 124 124 124 123 123 123
124 124 124 123 123 123 122 122 122 124 124 124
128 128 128 133 133 133 136 136 136 138 137 137
140 134 134 135 147 147 132 152 152 146 104 104
172 17 17 184 0 0 178 0 0 172 0 0
173 0 0 173 0 0 169 0 0 168 0 0
168 0 0 168 0 0 168 0 0 169 0 0
172 0 0 172 0 0 172 0 0 178 0 0
184 0 0 172 17 17 146 104 104 133 153 153
136 148 148 135 129 129 126 124 124 121 121 121
122 122 122 124 124 124 123 123 123 124 124 124
123 123 123 115 115 115 106 106 106 106 106 106
115 115 115 122 122 122 122 122 122 126 126 126
129 129 129 113 113 113 84 84 84 68 68 68
69 69 69 85 85 85 114 114 114 125 125 125
116 116 116 106 106 106 105 105 105 105 105 105
107 107 107 113 113 113 120 120 120 124 124 124
124 124 124 123 123 123 122 122 122 124 124 124
129 129 129 132 132 132 132 132 132 135 134 134
140 134 134 134 145 145 125 145 145 137 98 98
163 20 20 169 0 0 150 0 0 137 0 0
136 0 0 132 0 0 122 0 0 118 0 0
118 0 0 118 0 0 118 0 0 122 0 0
132 0 0 136 0 0 136 0 0 150 0 0
168 0 0 164 20 20 138 99 99 125 144 144
130 141 141 132 127 127 126 124 124 122 122 122
122 122 122 124 124 124 124 124 124 120 120 120
113 113 113 107 107 107 105 105 105 105 105 105
107 107 107 113 113 113 119 119 119 127 127 127
129 129 129 113 113 113 84 84 84 68 68 68
69 69 69 86 86 86 116 116 116 125 125 125
111 111 111 101 101 101 105 105 105 106 106 106
103 103 103 108 108 108 120 120 120 126 126 126
125 125 125 122 122 122 122 122 122 126 126 126
131 131 131 132 132 132 131 131 131 134 133 133
141 136 136 133 143 142 118 135 135 128 92 92
155 27 27 155 0 0 123 0 0 103 8 8
103 5 5 101 4 4 90 4 3 85 4 2
86 4 2 86 4 2 85 4 2 90 4 3
101 4 4 103 5 5 103 8 8 123 0 0
155 0 0 156 27 28 128 92 93 116 133 133
126 136 136 132 128 128 126 125 125 122 122 122
122 122 122 125 125 125 126 126 126 120 120 120
108 108 108 103 103 103 106 106 106 106 106 106
103 103 103 108 108 108 119 119 119 129 129 129
130 130 130 112 112 112 85 85 85 70 70 70
69 69 69 86 86 86 117 117 117 126 126 126
112 112 112 102 102 102 105 105 105 105 105 105
103 103 103 109 109 109 121 121 121 127 127 127
125 125 125 122 122 122 122 122 122 126 126 126
131 131 131 133 133 133 131 131 131 135 134 134
142 137 137 130 140 140 109 128 127 120 83 84
152 21 22 151 0 0 114 0 0 90 4 3
93 2 1 97 1 0 93 1 0 91 1 0
91 1 0 91 1 0 91 1 0 93 1 0
97 1 0 93 2 1 90 4 3 114 0 0
151 0 0 152 22 23 120 83 84 107 125 125
125 135 134 134 129 129 127 126 126 121 121 121
121 121 121 125 125 125 127 127 127 121 121 121
109 109 109 103 103 103 105 105 105 105 105 105
103 103 103 109 109 109 120 120 120 130 130 130
130 130 130 112 112 112 84 84 84 70 70 70
69 69 69 85 85 85 112 112 112 122 122 122
112 112 112 104 104 104 105 105 105 106 106 106
105 105 105 109 109 109 116 116 116 122 122 122
125 125 125 124 124 124 123 123 123 125 125 125
129 129 129 130 130 130 129 129 129 134 133 133
141 136 136 127 137 137 104 121 121 113 77 78
147 19 20 149 0 0 114 0 0 92 3 2
96 1 0 103 0 0 103 0 0 103 0 0
103 0 0 103 0 0 103 0 0 103 0 0
103 0 0 96 1 0 92 3 2 114 0 0
148 0 0 148 20 20 115 80 80 104 121 121
122 132 132 133 128 128 126 125 125 122 122 122
124 124 124 125 125 125 122 122 122 116 116 116
109 109 109 105 105 105 106 106 106 106 106 106
105 105 105 109 109 109 115 115 115 125 125 125
129 129 129 114 114 114 85 85 85 69 69 69
71 71 71 82 82 82 103 103 103 113 113 113
109 109 109 105 105 105 105 105 105 106 106 106
106 106 106 106 106 106 107 107 107 113 113 113
122 122 122 126 126 126 125 125 125 123 123 123
125 125 125 125 125 125 123 123 123 129 128 128
136 132 132 124 133 133 100 116 117 107 74 74
136 19 18 143 0 0 119 0 0 104 3 3
107 1 1 111 0 0 111 0 0 111 0 0
111 0 0 111 0 0 111 0 0 111 0 0
111 0 0 107 1 1 104 3 3 119 0 0
142 0 0 139 21 20 113 81 80 104 120 120
118 127 128 128 124 124 125 124 124 124 124 124
126 126 126 122 122 122 113 113 113 107 107 107
106 106 106 106 106 106 106 106 106 106 106 106
106 106 106 106 106 106 106 106 106 116 116 116
127 127 127 116 116 116 86 86 86 69 69 69
71 71 71 81 81 81 98 98 98 108 108 108
107 107 107 105 105 105 106 106 106 107 107 107
107 107 107 105 105 105 103 103 103 107 107 107
116 116 116 122 122 122 124 124 124 123 123 123
123 123 123 122 122 122 121 121 121 127 126 126
134 130 130 122 130 131 101 115 115 102 73 73
125 19 18 137 0 0 128 0 0 121 3 4
122 1 1 123 0 1 122 0 1 122 0 1
122 0 1 122 0 1 122 0 1 122 0 1
123 0 1 122 1 1 122 3 4 128 0 0
135 0 0 128 22 21 112 83 83 107 121 121
117 126 126 125 121 121 124 123 123 123 123 123
122 122 122 116 116 116 107 107 107 103 103 103
105 105 105 107 107 107 107 107 107 107 107 107
107 107 107 104 104 104 102 102 102 110 110 110
121 121 121 112 112 112 85 85 85 69 69 69
71 71 71 81 81 81 99 99 99 108 108 108
107 107 107 105 105 105 106 106 106 107 107 107
106 106 106 105 105 105 105 105 105 105 105 105
107 107 107 113 113 113 120 120 120 124 124 124
124 124 124 122 122 122 121 121 121 127 126 126
133 130 130 123 131 130 103 115 115 98 73 73
113 19 19 128 0 0 134 0 0 136 3 3
134 1 1 133 1 0 133 1 0 134 1 0
134 1 0 134 1 0 134 1 0 133 1 0
133 1 0 134 1 1 136 4 3 134 0 0
127 0 0 116 22 22 108 83 83 109 121 121
118 126 126 126 122 122 125 124 124 120 120 120
113 113 113 107 107 107 105 105 105 105 105 105
105 105 105 106 106 106 107 107 107 107 107 107
106 106 106 105 105 105 103 103 103 108 108 108
112 112 112 103 103 103 82 82 82 71 71 71
71 71 71 81 81 81 100 100 100 110 110 110
109 109 109 105 105 105 104 104 104 104 104 104
106 106 106 107 107 107 107 107 107 105 105 105
103 103 103 108 108 108 120 120 120 127 127 127
125 125 125 122 122 122 122 122 122 128 127 127
134 131 131 126 132 132 106 116 116 96 74 74
103 19 19 119 0 0 136 0 0 145 4 2
146 1 0 145 0 0 144 0 0 144 0 0
144 0 0 144 0 0 144 0 0 144 0 0
145 0 0 147 1 0 146 4 2 135 0 0
118 0 0 105 21 21 102 80 80 108 119 119
119 125 125 127 124 124 128 127 127 120 120 120
108 108 108 103 103 103 105 105 105 107 107 107
107 107 107 106 106 106 104 104 104 104 104 104
106 106 106 107 107 107 106 106 106 108 108 108
108 108 108 98 98 98 81 81 81 72 72 72
71 71 71 81 81 81 99 99 99 110 110 110
110 110 110 104 104 104 100 100 100 100 100 100
105 105 105 108 108 108 107 107 107 104 104 104
103 103 103 109 109 109 121 121 121 127 127 127
125 125 125 122 122 122 121 121 121 127 127 127
134 131 131 126 132 132 107 117 117 93 74 74
94 19 18 109 0 0 131 0 0 148 3 2
154 1 1 154 0 0 153 0 0 151 0 0
152 0 0 152 0 0 151 0 0 153 0 0
154 0 0 154 1 1 148 3 2 131 0 0
109 0 0 95 19 19 95 76 76 105 115 115
118 124 124 128 125 125 128 128 128 120 120 120
109 109 109 103 103 103 104 104 104 107 107 107
108 108 108 105 105 105 100 100 100 100 100 100
105 105 105 107 107 107 106 106 106 107 107 107
108 108 108 98 98 98 81 81 81 71 71 71
71 71 71 81 81 81 99 99 99 109 109 109
108 108 108 101 101 101 97 97 97 98 98 98
102 102 102 106 106 106 106 106 106 105 105 105
105 105 105 109 109 109 117 117 117 122 122 122
124 124 124 123 123 123 122 122 122 127 126 126
132 129 129 124 129 129 105 113 114 90 72 72
90 18 18 105 0 0 128 0 0 146 4 3
156 1 1 160 0 1 163 0 1 163 0 1
163 0 1 163 0 1 163 0 1 163 0 1
160 0 1 156 1 1 146 4 4 128 0 0
104 0 0 91 19 18 92 74 74 104 113 113
118 124 124 126 123 123 123 123 123 116 116 116
109 109 109 105 105 105 105 105 105 106 106 106
106 106 106 102 102 102 98 98 98 98 98 98
102 102 102 105 105 105 105 105 105 108 108 108
110 110 110 100 100 100 81 81 81 71 71 71
71 71 71 81 81 81 100 100 100 108 108 108
103 103 103 97 97 97 97 97 97 97 97 97
98 98 98 101 101 101 105 105 105 106 106 106
106 106 106 106 106 106 108 108 108 113 113 113
120 120 120 124 124 124 123 123 123 125 125 125
128 126 126 118 124 124 100 108 108 86 69 69
87 19 19 101 0 0 122 0 0 139 6 5
147 3 3 155 2 2 164 2 2 167 2 3
166 2 3 166 2 3 167 2 3 164 2 2
155 2 2 147 3 3 139 6 6 122 0 0
101 0 0 89 20 21 91 74 74 105 113 113
120 125 125 123 121 121 114 114 114 107 107 107
106 106 106 106 106 106 106 106 106 105 105 105
101 101 101 98 98 98 97 97 97 97 97 97
98 98 98 101 101 101 104 104 104 108 108 108
110 110 110 99 99 99 81 81 81 71 71 71
71 71 71 82 82 82 101 101 101 108 108 108
101 101 101 95 95 95 98 98 98 98 98 98
96 96 96 99 99 99 104 104 104 108 108 108
107 107 107 104 104 104 102 102 102 108 108 108
120 120 120 126 126 126 124 124 124 124 124 124
126 123 123 116 121 121 97 106 106 84 65 66
83 12 13 92 0 0 106 0 0 116 0 0
121 0 0 127 0 0 136 0 0 140 0 0
139 0 0 139 0 0 140 0 0 136 0 0
127 0 0 121 0 0 116 0 0 105 0 0
91 0 0 85 14 15 91 73 73 107 115 115
121 126 126 121 119 119 109 109 109 102 102 102
104 104 104 107 107 107 108 108 108 104 104 104
99 99 99 96 96 96 98 98 98 98 98 98
96 96 96 98 98 98 103 103 103 109 109 109
110 110 110 99 99 99 81 81 81 71 71 71
71 71 71 82 82 82 101 101 101 108 108 108
101 101 101 96 96 96 98 98 98 98 98 98
97 97 97 99 99 99 105 105 105 108 108 108
107 107 107 104 104 104 103 103 103 109 109 109
121 121 121 127 127 127 124 124 124 124 123 123
126 123 123 117 122 122 98 107 107 83 65 66
77 10 10 79 0 0 83 0 0 87 0 0
87 0 0 89 0 0 92 0 0 93 0 0
92 0 0 93 0 0 93 0 0 92 0 0
89 0 0 88 0 0 87 0 0 82 0 0
77 0 0 79 12 13 91 73 73 107 116 116
121 126 126 121 118 118 110 109 109 102 102 102
104 104 104 107 107 107 108 108 108 105 105 105
99 99 99 97 97 97 98 98 98 98 98 98
97 97 97 99 99 99 104 104 104 110 110 110
110 110 110 99 99 99 81 81 81 71 71 71
71 71 71 81 81 81 99 99 99 106 106 106
102 102 102 96 96 96 96 96 96 96 96 96
97 97 97 100 100 100 103 103 103 105 105 105
107 107 107 106 106 106 105 105 105 109 109 109
116 116 116 122 122 122 123 123 123 126 126 126
127 125 125 117 120 120 97 104 103 83 70 70
76 30 30 73 9 10 69 10 10 68 15 16
67 14 14 67 14 15 66 14 15 65 15 15
65 15 15 65 14 15 65 14 14 65 14 14
66 14 14 67 14 14 68 15 16 69 9 10
72 9 9 78 32 32 89 76 76 105 111 111
122 125 125 123 121 121 112 111 111 104 104 104
105 105 105 107 107 107 105 105 105 103 103 103
100 100 100 97 97 97 96 96 96 96 96 96
97 97 97 100 100 100 102 102 102 107 107 107
110 110 110 100 100 100 81 81 81 71 71 71
72 72 72 80 80 80 94 94 94 102 102 102
102 102 102 96 96 96 92 92 92 92 92 92
97 97 97 99 99 99 99 99 99 101 101 101
105 105 105 107 107 107 107 107 107 106 106 106
107 107 107 113 113 113 121 121 121 128 128 128
128 128 128 116 117 117 95 97 97 84 81 81
83 71 71 80 64 64 71 57 57 67 55 55
68 55 56 69 57 57 68 57 57 68 57 57
68 57 57 68 57 57 67 57 57 67 56 56
68 56 56 67 55 55 67 55 55 71 56 57
79 63 63 84 72 72 90 86 86 104 105 105
122 123 123 124 123 123 112 111 111 104 104 104
106 106 106 106 106 106 101 101 101 99 99 99
99 99 99 97 97 97 92 92 92 92 92 92
97 97 97 99 99 99 98 98 98 103 103 103
109 109 109 101 101 101 82 82 82 71 71 71
72 72 72 79 79 79 92 92 92 100 100 100
99 99 99 93 93 93 89 89 89 90 90 90
94 94 94 97 97 97 97 97 97 98 98 98
102 102 102 106 106 106 107 107 107 105 105 105
103 103 103 107 107 107 115 115 115 124 124 124
127 127 127 116 116 116 98 98 98 92 94 94
97 103 103 97 105 105 87 94 94 81 86 86
81 87 87 81 87 87 80 86 86 80 85 85
80 85 85 80 86 86 81 87 87 82 88 88
83 89 89 82 88 88 81 87 87 86 93 93
95 103 103 100 106 106 101 103 103 107 107 107
118 117 117 118 119 119 110 110 110 104 104 104
104 104 104 103 103 103 98 98 98 97 97 97
97 97 97 94 94 94 90 90 90 90 90 90
94 94 94 97 97 97 96 96 96 100 100 100
106 106 106 99 99 99 81 81 81 71 71 71
72 72 72 80 80 80 93 93 93 98 98 98
94 94 94 90 90 90 89 89 89 89 89 89
90 90 90 93 93 93 96 96 96 98 98 98
99 99 99 101 101 101 105 105 105 106 106 106
105 105 105 105 105 105 107 107 107 114 114 114
123 123 123 119 119 119 106 105 105 104 105 105
115 118 118 116 121 121 105 109 109 96 100 100
94 98 98 92 96 96 88 92 92 86 90 90
86 90 90 88 92 92 91 95 95 95 99 99
99 103 103 99 103 103 98 102 102 103 108 108
113 118 118 120 123 123 120 121 121 116 116 116
112 111 111 108 108 108 107 107 107 104 104 104
101 101 101 99 99 99 98 98 98 96 96 96
93 93 93 90 90 90 89 89 89 89 89 89
90 90 90 93 93 93 95 95 95 100 100 100
102 102 102 94 94 94 80 80 80 72 72 72
72 72 72 80 80 80 95 95 95 99 99 99
92 92 92 87 87 87 89 89 89 89 89 89
88 88 88 91 91 91 97 97 97 99 99 99
97 97 97 98 98 98 104 104 104 108 108 108
108 108 108 104 104 104 102 102 102 109 109 109
122 122 122 122 122 122 110 110 110 110 110 110
123 121 121 126 123 123 115 112 112 105 103 103
102 100 100 98 96 96 93 91 91 90 88 88
90 88 88 93 91 91 98 96 96 104 101 101
109 107 107 109 107 107 108 106 106 112 110 110
122 120 120 130 128 128 130 129 129 121 121 121
108 108 108 103 103 103 106 106 106 105 105 105
99 99 99 97 97 97 99 99 99 97 97 97
91 91 91 88 88 88 89 89 89 89 89 89
88 88 88 91 91 91 96 96 96 101 101 101
100 100 100 92 92 92 79 79 79 72 72 72
71 71 71 80 80 80 95 95 95 99 99 99
93 93 93 88 88 88 89 89 89 89 89 89
88 88 88 91 91 91 97 97 97 99 99 99
97 97 97 99 99 99 105 105 105 108 108 108
108 108 108 104 104 104 102 102 102 110 110 110
123 123 123 122 122 122 110 110 110 109 109 109
122 121 121 125 124 124 113 113 113 104 104 104
101 100 100 97 96 96 92 92 92 89 89 89
89 89 89 92 92 92 97 97 97 103 102 102
108 108 108 108 108 108 107 106 106 111 110 110
121 120 120 128 128 128 128 128 128 120 120 120
108 109 109 104 104 104 106 106 106 105 105 105
99 99 99 97 97 97 99 99 99 97 97 97
91 91 91 88 88 88 89 89 89 89 89 89
88 88 88 91 91 91 96 96 96 101 101 101
100 100 100 92 92 92 79 79 79 72 72 72
73 73 73 80 80 80 93 93 93 97 97 97
93 93 93 89 89 89 89 89 89 89 89 89
89 89 89 91 91 91 95 95 95 97 97 97
98 98 98 100 100 100 103 103 103 105 105 105
106 106 106 105 105 105 105 105 105 110 110 110
119 119 119 117 117 117 107 107 107 108 108 108
119 119 119 121 121 121 110 110 110 102 102 102
99 99 99 96 96 96 91 91 91 88 88 88
88 88 88 90 90 90 93 93 93 98 98 98
102 102 102 103 103 103 103 103 103 108 108 108
118 118 118 125 125 125 125 125 125 119 119 119
110 110 110 105 105 105 104 104 104 103 103 103
100 100 100 98 98 98 97 97 97 95 95 95
91 91 91 89 89 89 89 89 89 89 89 89
89 89 89 91 91 91 94 94 94 99 99 99
101 101 101 94 94 94 80 80 80 72 72 72
75 75 75 80 80 80 88 88 88 93 93 93
91 91 91 89 89 89 89 89 89 89 89 89
90 90 90 90 90 90 90 90 90 93 93 93
97 97 97 99 99 99 99 99 99 101 101 101
104 104 104 106 106 106 106 106 106 107 107 107
110 110 110 108 108 108 105 105 105 110 110 110
120 120 120 121 121 121 111 111 111 102 102 102
100 100 100 96 96 96 91 91 91 89 89 89
89 89 89 89 89 89 90 90 90 93 93 93
98 98 98 100 100 100 103 103 103 110 110 110
119 119 119 125 125 125 125 125 125 119 119 119
110 110 110 103 103 103 100 100 100 100 100 100
99 99 99 97 97 97 93 93 93 90 90 90
90 90 90 90 90 90 89 89 89 89 89 89
90 90 90 90 90 90 90 90 90 95 95 95
100 100 100 94 94 94 80 80 80 72 72 72
69 69 69 75 75 75 85 85 85 91 91 91
90 90 90 89 89 89 90 90 90 91 91 91
90 90 90 89 89 89 88 88 88 90 90 90
95 95 95 96 96 96 96 96 96 99 99 99
104 104 104 107 107 107 107 107 107 105 105 105
105 105 105 103 103 103 103 103 103 111 111 111
122 122 122 123 123 123 112 112 112 102 102 102
98 98 98 94 94 94 90 90 90 90 90 90
90 90 90 90 90 90 89 89 89 90 90 90
95 95 95 99 99 99 103 103 103 110 110 110
120 120 120 127 127 127 127 127 127 121 121 121
111 111 111 102 102 102 98 98 98 97 97 97
97 97 97 95 95 95 90 90 90 88 88 88
89 89 89 90 90 90 91 91 91 91 91 91
90 90 90 89 89 89 87 87 87 92 92 92
97 97 97 92 92 92 79 79 79 72 72 72
58 58 58 67 67 67 83 83 83 92 92 92
91 91 91 89 89 89 91 91 91 91 91 91
90 90 90 89 89 89 89 89 89 89 89 89
91 91 91 92 92 92 95 95 95 100 100 100
105 105 105 107 107 107 107 107 107 105 105 105
105 105 105 104 104 104 103 103 103 111 111 111
123 123 123 124 124 124 112 112 112 100 100 100
93 93 93 90 90 90 89 89 89 90 90 90
91 91 91 91 91 91 89 89 89 90 90 90
95 95 95 99 99 99 102 102 102 110 110 110
121 121 121 128 128 128 128 128 128 121 121 121
110 110 110 102 102 102 98 98 98 96 96 96
92 92 92 91 91 91 89 89 89 89 89 89
89 89 89 90 90 90 91 91 91 91 91 91
90 90 90 89 89 89 88 88 88 91 91 91
93 93 93 88 88 88 78 78 78 72 72 72
52 52 52 62 62 62 82 82 82 94 94 94
93 93 93 88 88 88 86 86 86 87 87 87
89 89 89 91 91 91 91 91 91 89 89 89
88 88 88 90 90 90 96 96 96 100 100 100
103 103 103 105 105 105 106 106 106 106 106 106
107 107 107 105 105 105 104 104 104 110 110 110
118 118 118 119 119 119 112 112 112 101 101 101
91 91 91 88 88 88 90 90 90 90 90 90
87 87 87 86 86 86 88 88 88 92 92 92
96 96 96 100 100 100 104 104 104 110 110 110
117 117 117 121 121 121 121 121 121 117 117 117
109 109 109 104 104 104 100 100 100 96 96 96
90 90 90 88 88 88 89 89 89 91 91 91
91 91 91 89 89 89 87 87 87 87 87 87
89 89 89 91 91 91 90 90 90 90 90 90
90 90 90 86 86 86 78 78 78 74 74 74
53 53 53 63 63 63 81 81 81 93 93 93
94 94 94 86 86 86 78 78 78 78 78 78
87 87 87 92 92 92 90 90 90 87 87 87
87 87 87 90 90 90 96 96 96 99 99 99
98 98 98 100 100 100 105 105 105 107 107 107
106 106 106 105 105 105 105 105 105 107 107 107
108 108 108 109 109 109 109 109 109 102 102 102
91 91 91 88 88 88 91 91 91 88 88 88
79 79 79 77 77 77 85 85 85 92 92 92
96 96 96 100 100 100 105 105 105 107 107 107
109 109 109 109 109 109 109 109 109 109 109 109
107 107 107 105 105 105 100 100 100 95 95 95
90 90 90 87 87 87 87 87 87 90 90 90
92 92 92 87 87 87 78 78 78 78 78 78
87 87 87 92 92 92 90 90 90 89 89 89
89 89 89 86 86 86 79 79 79 75 75 75
54 54 54 65 65 65 85 85 85 95 95 95
92 92 92 83 83 83 76 76 76 76 76 76
84 84 84 90 90 90 92 92 92 91 91 91
91 91 91 93 93 93 97 97 97 98 98 98
98 98 98 100 100 100 104 104 104 107 107 107
108 108 108 107 107 107 106 106 106 105 105 105
105 105 105 107 107 107 107 107 107 103 103 103
95 95 95 90 90 90 89 89 89 84 84 84
76 76 76 77 77 77 87 87 87 95 95 95
97 97 97 100 100 100 104 104 104 106 106 106
106 106 106 106 106 106 106 106 106 106 106 106
106 106 106 104 104 104 100 100 100 96 96 96
93 93 93 92 92 92 91 91 91 92 92 92
90 90 90 84 84 84 76 76 76 76 76 76
84 84 84 90 90 90 91 91 91 93 93 93
94 94 94 87 87 87 75 75 75 69 69 69
53 53 53 66 66 66 87 87 87 94 94 94
85 85 85 76 76 76 77 77 77 77 77 77
78 78 78 83 83 83 90 90 90 94 94 94
94 94 94 93 93 93 94 94 94 96 96 96
99 99 99 100 100 100 101 101 101 104 104 104
109 109 109 108 108 108 103 103 103 103 103 103
107 107 107 108 108 108 104 104 104 100 100 100
96 96 96 90 90 90 83 83 83 77 77 77
75 75 75 81 81 81 90 90 90 95 95 95
95 95 95 96 96 96 100 100 100 104 104 104
107 107 107 109 109 109 109 109 109 107 107 107
104 104 104 100 100 100 96 96 96 94 94 94
93 93 93 94 94 94 94 94 94 90 90 90
83 83 83 78 78 78 77 77 77 77 77 77
78 78 78 82 82 82 89 89 89 96 96 96
97 97 97 86 86 86 67 67 67 57 57 57
54 54 54 63 63 63 79 79 79 83 83 83
74 74 74 67 67 67 67 67 67 68 68 68
68 68 68 72 72 72 80 80 80 84 84 84
84 84 84 82 82 82 81 81 81 84 84 84
91 91 91 94 94 94 92 92 92 94 94 94
99 99 99 98 98 98 93 93 93 93 93 93
98 98 98 100 100 100 95 95 95 90 90 90
86 86 86 79 79 79 72 72 72 67 67 67
66 66 66 71 71 71 80 80 80 84 84 84
82 82 82 83 83 83 89 89 89 95 95 95
99 99 99 101 101 101 101 101 101 99 99 99
95 95 95 89 89 89 84 84 84 81 81 81
82 82 82 84 84 84 84 84 84 80 80 80
72 72 72 68 68 68 68 68 68 68 68 68
68 68 68 72 72 72 79 79 79 86 86 86
86 86 86 77 77 77 61 61 61 52 52 52
56 56 56 59 59 59 63 63 63 65 65 65
63 63 63 56 56 56 49 49 49 49 49 49
56 56 56 62 62 62 64 64 64 64 64 64
65 65 65 63 63 63 62 62 62 67 67 67
76 76 76 81 81 81 80 80 80 79 79 79
81 81 81 81 81 81 79 79 79 79 79 79
80 80 80 82 82 82 81 81 81 76 76 76
67 67 67 62 62 62 61 61 61 56 56 56
49 49 49 50 50 50 60 60 60 65 65 65
63 63 63 66 66 66 75 75 75 81 81 81
82 82 82 81 81 81 81 81 81 82 82 82
81 81 81 75 75 75 66 66 66 62 62 62
63 63 63 65 65 65 64 64 64 64 64 64
62 62 62 56 56 56 49 49 49 49 49 49
56 56 56 62 62 62 64 64 64 64 64 64
65 65 65 62 62 62 58 58 58 55 55 55
57 57 57 56 56 56 54 54 54 55 55 55
58 58 58 51 51 51 39 39 39 39 39 39
51 51 51 58 58 58 55 55 55 53 53 53
54 54 54 53 53 53 52 52 52 58 58 58
68 68 68 74 74 74 74 74 74 72 72 72
71 71 71 71 71 71 72 72 72 72 72 72
71 71 71 73 73 73 74 74 74 68 68 68
57 57 57 53 53 53 57 57 57 52 52 52
40 40 40 39 39 39 50 50 50 55 55 55
53 53 53 57 57 57 68 68 68 74 74 74
73 73 73 70 70 70 70 70 70 73 73 73
74 74 74 69 69 69 58 58 58 52 52 52
53 53 53 54 54 54 53 53 53 55 55 55
58 58 58 51 51 51 39 39 39 39 39 39
51 51 51 58 58 58 55 55 55 53 53 53
53 53 53 55 55 55 57 57 57 58 58 58
