P3
# Converted to P3 by scripts/convert_to_p3.py
64 64
255
74 74 74 74 74 74 74 74 74 73 73 73
73 73 73 73 73 73 74 74 74 73 73 73
71 71 71 71 71 71 71 71 71 71 71 71
71 71 71 71 71 71 73 73 73 77 77 77
82 82 82 82 82 82 77 77 77 73 73 73
72 72 72 72 72 72 70 70 70 70 70 70
72 72 72 73 73 73 72 72 72 71 71 71
71 71 71 71 71 71 71 71 71 71 71 71
70 70 70 70 70 70 70 70 70 70 70 70
71 71 71 71 71 71 71 71 71 71 71 71
71 71 71 71 71 71 71 71 71 71 71 71
71 71 71 71 71 71 71 71 71 71 71 71
71 71 71 72 72 72 72 72 72 73 73 73
73 73 73 73 73 73 73 73 73 74 74 74
75 75 75 75 75 75 74 74 74 73 73 73
73 73 73 73 73 73 74 74 74 74 74 74
89 89 89 89 89 89 90 90 90 90 90 90
92 92 92 98 98 98 107 107 107 109 109 109
105 105 105 108 108 108 118 118 118 125 125 125
124 124 124 123 123 123 123 123 123 126 126 126
129 129 129 130 130 130 126 126 126 122 122 122
118 118 118 114 114 114 110 110 110 109 109 109
112 112 112 117 117 117 121 121 121 123 123 123
123 123 123 124 124 124 125 125 125 120 120 120
111 111 111 105 105 105 105 105 105 111 111 111
119 119 119 126 126 126 126 126 126 116 116 116
103 103 103 105 105 105 119 119 119 119 119 119
105 105 105 103 103 103 116 116 116 125 125 125
124 124 124 120 120 120 117 117 117 114 114 114
112 112 112 112 112 112 112 112 112 110 110 110
105 105 105 98 98 98 90 90 90 87 87 87
87 87 87 84 84 84 79 79 79 76 76 76
99 99 99 99 99 99 103 103 103 112 112 112
127 127 127 141 141 141 152 152 152 160 160 160
168 168 168 173 173 173 178 178 178 180 180 180
181 181 181 183 183 183 185 185 185 184 184 184
182 182 182 182 182 182 185 185 185 185 185 185
182 182 182 181 181 181 181 181 181 181 181 181
180 180 180 180 180 180 181 181 181 182 182 182
182 182 182 184 184 184 186 186 186 185 185 185
180 180 180 176 176 176 176 176 176 180 180 180
185 185 185 186 186 186 182 182 182 175 175 175
170 170 170 172 172 172 178 178 178 178 178 178
172 172 172 171 171 171 177 177 177 181 181 181
180 180 180 179 179 179 178 178 178 174 174 174
166 166 166 159 159 159 150 150 150 140 140 140
128 128 128 122 122 122 119 119 119 114 114 114
104 104 104 96 96 96 91 91 91 90 90 90
98 98 98 97 97 97 97 97 97 101 101 101
112 112 112 125 125 125 137 137 137 142 142 142
142 142 142 141 141 141 143 143 143 143 143 143
142 142 142 148 148 148 156 156 156 156 156 156
149 149 149 148 148 148 155 155 155 157 157 157
151 151 151 145 145 145 144 144 144 143 143 143
143 143 143 149 149 149 156 156 156 156 156 156
147 147 147 141 141 141 142 142 142 144 144 144
144 144 144 143 143 143 142 142 142 147 147 147
155 155 155 154 154 154 145 145 145 143 143 143
148 148 148 151 151 151 149 149 149 148 148 148
149 149 149 149 149 149 148 148 148 148 148 148
148 148 148 147 147 147 145 145 145 143 143 143
140 140 140 141 141 141 143 143 143 141 141 141
134 134 134 128 128 128 121 121 121 112 112 112
100 100 100 96 96 96 97 97 97 100 100 100
98 98 98 98 98 98 98 98 98 97 97 97
95 95 95 95 95 95 97 97 97 101 101 101
105 105 105 107 107 107 108 108 108 108 108 108
109 109 109 115 115 115 124 124 124 123 123 123
115 115 115 116 116 116 125 125 125 127 127 127
119 119 119 111 111 111 108 108 108 109 109 109
114 114 114 122 122 122 128 128 128 123 123 123
112 112 112 107 107 107 111 111 111 112 112 112
109 109 109 107 107 107 106 106 106 110 110 110
115 115 115 117 117 117 114 114 114 111 111 111
111 111 111 110 110 110 110 110 110 112 112 112
114 114 114 116 116 116 116 116 116 116 116 116
116 116 116 113 113 113 109 109 109 108 108 108
110 110 110 109 109 109 106 106 106 104 104 104
103 103 103 100 100 100 93 93 93 84 84 84
79 79 79 83 83 83 93 93 93 100 100 100
100 100 100 93 93 93 81 81 81 75 75 75
75 75 75 76 76 76 76 76 76 76 76 76
75 75 75 75 75 75 75 75 75 74 74 74
74 74 74 74 74 74 75 75 75 79 79 79
83 83 83 85 85 85 84 84 84 84 84 84
86 86 86 82 82 82 76 76 76 76 76 76
83 83 83 87 87 87 86 86 86 81 81 81
76 76 76 75 75 75 78 78 78 79 79 79
76 76 76 74 74 74 74 74 74 74 74 74
74 74 74 76 76 76 78 78 78 78 78 78
75 75 75 73 73 73 73 73 73 75 75 75
77 77 77 79 79 79 79 79 79 78 78 78
76 76 76 75 75 75 75 75 75 75 75 75
75 75 75 77 77 77 79 79 79 79 79 79
76 76 76 74 74 74 73 73 73 70 70 70
69 69 69 77 77 77 92 92 92 100 100 100
99 99 99 96 96 96 89 89 89 82 82 82
76 76 76 74 74 74 73 73 73 73 73 73
72 72 72 72 72 72 71 71 71 71 71 71
71 71 71 71 71 71 71 71 71 70 70 70
70 70 70 71 71 71 73 73 73 73 73 73
71 71 71 70 70 70 71 71 71 71 71 71
69 69 69 70 70 70 73 73 73 73 73 73
72 72 72 71 71 71 70 70 70 71 71 71
71 71 71 72 72 72 72 72 72 72 72 72
72 72 72 72 72 72 72 72 72 72 72 72
72 72 72 73 73 73 73 73 73 72 72 72
71 71 71 71 71 71 70 70 70 71 71 71
71 71 71 71 71 71 72 72 72 72 72 72
72 72 72 72 72 72 73 73 73 72 72 72
73 73 73 78 78 78 85 85 85 87 87 87
86 86 86 88 88 88 95 95 95 99 99 99
98 98 98 98 98 98 100 100 100 100 100 100
99 99 99 101 101 101 106 106 106 112 112 112
118 118 118 122 122 122 123 123 123 123 123 123
124 124 124 123 123 123 124 124 124 123 123 123
122 122 122 126 126 126 132 132 132 132 132 132
126 126 126 122 122 122 123 123 123 124 124 124
123 123 123 127 127 127 132 132 132 131 131 131
125 125 125 122 122 122 123 123 123 124 124 124
124 124 124 122 122 122 118 118 118 116 116 116
116 116 116 116 116 116 113 113 113 113 113 113
115 115 115 116 116 116 115 115 115 117 117 117
121 121 121 124 124 124 124 124 124 123 123 123
123 123 123 122 122 122 120 120 120 120 120 120
120 120 120 118 118 118 113 113 113 107 107 107
103 103 103 100 100 100 98 98 98 99 99 99
100 100 100 100 100 100 98 98 98 98 98 98
98 98 98 98 98 98 101 101 101 111 111 111
128 128 128 142 142 142 152 152 152 160 160 160
169 169 169 176 176 176 182 182 182 184 184 184
184 184 184 183 183 183 184 184 184 184 184 184
185 185 185 188 188 188 191 191 191 191 191 191
188 188 188 185 185 185 182 182 182 184 184 184
188 188 188 191 191 191 192 192 192 191 191 191
188 188 188 186 186 186 184 184 184 183 183 183
183 183 183 183 183 183 182 182 182 181 181 181
181 181 181 181 181 181 180 180 180 181 181 181
184 184 184 185 185 185 184 184 184 185 185 185
187 187 187 187 187 187 184 184 184 185 185 185
188 188 188 185 185 185 176 176 176 170 170 170
166 166 166 164 164 164 157 157 157 146 146 146
131 131 131 121 121 121 117 117 117 111 111 111
101 101 101 96 96 96 96 96 96 98 98 98
98 98 98 97 97 97 101 101 101 116 116 116
140 140 140 157 157 157 161 161 161 154 154 154
143 143 143 136 136 136 136 136 136 137 137 137
136 136 136 138 138 138 141 141 141 147 147 147
152 152 152 152 152 152 148 148 148 143 143 143
142 142 142 141 141 141 140 140 140 144 144 144
151 151 151 153 153 153 149 149 149 143 143 143
139 139 139 137 137 137 137 137 137 137 137 137
137 137 137 137 137 137 137 137 137 137 137 137
137 137 137 137 137 137 137 137 137 139 139 139
144 144 144 150 150 150 153 153 153 153 153 153
149 149 149 142 142 142 137 137 137 139 139 139
145 145 145 146 146 146 141 141 141 136 136 136
136 136 136 144 144 144 154 154 154 159 159 159
153 153 153 140 140 140 124 124 124 111 111 111
102 102 102 93 93 93 82 82 82 78 78 78
98 98 98 98 98 98 100 100 100 105 105 105
112 112 112 118 118 118 122 122 122 122 122 122
121 121 121 120 120 120 120 120 120 121 121 121
121 121 121 120 120 120 120 120 120 124 124 124
129 129 129 132 132 132 131 131 131 127 127 127
123 123 123 122 122 122 124 124 124 128 128 128
131 131 131 130 130 130 127 127 127 123 123 123
121 121 121 120 120 120 120 120 120 121 121 121
121 121 121 121 121 121 120 120 120 121 121 121
122 122 122 122 122 122 121 121 121 121 121 121
123 123 123 127 127 127 130 130 130 132 132 132
130 130 130 126 126 126 122 122 122 121 121 121
124 124 124 125 125 125 123 123 123 118 118 118
112 112 112 114 114 114 120 120 120 124 124 124
120 120 120 112 112 112 103 103 103 100 100 100
100 100 100 93 93 93 79 79 79 71 71 71
98 98 98 97 97 97 97 97 97 97 97 97
101 101 101 109 109 109 119 119 119 126 126 126
126 126 126 125 125 125 124 124 124 124 124 124
124 124 124 124 124 124 123 123 123 125 125 125
130 130 130 134 134 134 134 134 134 130 130 130
125 125 125 124 124 124 129 129 129 133 133 133
133 133 133 130 130 130 125 125 125 123 123 123
123 123 123 124 124 124 124 124 124 124 124 124
124 124 124 125 125 125 126 126 126 123 123 123
117 117 117 116 116 116 122 122 122 124 124 124
123 123 123 125 125 125 130 130 130 131 131 131
126 126 126 123 123 123 124 124 124 124 124 124
123 123 123 124 124 124 125 125 125 118 118 118
106 106 106 108 108 108 120 120 120 122 122 122
110 110 110 100 100 100 97 97 97 99 99 99
101 101 101 94 94 94 80 80 80 72 72 72
98 98 98 97 97 97 98 98 98 99 99 99
103 103 103 112 112 112 122 122 122 123 123 123
117 117 117 115 115 115 121 121 121 125 125 125
124 124 124 123 123 123 123 123 123 124 124 124
127 127 127 129 129 129 129 129 129 126 126 126
123 123 123 125 125 125 129 129 129 133 133 133
133 133 133 130 130 130 125 125 125 123 123 123
123 123 123 123 123 123 122 122 122 123 123 123
124 124 124 122 122 122 118 118 118 110 110 110
104 104 104 108 108 108 119 119 119 126 126 126
125 125 125 123 123 123 124 124 124 124 124 124
123 123 123 123 123 123 123 123 123 124 124 124
125 125 125 120 120 120 111 111 111 104 104 104
103 103 103 112 112 112 123 123 123 123 123 123
112 112 112 103 103 103 99 99 99 97 97 97
93 93 93 86 86 86 77 77 77 73 73 73
100 100 100 98 98 98 98 98 98 99 99 99
103 103 103 110 110 110 117 117 117 114 114 114
106 106 106 107 107 107 118 118 118 125 125 125
125 125 125 123 123 123 122 122 122 125 125 125
129 129 129 129 129 129 125 125 125 122 122 122
123 123 123 123 123 123 123 123 123 126 126 126
130 130 130 130 130 130 125 125 125 124 124 124
126 126 126 120 120 120 109 109 109 110 110 110
121 121 121 122 122 122 110 110 110 101 101 101
103 103 103 110 110 110 119 119 119 124 124 124
124 124 124 123 123 123 123 123 123 123 123 123
123 123 123 124 124 124 124 124 124 126 126 126
126 126 126 120 120 120 110 110 110 103 103 103
104 104 104 109 109 109 114 114 114 114 114 114
109 109 109 104 104 104 101 101 101 93 93 93
82 82 82 75 75 75 74 74 74 74 74 74
89 89 89 91 91 91 95 95 95 100 100 100
104 104 104 108 108 108 112 112 112 112 112 112
108 108 108 105 105 105 105 105 105 111 111 111
120 120 120 125 125 125 124 124 124 123 123 123
124 124 124 124 124 124 124 124 124 123 123 123
123 123 123 123 123 123 123 123 123 123 123 123
124 124 124 124 124 124 124 124 124 122 122 122
118 118 118 111 111 111 105 105 105 110 110 110
121 121 121 122 122 122 111 111 111 104 104 104
105 105 105 106 106 106 105 105 105 110 110 110
120 120 120 125 125 125 124 124 124 124 124 124
125 125 125 121 121 121 115 115 115 116 116 116
123 123 123 121 121 121 110 110 110 104 104 104
105 105 105 106 106 106 105 105 105 105 105 105
106 106 106 104 104 104 99 99 99 98 98 98
98 98 98 93 93 93 82 82 82 76 76 76
79 79 79 83 83 83 93 93 93 101 101 101
106 106 106 106 106 106 106 106 106 105 105 105
106 106 106 105 105 105 104 104 104 109 109 109
119 119 119 125 125 125 124 124 124 123 123 123
123 123 123 123 123 123 124 124 124 124 124 124
124 124 124 123 123 123 123 123 123 123 123 123
123 123 123 125 125 125 126 126 126 119 119 119
108 108 108 100 100 100 102 102 102 111 111 111
121 121 121 121 121 121 110 110 110 104 104 104
105 105 105 105 105 105 104 104 104 109 109 109
120 120 120 125 125 125 124 124 124 124 124 124
126 126 126 119 119 119 107 107 107 109 109 109
120 120 120 122 122 122 111 111 111 104 104 104
105 105 105 107 107 107 106 106 106 107 107 107
107 107 107 104 104 104 99 99 99 98 98 98
99 99 99 95 95 95 85 85 85 80 80 80
80 80 80 84 84 84 94 94 94 101 101 101
105 105 105 106 106 106 107 107 107 106 106 106
107 107 107 105 105 105 104 104 104 110 110 110
121 121 121 126 126 126 125 125 125 123 123 123
123 123 123 123 123 123 123 123 123 123 123 123
123 123 123 124 124 124 123 123 123 123 123 123
123 123 123 124 124 124 124 124 124 122 122 122
117 117 117 112 112 112 107 107 107 106 106 106
106 106 106 107 107 107 106 106 106 106 106 106
106 106 106 105 105 105 104 104 104 110 110 110
120 120 120 125 125 125 124 124 124 123 123 123
123 123 123 123 123 123 122 122 122 123 123 123
125 125 125 120 120 120 110 110 110 104 104 104
105 105 105 106 106 106 106 106 106 106 106 106
107 107 107 104 104 104 99 99 99 99 99 99
101 101 101 94 94 94 80 80 80 72 72 72
73 73 73 79 79 79 92 92 92 102 102 102
106 106 106 106 106 106 106 106 106 106 106 106
106 106 106 105 105 105 105 105 105 107 107 107
112 112 112 117 117 117 122 122 122 125 125 125
126 126 126 119 119 119 109 109 109 109 109 109
119 119 119 126 126 126 124 124 124 123 123 123
123 123 123 123 123 123 122 122 122 125 125 125
128 128 128 122 122 122 110 110 110 104 104 104
104 104 104 106 106 106 106 106 106 106 106 106
106 106 106 105 105 105 104 104 104 110 110 110
120 120 120 125 125 125 124 124 124 124 124 124
125 125 125 119 119 119 108 108 108 110 110 110
121 121 121 121 121 121 109 109 109 102 102 102
104 104 104 107 107 107 106 106 106 106 106 106
107 107 107 105 105 105 100 100 100 96 96 96
93 93 93 86 86 86 77 77 77 73 73 73
72 72 72 79 79 79 92 92 92 102 102 102
107 107 107 107 107 107 106 106 106 105 105 105
105 105 105 106 106 106 106 106 106 104 104 104
102 102 102 108 108 108 119 119 119 127 127 127
127 127 127 118 118 118 107 107 107 107 107 107
118 118 118 126 126 126 125 125 125 123 123 123
123 123 123 124 124 124 124 124 124 122 122 122
117 117 117 111 111 111 107 107 107 105 105 105
105 105 105 106 106 106 106 106 106 106 106 106
106 106 106 105 105 105 104 104 104 109 109 109
120 120 120 125 125 125 124 124 124 124 124 124
126 126 126 118 118 118 107 107 107 108 108 108
119 119 119 124 124 124 119 119 119 111 111 111
107 107 107 105 105 105 105 105 105 106 106 106
106 106 106 105 105 105 102 102 102 93 93 93
81 81 81 74 74 74 73 73 73 75 75 75
73 73 73 79 79 79 92 92 92 99 99 99
100 100 100 101 101 101 106 106 106 108 108 108
108 108 108 108 108 108 108 108 108 107 107 107
106 106 106 111 111 111 120 120 120 127 127 127
127 127 127 119 119 119 109 109 109 109 109 109
120 120 120 126 126 126 125 125 125 124 124 124
124 124 124 125 125 125 126 126 126 120 120 120
109 109 109 104 104 104 106 106 106 108 108 108
107 107 107 107 107 107 107 107 107 107 107 107
108 108 108 106 106 106 106 106 106 111 111 111
120 120 120 125 125 125 124 124 124 125 125 125
126 126 126 120 120 120 110 110 110 109 109 109
119 119 119 128 128 128 128 128 128 122 122 122
111 111 111 106 106 106 106 106 106 108 108 108
108 108 108 106 106 106 101 101 101 90 90 90
78 78 78 73 73 73 74 74 74 77 77 77
73 73 73 74 74 74 75 75 75 75 75 75
75 75 75 80 80 80 86 86 86 89 89 89
87 87 87 85 85 85 86 86 86 86 86 86
86 86 86 86 86 86 87 87 87 87 87 87
87 87 87 87 87 87 86 86 86 86 86 86
87 87 87 87 87 87 87 87 87 86 86 86
86 86 86 87 87 87 88 88 88 89 89 89
88 88 88 88 88 88 88 88 88 88 88 88
88 88 88 88 88 88 88 88 88 88 88 88
88 88 88 87 87 87 86 86 86 87 87 87
89 89 89 89 89 89 88 88 88 87 87 87
87 87 87 86 86 86 86 86 86 86 86 86
87 87 87 87 87 87 87 87 87 86 86 86
86 86 86 86 86 86 88 88 88 89 89 89
89 89 89 86 86 86 80 80 80 76 76 76
75 75 75 72 72 72 67 67 67 65 65 65
60 60 60 58 58 58 56 56 56 57 57 57
62 62 62 65 65 65 64 64 64 60 60 60
55 55 55 53 53 53 53 53 53 54 54 54
53 53 53 53 53 53 53 53 53 53 53 53
53 53 53 53 53 53 53 53 53 53 53 53
53 53 53 54 54 54 56 56 56 57 57 57
56 56 56 58 58 58 63 63 63 65 65 65
65 65 65 64 64 64 65 65 65 65 65 65
65 65 65 63 63 63 61 61 61 62 62 62
65 65 65 62 62 62 55 55 55 54 54 54
59 59 59 60 60 60 55 55 55 53 53 53
55 55 55 58 58 58 57 57 57 56 56 56
54 54 54 53 53 53 53 53 53 53 53 53
53 53 53 55 55 55 59 59 59 63 63 63
64 64 64 64 64 64 63 63 63 62 62 62
60 60 60 58 58 58 57 57 57 56 56 56
73 73 73 71 71 71 68 68 68 65 65 65
64 64 64 63 63 63 64 64 64 66 66 66
70 70 70 72 72 72 72 72 72 72 72 72
72 72 72 71 71 71 71 71 71 71 71 71
72 72 72 73 73 73 73 73 73 72 72 72
72 72 72 72 72 72 72 72 72 73 73 73
73 73 73 73 73 73 73 73 73 73 73 73
73 73 73 72 72 72 72 72 72 72 72 72
73 73 73 72 72 72 72 72 72 72 72 72
73 73 73 73 73 73 73 73 73 73 73 73
72 72 72 72 72 72 72 72 72 72 72 72
72 72 72 73 73 73 74 74 74 73 73 73
72 72 72 72 72 72 72 72 72 73 73 73
72 72 72 71 71 71 71 71 71 71 71 71
72 72 72 72 72 72 71 71 71 71 71 71
72 72 72 73 73 73 73 73 73 73 73 73
90 90 90 92 92 92 96 96 96 103 103 103
111 111 111 112 112 112 106 106 106 105 105 105
110 110 110 112 112 112 109 109 109 110 110 110
113 113 113 108 108 108 97 97 97 95 95 95
101 101 101 105 105 105 103 103 103 105 105 105
110 110 110 112 112 112 111 111 111 111 111 111
112 112 112 109 109 109 103 103 103 100 100 100
102 102 102 106 106 106 109 109 109 109 109 109
105 105 105 103 103 103 104 104 104 104 104 104
102 102 102 101 101 101 102 102 102 102 102 102
101 101 101 103 103 103 108 108 108 111 111 111
112 112 112 108 108 108 104 104 104 104 104 104
109 109 109 109 109 109 105 105 105 104 104 104
108 108 108 111 111 111 111 111 111 109 109 109
105 105 105 103 103 103 103 103 103 106 106 106
110 110 110 111 111 111 110 110 110 108 108 108
103 103 103 101 101 101 100 100 100 105 105 105
114 114 114 118 118 118 116 116 116 115 115 115
117 117 117 115 115 115 110 110 110 111 111 111
117 117 117 115 115 115 106 106 106 105 105 105
112 112 112 116 116 116 115 115 115 114 114 114
115 115 115 116 116 116 117 117 117 118 118 118
118 118 118 114 114 114 109 109 109 107 107 107
111 111 111 119 119 119 125 125 125 124 124 124
117 117 117 114 114 114 115 115 115 114 114 114
109 109 109 105 105 105 103 103 103 102 102 102
103 103 103 111 111 111 123 123 123 127 127 127
122 122 122 116 116 116 113 113 113 118 118 118
125 125 125 124 124 124 116 116 116 116 116 116
123 123 123 128 128 128 128 128 128 123 123 123
117 117 117 113 113 113 113 113 113 115 115 115
117 117 117 116 116 116 112 112 112 109 109 109
97 97 97 97 97 97 97 97 97 98 98 98
102 102 102 103 103 103 102 102 102 99 99 99
97 97 97 97 97 97 99 99 99 103 103 103
104 104 104 102 102 102 97 97 97 97 97 97
102 102 102 106 106 106 106 106 106 104 104 104
101 101 101 101 101 101 103 103 103 104 104 104
104 104 104 104 104 104 106 106 106 104 104 104
102 102 102 109 109 109 120 120 120 120 120 120
109 109 109 102 102 102 104 104 104 104 104 104
100 100 100 98 98 98 98 98 98 96 96 96
95 95 95 104 104 104 117 117 117 123 123 123
119 119 119 109 109 109 103 103 103 109 109 109
121 121 121 120 120 120 108 108 108 105 105 105
116 116 116 125 125 125 126 126 126 119 119 119
109 109 109 101 101 101 100 100 100 102 102 102
103 103 103 104 104 104 102 102 102 101 101 101
97 97 97 97 97 97 97 97 97 100 100 100
104 104 104 103 103 103 99 99 99 96 96 96
96 96 96 100 100 100 106 106 106 105 105 105
100 100 100 97 97 97 99 99 99 104 104 104
108 108 108 107 107 107 103 103 103 102 102 102
105 105 105 107 107 107 107 107 107 107 107 107
108 108 108 108 108 108 108 108 108 108 108 108
108 108 108 107 107 107 105 105 105 105 105 105
107 107 107 109 109 109 109 109 109 105 105 105
99 99 99 99 99 99 104 104 104 104 104 104
99 99 99 98 98 98 105 105 105 111 111 111
115 115 115 112 112 112 107 107 107 111 111 111
122 122 122 122 122 122 113 113 113 105 105 105
105 105 105 113 113 113 122 122 122 122 122 122
112 112 112 106 106 106 107 107 107 109 109 109
108 108 108 107 107 107 106 106 106 106 106 106
75 75 75 76 76 76 77 77 77 81 81 81
86 86 86 86 86 86 82 82 82 78 78 78
78 78 78 82 82 82 87 87 87 87 87 87
82 82 82 79 79 79 79 79 79 83 83 83
87 87 87 86 86 86 81 81 81 78 78 78
78 78 78 83 83 83 89 89 89 91 91 91
89 89 89 86 86 86 86 86 86 88 88 88
90 90 90 89 89 89 87 87 87 86 86 86
87 87 87 88 88 88 89 89 89 86 86 86
81 81 81 79 79 79 80 80 80 80 80 80
79 79 79 81 81 81 85 85 85 88 88 88
90 90 90 89 89 89 87 87 87 88 88 88
90 90 90 90 90 90 87 87 87 87 87 87
89 89 89 91 91 91 91 91 91 90 90 90
87 87 87 86 86 86 87 87 87 87 87 87
86 86 86 88 88 88 89 89 89 90 90 90
75 75 75 75 75 75 75 75 75 74 74 74
73 73 73 72 72 72 70 70 70 71 71 71
72 72 72 71 71 71 68 68 68 67 67 67
67 67 67 69 69 69 70 70 70 71 71 71
72 72 72 72 72 72 71 71 71 70 70 70
69 69 69 69 69 69 69 69 69 69 69 69
70 70 70 71 71 71 72 72 72 73 73 73
73 73 73 72 72 72 70 70 70 69 69 69
68 68 68 68 68 68 68 68 68 69 69 69
70 70 70 71 71 71 70 70 70 70 70 70
71 71 71 70 70 70 70 70 70 70 70 70
70 70 70 70 70 70 69 69 69 70 70 70
72 72 72 74 74 74 74 74 74 73 73 73
72 72 72 73 73 73 75 75 75 75 75 75
74 74 74 72 72 72 72 72 72 72 72 72
71 71 71 72 72 72 73 73 73 73 73 73
97 97 97 96 96 96 97 97 97 98 98 98
101 101 101 102 102 102 101 101 101 104 104 104
110 110 110 115 115 115 116 116 116 115 115 115
116 116 116 118 118 118 122 122 122 124 124 124
124 124 124 125 125 125 125 125 125 120 120 120
112 112 112 107 107 107 108 108 108 110 110 110
113 113 113 117 117 117 122 122 122 124 124 124
125 125 125 125 125 125 125 125 125 120 120 120
112 112 112 106 106 106 106 106 106 112 112 112
120 120 120 126 126 126 126 126 126 116 116 116
103 103 103 106 106 106 120 120 120 120 120 120
106 106 106 103 103 103 117 117 117 126 126 126
125 125 125 122 122 122 118 118 118 115 115 115
113 113 113 113 113 113 113 113 113 111 111 111
106 106 106 98 98 98 90 90 90 88 88 88
90 90 90 88 88 88 80 80 80 76 76 76
98 98 98 98 98 98 102 102 102 111 111 111
126 126 126 140 140 140 153 153 153 161 161 161
167 167 167 172 172 172 178 178 178 181 181 181
183 183 183 184 184 184 185 185 185 185 185 185
183 183 183 183 183 183 185 185 185 185 185 185
183 183 183 182 182 182 181 181 181 181 181 181
180 180 180 180 180 180 181 181 181 181 181 181
181 181 181 183 183 183 186 186 186 185 185 185
180 180 180 176 176 176 176 176 176 180 180 180
185 185 185 186 186 186 182 182 182 175 175 175
170 170 170 172 172 172 178 178 178 178 178 178
172 172 172 171 171 171 177 177 177 181 181 181
180 180 180 179 179 179 178 178 178 174 174 174
166 166 166 159 159 159 150 150 150 140 140 140
128 128 128 122 122 122 119 119 119 114 114 114
104 104 104 96 96 96 91 91 91 90 90 90
98 98 98 97 97 97 97 97 97 101 101 101
113 113 113 125 125 125 137 137 137 142 142 142
142 142 142 141 141 141 143 143 143 143 143 143
142 142 142 147 147 147 156 156 156 156 156 156
149 149 149 148 148 148 155 155 155 157 157 157
150 150 150 145 145 145 144 144 144 143 143 143
143 143 143 149 149 149 157 157 157 156 156 156
147 147 147 141 141 141 142 142 142 144 144 144
144 144 144 143 143 143 142 142 142 147 147 147
155 155 155 154 154 154 145 145 145 143 143 143
148 148 148 151 151 151 149 149 149 148 148 148
149 149 149 149 149 149 148 148 148 148 148 148
148 148 148 147 147 147 145 145 145 143 143 143
140 140 140 141 141 141 143 143 143 141 141 141
134 134 134 128 128 128 121 121 121 112 112 112
100 100 100 96 96 96 98 98 98 100 100 100
98 98 98 98 98 98 98 98 98 97 97 97
95 95 95 95 95 95 97 97 97 101 101 101
105 105 105 107 107 107 108 108 108 108 108 108
109 109 109 115 115 115 124 124 124 123 123 123
115 115 115 116 116 116 125 125 125 127 127 127
119 119 119 111 111 111 108 108 108 109 109 109
114 114 114 122 122 122 128 128 128 123 123 123
112 112 112 107 107 107 111 111 111 112 112 112
109 109 109 107 107 107 106 106 106 110 110 110
115 115 115 117 117 117 114 114 114 111 111 111
111 111 111 110 110 110 110 110 110 112 112 112
114 114 114 116 116 116 116 116 116 116 116 116
116 116 116 113 113 113 109 109 109 108 108 108
110 110 110 109 109 109 106 106 106 104 104 104
103 103 103 100 100 100 93 93 93 84 84 84
79 79 79 83 83 83 93 93 93 100 100 100
100 100 100 93 93 93 81 81 81 75 75 75
75 75 75 76 76 76 76 76 76 76 76 76
75 75 75 75 75 75 75 75 75 74 74 74
74 74 74 74 74 74 75 75 75 79 79 79
83 83 83 85 85 85 84 84 84 84 84 84
86 86 86 82 82 82 76 76 76 76 76 76
83 83 83 87 87 87 86 86 86 81 81 81
76 76 76 75 75 75 78 78 78 79 79 79
76 76 76 74 74 74 74 74 74 74 74 74
74 74 74 76 76 76 78 78 78 78 78 78
75 75 75 73 73 73 73 73 73 75 75 75
77 77 77 79 79 79 79 79 79 78 78 78
76 76 76 75 75 75 75 75 75 75 75 75
75 75 75 77 77 77 79 79 79 79 79 79
76 76 76 74 74 74 73 73 73 70 70 70
69 69 69 77 77 77 92 92 92 100 100 100
99 99 99 96 96 96 89 89 89 82 82 82
76 76 76 74 74 74 73 73 73 73 73 73
72 72 72 72 72 72 71 71 71 71 71 71
71 71 71 71 71 71 71 71 71 70 70 70
70 70 70 71 71 71 73 73 73 73 73 73
71 71 71 70 70 70 71 71 71 71 71 71
69 69 69 70 70 70 73 73 73 73 73 73
72 72 72 71 71 71 70 70 70 71 71 71
71 71 71 72 72 72 72 72 72 72 72 72
72 72 72 72 72 72 72 72 72 72 72 72
72 72 72 73 73 73 73 73 73 72 72 72
71 71 71 71 71 71 70 70 70 71 71 71
71 71 71 71 71 71 72 72 72 72 72 72
72 72 72 72 72 72 73 73 73 72 72 72
73 73 73 78 78 78 85 85 85 87 87 87
86 86 86 88 88 88 95 95 95 99 99 99
98 98 98 98 98 98 100 100 100 100 100 100
99 99 99 101 101 101 106 106 106 112 112 112
118 118 118 122 122 122 123 123 123 123 123 123
124 124 124 124 124 124 124 124 124 123 123 123
122 122 122 126 126 126 131 131 131 132 132 132
126 126 126 122 122 122 123 123 123 124 124 124
123 123 123 127 127 127 132 132 132 131 131 131
125 125 125 122 122 122 123 123 123 124 124 124
124 124 124 122 122 122 118 118 118 116 116 116
116 116 116 116 116 116 113 113 113 113 113 113
115 115 115 115 115 115 115 115 115 117 116 116
121 121 121 123 123 123 123 123 123 123 123 123
123 123 123 122 122 122 120 120 120 120 120 120
120 120 120 118 118 118 113 113 113 107 107 107
103 103 103 100 100 100 98 98 98 99 99 99
100 100 100 100 100 100 98 98 98 98 98 98
98 98 98 98 98 98 101 101 101 111 111 111
128 128 128 142 142 142 152 152 152 160 160 160
169 169 169 176 176 176 182 182 182 184 184 184
184 184 184 183 183 183 182 182 182 183 183 183
186 186 186 189 189 189 191 191 191 191 191 191
188 188 188 184 184 184 181 181 181 183 183 183
188 188 188 193 193 193 193 193 193 191 191 191
188 188 188 186 186 186 184 184 184 183 183 183
183 183 183 183 183 183 182 182 182 181 181 181
181 181 181 181 181 181 180 180 180 181 181 181
184 184 184 185 186 186 184 187 187 186 189 189
191 191 191 190 191 191 186 188 189 186 189 190
187 191 191 185 187 187 176 177 177 170 169 169
166 166 166 164 164 164 158 158 158 146 146 146
131 131 131 121 121 121 117 117 117 111 111 111
101 101 101 96 96 96 96 96 96 98 98 98
98 98 98 97 97 97 101 101 101 116 116 116
140 140 140 157 157 157 161 161 161 154 154 154
143 143 143 136 136 136 136 136 136 136 136 136
135 135 135 140 140 140 149 149 149 152 152 152
148 148 148 144 144 144 144 144 144 143 143 143
142 142 142 143 143 143 147 147 147 148 148 148
146 146 146 144 144 144 142 142 142 140 140 140
138 138 138 137 137 137 136 136 136 136 136 136
137 137 137 137 137 137 137 137 137 137 137 137
137 137 137 136 136 136 136 136 136 139 140 140
144 146 146 147 144 144 146 134 134 138 127 126
126 123 123 117 116 116 117 107 107 126 110 110
138 123 123 144 134 134 142 139 139 137 138 138
137 138 138 144 143 143 154 154 154 159 159 159
153 153 153 140 140 140 124 124 124 111 111 111
102 102 102 93 93 93 82 82 82 78 78 78
98 98 98 98 98 98 100 100 100 105 105 105
111 111 111 117 117 117 122 122 122 124 124 124
123 123 123 121 121 121 121 121 121 120 120 120
120 120 120 124 124 124 131 131 131 135 135 135
133 133 133 129 129 129 125 125 125 123 123 123
125 125 125 130 130 130 133 133 133 134 134 134
131 131 131 127 127 127 124 124 124 123 123 123
123 123 123 124 124 124 124 124 124 124 124 124
122 122 122 122 122 122 123 123 123 123 123 123
124 124 124 123 123 123 124 122 122 122 125 125
124 130 130 142 130 130 166 126 126 166 130 130
147 139 139 142 139 139 158 128 128 174 122 121
174 123 122 160 127 127 138 129 129 119 124 124
111 114 114 114 113 113 120 120 120 124 124 124
120 120 120 112 112 112 103 103 103 100 100 100
100 100 100 93 93 93 79 79 79 71 71 71
99 99 99 96 96 96 95 95 95 98 98 98
106 106 106 115 115 115 121 121 121 122 122 122
118 118 118 113 113 113 108 108 108 99 99 99
89 89 89 87 87 87 89 89 89 87 87 87
78 78 78 73 73 73 74 74 74 80 80 80
87 87 87 91 91 91 90 90 90 86 86 86
81 81 81 78 78 78 76 76 76 75 75 75
75 75 75 77 77 77 80 80 80 83 83 83
85 85 85 87 87 87 90 90 90 87 87 87
80 80 80 75 75 75 76 76 76 77 76 76
77 76 76 76 78 78 76 82 82 82 87 87
92 93 93 93 94 94 86 90 90 81 88 88
84 91 91 92 97 97 102 103 103 105 104 104
103 103 103 109 110 110 122 122 122 122 122 122
110 110 110 100 100 100 97 97 97 99 99 99
100 100 100 93 93 93 80 80 80 72 72 72
96 96 96 101 101 101 110 110 110 105 105 105
94 94 94 105 105 105 129 129 129 130 130 130
104 104 104 79 79 79 68 68 68 62 62 62
58 58 58 57 57 57 57 57 57 61 61 61
64 64 64 62 62 62 54 54 54 45 45 45
40 40 40 46 46 46 58 58 58 61 61 61
52 52 53 49 49 50 54 54 55 57 57 58
56 56 56 50 50 50 44 44 44 44 44 44
50 49 49 54 54 54 54 53 53 51 51 51
48 48 48 47 47 47 49 49 49 50 50 50
49 50 50 47 46 46 43 42 42 43 42 42
47 47 47 49 49 49 50 49 49 50 48 48
52 50 50 54 53 53 60 59 59 71 71 71
89 89 89 107 107 107 119 119 119 120 120 120
111 111 111 102 102 102 98 98 98 99 99 99
99 99 99 92 92 92 79 79 79 72 72 72
98 98 98 98 98 98 100 100 100 102 102 102
104 104 104 115 115 115 127 127 127 126 126 126
108 108 108 84 84 84 67 67 67 59 59 59
62 62 62 80 80 80 95 95 95 80 80 80
41 41 41 22 22 22 27 27 27 20 20 20
0 0 0 19 19 19 63 63 63 68 68 68
35 35 33 31 31 29 63 63 59 74 74 70
53 53 50 21 20 18 2 1 0 17 17 17
58 60 60 86 88 88 84 85 85 72 72 72
61 61 61 45 45 45 34 34 34 39 39 39
58 58 58 75 75 75 82 82 82 78 78 78
71 71 71 69 69 69 76 76 76 80 80 80
77 77 77 69 69 69 64 64 64 70 70 70
88 88 88 106 106 106 116 116 116 116 116 116
110 110 110 103 103 103 100 100 100 95 95 95
87 87 87 80 80 80 75 75 75 74 74 74
98 98 98 97 97 97 96 96 96 98 98 98
104 104 104 109 109 109 112 112 112 111 111 111
105 105 105 90 90 90 74 74 74 67 67 67
72 72 72 82 82 82 88 88 88 95 95 95
90 90 90 59 59 59 11 11 11 0 0 0
0 0 0 3 3 2 4 4 3 2 2 5
0 0 9 1 0 19 7 6 31 7 7 32
1 2 24 0 0 12 0 0 8 9 10 15
32 26 27 37 31 30 24 22 22 8 9 9
5 6 6 25 25 25 56 56 56 68 68 68
58 58 58 51 51 51 60 60 60 72 72 72
84 84 84 103 103 103 117 117 117 108 108 108
84 84 84 66 66 66 68 68 68 78 78 78
91 91 91 105 105 105 114 114 114 115 115 115
109 109 109 104 104 104 101 101 101 93 93 93
82 82 82 75 75 75 74 74 74 75 75 75
98 98 98 97 97 97 97 97 97 99 99 99
103 103 103 110 110 110 114 114 114 113 113 113
104 104 104 91 91 91 79 79 79 75 75 75
79 79 79 79 79 79 75 75 75 95 95 95
119 119 119 94 94 94 31 31 31 3 3 3
21 21 21 28 28 27 9 9 9 0 0 0
2 2 5 5 5 11 4 5 12 12 10 18
25 18 25 31 22 26 27 18 21 23 2 4
26 0 0 31 0 0 40 30 30 55 60 60
73 76 76 81 80 80 79 79 79 75 75 75
77 77 77 74 74 74 75 75 75 98 98 98
130 130 130 127 127 127 98 98 98 97 97 97
126 126 126 132 132 132 109 109 109 93 93 93
95 95 95 100 100 100 103 103 103 106 106 106
106 106 106 106 106 106 102 102 102 92 92 92
78 78 78 72 72 72 73 73 73 75 75 75
98 98 98 98 98 98 97 97 97 99 99 99
103 103 103 110 110 110 116 116 116 115 115 115
105 105 105 92 92 92 79 79 79 70 70 70
64 64 64 68 68 68 72 72 72 64 64 64
41 41 41 17 17 17 0 0 0 0 0 0
5 5 5 12 12 12 19 19 19 44 44 43
74 73 72 68 70 69 33 35 33 10 4 3
16 0 0 29 0 0 39 0 0 46 4 3
50 18 18 58 40 40 68 64 64 70 72 72
65 67 67 61 60 60 63 63 63 65 65 65
72 72 72 90 90 90 117 117 117 132 132 132
135 135 135 132 132 132 130 130 130 133 133 133
135 135 135 121 121 121 95 95 95 84 84 84
91 91 91 101 101 101 105 105 105 107 107 107
107 107 107 105 105 105 102 102 102 93 93 93
81 81 81 74 74 74 74 74 74 75 75 75
97 97 97 97 97 97 97 97 97 98 98 98
102 102 102 111 111 111 121 121 121 122 122 122
111 111 111 96 96 96 82 82 82 68 68 68
56 56 56 53 53 53 54 54 54 62 62 62
67 67 67 56 56 56 38 38 38 37 37 37
55 55 55 73 73 73 82 82 82 84 84 84
83 83 83 85 84 85 83 83 83 67 68 68
37 41 41 2 7 7 0 0 0 8 14 14
64 68 68 94 97 97 86 86 86 75 75 75
76 76 76 74 75 75 72 72 72 80 80 80
93 93 93 94 94 94 84 84 84 78 78 78
79 79 79 80 80 80 79 79 79 78 78 78
78 78 78 78 78 78 81 81 81 93 93 93
110 110 110 115 115 115 110 110 110 105 105 105
106 106 106 105 105 105 100 100 100 97 97 97
94 94 94 88 88 88 78 78 78 73 73 73
81 81 81 85 85 85 95 95 95 99 99 99
101 101 101 115 115 115 135 135 135 139 139 139
124 124 124 112 112 112 106 106 106 91 91 91
71 71 71 73 73 73 91 91 91 103 103 103
98 98 98 85 85 85 74 74 74 76 76 76
88 88 88 94 94 94 89 89 89 83 83 83
79 79 79 79 79 79 82 82 82 90 89 89
96 95 95 94 93 93 86 85 85 81 80 80
82 81 81 82 82 82 81 81 81 81 81 81
80 81 81 81 81 81 82 82 82 81 81 81
77 77 77 69 69 69 59 59 59 54 54 54
56 56 56 64 64 64 75 75 75 81 81 81
84 84 84 86 86 86 95 95 95 111 111 111
129 129 129 136 136 136 130 130 130 118 118 118
109 109 109 103 103 103 99 99 99 97 97 97
93 93 93 87 87 87 78 78 78 73 73 73
80 80 80 84 84 84 94 94 94 101 101 101
104 104 104 108 108 108 113 113 113 114 114 114
112 112 112 113 113 113 114 114 114 98 98 98
73 73 73 73 73 73 96 96 96 114 114 114
111 111 111 93 93 93 76 76 76 77 77 77
101 101 101 130 130 130 149 149 149 156 156 156
152 152 152 146 146 146 144 144 144 144 144 144
144 144 144 149 149 149 154 154 154 148 148 148
136 136 136 134 134 134 145 145 145 150 150 150
146 146 146 145 145 145 145 145 145 143 143 143
133 133 133 117 117 117 98 98 98 77 77 77
63 63 63 71 71 71 94 94 94 115 115 115
124 124 124 135 135 135 147 147 147 151 151 151
145 145 145 133 133 133 120 120 120 111 111 111
107 107 107 105 105 105 101 101 101 94 94 94
85 85 85 78 78 78 74 74 74 74 74 74
80 80 80 84 84 84 93 93 93 102 102 102
108 108 108 108 108 108 104 104 104 101 101 101
98 98 98 97 97 97 92 92 92 75 75 75
55 55 55 59 59 59 84 84 84 105 105 105
106 106 106 81 81 81 51 51 51 56 56 56
96 96 96 125 125 125 130 130 130 130 130 130
132 132 132 127 127 127 119 119 119 116 116 116
119 119 119 123 123 123 122 122 122 115 115 115
105 105 105 104 104 104 112 112 112 118 118 118
118 118 118 116 116 116 115 115 115 121 121 121
126 126 126 119 119 119 98 98 98 75 75 75
61 61 61 64 64 64 81 81 81 101 101 101
115 115 115 121 121 121 120 120 120 118 118 118
117 117 117 112 112 112 106 106 106 104 104 104
106 106 106 105 105 105 99 99 99 98 98 98
99 99 99 93 93 93 83 83 83 77 77 77
80 80 80 86 86 86 95 95 95 99 99 99
96 96 96 85 85 85 71 71 71 63 63 63
61 61 61 57 57 57 47 47 47 32 32 32
21 21 21 27 27 27 47 47 47 63 63 63
64 64 64 50 50 50 32 32 32 31 31 31
50 50 50 74 74 74 91 91 91 99 99 99
102 102 102 99 99 99 101 101 101 112 112 112
126 126 126 123 123 123 105 105 105 105 105 105
121 121 121 124 124 124 110 110 110 101 101 101
102 102 102 104 104 104 102 102 102 104 104 104
102 102 102 84 84 84 54 54 54 31 31 31
23 23 23 20 20 20 20 20 20 29 29 29
46 46 46 59 59 59 70 70 70 81 81 81
95 95 95 103 103 103 106 106 106 107 107 107
107 107 107 104 104 104 99 99 99 98 98 98
100 100 100 94 94 94 83 83 83 77 77 77
76 76 76 82 82 82 93 93 93 101 101 101
101 101 101 94 94 94 82 82 82 68 68 68
50 50 50 27 27 27 3 3 3 0 0 0
0 0 0 2 2 2 5 5 5 14 14 14
25 25 25 24 24 24 14 14 14 4 4 4
5 5 5 20 20 20 48 48 48 66 66 66
75 75 75 91 91 91 116 116 116 125 125 125
120 120 120 122 122 122 133 133 133 131 131 131
115 115 115 105 105 105 105 105 105 107 107 107
106 106 106 106 106 106 104 104 104 102 102 102
95 95 95 79 79 79 56 56 56 36 36 36
24 24 24 19 19 19 19 19 19 21 21 21
28 28 28 48 48 48 75 75 75 86 86 86
84 84 84 87 87 87 101 101 101 109 109 109
108 108 108 103 103 103 99 99 99 98 98 98
99 99 99 92 92 92 79 79 79 71 71 71
72 72 72 79 79 79 92 92 92 101 101 101
104 104 104 114 114 114 126 126 126 128 128 128
111 111 111 83 83 83 51 51 51 23 23 23
5 5 5 0 0 0 2 2 2 18 18 18
33 33 33 34 34 34 22 22 22 9 9 9
11 11 11 31 31 31 67 67 67 96 96 96
110 110 110 119 119 119 124 124 124 119 119 119
108 108 108 101 101 101 101 101 101 103 103 103
103 103 103 104 104 104 105 105 105 106 106 106
107 107 107 105 105 105 104 104 104 111 111 111
121 121 121 122 122 122 114 114 114 109 109 109
114 114 114 121 121 121 128 128 128 132 132 132
133 133 133 133 133 133 132 132 132 123 123 123
109 109 109 102 102 102 104 104 104 107 107 107
106 106 106 105 105 105 101 101 101 94 94 94
86 86 86 79 79 79 75 75 75 74 74 74
72 72 72 79 79 79 94 94 94 100 100 100
102 102 102 113 113 113 132 132 132 146 146 146
146 146 146 145 145 145 136 136 136 101 101 101
53 53 53 30 30 30 38 38 38 61 61 61
76 76 76 70 70 70 48 48 48 26 26 26
25 25 25 52 52 52 98 98 98 137 137 137
152 152 152 140 140 140 117 117 117 101 101 101
103 103 103 107 107 107 106 106 106 106 106 106
106 106 106 106 106 106 106 106 106 106 106 106
106 106 106 105 105 105 104 104 104 109 109 109
120 120 120 127 127 127 127 127 127 129 129 129
133 133 133 126 126 126 115 115 115 114 114 114
125 125 125 133 133 133 130 130 130 120 120 120
110 110 110 104 104 104 104 104 104 107 107 107
106 106 106 106 106 106 102 102 102 92 92 92
79 79 79 72 72 72 73 73 73 75 75 75
73 73 73 80 80 80 93 93 93 98 98 98
97 97 97 98 98 98 109 109 109 121 121 121
135 135 135 144 144 144 149 149 149 149 149 149
147 147 147 148 148 148 153 153 153 155 155 155
154 154 154 149 149 149 145 145 145 143 143 143
144 144 144 148 148 148 151 151 151 147 147 147
135 135 135 121 121 121 110 110 110 105 105 105
107 107 107 109 109 109 108 108 108 108 108 108
108 108 108 108 108 108 107 107 107 107 107 107
107 107 107 106 106 106 106 106 106 109 109 109
114 114 114 116 116 116 114 114 114 113 113 113
114 114 114 111 111 111 106 106 106 106 106 106
110 110 110 115 115 115 116 116 116 114 114 114
109 109 109 106 106 106 107 107 107 107 107 107
104 104 104 103 103 103 100 100 100 92 92 92
80 80 80 74 74 74 73 73 73 75 75 75
73 73 73 73 73 73 74 74 74 75 75 75
76 76 76 80 80 80 85 85 85 88 88 88
89 89 89 89 89 89 90 90 90 91 91 91
94 94 94 98 98 98 102 102 102 100 100 100
94 94 94 91 91 91 93 93 93 99 99 99
105 105 105 108 108 108 107 107 107 102 102 102
95 95 95 90 90 90 88 88 88 90 90 90
92 92 92 93 93 93 92 92 92 93 93 93
95 95 95 94 94 94 90 90 90 89 89 89
91 91 91 92 92 92 90 90 90 87 87 87
86 86 86 89 89 89 95 95 95 100 100 100
99 99 99 95 95 95 89 89 89 90 90 90
97 97 97 97 97 97 90 90 90 86 86 86
88 88 88 89 89 89 88 88 88 89 89 89
88 88 88 85 85 85 78 78 78 71 71 71
65 65 65 67 67 67 73 73 73 77 77 77
60 60 60 59 59 59 59 59 59 60 60 60
63 63 63 65 65 65 64 64 64 62 62 62
60 60 60 58 58 58 58 58 58 59 59 59
60 60 60 61 61 61 62 62 62 61 61 61
59 59 59 58 58 58 57 57 57 58 58 58
59 59 59 61 61 61 61 61 61 61 61 61
60 60 60 60 60 60 59 59 59 59 59 59
58 58 58 59 59 59 61 61 61 63 63 63
64 64 64 62 62 62 60 60 60 59 59 59
59 59 59 61 61 61 62 62 62 63 63 63
63 63 63 63 63 63 62 62 62 64 64 64
66 66 66 66 66 66 64 64 64 63 63 63
63 63 63 62 62 62 60 60 60 59 59 59
59 59 59 60 60 60 62 62 62 64 64 64
66 66 66 64 64 64 60 60 60 59 59 59
61 61 61 64 64 64 67 67 67 69 69 69
71 71 71 72 72 72 72 72 72 69 69 69
64 64 64 61 61 61 62 62 62 63 63 63
62 62 62 62 62 62 62 62 62 63 63 63
63 63 63 63 63 63 61 61 61 61 61 61
61 61 61 62 62 62 62 62 62 62 62 62
62 62 62 62 62 62 62 62 62 62 62 62
62 62 62 62 62 62 62 62 62 62 62 62
62 62 62 62 62 62 63 63 63 63 63 63
63 63 63 63 63 63 62 62 62 62 62 62
61 61 61 61 61 61 62 62 62 63 63 63
63 63 63 62 62 62 61 61 61 61 61 61
61 61 61 62 62 62 63 63 63 62 62 62
61 61 61 61 61 61 61 61 61 62 62 62
62 62 62 62 62 62 62 62 62 65 65 65
69 69 69 71 71 71 72 72 72 70 70 70
67 67 67 65 65 65 64 64 64 63 63 63
86 86 86 86 86 86 87 87 87 89 89 89
90 90 90 91 91 91 90 90 90 89 89 89
88 88 88 87 87 87 87 87 87 87 87 87
87 87 87 88 88 88 89 89 89 90 90 90
90 90 90 90 90 90 90 90 90 90 90 90
92 92 92 93 93 93 93 93 93 93 93 93
93 93 93 92 92 92 89 89 89 87 87 87
87 87 87 88 88 88 87 87 87 87 87 87
87 87 87 87 87 87 87 87 87 88 88 88
89 89 89 90 90 90 90 90 90 90 90 90
89 89 89 89 89 89 90 90 90 90 90 90
89 89 89 89 89 89 89 89 89 89 89 89
90 90 90 90 90 90 90 90 90 89 89 89
88 88 88 87 87 87 87 87 87 87 87 87
88 88 88 89 89 89 89 89 89 90 90 90
91 91 91 87 87 87 80 80 80 76 76 76
114 114 114 118 118 118 123 123 123 122 122 122
117 117 117 117 117 117 122 122 122 123 123 123
117 117 117 114 114 114 114 114 114 115 115 115
114 114 114 117 117 117 122 122 122 124 124 124
123 123 123 122 122 122 123 123 123 123 123 123
123 123 123 123 123 123 123 123 123 124 124 124
124 124 124 121 121 121 117 117 117 114 114 114
114 114 114 115 115 115 116 116 116 116 116 116
115 115 115 114 114 114 114 114 114 117 117 117
122 122 122 124 124 124 123 123 123 122 122 122
123 123 123 123 123 123 123 123 123 125 125 125
127 127 127 127 127 127 125 125 125 123 123 123
123 123 123 124 124 124 124 124 124 121 121 121
117 117 117 114 114 114 114 114 114 118 118 118
122 122 122 122 122 122 117 117 117 115 115 115
115 115 115 114 114 114 108 108 108 106 106 106
108 108 108 107 107 107 104 104 104 102 102 102
100 100 100 100 100 100 101 101 101 104 104 104
108 108 108 109 109 109 108 108 108 108 108 108
108 108 108 107 107 107 104 104 104 104 104 104
107 107 107 107 107 107 105 105 105 110 110 110
121 121 121 126 126 126 124 124 124 124 124 124
125 125 125 120 120 120 111 111 111 107 107 107
107 107 107 107 107 107 104 104 104 104 104 104
107 107 107 107 107 107 107 107 107 113 113 113
122 122 122 122 122 122 115 115 115 114 114 114
122 122 122 126 126 126 124 124 124 123 123 123
124 124 124 124 124 124 123 123 123 124 124 124
125 125 125 120 120 120 110 110 110 106 106 106
107 107 107 108 108 108 105 105 105 105 105 105
106 106 106 107 107 107 105 105 105 104 104 104
104 104 104 104 104 104 102 102 102 102 102 102
98 98 98 97 97 97 97 97 97 97 97 97
98 98 98 97 97 97 97 97 97 97 97 97
99 99 99 102 102 102 104 104 104 106 106 106
106 106 106 106 106 106 105 105 105 104 104 104
102 102 102 101 101 101 104 104 104 108 108 108
114 114 114 119 119 119 123 123 123 125 125 125
125 125 125 119 119 119 110 110 110 102 102 102
99 99 99 97 97 97 96 96 96 97 97 97
98 98 98 98 98 98 98 98 98 106 106 106
118 118 118 124 124 124 121 121 121 115 115 115
113 113 113 115 115 115 121 121 121 124 124 124
124 124 124 122 122 122 122 122 122 124 124 124
125 125 125 120 120 120 109 109 109 104 104 104
105 105 105 104 104 104 101 101 101 101 101 101
104 104 104 107 107 107 107 107 107 105 105 105
100 100 100 98 98 98 97 97 97 97 97 97
97 97 97 96 96 96 96 96 96 100 100 100
105 105 105 105 105 105 100 100 100 97 97 97
99 99 99 102 102 102 105 105 105 105 105 105
102 102 102 102 102 102 105 105 105 103 103 103
98 98 98 97 97 97 103 103 103 108 108 108
112 112 112 115 115 115 119 119 119 124 124 124
126 126 126 121 121 121 110 110 110 104 104 104
106 106 106 104 104 104 99 99 99 99 99 99
103 103 103 103 103 103 98 98 98 97 97 97
103 103 103 110 110 110 115 115 115 115 115 115
113 113 113 115 115 115 122 122 122 127 127 127
126 126 126 118 118 118 108 108 108 110 110 110
121 121 121 122 122 122 111 111 111 104 104 104
105 105 105 107 107 107 106 106 106 106 106 106
106 106 106 106 106 106 106 106 106 106 106 106
106 106 106 104 104 104 99 99 99 97 97 97
104 104 104 102 102 102 99 99 99 101 101 101
106 106 106 106 106 106 101 101 101 98 98 98
99 99 99 103 103 103 107 107 107 106 106 106
101 101 101 99 99 99 103 103 103 103 103 103
101 101 101 100 100 100 103 103 103 111 111 111
119 119 119 121 121 121 117 117 117 115 115 115
117 117 117 115 115 115 109 109 109 105 105 105
105 105 105 103 103 103 100 100 100 101 101 101
103 103 103 103 103 103 100 100 100 101 101 101
106 106 106 106 106 106 104 104 104 110 110 110
123 123 123 125 125 125 118 118 118 117 117 117
124 124 124 121 121 121 109 109 109 109 109 109
120 120 120 122 122 122 110 110 110 103 103 103
105 105 105 105 105 105 104 104 104 104 104 104
106 106 106 107 107 107 107 107 107 106 106 106
105 105 105 103 103 103 100 100 100 99 99 99
87 87 87 88 88 88 89 89 89 90 90 90
90 90 90 90 90 90 90 90 90 89 89 89
87 87 87 86 86 86 86 86 86 87 87 87
86 86 86 87 87 87 87 87 87 87 87 87
86 86 86 86 86 86 88 88 88 93 93 93
100 100 100 105 105 105 106 106 106 101 101 101
95 95 95 91 91 91 90 90 90 89 89 89
86 86 86 85 85 85 86 86 86 87 87 87
87 87 87 87 87 87 86 86 86 86 86 86
87 87 87 86 86 86 86 86 86 89 89 89
94 94 94 94 94 94 90 90 90 89 89 89
94 94 94 94 94 94 90 90 90 92 92 92
100 100 100 103 103 103 100 100 100 98 98 98
99 99 99 96 96 96 91 91 91 88 88 88
89 89 89 91 91 91 91 91 91 89 89 89
86 86 86 85 85 85 86 86 86 86 86 86
