P3
# Converted to P3 by scripts/convert_to_p3.py
64 64
255
90 67 34 89 65 33 89 65 33 91 70 42
85 65 44 88 65 33 88 64 32 84 60 35
88 65 31 84 64 44 102 70 37 88 69 41
89 64 31 91 65 33 80 61 33 88 72 49
85 61 37 87 71 48 88 64 31 86 66 43
89 73 49 90 64 32 89 69 40 102 74 44
90 72 48 90 72 48 89 66 34 91 70 43
89 69 40 85 66 45 80 55 40 86 65 34
98 68 36 86 66 45 88 72 49 87 63 31
82 64 44 89 73 49 85 61 35 83 63 43
100 73 45 91 73 48 87 69 42 90 73 49
102 73 43 102 73 43 85 60 37 113 74 39
88 64 32 90 65 32 92 65 32 88 69 41
83 59 37 79 56 39 91 73 48 93 74 48
85 61 36 89 72 46 89 73 49 89 66 33
89 66 34 65 49 27 90 66 32 69 49 32
87 66 44 90 66 32 90 66 32 113 74 37
80 59 32 96 76 50 96 68 35 98 73 42
94 66 39 96 70 35 115 76 40 95 77 51
92 68 37 108 73 39 99 74 42 98 77 51
95 74 50 92 69 46 96 70 39 89 63 40
94 76 53 120 80 44 91 66 33 116 76 42
91 68 36 91 68 36 90 71 43 99 79 60
92 77 53 94 74 49 92 68 46 106 76 45
85 64 33 91 73 51 98 77 52 98 73 42
89 64 34 96 76 50 91 64 38 88 65 38
101 80 51 115 77 44 105 75 47 92 75 51
89 67 37 89 67 36 87 63 40 91 68 36
84 60 43 114 77 42 103 76 46 96 77 51
95 67 38 105 72 38 113 76 43 100 69 44
82 59 43 93 72 45 92 75 53 91 73 50
92 73 48 80 59 36 86 62 37 59 43 23
87 63 32 86 62 36 87 62 36 87 62 38
71 54 32 147 96 53 112 77 41 106 75 43
101 68 39 95 64 34 98 66 34 97 66 35
92 69 49 98 69 34 99 68 38 100 71 40
95 67 37 94 67 37 88 72 47 83 64 47
86 66 48 89 67 47 78 62 39 79 62 35
77 62 38 77 62 38 82 61 34 77 61 34
82 66 35 96 67 35 94 68 34 101 67 35
99 67 34 92 70 50 100 70 36 100 70 41
102 71 39 94 67 37 93 65 36 89 73 47
85 66 47 88 66 47 89 66 46 78 62 40
79 62 34 78 61 38 78 62 37 81 61 35
77 61 35 83 66 35 79 66 36 93 66 36
99 69 34 100 67 35 79 62 35 72 58 34
83 62 39 89 72 50 98 74 49 105 82 63
80 61 33 89 64 33 89 72 50 74 55 30
76 59 31 89 64 33 81 60 31 85 60 37
70 54 32 139 90 48 62 48 26 116 78 39
95 67 33 95 67 33 91 63 36 85 59 32
83 58 32 82 58 31 76 63 36 71 58 35
89 67 44 72 60 36 82 66 33 85 67 34
93 70 38 75 62 33 80 64 36 84 60 31
83 64 39 83 63 39 90 64 31 90 64 31
84 59 31 92 63 36 101 70 35 99 67 41
84 60 33 82 57 32 82 59 31 75 63 34
70 59 35 89 67 44 72 60 35 82 65 33
84 66 34 91 70 38 76 63 34 79 63 35
84 60 31 84 64 40 82 64 40 90 64 31
89 64 31 86 60 32 89 63 30 77 63 36
78 55 31 84 59 32 81 56 30 68 50 24
80 57 26 104 74 40 65 49 25 102 82 56
68 53 31 89 65 32 90 73 49 82 63 44
88 65 32 89 64 33 88 70 42 91 67 34
75 59 31 128 91 54 53 40 17 125 83 42
51 43 18 54 43 21 55 43 23 59 44 25
57 44 24 51 38 19 53 41 20 57 40 24
56 40 20 55 42 22 56 43 21 64 46 25
61 43 22 61 47 26 57 42 24 53 42 23
62 45 26 63 45 26 55 45 25 59 44 24
54 44 25 62 45 27 62 45 25 55 40 21
51 40 21 52 36 21 52 41 22 56 43 21
60 46 26 55 41 18 58 45 25 64 46 24
57 44 22 57 44 22 55 43 22 53 36 19
56 45 26 55 41 19 55 42 22 52 42 21
53 43 22 54 39 21 59 43 23 60 45 27
54 38 22 58 43 24 61 46 27 48 40 17
55 43 26 106 79 45 48 40 17 101 81 57
75 59 31 89 65 32 89 66 34 91 72 47
90 65 32 86 62 36 87 66 45 89 68 41
69 53 31 103 86 53 57 41 16 114 75 41
64 49 31 72 52 36 61 45 27 68 52 34
76 57 39 72 53 34 67 48 31 69 53 35
68 49 32 75 54 37 72 52 36 66 50 34
74 54 37 73 54 37 71 52 35 75 53 37
72 53 36 83 60 43 74 54 37 68 49 32
70 52 35 83 60 42 86 65 46 76 56 38
60 45 27 87 65 45 67 50 33 80 57 40
72 53 36 81 59 41 81 57 41 77 60 41
81 56 40 74 53 37 64 48 31 64 48 30
80 57 40 66 51 32 65 49 32 68 50 33
62 45 28 76 60 40 73 53 36 75 56 38
80 56 39 76 56 38 80 56 40 58 43 24
75 55 37 109 83 45 49 42 17 99 78 58
70 54 32 93 66 34 89 65 31 85 62 38
89 65 32 89 65 31 88 68 40 82 57 39
57 41 25 97 82 47 54 42 21 91 73 49
65 50 32 73 54 36 59 43 25 74 54 37
86 65 45 59 45 27 71 51 34 71 52 35
70 52 35 71 53 35 69 51 34 83 59 41
72 53 36 72 52 35 77 55 38 75 56 38
63 46 29 84 64 44 69 51 34 69 51 34
71 52 35 85 63 44 78 59 40 80 62 42
68 49 32 73 55 37 83 58 41 65 48 30
67 48 31 80 62 42 58 42 25 74 53 36
83 58 41 78 56 38 63 49 30 71 52 35
75 54 37 73 53 36 66 50 32 74 54 37
85 64 44 70 54 35 65 50 32 89 66 46
61 46 29 88 67 46 68 48 31 62 46 29
74 58 32 122 82 42 49 41 17 92 74 50
60 45 28 101 70 35 90 69 40 85 60 37
90 65 34 77 57 36 91 74 51 91 66 34
57 42 24 94 78 49 54 42 21 90 74 50
57 41 24 77 55 38 71 52 35 74 54 36
65 49 32 76 55 38 73 53 36 73 53 36
78 56 39 67 50 33 80 57 40 80 64 43
81 56 40 87 65 45 76 55 38 74 60 39
61 46 28 68 50 33 76 56 38 76 54 38
59 45 26 86 64 44 76 60 40 73 54 36
66 48 31 74 54 37 72 53 36 72 53 35
64 47 30 69 49 32 59 44 27 69 50 32
80 57 40 76 55 37 86 65 45 67 49 31
76 55 38 64 50 32 64 49 32 78 56 39
75 56 37 74 55 37 64 49 31 71 51 34
73 53 36 84 63 44 68 51 33 60 45 27
100 69 36 111 82 44 49 41 17 88 64 33
57 41 23 84 61 35 90 67 35 84 59 40
74 54 36 67 51 34 74 55 37 110 72 39
57 42 24 90 73 50 57 42 23 89 71 48
50 44 18 74 56 37 61 46 28 73 53 36
67 51 33 75 54 37 70 50 33 83 58 41
75 54 37 73 53 36 63 47 29 80 61 41
78 57 39 83 59 42 78 56 39 72 51 35
61 46 28 73 53 36 74 60 39 84 60 43
82 63 43 81 59 41 73 53 36 82 63 43
79 56 40 71 50 33 74 54 37 59 45 28
72 53 36 72 53 35 67 49 31 80 56 39
72 53 36 77 56 39 75 53 37 74 54 37
73 54 36 64 49 31 72 53 36 74 54 37
56 41 24 83 63 43 62 47 29 68 49 32
87 65 45 65 47 30 75 60 40 57 41 24
87 64 32 124 82 41 49 41 17 85 65 43
57 42 24 89 64 34 88 64 32 80 56 41
64 49 32 80 57 40 62 48 31 73 56 32
56 42 23 89 72 48 53 41 17 86 66 46
41 44 30 54 58 45 65 50 32 78 56 39
75 54 37 63 47 30 70 52 35 66 50 33
84 58 42 64 49 31 62 48 30 65 47 30
74 59 39 82 57 40 58 42 25 85 65 44
60 44 26 83 63 43 70 51 34 83 64 43
75 53 37 75 54 37 73 54 36 74 53 37
72 53 36 65 50 32 74 54 36 73 53 36
59 43 25 79 56 39 73 51 34 75 55 38
76 55 37 68 49 32 74 55 37 76 54 37
71 53 35 62 47 29 74 54 36 66 50 33
66 50 32 67 50 33 62 46 29 69 52 34
83 60 42 69 49 32 69 50 34 57 42 24
83 60 36 97 82 48 49 41 17 100 79 59
57 42 24 81 59 40 68 53 30 70 54 33
82 58 40 84 58 40 78 58 34 88 64 33
53 41 20 86 66 45 48 41 17 90 74 50
46 39 18 63 47 33 71 53 35 75 54 37
74 54 36 67 48 31 71 52 35 65 50 32
74 54 37 72 56 35 76 55 38 73 54 37
70 51 34 82 57 41 75 60 39 76 56 38
79 56 39 87 67 46 76 55 38 72 52 35
83 58 41 82 57 40 79 56 39 84 58 42
77 55 38 69 50 33 73 53 36 82 58 41
59 43 25 69 52 34 85 65 45 79 55 39
83 58 41 80 58 40 83 63 43 81 57 40
66 50 33 64 49 31 76 55 37 68 53 34
61 46 29 82 57 40 66 50 32 81 58 40
80 56 39 58 44 26 78 61 41 50 41 17
82 57 41 103 79 46 49 41 17 100 78 59
56 41 23 59 64 41 59 47 25 64 50 30
89 65 33 71 57 47 91 73 48 83 58 40
59 43 26 83 59 42 57 42 24 90 74 50
49 41 16 75 54 37 75 54 37 63 47 29
73 53 36 71 52 35 70 52 35 66 50 33
80 57 40 80 57 40 73 53 36 63 47 29
76 55 38 82 58 41 70 54 35 82 57 40
73 54 36 66 51 33 83 58 41 70 53 35
65 49 31 68 53 34 67 51 33 80 57 40
75 54 37 70 51 33 77 55 38 72 53 36
73 53 36 71 53 35 73 55 37 85 64 44
62 46 29 87 65 46 66 49 32 68 51 33
75 54 37 77 61 40 81 57 40 76 61 40
66 49 32 80 56 40 74 53 36 90 72 49
73 53 36 74 53 36 70 55 36 57 42 24
83 58 41 111 79 42 49 41 17 106 81 64
61 46 28 79 57 40 65 49 33 57 46 25
89 65 32 86 65 36 83 58 42 88 64 34
61 45 28 84 61 38 64 49 31 87 67 47
61 46 28 78 56 39 67 51 33 65 49 32
79 56 39 85 61 43 78 56 39 81 57 40
80 56 39 84 64 44 73 53 36 72 53 35
66 50 33 81 57 40 78 55 38 67 51 33
73 53 36 72 53 36 80 56 39 68 49 32
62 46 29 85 64 44 63 48 31 72 53 36
80 56 40 62 46 29 73 54 36 73 53 36
80 56 39 72 53 36 62 45 28 69 53 35
56 41 23 75 54 37 66 50 33 74 54 37
71 52 35 86 61 43 68 51 34 64 48 31
74 54 37 76 55 37 81 59 41 80 57 40
70 52 35 81 57 40 85 64 44 53 42 21
80 56 41 93 71 42 49 41 17 98 77 57
66 51 33 68 51 32 70 55 34 68 51 34
90 66 33 91 73 47 78 57 36 84 59 39
57 41 21 102 75 45 58 43 25 88 66 41
63 47 30 73 53 36 65 50 32 79 56 39
69 52 35 86 65 45 73 51 34 63 47 29
78 61 41 74 53 36 77 55 38 62 46 29
73 53 36 67 51 33 75 54 37 80 57 40
75 55 37 67 50 33 76 59 39 56 41 24
64 50 32 80 55 39 79 62 41 76 55 38
82 57 40 77 61 41 71 52 35 76 55 38
84 60 42 66 50 33 61 46 29 72 52 35
59 43 26 71 53 35 80 57 40 74 54 37
70 52 35 74 54 37 74 54 37 85 64 44
88 73 49 76 55 38 86 65 45 74 54 37
71 52 35 67 48 31 74 53 36 56 42 23
98 66 40 89 70 42 49 41 17 97 78 56
62 47 29 88 65 33 89 69 40 76 56 35
83 62 32 90 66 33 74 58 30 85 60 38
57 41 19 93 70 41 64 49 31 86 62 35
60 45 27 75 54 36 63 48 30 63 46 30
67 49 32 76 54 38 69 51 34 60 47 30
84 60 42 82 57 41 76 54 37 79 55 38
63 49 32 80 56 40 82 57 41 70 51 34
82 57 40 57 42 24 77 62 41 63 48 31
74 54 37 60 45 27 74 55 37 78 55 39
65 49 33 84 59 43 58 42 25 80 56 39
83 63 43 72 52 35 66 50 33 65 49 32
77 54 37 63 48 31 65 49 31 69 51 34
77 56 39 58 44 27 78 55 39 83 60 42
86 65 45 78 55 38 81 55 39 83 58 42
71 52 35 71 50 34 61 48 31 56 40 23
132 87 45 89 64 31 49 41 17 89 67 47
59 44 27 90 73 49 83 58 38 66 51 31
86 63 33 86 62 36 88 64 33 83 60 36
58 41 17 89 71 47 58 43 25 92 66 34
65 49 31 88 62 46 67 51 32 83 59 40
90 61 42 87 61 41 90 62 42 83 59 39
79 58 40 87 62 44 81 59 41 88 63 45
85 60 40 84 60 39 84 59 39 77 56 37
87 62 44 86 61 43 81 61 42 80 59 40
77 56 38 80 59 42 72 56 38 86 60 40
90 62 42 83 59 38 78 58 40 80 59 40
72 54 36 89 63 45 79 59 39 79 58 40
70 52 35 90 64 47 72 56 38 78 58 40
85 67 44 64 47 27 92 69 47 94 76 51
87 60 42 90 63 46 82 60 43 80 55 35
89 62 44 92 63 44 68 48 28 64 47 28
145 94 52 91 66 33 49 42 17 88 63 32
61 45 27 90 73 49 88 64 34 68 53 33
87 62 36 88 64 33 86 61 37 103 71 36
57 42 24 84 59 41 53 39 23 73 55 34
75 60 36 89 68 45 95 73 42 97 68 36
112 76 41 105 72 41 103 69 41 102 69 43
92 71 40 93 72 41 93 71 40 93 71 41
106 73 41 100 68 40 98 68 41 96 73 42
93 72 41 93 71 40 95 71 41 92 70 46
91 70 39 100 79 57 97 76 56 105 72 41
102 69 41 99 68 41 93 71 40 94 72 42
92 70 40 93 71 40 89 68 44 93 71 40
98 79 56 98 76 56 97 75 49 96 73 42
87 65 42 88 68 44 94 78 50 92 70 45
93 76 49 95 78 56 88 71 47 100 73 43
94 75 48 105 72 38 101 68 41 92 72 41
107 74 39 85 63 31 46 40 16 91 67 33
57 41 18 90 66 34 85 61 36 88 62 37
90 66 33 90 69 39 84 59 39 116 75 40
48 30 14 87 68 36 83 56 32 75 55 25
70 59 30 87 61 28 67 50 22 66 58 29
80 59 28 79 59 27 68 58 32 79 57 28
71 59 30 83 59 27 83 66 35 75 62 30
78 58 27 68 58 31 80 57 28 69 58 29
82 58 26 81 64 34 72 60 30 76 54 27
71 58 29 70 60 31 76 53 25 80 59 27
68 58 31 79 57 28 68 57 30 82 59 27
81 64 35 75 62 31 76 53 27 70 57 29
70 60 31 77 54 26 77 55 24 70 58 29
79 62 35 82 58 28 85 60 31 68 57 29
82 59 28 93 66 32 76 54 25 87 63 33
77 63 35 68 57 29 68 57 30 79 55 26
79 56 25 68 52 24 66 50 23 86 62 30
24 16 6 89 72 48 65 50 30 102 71 37
90 73 48 90 69 41 88 64 34 89 66 35
58 42 24 71 50 32 61 47 23 78 55 31
69 52 33 74 50 29 60 42 22 62 50 27
75 54 31 81 60 34 65 49 28 74 53 31
68 53 34 67 47 29 81 59 34 82 62 37
86 64 35 69 52 32 73 53 30 72 56 33
72 52 32 96 71 39 97 71 37 73 52 31
60 43 24 79 58 38 71 52 32 77 58 33
66 49 29 79 55 34 83 60 32 68 48 27
92 68 37 83 62 35 83 60 31 65 47 28
80 59 40 66 47 27 64 49 26 68 52 33
73 57 39 71 52 30 83 56 28 64 53 31
72 53 33 88 64 36 70 51 32 82 56 35
66 52 30 62 44 24 62 45 25 71 52 34
68 48 28 61 41 21 60 41 21 61 43 25
64 44 28 86 62 38 62 47 30 89 72 47
89 74 51 88 70 44 86 62 36 101 74 43
92 74 50 105 80 64 95 76 56 102 75 46
113 74 40 98 69 36 87 64 32 86 65 40
72 54 31 84 61 32 87 63 31 109 72 39
87 70 46 82 59 35 77 54 38 81 58 34
107 71 38 87 64 32 83 61 39 88 72 49
87 72 50 86 68 40 133 88 48 118 79 40
72 56 29 93 69 40 89 72 50 81 62 42
71 51 35 97 77 58 107 82 45 85 64 34
97 68 36 85 63 34 94 78 49 88 65 33
114 74 41 98 68 37 83 64 45 88 72 49
74 73 71 96 76 57 120 80 41 97 71 43
88 68 40 84 62 32 81 57 40 88 65 33
81 56 41 86 62 31 87 71 47 87 67 39
91 76 49 69 57 47 89 68 40 89 65 33
93 75 50 84 59 38 89 73 49 87 63 37
93 71 41 100 74 45 89 66 33 88 62 36
112 74 40 88 61 43 101 78 59 88 65 38
118 78 42 87 64 32 90 65 33 86 62 35
69 52 32 88 66 43 90 65 34 92 67 34
96 74 41 91 66 32 90 66 34 94 72 40
104 71 37 91 66 33 92 68 40 101 75 46
90 69 41 101 73 44 99 81 47 131 86 45
92 68 37 99 73 46 105 81 64 89 64 32
83 64 43 91 70 42 108 82 46 93 69 39
91 73 48 91 70 41 88 69 42 90 65 31
139 91 50 109 83 63 91 71 46 89 71 48
86 66 45 107 83 66 98 66 40 108 71 36
128 84 43 90 66 33 117 78 42 89 65 32
79 58 36 87 66 44 90 67 35 89 68 38
89 75 50 86 65 36 82 63 33 90 68 38
87 64 32 86 61 37 91 74 51 88 63 35
116 77 41 99 77 55 91 73 48 75 58 33
91 65 33 98 67 35 116 77 39 103 70 36
92 73 48 86 60 41 82 58 40 96 76 55
86 67 45 89 70 41 83 60 37 87 72 47
138 94 55 89 66 35 89 64 30 116 79 43
119 76 40 116 75 39 104 75 46 94 73 48
91 66 33 112 84 66 91 70 41 125 83 42
117 90 62 87 62 44 94 75 51 93 68 34
94 69 36 92 69 37 127 83 41 104 78 46
110 74 40 88 71 48 100 74 44 90 70 40
129 87 46 101 82 57 113 82 56 90 69 48
91 69 41 106 79 46 88 64 32 105 75 44
129 84 43 91 65 32 109 83 64 82 59 42
80 58 41 90 75 51 91 73 47 100 69 38
105 74 44 91 74 48 74 55 35 88 70 44
82 62 34 88 72 51 106 81 63 83 60 34
90 69 42 103 77 49 113 76 42 81 61 30
91 66 32 135 88 47 127 84 44 113 75 40
115 76 43 107 72 37 97 68 35 97 66 41
100 75 45 104 73 39 104 69 41 107 73 39
116 84 53 98 72 42 96 75 48 91 71 53
102 72 49 103 73 49 91 72 54 78 62 42
84 68 44 92 73 53 84 65 38 84 65 36
87 70 35 120 79 40 108 72 36 114 76 36
114 76 36 104 75 51 121 81 40 113 81 54
108 73 38 95 65 38 103 73 42 101 83 57
92 72 52 92 72 54 108 84 67 93 73 54
83 70 47 87 68 44 85 65 37 81 64 39
94 69 41 85 68 37 86 73 46 99 71 42
104 76 46 98 72 43 83 66 38 92 67 49
104 73 47 91 72 53 101 68 42 105 77 46
93 71 40 94 71 41 113 75 41 59 47 25
83 58 38 87 65 43 88 66 44 89 68 40
78 58 32 145 94 52 54 45 19 93 66 32
98 68 36 92 66 31 97 65 36 95 65 34
98 67 37 93 65 33 86 67 39 85 65 39
94 63 33 94 64 33 94 68 36 94 66 37
94 66 38 91 65 37 79 63 37 86 63 31
84 64 47 83 63 45 83 63 42 80 64 43
80 64 43 87 65 46 85 66 42 87 64 46
85 63 45 86 67 51 82 64 43 84 65 36
84 66 40 93 69 42 82 64 37 81 67 38
83 66 40 91 69 44 79 63 37 78 63 37
86 63 31 80 65 40 80 64 41 92 64 33
85 64 32 87 64 33 88 65 31 84 65 37
89 62 31 94 64 34 81 59 31 73 57 30
85 63 33 79 64 36 60 46 21 94 67 32
77 57 31 106 79 41 88 62 35 71 54 33
86 62 36 81 60 32 88 64 33 114 76 43
71 56 31 136 90 50 47 40 16 128 84 42
75 51 24 79 56 26 71 53 30 63 45 24
63 49 25 66 48 25 67 52 26 61 50 28
72 54 31 68 50 30 78 56 25 80 57 27
75 57 26 69 53 25 64 52 26 74 55 33
74 52 33 74 53 33 71 54 33 66 52 28
63 49 29 68 48 31 72 56 29 69 52 32
62 50 29 65 49 28 66 49 30 68 54 31
62 48 26 70 54 32 59 49 26 76 57 28
75 56 26 77 57 27 70 54 27 65 53 26
65 46 26 68 48 29 73 53 30 72 53 25
72 52 25 64 49 26 71 52 25 68 52 27
64 44 26 65 50 27 71 50 31 65 47 25
73 54 33 115 78 43 46 40 16 88 65 32
71 56 31 99 71 39 85 62 39 89 65 32
85 61 37 91 66 33 90 73 48 106 82 64
75 58 32 114 89 56 58 41 17 121 82 41
55 41 22 57 43 26 68 51 34 52 41 21
56 43 25 66 47 30 60 43 26 61 46 28
62 48 30 68 50 34 70 51 35 59 46 29
67 50 34 67 50 33 67 48 31 74 55 35
59 44 25 70 51 33 65 48 31 63 46 28
57 43 25 56 43 22 72 54 36 58 45 26
55 41 22 72 52 34 58 43 25 63 48 31
67 47 30 69 50 33 61 46 28 62 46 29
61 44 27 63 45 29 62 47 29 58 44 26
69 50 34 65 46 29 58 43 25 50 39 19
65 47 30 60 45 27 67 48 31 58 43 25
53 38 21 52 38 21 71 52 35 55 40 22
65 49 33 99 81 47 49 42 17 90 65 32
75 58 32 94 74 48 86 65 44 89 65 32
89 64 34 88 65 31 90 66 33 90 70 42
62 46 28 98 83 49 54 41 17 95 78 49
61 45 28 65 50 33 64 47 29 70 50 34
75 55 38 68 52 34 83 59 42 63 47 29
73 53 36 78 56 39 76 55 38 74 53 37
88 65 45 70 52 35 78 56 39 73 53 36
82 58 41 84 59 42 73 54 36 79 57 40
74 54 37 74 52 36 74 57 36 92 73 51
61 46 29 83 58 41 74 54 37 63 49 31
86 62 44 86 64 45 70 50 33 86 65 45
72 53 36 79 57 40 73 54 36 83 58 42
84 58 41 86 60 43 68 52 34 71 52 35
68 52 34 73 54 37 77 55 38 74 55 37
60 46 28 79 61 41 79 56 39 57 42 24
75 56 35 123 82 41 49 41 17 89 65 33
62 46 28 88 64 33 89 64 33 90 66 33
81 58 39 78 57 37 87 62 36 89 65 33
56 41 23 97 81 48 55 42 22 89 73 50
56 45 23 74 54 36 69 53 38 75 54 37
63 46 28 66 50 33 89 68 47 64 50 32
72 53 36 73 53 36 61 46 29 84 64 44
86 66 45 74 56 37 76 54 38 69 49 32
84 58 41 63 48 31 69 51 34 73 51 34
66 50 32 68 50 33 66 47 30 72 53 35
65 49 32 67 51 33 85 64 44 71 50 33
79 61 41 77 62 41 56 41 23 80 57 40
77 60 40 73 53 36 73 53 36 75 54 37
85 64 44 75 54 37 78 56 39 72 50 33
66 50 33 69 51 34 82 57 41 66 49 32
75 55 38 77 57 39 58 43 25 57 42 24
85 63 32 111 82 44 49 41 17 90 66 32
56 41 23 62 57 36 90 73 49 89 72 48
78 58 32 86 61 38 81 60 33 92 70 41
57 42 24 91 74 49 54 42 22 91 75 50
52 41 19 82 57 40 66 55 46 72 52 35
60 45 27 79 56 39 72 55 35 74 54 37
65 48 30 72 53 36 60 44 27 77 57 39
86 65 45 84 64 44 78 57 39 65 48 31
74 54 37 70 50 33 71 51 34 70 51 34
74 54 37 75 56 38 68 52 34 68 49 32
82 58 41 79 56 39 69 54 35 82 58 41
72 52 36 76 56 38 64 47 29 79 61 41
78 59 40 70 52 34 70 50 33 73 53 36
83 60 42 73 53 36 75 54 37 86 61 44
59 44 27 81 63 42 69 50 32 63 47 29
77 55 38 59 44 27 71 52 35 56 42 23
100 69 36 122 82 42 49 41 17 86 62 36
57 42 24 65 53 32 90 73 49 83 58 42
100 73 43 84 59 39 72 57 30 112 73 37
58 42 25 89 73 50 57 41 21 86 66 46
49 41 16 69 52 35 74 53 35 79 62 41
66 51 33 62 46 29 70 51 34 77 55 38
79 55 38 82 58 41 60 45 28 70 50 33
88 67 46 82 57 40 78 61 41 76 56 38
62 48 31 84 59 42 68 52 34 85 64 44
76 55 38 79 62 41 70 51 34 84 59 42
75 54 37 75 54 37 86 70 47 74 54 36
59 45 27 84 58 41 73 53 36 75 56 38
82 63 43 76 55 38 74 54 37 73 53 36
81 56 40 74 54 37 78 56 39 76 60 40
71 50 33 74 56 37 72 52 35 74 54 37
71 53 35 57 42 24 69 52 34 53 42 20
79 60 32 111 82 45 49 41 17 91 74 53
57 42 24 85 62 38 91 74 50 78 58 37
86 65 34 88 64 33 79 57 36 91 69 41
53 42 21 93 77 49 52 41 18 89 71 48
57 46 25 67 48 31 73 54 37 84 60 42
65 50 32 73 53 36 86 59 43 72 53 35
86 65 45 71 52 35 67 51 34 69 51 34
74 55 37 82 58 41 65 49 32 77 60 40
75 54 37 82 58 41 80 57 40 78 59 40
79 56 39 80 56 39 81 64 43 81 57 40
74 54 37 81 57 40 75 54 37 84 59 42
64 47 30 75 54 37 80 56 40 71 51 35
84 57 41 82 58 41 73 53 36 80 57 40
68 51 34 71 52 35 66 48 30 55 40 23
72 52 34 71 52 35 82 58 41 61 47 30
82 58 41 64 49 31 75 54 37 51 41 19
91 64 37 96 82 49 49 41 17 98 74 47
57 42 25 89 68 41 105 82 64 90 70 42
68 51 32 76 58 31 79 58 38 82 59 42
55 41 22 91 74 49 54 42 22 91 75 50
64 48 31 67 48 31 74 54 37 83 58 41
55 41 23 69 51 34 73 53 36 82 57 41
65 52 33 80 62 42 80 57 40 74 54 37
66 50 32 82 57 41 73 53 36 78 55 38
77 55 38 75 54 37 82 57 41 81 62 42
65 50 32 76 55 38 86 66 45 83 58 41
68 49 32 69 52 34 87 65 45 73 51 34
67 49 31 77 55 38 83 60 42 88 66 46
73 54 36 84 58 42 71 54 36 83 57 41
77 55 38 67 52 34 60 45 27 61 45 27
61 47 30 85 59 42 74 54 37 70 50 33
71 50 33 73 54 36 71 52 35 52 42 19
99 69 35 124 82 41 49 41 17 85 61 34
65 49 32 90 65 31 96 80 48 98 77 55
88 64 32 88 65 34 89 74 48 90 66 34
61 45 28 90 74 50 57 41 21 86 66 46
60 45 27 68 52 34 71 52 35 73 53 36
69 49 32 79 56 39 66 50 33 73 53 36
75 54 37 83 59 42 65 49 32 75 54 37
72 53 36 84 58 42 86 65 45 74 54 37
74 54 36 74 54 37 83 58 41 73 52 36
75 54 37 77 54 38 68 50 33 75 54 37
66 49 32 68 49 32 81 59 41 66 48 30
69 49 32 65 48 31 86 65 45 81 59 41
65 50 32 71 52 35 73 58 37 84 64 44
71 50 33 83 63 43 84 59 42 61 46 28
72 53 36 75 54 37 64 48 31 85 59 42
62 48 30 84 58 41 71 53 35 52 41 20
80 61 32 110 82 45 49 41 17 90 73 51
65 50 32 88 65 34 87 67 45 95 81 48
90 69 39 90 70 42 86 66 45 87 66 44
58 43 24 87 68 46 49 41 15 89 71 48
56 40 23 67 50 33 60 45 28 70 52 35
86 60 43 68 51 34 72 53 36 70 52 35
74 54 37 66 50 33 60 46 28 84 58 42
66 50 33 73 53 36 72 52 34 69 52 34
71 52 35 71 52 34 74 54 36 75 54 37
74 54 37 80 62 42 70 50 33 73 53 36
72 53 36 64 49 31 74 53 36 65 49 32
77 56 39 73 54 36 75 54 37 73 53 36
81 56 40 68 49 32 71 51 33 74 56 37
85 59 42 73 53 36 73 53 36 76 57 38
74 54 37 77 55 38 72 57 36 75 55 37
73 54 36 76 57 39 69 52 34 58 42 25
84 59 40 96 81 48 49 41 17 106 82 65
65 49 32 98 79 48 91 74 50 91 74 50
90 69 41 90 69 38 91 72 50 86 62 32
57 41 20 85 63 44 52 41 20 91 75 50
62 47 29 74 53 36 73 54 37 74 53 36
72 53 35 75 54 37 71 52 35 74 53 36
70 52 35 83 58 41 72 53 36 75 54 37
73 53 36 70 52 35 63 48 30 74 54 37
72 53 36 61 46 28 63 49 31 67 51 33
70 52 35 75 56 38 79 56 39 74 54 36
70 52 35 81 57 40 65 49 32 81 57 40
79 56 39 64 49 31 71 53 35 68 51 34
87 67 46 67 51 33 80 63 42 73 52 35
74 53 36 68 51 33 71 52 35 84 64 44
72 52 35 75 54 37 68 53 34 85 66 45
68 51 34 75 59 39 74 54 37 65 50 32
82 57 41 110 80 45 49 41 17 127 100 76
57 42 24 106 75 37 89 73 49 90 73 49
89 70 42 86 61 35 100 81 56 83 62 32
57 41 17 81 56 39 63 47 30 89 71 49
61 46 28 81 58 40 68 50 33 62 46 29
73 53 36 70 52 35 71 53 36 76 55 38
76 55 37 72 53 36 76 54 37 77 55 38
65 49 32 74 54 37 65 50 32 73 54 36
68 51 34 65 50 32 68 51 34 64 47 30
76 55 38 65 49 32 81 57 40 74 54 36
76 55 38 67 50 33 77 61 41 67 51 33
65 49 32 85 64 44 65 49 32 83 58 41
88 67 46 73 54 36 79 55 39 65 48 30
82 63 43 64 49 32 70 52 35 74 54 37
80 62 42 85 59 42 72 53 36 83 63 43
80 57 40 82 58 41 73 54 36 64 49 31
82 57 41 104 75 38 49 41 17 123 84 45
57 42 24 84 60 35 92 75 52 88 73 50
72 56 34 88 64 34 93 75 48 90 65 33
58 42 21 93 70 41 61 46 28 87 66 44
60 45 27 89 72 49 84 63 43 73 54 36
77 56 39 73 53 36 67 48 31 90 72 49
66 50 32 73 53 36 84 64 44 75 54 37
83 60 42 73 53 36 71 53 35 74 54 37
63 49 31 72 53 35 71 53 35 70 51 34
66 50 32 74 54 37 73 53 36 74 54 37
62 46 29 64 49 32 78 58 40 62 48 30
77 61 41 84 60 42 85 65 45 71 52 35
73 52 36 91 74 50 83 58 41 80 57 40
69 53 35 71 53 35 71 52 34 88 68 47
76 57 39 72 53 36 85 59 42 74 53 36
83 58 41 79 62 42 74 53 36 62 47 29
83 58 40 86 71 48 49 41 17 92 74 48
57 42 24 89 64 34 99 77 55 103 74 45
87 63 31 90 66 33 101 70 37 82 58 40
53 37 20 101 73 44 61 46 28 87 63 38
67 51 34 84 59 42 87 67 46 69 51 34
85 66 44 85 59 42 62 46 28 83 59 41
74 54 36 78 57 39 78 57 39 84 59 42
85 65 44 77 55 38 77 55 38 73 54 36
76 55 38 75 54 37 73 54 36 75 55 38
61 46 28 81 57 40 75 55 38 74 54 36
59 45 27 73 54 36 71 52 35 72 51 34
64 49 30 76 54 37 82 59 41 71 51 33
83 60 42 88 67 47 83 58 41 67 51 33
81 57 40 77 55 38 62 47 29 85 64 44
79 56 39 72 53 36 73 54 36 85 59 42
76 55 37 78 55 38 75 56 38 63 47 29
118 78 41 103 75 45 49 41 17 89 72 50
49 42 17 89 66 32 106 78 43 115 75 40
90 69 40 90 73 49 87 63 32 89 65 33
49 31 14 89 71 43 62 47 29 89 64 32
50 39 18 72 52 35 81 59 42 59 47 31
81 63 44 74 53 38 70 52 36 60 47 31
81 56 40 80 61 42 70 50 35 77 54 38
67 49 34 71 52 36 79 55 40 77 54 39
71 51 35 55 40 24 81 56 40 70 50 34
64 48 32 79 54 38 68 49 32 75 54 39
70 52 36 64 49 33 62 47 31 71 52 36
58 42 26 69 50 35 69 50 34 72 52 36
73 57 37 68 48 32 79 54 38 79 56 40
80 55 40 78 54 39 79 55 39 60 44 28
81 57 40 84 62 43 67 49 32 70 51 36
75 53 37 71 52 37 77 60 42 51 37 21
139 91 49 125 82 40 49 41 17 86 62 37
48 41 16 101 81 56 100 72 39 90 73 49
90 67 34 90 73 48 87 62 37 86 62 35
50 32 15 85 64 46 54 40 23 85 62 36
79 60 42 91 68 50 102 80 52 99 68 40
119 83 51 107 73 44 106 71 45 99 68 42
98 73 48 98 72 48 88 68 43 91 70 44
108 73 45 106 71 45 107 72 46 99 73 48
88 68 43 89 68 43 99 73 48 83 64 41
97 72 47 103 78 58 94 72 54 115 76 48
110 73 46 106 71 45 98 73 48 87 68 43
98 73 48 97 72 47 91 69 46 88 68 42
93 72 53 95 75 56 102 76 56 102 80 52
97 72 49 89 68 45 97 74 50 95 70 47
101 81 54 103 80 59 94 73 53 106 73 46
91 71 46 110 73 45 101 68 42 86 65 40
137 89 49 119 79 41 48 41 16 89 65 31
52 34 16 108 82 66 89 69 41 82 58 42
87 62 35 90 69 41 91 73 48 88 67 42
49 31 14 89 65 39 66 47 27 70 53 28
74 60 33 85 64 33 79 61 29 78 61 31
88 63 30 81 60 29 80 60 34 85 60 33
80 63 31 83 63 30 82 64 33 78 62 31
81 60 29 80 60 34 83 60 33 79 63 31
84 64 31 80 63 32 76 61 30 81 60 35
81 64 32 80 67 40 82 62 38 80 60 29
79 60 34 83 59 32 79 62 31 85 64 31
79 62 32 77 61 31 78 58 34 81 64 32
81 68 41 83 62 38 84 63 33 79 62 30
78 60 36 81 60 34 85 68 39 77 60 36
83 66 37 84 67 40 77 60 32 88 68 38
83 68 40 83 64 31 81 61 35 84 63 31
82 61 29 76 58 27 54 45 18 93 68 34
35 23 10 124 82 42 89 69 41 93 77 50
84 60 39 89 66 34 90 74 51 87 63 38
52 34 17 75 58 32 79 54 28 78 56 27
69 56 33 84 55 28 61 43 20 62 54 28
80 57 30 87 63 33 67 55 30 78 55 29
66 55 32 79 55 29 86 67 38 83 66 35
88 64 33 68 56 32 80 55 28 70 57 33
80 55 29 93 71 39 86 68 36 74 51 28
62 49 27 73 59 36 76 52 27 86 62 32
67 56 32 82 57 31 72 58 33 79 55 28
92 70 39 83 67 36 80 54 27 65 52 28
74 60 36 75 51 26 71 51 24 67 55 32
79 62 37 81 56 29 87 56 27 64 55 28
78 54 28 101 69 36 74 51 28 88 59 32
72 59 32 63 50 28 63 50 26 76 53 29
77 51 25 60 43 20 68 50 27 65 46 22
33 22 10 110 80 42 100 73 44 91 71 40
85 60 35 90 65 32 90 69 41 88 66 33
88 70 46 77 52 36 66 55 32 77 56 39
75 55 30 72 57 37 71 52 28 82 56 30
78 60 44 75 58 33 71 55 36 85 59 36
90 62 35 70 51 28 91 62 32 80 62 41
79 60 32 75 55 32 76 62 38 76 58 30
74 59 39 90 70 41 90 65 33 90 65 37
82 55 30 88 61 36 74 56 34 72 53 29
71 50 26 81 58 35 86 62 31 68 52 29
83 64 37 76 54 35 85 66 40 71 51 34
84 60 35 71 55 35 70 53 28 87 60 35
82 63 47 73 55 33 82 64 39 86 59 34
89 63 35 77 58 32 90 64 36 81 62 43
73 54 29 71 50 27 73 57 33 71 55 31
73 58 38 75 56 35 71 51 26 81 55 32
79 63 39 90 73 42 100 78 47 89 65 33
94 74 41 88 64 33 89 64 30 101 74 46
90 70 42 90 67 35 95 78 53 91 73 49
89 64 37 93 69 36 99 80 48 103 85 50
120 93 74 93 74 48 97 81 50 95 76 51
97 69 34 93 68 33 129 86 43 91 75 50
92 66 32 92 75 49 96 71 36 106 71 36
92 67 35 87 67 46 93 74 49 93 68 46
103 85 50 108 81 44 93 71 41 93 67 33
96 76 43 90 66 33 90 65 31 105 77 46
91 71 43 90 66 35 92 76 52 92 74 50
87 63 37 93 69 36 100 80 48 102 84 49
119 93 74 94 74 48 96 80 50 95 76 51
97 69 34 92 67 32 130 86 42 91 75 50
93 68 33 93 76 50 97 72 37 107 72 36
94 77 52 103 72 41 93 73 43 97 74 45
103 84 57 95 80 49 100 75 46 91 70 43
91 71 43 86 62 36 90 70 42 93 71 42
89 65 33 91 73 48 86 65 44 82 58 42
90 73 50 89 73 49 115 78 43 90 73 48
99 78 56 117 78 43 87 62 35 101 74 44
89 65 31 89 64 33 116 77 41 97 77 56
88 64 34 91 73 49 115 76 39 104 75 46
86 65 45 85 60 36 100 70 38 84 61 37
97 81 47 93 78 51 90 74 48 89 65 32
91 71 43 86 62 37 90 70 41 93 70 42
90 66 33 90 73 47 87 66 44 82 58 42
90 74 50 88 73 49 115 78 44 90 73 49
99 78 56 116 78 43 87 63 36 100 73 43
88 65 31 89 65 33 116 77 41 97 77 56
89 64 34 91 73 49 115 76 39 104 75 46
89 73 49 83 60 34 86 66 46 87 67 38
97 81 51 94 79 50 92 74 50 105 81 60
88 72 48 93 75 52 90 73 49 88 68 40
90 69 40 80 60 32 86 63 34 84 60 36
91 76 48 94 72 43 90 69 40 116 79 43
91 69 38 107 83 64 86 67 40 88 63 37
84 61 37 82 58 40 93 76 48 93 76 51
86 62 35 112 75 41 92 67 35 87 68 47
92 75 49 90 65 33 93 74 47 88 66 44
114 76 42 105 83 64 86 66 45 92 75 52
89 72 48 93 75 49 89 73 49 87 69 41
88 68 39 85 64 34 87 64 34 85 60 34
92 76 48 95 72 41 91 69 38 118 80 42
93 70 40 110 84 64 90 68 40 91 64 38
87 61 37 84 58 39 95 77 49 92 76 53
85 61 36 111 75 42 92 67 35 85 68 46
93 75 51 94 71 39 88 63 30 101 70 35
90 74 48 87 69 43 101 70 38 101 82 57
101 74 45 97 73 48 90 69 41 93 77 48
89 66 35 136 88 47 110 79 47 106 73 36
100 68 43 111 75 36 97 68 33 104 78 42
103 75 52 108 81 47 107 73 40 105 75 46
94 63 38 99 68 34 99 80 56 94 76 52
91 68 43 94 72 53 85 68 45 85 70 44
84 65 38 85 65 37 95 69 42 77 59 41
87 73 44 99 73 44 94 66 32 104 76 49
98 73 43 100 78 62 104 72 38 107 75 44
107 73 40 107 71 36 100 72 42 98 75 47
88 64 49 105 74 46 92 67 43 91 73 45
94 70 43 88 73 47 85 66 39 82 67 46
77 60 42 85 68 37 86 74 45 102 76 41
105 73 37 100 73 42 83 69 45 94 75 51
97 76 59 102 73 50 96 72 47 104 82 56
89 65 33 102 74 43 88 72 48 94 75 53
93 66 33 89 64 30 119 79 43 90 70 42
74 57 31 133 94 55 57 46 19 82 66 36
100 69 36 92 66 32 97 66 37 93 63 34
94 67 40 91 64 30 87 67 39 84 65 38
93 70 42 83 65 38 82 67 38 83 65 40
92 70 46 81 65 40 79 64 38 86 62 32
80 64 40 81 65 41 89 63 32 88 65 32
87 64 31 96 65 34 102 71 36 102 68 37
95 64 34 91 64 39 92 65 33 86 66 38
85 65 39 91 69 43 83 65 37 82 69 40
85 67 41 89 69 45 82 66 42 78 63 38
84 62 31 79 63 38 80 64 40 91 64 31
89 65 32 87 64 32 88 64 31 83 64 37
89 62 33 94 64 34 82 60 31 73 57 30
88 64 33 77 64 36 57 45 25 98 82 52
74 57 31 97 78 48 90 74 50 95 77 57
89 73 49 88 65 32 104 72 38 85 60 36
66 50 32 110 88 57 47 40 16 99 84 50
75 52 25 79 56 26 70 52 29 64 50 27
67 49 28 70 52 33 62 51 25 64 52 28
73 53 31 64 50 27 76 56 27 75 56 26
74 57 27 68 53 26 67 52 25 66 51 27
72 52 30 71 52 29 72 53 25 73 53 26
66 50 27 75 53 33 75 56 26 77 54 34
64 49 26 61 47 24 68 49 26 67 52 26
60 49 26 73 53 31 60 45 26 72 51 25
71 56 26 77 57 27 65 48 25 69 53 27
68 49 29 75 56 37 71 52 30 74 54 27
68 52 25 70 50 30 72 53 29 67 52 26
66 47 26 65 50 27 67 48 26 61 43 24
65 44 25 115 78 43 47 40 15 102 82 57
66 50 32 94 81 50 90 73 49 101 75 44
90 73 49 102 70 36 83 64 43 87 62 36
75 58 32 98 82 49 58 41 17 97 82 48
53 37 16 58 43 26 62 46 29 68 51 33
71 52 35 66 48 31 68 48 31 72 54 29
60 44 26 69 50 32 63 47 31 64 45 29
56 42 25 71 51 34 68 48 31 67 50 33
60 44 26 67 47 30 60 44 27 70 51 34
52 40 22 58 44 27 65 47 31 58 44 27
57 44 26 67 48 31 56 42 24 60 44 26
58 44 26 67 47 30 58 43 26 56 41 25
71 52 35 63 44 28 56 42 25 70 51 34
74 59 39 67 47 31 66 47 29 61 47 29
63 46 29 62 48 31 71 51 36 64 45 28
60 45 27 61 47 29 66 47 30 68 50 33
50 34 14 99 81 47 49 42 17 99 79 57
74 58 31 100 74 44 89 74 50 97 77 48
90 66 34 115 76 42 92 65 33 90 66 32
66 50 28 97 82 48 54 41 17 94 78 49
57 42 23 84 59 42 78 56 39 74 53 36
92 75 51 76 55 38 73 52 35 71 52 36
72 53 36 78 56 39 74 54 37 78 57 39
86 66 45 86 60 43 78 56 39 78 60 41
74 55 38 84 59 43 74 54 37 85 59 42
74 54 37 83 58 42 75 54 37 81 57 40
69 52 34 83 58 42 71 51 34 64 49 32
64 48 31 82 57 41 67 51 34 73 54 37
70 49 32 82 64 43 75 54 37 85 60 43
93 76 51 88 66 46 67 49 32 72 53 36
78 56 39 65 50 32 77 55 38 81 64 43
82 58 41 87 66 46 70 53 35 76 55 38
58 43 24 123 82 41 49 41 17 96 77 57
69 54 32 103 70 37 109 82 45 91 77 50
90 72 48 91 73 48 101 71 37 87 62 36
56 40 24 97 82 48 55 42 22 89 73 49
53 42 21 75 54 37 81 57 40 69 49 32
87 66 46 84 60 42 79 57 39 68 51 34
75 60 39 72 52 36 81 57 40 89 71 48
83 59 41 71 50 33 77 55 38 79 63 42
61 46 28 61 46 28 64 49 32 74 54 37
63 47 29 80 56 39 75 60 39 72 53 36
73 53 36 67 51 33 83 58 41 70 50 33
74 53 36 70 50 33 64 49 31 73 53 36
68 48 31 77 57 39 85 64 44 72 51 34
90 72 49 83 59 42 72 52 35 76 56 38
81 56 39 70 51 35 79 56 39 91 74 50
82 57 41 72 53 34 73 54 36 66 50 33
58 43 25 111 82 44 49 41 17 89 69 39
65 50 33 97 79 49 96 79 49 108 80 44
93 78 50 89 66 34 87 70 47 85 61 37
57 42 24 90 74 49 54 42 21 91 75 50
57 41 24 78 56 39 68 51 34 79 61 41
72 52 36 85 64 44 86 64 45 82 58 41
70 54 35 76 60 40 80 56 40 88 67 46
85 63 44 76 54 37 77 55 38 70 53 35
61 46 28 70 51 34 65 50 32 79 55 39
72 52 35 76 55 37 68 53 34 76 55 38
80 57 40 79 56 39 67 51 33 83 58 41
72 53 36 66 51 33 60 43 26 76 55 38
79 58 40 78 55 38 75 56 38 71 51 34
81 58 40 82 57 40 81 58 41 89 68 47
61 46 28 81 62 42 83 58 41 84 59 42
82 57 41 60 46 28 78 55 38 67 51 33
61 45 28 122 82 42 49 41 17 86 61 36
61 46 28 122 81 40 105 78 45 119 77 40
91 73 47 90 73 49 87 67 46 89 64 33
58 42 25 90 74 50 57 41 21 86 66 46
58 43 25 69 52 34 72 53 36 88 69 47
69 51 34 82 57 40 84 62 43 73 53 36
80 56 40 84 59 42 76 55 38 73 54 36
86 66 45 75 54 37 74 54 37 74 53 36
62 47 30 76 55 38 67 51 33 87 65 45
84 57 41 75 54 37 70 52 35 76 55 38
82 58 41 73 53 36 80 56 39 66 50 33
64 49 32 74 54 37 74 55 37 79 55 38
76 61 40 73 53 36 66 50 32 82 59 41
72 52 35 82 57 41 87 67 46 75 59 39
74 54 37 77 57 39 83 58 41 72 53 36
82 57 41 70 50 33 65 48 30 72 53 36
56 41 24 110 82 45 49 41 17 90 73 51
56 41 23 111 79 52 123 80 40 118 77 39
90 70 42 90 70 42 91 74 49 90 66 33
52 42 20 87 68 46 49 41 15 89 71 48
61 45 28 71 53 35 66 50 33 88 68 47
71 50 33 81 57 40 88 68 47 71 51 35
63 47 29 86 64 44 74 54 36 75 60 40
66 52 33 85 59 42 66 50 33 73 53 36
69 50 32 84 58 42 74 54 36 78 59 40
84 64 44 81 57 40 76 55 38 72 53 36
83 58 41 74 54 37 68 51 34 82 57 41
66 50 33 77 55 38 85 64 44 73 56 36
86 70 47 76 55 38 72 53 36 85 64 45
65 48 30 83 57 41 85 63 44 71 51 35
64 47 30 78 55 38 79 55 39 71 53 35
83 58 41 68 51 34 75 55 38 71 52 35
57 42 24 96 81 48 49 41 17 106 82 65
58 42 25 97 79 51 121 79 40 112 80 53
87 68 48 91 73 48 89 65 33 88 72 47
52 41 19 85 63 44 52 41 20 91 75 50
56 41 24 71 53 35 75 55 37 68 47 31
74 54 37 68 52 34 74 55 37 88 67 47
62 48 30 81 59 41 71 53 35 64 49 31
67 50 33 72 53 35 72 53 36 78 56 39
69 52 34 73 53 36 80 56 40 75 59 39
69 53 35 73 53 36 84 58 42 81 57 40
79 56 39 69 53 34 79 56 39 76 54 37
81 57 40 77 55 38 75 54 37 90 69 48
67 52 33 82 58 41 68 51 34 65 49 32
79 56 40 76 56 38 82 57 40 87 65 45
62 48 30 88 66 46 70 50 33 69 52 34
76 55 37 65 49 32 71 52 35 74 54 36
57 42 24 110 80 45 49 41 17 106 82 65
65 49 32 100 72 45 110 82 45 94 76 44
86 64 43 105 82 65 89 65 31 101 70 37
61 45 28 81 56 39 63 47 30 89 71 49
57 42 24 69 52 34 71 52 35 58 44 26
74 54 37 85 66 45 64 49 32 87 67 46
75 55 37 72 52 35 66 50 33 70 51 34
73 54 36 74 54 37 70 52 35 73 53 36
80 57 40 67 51 33 83 58 41 63 48 31
72 53 36 72 53 36 75 54 37 76 55 38
76 55 38 85 66 45 72 53 36 74 54 37
81 57 40 78 57 39 73 54 36 72 54 36
67 51 33 65 50 32 61 47 30 72 53 36
73 53 36 83 63 43 82 58 41 86 66 45
74 54 37 73 55 37 66 50 32 78 56 39
72 53 36 86 65 45 70 51 34 77 55 38
56 41 23 104 75 38 49 41 17 91 74 50
65 50 32 92 78 49 89 75 50 92 75 45
87 64 32 109 83 64 92 67 36 93 67 34
58 43 25 93 70 41 61 46 28 87 66 44
57 42 24 74 54 37 57 42 25 73 54 37
67 51 33 87 65 45 81 57 40 79 55 39
75 54 37 64 46 29 73 54 36 75 54 37
81 57 40 74 54 37 63 45 27 69 52 35
83 58 41 70 50 33 76 55 38 73 54 36
63 49 31 85 59 42 74 56 37 73 53 36
74 53 36 86 66 45 77 55 38 70 50 33
67 51 33 78 61 41 74 54 37 73 53 36
71 52 35 73 53 36 73 53 35 74 54 37
69 52 34 84 58 41 82 57 41 84 61 43
81 57 40 71 51 35 77 61 40 75 54 37
81 57 40 77 57 39 72 51 34 74 53 36
61 46 28 86 71 48 49 41 17 90 74 49
66 50 33 96 80 49 94 81 49 92 67 34
79 58 35 115 77 41 97 76 55 86 71 47
57 41 21 101 73 44 61 46 28 87 63 38
58 42 24 73 54 36 65 50 32 75 54 36
65 50 32 73 51 34 84 59 42 76 55 37
63 49 31 86 66 46 83 58 41 70 52 35
75 55 37 73 54 36 73 53 35 71 51 33
82 58 41 63 48 30 72 53 35 68 51 34
75 55 37 74 54 37 82 63 43 74 54 36
60 45 27 87 64 45 74 54 37 77 55 38
82 58 41 65 49 32 71 53 35 77 56 38
76 57 38 67 51 33 78 60 39 74 54 36
74 53 36 73 53 36 84 58 42 86 65 45
75 55 38 89 68 47 83 60 42 85 59 42
76 55 38 73 53 36 68 52 34 60 45 27
67 51 33 103 75 45 49 41 17 89 72 50
62 47 29 92 75 48 105 77 44 118 78 42
90 66 36 102 69 36 82 58 40 106 74 38
57 41 19 89 71 43 62 47 29 89 64 32
54 39 22 78 55 38 63 48 32 57 43 27
66 49 34 64 48 33 70 52 36 79 56 40
58 43 27 85 70 47 64 48 32 68 50 34
56 43 27 77 55 39 59 47 30 69 49 34
62 47 31 69 50 35 62 47 31 61 47 30
78 54 39 59 45 28 72 56 36 75 54 39
57 44 28 75 53 38 67 49 33 73 52 36
77 54 39 76 54 38 70 51 35 74 53 37
74 58 38 69 50 33 72 50 34 59 44 28
79 60 41 56 43 26 72 51 35 77 53 38
58 43 26 83 63 43 69 49 33 75 53 38
75 53 37 76 54 39 61 48 31 69 51 36
59 46 30 125 82 40 49 41 17 86 62 37
60 45 27 83 59 42 94 69 38 102 81 57
90 69 39 93 66 33 89 64 33 116 76 42
57 41 20 85 64 46 54 40 23 85 62 36
73 57 36 94 69 52 98 73 48 95 65 37
110 74 45 105 72 43 106 71 45 107 72 46
91 70 44 90 70 45 97 72 47 90 69 43
113 75 46 101 69 42 99 68 42 97 72 47
89 69 44 92 70 45 98 73 48 89 68 45
91 69 44 95 74 54 99 79 59 115 76 48
100 69 42 100 69 42 93 70 45 99 73 49
91 70 44 92 70 44 99 73 50 91 70 44
92 72 52 106 80 61 95 74 53 90 69 44
91 71 46 89 69 46 95 73 49 90 69 45
84 65 41 101 76 57 94 73 53 101 71 43
91 71 46 110 73 45 107 72 45 96 67 38
90 62 33 119 79 41 48 41 16 89 65 31
58 42 25 90 73 49 89 71 45 89 70 40
88 68 39 89 65 32 83 58 40 90 73 48
57 41 24 89 65 39 66 47 27 70 53 28
71 58 31 84 64 33 79 62 30 78 61 31
89 64 30 82 60 29 80 60 34 83 60 33
80 63 31 84 64 31 80 63 32 79 62 31
80 60 29 81 60 34 85 60 33 79 63 31
84 64 31 79 62 32 76 61 30 80 59 34
81 64 32 81 67 41 81 60 37 80 60 29
81 60 35 83 60 33 79 63 31 83 63 30
80 63 32 79 62 31 78 58 33 81 64 32
81 68 41 81 61 37 85 64 33 81 64 32
78 60 36 81 60 34 85 68 40 78 60 35
85 68 39 84 68 40 77 60 32 89 68 38
83 68 40 83 64 31 80 61 35 84 61 28
86 64 29 76 57 27 54 45 18 93 68 34
54 39 19 91 73 49 90 70 42 90 65 32
99 70 38 90 66 32 89 65 33 90 66 33
49 31 15 75 57 31 77 54 29 77 55 28
71 57 32 84 55 28 61 42 19 64 54 27
81 58 32 87 63 33 68 56 31 80 56 28
68 56 33 79 54 27 89 69 39 83 66 37
88 64 31 66 56 32 77 55 29 70 57 33
80 55 28 95 72 40 86 68 37 77 52 27
64 49 26 74 60 36 76 53 28 86 62 32
67 54 30 82 57 29 72 57 31 80 55 28
91 70 39 81 66 36 78 54 28 65 51 27
74 59 34 73 51 26 71 51 24 68 55 31
80 63 38 81 57 28 87 56 27 65 56 29
80 55 28 101 69 36 75 52 28 88 60 34
72 59 32 63 50 28 64 50 26 76 53 30
76 51 26 62 44 20 68 50 27 67 47 23
38 25 11 88 65 32 89 65 32 90 73 48
105 71 37 86 61 37 90 65 32 86 61 36
77 61 40 80 60 41 78 56 28 80 59 34
71 51 35 72 57 38 71 55 35 71 55 35
71 52 29 76 57 32 68 47 31 74 59 40
75 55 31 70 55 36 75 54 28 80 58 32
80 65 40 88 60 35 90 63 36 79 58 30
74 59 40 81 61 31 90 65 32 74 59 40
71 54 34 84 60 36 74 55 32 72 53 29
72 55 36 81 62 44 86 66 39 66 47 32
83 65 39 92 63 36 97 67 35 74 58 38
84 64 44 83 56 32 69 52 27 75 59 39
75 60 40 70 51 36 83 64 38 74 55 30
73 55 31 77 58 32 86 60 35 80 58 35
73 54 29 71 50 26 71 54 34 74 55 31
72 54 30 67 47 31 71 52 28 70 50 26
74 54 36 79 58 36 90 73 49 89 66 34
