P3
# Converted to P3 by scripts/convert_to_p3.py
64 64
255
71 66 40 21 20 20 67 64 37 70 71 43
94 98 70 110 109 95 114 119 103 114 119 90
114 119 90 123 122 98 159 147 135 163 140 111
93 87 78 79 88 61 134 126 98 126 126 114
115 120 103 114 117 101 73 76 51 48 48 48
197 197 198 175 153 128 167 142 121 189 175 160
188 188 188 184 184 184 178 170 161 162 151 138
182 170 157 186 186 186 190 166 141 187 174 161
230 230 230 213 214 214 61 70 46 43 39 27
72 71 42 139 116 93 149 118 98 130 105 77
97 79 59 111 84 60 163 136 114 193 167 142
169 138 116 120 105 83 143 114 94 167 137 114
160 130 110 87 80 58 45 37 14 74 70 49
134 109 91 137 133 121 161 146 133 177 151 127
177 151 127 172 148 123 172 147 123 171 147 122
159 128 109 143 123 95 160 129 108 185 174 164
107 85 68 14 15 18 33 28 2 62 68 43
78 80 54 90 87 59 104 114 79 103 115 81
104 116 81 123 124 99 117 122 91 81 86 56
57 62 37 74 82 54 104 116 83 107 116 82
101 112 76 93 104 69 59 71 48 42 42 42
237 235 232 176 175 173 144 127 103 167 152 136
181 183 184 181 181 181 184 166 147 165 167 169
196 198 200 211 211 211 184 184 185 186 190 194
232 232 232 235 233 230 66 71 45 18 10 0
43 37 15 123 119 107 142 121 96 76 61 39
23 15 0 73 55 26 161 130 110 148 127 98
102 92 63 113 101 71 128 104 70 128 113 85
157 123 106 134 104 83 50 49 45 85 64 47
106 100 76 124 113 87 154 128 111 161 135 113
161 135 113 162 136 113 163 137 114 167 143 118
163 133 113 116 106 74 120 109 79 182 172 161
123 101 84 34 28 14 34 46 13 64 75 49
104 94 70 134 129 100 127 124 100 109 114 81
105 109 78 99 103 74 110 102 69 116 107 76
98 108 75 92 99 67 105 109 80 96 105 73
100 108 76 145 132 108 101 86 77 45 45 45
233 225 220 189 191 193 188 172 158 187 164 140
196 189 186 186 186 186 185 173 161 183 184 184
216 215 215 214 214 214 184 173 163 184 172 160
218 218 218 239 233 227 117 106 97 16 15 16
70 71 49 165 139 120 135 114 95 54 63 38
55 44 21 85 69 50 101 81 48 96 96 64
139 120 91 172 151 126 167 143 114 154 134 102
145 121 91 98 82 60 39 31 12 58 50 41
92 88 57 124 124 100 169 144 118 168 143 119
169 143 116 165 140 116 162 136 113 161 132 112
167 143 118 166 132 113 157 130 111 183 156 127
129 114 100 34 28 15 57 42 22 84 77 55
161 129 111 182 155 131 152 130 109 113 110 77
92 84 62 107 97 71 147 124 114 165 138 114
107 117 83 98 106 74 97 106 73 96 105 73
123 125 99 165 138 115 86 77 55 38 38 38
216 218 213 188 177 166 187 165 143 187 171 156
232 209 199 203 202 202 183 175 167 183 174 165
213 213 213 209 210 211 183 177 171 181 177 173
211 211 213 243 234 226 123 125 127 16 17 17
98 105 71 170 146 120 115 104 80 83 91 62
91 89 63 50 50 25 56 53 30 114 112 79
162 131 112 161 134 110 139 114 86 117 88 59
120 93 69 88 79 57 33 28 14 68 54 34
113 101 72 124 99 72 122 98 77 165 140 116
190 176 162 189 164 139 178 152 129 165 140 116
159 128 109 134 126 97 143 123 100 191 165 140
131 106 85 24 24 25 58 58 33 102 106 75
157 136 107 148 126 98 124 110 79 113 109 77
109 105 72 129 121 91 145 134 114 125 123 99
104 114 81 104 116 82 97 108 75 107 115 83
126 114 90 125 124 100 66 75 50 35 35 34
253 247 197 181 178 175 174 150 123 188 167 147
198 203 205 202 205 206 182 177 171 185 169 152
201 201 201 202 197 193 188 168 149 176 179 181
220 221 212 247 235 223 109 107 105 16 16 16
82 80 50 166 142 118 154 130 108 95 106 72
88 81 58 69 62 38 82 64 44 86 80 59
110 87 70 129 102 80 117 102 71 109 105 74
130 115 88 99 75 59 43 32 5 72 55 30
124 101 81 155 126 105 171 145 122 183 158 133
182 161 138 182 157 130 185 158 129 182 158 131
160 130 110 117 96 66 124 114 85 189 164 138
128 114 101 40 30 7 101 110 79 106 117 84
109 113 80 106 113 80 124 115 81 101 106 73
98 96 66 105 117 84 147 126 97 124 124 99
106 117 84 103 96 71 102 95 69 115 94 75
109 114 82 123 115 89 91 74 56 45 45 47
255 245 205 188 189 190 187 162 137 182 178 175
216 211 207 226 206 197 190 167 145 181 159 133
188 189 189 219 200 189 186 169 152 184 172 160
255 247 206 245 237 229 127 104 83 16 16 16
84 94 63 174 149 123 165 128 112 111 102 75
102 79 63 63 52 30 92 68 53 119 91 75
109 115 84 120 99 71 114 105 76 118 112 79
120 115 86 103 79 63 34 29 14 29 23 11
93 87 56 182 158 133 193 168 142 173 150 123
187 161 135 186 164 142 181 171 160 180 157 130
162 134 113 132 109 83 127 108 83 190 164 139
132 105 81 46 36 10 107 110 82 103 112 79
127 115 91 122 124 98 100 113 80 96 92 66
108 103 78 109 103 77 97 104 70 95 103 72
97 104 73 88 88 62 80 85 58 78 85 57
76 86 57 101 90 66 74 69 48 45 41 30
248 235 227 189 189 189 175 149 121 189 165 141
231 219 209 236 211 197 184 184 184 186 184 181
189 188 186 182 186 188 190 176 163 186 185 183
200 198 200 223 216 209 117 115 113 16 16 16
79 81 55 142 130 105 130 121 94 115 118 90
101 88 64 60 48 26 103 94 69 166 142 117
151 121 102 92 75 47 91 84 58 123 111 77
131 120 93 108 83 66 42 39 29 13 11 10
77 69 47 191 163 135 190 162 135 176 153 127
191 165 140 186 172 158 185 174 164 180 156 130
158 126 109 128 114 85 121 118 91 189 164 139
130 103 79 35 30 16 89 98 65 100 108 75
114 120 92 102 106 74 101 108 76 135 124 98
122 124 97 107 112 81 97 106 74 79 87 58
83 68 50 65 73 48 70 75 50 71 75 51
77 84 56 91 94 64 65 73 47 45 44 41
229 219 212 188 188 188 184 171 158 189 165 140
187 178 168 196 192 190 185 173 161 179 156 132
189 165 142 188 187 185 187 186 187 187 175 164
172 174 175 218 219 220 133 134 135 16 16 16
71 76 51 110 117 87 110 117 87 123 116 84
108 104 70 114 94 63 132 116 83 147 124 90
149 119 95 129 108 78 139 117 88 151 128 103
147 118 90 92 75 53 41 32 10 19 18 15
107 90 72 185 174 164 185 171 157 175 152 126
175 152 125 190 163 136 191 162 133 193 167 141
160 129 110 136 114 80 136 123 102 190 163 136
118 105 97 39 30 9 85 81 57 80 88 59
103 113 80 124 112 88 121 123 98 130 126 102
123 123 99 124 124 99 125 125 100 105 115 82
87 93 63 85 89 60 89 92 63 88 91 62
77 80 55 96 107 74 84 79 58 40 41 43
190 191 192 189 189 189 180 183 186 181 180 179
213 209 205 208 209 209 182 155 126 163 138 114
181 155 126 176 150 124 131 123 91 170 143 116
221 212 204 228 228 228 116 115 113 16 16 16
77 72 51 113 118 91 134 107 84 148 114 94
128 108 74 108 88 54 86 80 49 142 113 88
181 156 131 177 154 127 171 146 122 164 136 115
153 128 107 96 78 61 40 30 7 35 30 21
127 109 87 189 178 167 189 167 145 180 156 130
180 156 130 190 163 136 188 167 145 180 155 129
165 140 116 140 122 101 137 122 100 186 171 156
84 86 87 42 32 7 74 77 53 62 72 46
91 99 66 117 122 94 138 127 98 120 121 96
128 118 89 112 119 89 113 117 89 92 99 68
79 88 58 97 104 72 106 116 83 92 100 67
84 88 60 138 123 102 98 90 89 50 47 37
196 196 195 184 184 184 184 174 164 180 180 181
214 215 216 198 198 199 188 166 144 184 160 134
189 176 163 168 156 146 146 125 96 176 154 128
205 205 205 185 185 185 107 85 70 16 16 17
106 109 79 146 132 107 127 106 74 119 99 66
113 87 60 103 83 57 140 111 84 180 154 131
190 165 139 181 157 131 166 142 117 155 121 105
131 116 92 46 39 27 18 17 16 39 41 32
110 98 74 173 146 118 186 161 134 192 166 141
191 165 140 185 171 157 185 171 157 175 152 125
163 137 114 160 124 110 161 123 110 188 169 150
64 72 45 41 31 7 62 60 36 93 83 61
113 119 90 111 117 87 104 109 76 107 116 84
118 120 90 116 118 90 101 111 77 93 103 69
92 99 66 100 113 79 118 120 95 104 114 81
92 99 67 128 122 99 86 79 59 37 35 30
180 179 179 184 184 184 186 171 157 184 184 183
189 189 190 188 186 185 176 163 149 191 165 139
188 191 194 182 175 168 167 140 117 167 143 118
172 161 149 193 193 192 134 133 131 26 25 22
158 135 107 191 165 142 140 122 101 108 103 76
106 85 61 93 74 49 119 93 70 159 126 109
172 149 123 190 165 139 173 151 124 163 133 113
164 130 112 93 71 52 16 16 16 62 61 38
155 131 110 181 158 135 174 151 124 175 151 126
191 165 140 189 167 145 190 163 136 190 164 139
168 143 118 145 114 89 144 116 91 189 175 162
77 82 69 41 32 8 53 45 22 92 95 65
101 107 74 105 116 83 103 114 81 102 113 80
97 102 73 96 85 62 84 89 61 98 88 64
92 100 68 136 128 100 147 132 108 107 115 81
89 98 65 122 123 97 101 81 63 42 35 14
184 184 185 181 181 181 189 186 183 193 193 193
181 180 178 183 159 134 179 152 124 189 165 140
182 178 174 187 168 149 174 152 127 164 137 114
167 138 112 200 202 204 152 152 152 44 40 25
162 139 114 190 188 185 166 137 116 109 101 78
74 67 48 69 50 27 115 89 57 157 121 105
149 124 91 169 140 118 166 142 116 139 115 82
125 102 78 71 58 41 16 16 16 61 69 45
185 158 130 186 185 184 175 153 129 169 143 117
180 157 131 189 163 136 189 164 139 191 165 140
173 150 123 115 107 72 118 95 61 191 187 184
115 113 115 48 40 13 61 56 36 97 109 75
138 113 88 99 105 74 80 84 57 70 76 51
120 106 84 116 119 100 80 86 58 77 69 49
95 106 72 169 143 119 149 129 107 128 107 79
116 118 88 124 121 98 109 81 65 50 50 48
186 184 183 185 185 185 188 191 194 199 198 197
188 165 141 172 149 123 186 165 143 180 181 182
188 176 165 189 175 160 186 185 184 172 151 127
145 132 108 183 171 158 119 121 122 46 44 35
122 108 88 180 157 133 163 138 114 139 122 102
99 80 55 61 50 22 80 78 48 112 102 70
134 109 78 129 106 75 127 102 72 95 75 42
69 54 32 42 38 24 16 16 16 81 67 49
172 158 144 189 189 190 185 183 180 185 170 154
182 156 128 174 151 125 172 148 122 180 156 130
168 144 119 140 116 90 145 119 96 209 211 212
111 112 114 49 46 35 77 70 49 107 104 78
100 108 77 103 83 64 84 80 56 106 85 67
144 135 109 158 141 122 131 105 82 95 107 74
119 117 90 104 115 82 94 93 67 126 123 99
165 144 123 158 130 110 72 70 47 49 49 49
189 166 143 204 205 205 191 178 165 189 165 141
196 197 197 195 196 196 184 170 156 185 173 160
182 185 187 180 185 190 186 185 184 178 175 171
172 151 124 186 158 130 104 93 85 41 38 30
128 102 75 176 153 125 166 139 118 122 108 87
110 105 70 137 126 97 150 140 115 136 116 88
80 68 42 67 66 43 139 111 86 146 121 97
108 83 60 35 26 0 16 16 16 72 69 48
170 151 128 189 188 188 190 166 142 188 177 167
195 181 168 188 160 132 167 142 117 162 136 113
161 135 109 162 129 109 181 157 131 233 225 218
116 107 94 49 47 39 70 78 52 109 98 72
130 121 92 114 117 88 108 119 86 93 100 68
65 74 48 93 89 63 111 102 77 100 109 76
129 121 96 143 124 104 135 127 98 160 136 113
159 146 132 166 140 115 83 80 61 49 49 51
196 195 193 191 187 183 177 149 122 171 146 121
190 178 166 193 180 168 188 162 134 190 163 136
184 180 176 185 170 154 189 164 139 181 162 142
183 161 136 175 153 129 125 95 72 37 32 18
133 106 82 172 147 123 141 113 87 112 114 85
138 117 97 164 131 113 178 152 126 172 146 122
118 109 76 130 115 92 173 148 122 175 146 125
153 128 108 77 59 39 16 16 18 67 60 40
171 146 120 189 189 189 189 165 140 190 167 145
197 201 205 193 182 172 181 157 131 157 124 107
143 113 89 140 111 87 179 155 129 238 234 230
98 89 66 49 44 30 73 79 52 123 122 94
137 119 97 107 117 85 115 115 86 105 113 81
96 105 73 92 97 66 88 101 67 106 111 80
133 119 96 140 127 103 150 132 110 172 146 119
178 151 122 171 149 125 99 85 73 48 46 35
208 208 209 184 175 166 173 151 125 171 146 122
185 158 131 182 155 127 178 153 129 190 164 137
195 183 172 189 174 159 188 163 138 191 175 159
191 188 185 185 184 182 148 136 125 51 50 48
128 108 80 167 143 118 141 114 87 140 111 86
163 133 112 159 130 110 156 124 107 167 142 118
184 158 132 180 151 129 167 141 118 141 121 90
137 114 83 104 82 66 30 26 18 93 71 54
170 146 121 189 189 189 189 188 187 190 162 134
189 176 163 190 179 169 191 165 138 171 148 122
157 129 107 122 98 64 158 122 107 248 234 222
132 116 105 49 48 44 114 117 89 161 140 115
107 117 87 90 89 55 104 98 65 129 109 80
109 115 82 100 90 64 102 96 63 120 113 83
135 116 94 132 126 98 162 141 116 170 157 142
165 148 136 142 140 138 77 80 68 55 48 38
197 195 194 184 173 162 170 145 120 179 155 128
191 164 138 185 161 136 179 156 131 186 171 155
184 185 186 191 194 197 199 200 201 186 170 153
182 161 138 202 202 203 146 146 146 49 49 49
116 107 73 168 144 119 167 134 117 129 113 88
136 112 81 159 130 111 178 154 129 190 165 139
190 165 140 192 168 142 172 147 122 152 134 103
152 126 95 108 82 65 37 30 13 82 64 48
172 149 123 189 189 189 189 188 187 189 175 161
189 162 134 190 162 134 188 166 144 191 165 140
171 147 122 123 103 71 139 121 99 231 204 189
104 104 103 50 42 17 106 116 84 142 131 110
135 127 98 129 121 91 113 120 91 102 104 73
83 82 52 83 80 51 84 84 57 120 97 72
162 143 116 178 154 128 173 149 124 155 130 114
132 119 100 172 149 122 112 100 92 57 50 41
187 163 138 173 147 118 171 148 122 186 164 141
185 170 155 183 156 128 183 156 128 185 172 159
187 189 191 193 190 188 193 180 167 187 167 147
187 185 183 221 221 221 159 138 119 48 48 50
128 101 68 165 139 116 135 122 95 138 118 88
145 115 89 162 130 109 172 149 122 183 158 133
190 165 139 161 134 111 158 131 109 126 116 88
115 105 74 90 82 63 31 25 10 81 66 48
184 160 134 189 189 189 190 165 141 190 167 145
189 166 142 189 162 136 184 171 156 180 155 128
163 138 111 106 97 64 129 108 80 205 182 167
120 106 96 32 28 17 140 129 104 167 152 137
162 131 111 113 103 78 84 88 59 103 94 69
102 111 79 106 90 72 97 87 64 107 101 81
124 124 102 126 116 92 114 120 90 117 119 90
127 128 112 170 156 142 102 100 99 58 50 40
177 154 128 177 154 129 190 164 139 186 175 163
190 172 153 188 176 164 181 169 156 185 176 167
189 176 163 186 163 140 188 161 135 184 182 180
188 188 189 214 214 214 153 137 122 46 42 30
157 135 111 189 163 136 124 114 89 77 61 35
81 72 42 158 145 132 175 151 125 178 154 128
184 158 133 140 109 87 146 112 95 136 109 78
172 153 126 119 121 118 37 29 8 76 70 49
180 157 131 189 189 189 189 163 137 189 164 139
198 197 196 193 179 165 185 159 131 163 141 121
153 131 107 131 103 72 156 119 104 215 183 163
92 78 56 31 27 17 127 123 100 163 139 117
112 118 90 101 81 50 113 92 64 161 144 121
170 148 125 125 112 83 118 114 84 151 139 124
151 140 126 146 128 103 114 116 87 122 120 95
167 140 120 168 147 122 89 80 70 50 48 46
181 156 128 185 160 133 185 161 135 188 176 164
197 182 167 202 200 199 195 197 199 188 180 172
190 163 137 198 196 194 196 195 194 197 198 198
197 196 196 206 206 206 145 130 116 45 36 9
149 137 112 188 166 143 162 138 116 97 76 54
53 53 30 118 100 80 179 157 129 172 152 124
136 127 98 175 145 126 140 126 102 126 103 78
183 158 132 163 138 116 43 33 8 107 81 65
190 163 136 188 188 188 190 167 144 193 192 191
205 206 207 191 169 146 173 150 124 184 170 156
186 172 158 143 115 93 102 96 72 161 137 112
70 69 48 44 32 4 145 142 140 169 156 142
121 111 82 70 77 50 106 110 79 175 160 146
185 182 179 147 132 120 92 104 71 139 126 100
192 163 134 172 157 143 122 114 86 103 94 70
141 130 105 187 173 160 94 94 81 42 42 43
187 175 162 179 164 147 188 163 137 185 170 155
189 162 136 191 180 169 192 191 191 189 172 155
189 188 187 203 203 204 191 192 193 207 206 206
207 207 207 191 191 191 130 106 85 41 32 12
187 160 133 234 219 208 167 142 117 131 107 77
114 93 75 77 69 37 42 46 32 81 81 56
150 129 101 193 167 139 163 140 117 101 70 37
135 110 78 126 100 80 42 35 14 102 81 61
186 170 154 204 204 204 197 192 186 197 196 194
192 188 185 189 163 137 173 150 124 191 164 136
190 163 136 137 110 84 106 99 65 163 133 113
63 75 48 33 28 16 139 131 103 109 107 80
81 78 49 92 98 68 162 138 114 183 158 129
178 155 131 122 124 102 112 113 85 145 139 111
189 175 161 165 146 125 92 106 72 84 91 61
139 122 99 181 184 187 108 109 109 45 45 45
197 199 201 196 186 177 189 165 141 191 162 134
186 160 132 185 184 183 184 184 184 191 165 140
189 189 189 192 192 192 196 194 193 200 202 205
201 201 200 208 208 208 156 141 127 49 44 30
190 174 159 250 240 231 182 158 132 93 97 64
89 97 65 98 101 69 84 87 65 109 98 74
171 141 122 182 168 154 179 152 129 173 147 122
177 153 126 130 104 81 34 28 15 110 87 69
184 174 164 195 195 195 185 176 167 190 167 144
189 178 167 190 164 138 183 159 133 189 164 138
189 164 139 147 117 95 124 102 69 153 128 108
65 61 44 38 29 8 132 111 93 136 122 98
108 102 75 96 75 56 117 96 74 161 131 112
170 145 120 168 141 116 177 153 127 193 165 139
189 168 147 149 135 109 132 124 96 113 119 89
152 135 125 152 148 144 56 64 43 38 38 38
218 217 217 192 193 194 182 180 179 185 171 157
184 173 162 184 169 154 187 187 187 203 203 202
189 189 189 184 185 185 186 163 138 189 174 160
195 196 196 204 204 203 161 140 122 49 42 19
185 174 164 255 231 210 184 160 134 133 110 79
128 116 92 146 124 91 159 132 105 169 142 114
185 157 129 173 151 130 161 136 107 169 146 116
193 167 142 158 132 105 49 41 15 110 85 69
179 183 186 185 187 187 184 173 162 189 187 185
195 197 199 190 166 142 173 149 123 172 148 122
171 147 121 157 122 106 115 104 71 123 112 82
77 78 65 45 37 12 155 136 125 170 148 126
153 125 104 110 101 72 108 97 71 139 111 91
143 121 92 140 124 104 176 154 133 216 183 162
182 180 177 180 156 129 124 122 96 108 113 82
142 145 147 182 171 160 60 64 53 34 34 34
215 215 216 201 201 200 185 185 186 186 165 144
187 177 168 187 177 168 188 189 189 189 188 187
188 186 185 187 185 184 187 161 135 189 173 157
201 200 199 205 207 209 149 146 144 49 45 32
188 166 143 220 194 179 157 131 107 139 114 85
164 128 114 164 138 111 166 141 114 183 159 135
217 178 145 189 163 136 170 145 115 154 129 101
170 146 121 132 107 84 49 42 18 115 91 71
184 171 158 197 190 187 189 161 133 186 186 187
203 203 202 187 185 182 186 162 136 167 143 118
162 133 113 131 118 93 109 101 68 143 112 88
66 76 47 53 54 54 154 138 113 189 172 159
168 167 165 171 152 128 171 140 120 123 125 95
107 109 77 134 127 97 182 166 154 206 189 175
210 210 211 186 162 136 113 123 92 134 122 96
157 155 153 174 173 173 81 87 70 51 50 50
209 208 206 197 198 198 206 206 206 198 197 196
195 193 190 193 194 195 192 191 189 196 172 147
195 171 147 195 171 147 197 172 146 190 170 148
183 159 135 207 194 181 154 155 158 52 44 17
191 163 134 172 152 129 151 119 98 136 108 77
142 108 80 169 145 116 199 174 148 186 161 134
177 156 131 196 171 145 199 173 149 184 158 134
168 142 119 140 112 89 49 40 13 121 94 77
199 171 143 226 202 190 197 173 147 206 206 205
213 213 212 197 173 149 179 150 128 171 144 121
169 139 119 134 112 85 112 107 82 161 129 110
46 50 39 32 27 16 73 82 56 102 89 63
81 83 58 98 87 63 128 104 80 127 103 84
111 100 78 90 78 55 116 85 66 145 118 90
129 128 128 119 94 73 93 85 58 123 102 83
152 128 107 147 126 106 51 51 31 14 16 18
141 117 96 146 144 142 157 156 156 158 149 141
153 143 135 155 155 154 149 125 101 139 115 92
137 111 88 138 113 90 150 125 102 150 124 96
132 107 87 138 109 84 87 78 68 25 16 0
138 128 117 147 130 115 117 91 70 69 64 41
85 75 54 123 101 78 144 118 96 128 103 78
145 119 93 155 128 103 154 128 102 156 132 108
142 117 94 75 67 40 18 12 1 67 57 35
142 116 95 145 123 100 148 120 95 155 156 157
168 169 170 148 123 98 125 98 78 124 94 76
119 90 71 82 62 38 82 58 28 124 97 76
64 64 64 93 93 91 146 139 118 108 116 103
133 128 120 159 138 122 155 144 137 122 103 82
52 41 23 111 97 75 133 124 114 135 129 123
159 138 121 160 141 128 128 118 111 119 96 76
42 32 23 118 104 90 111 97 84 99 87 74
123 113 102 125 116 106 121 124 123 122 108 90
103 98 82 50 49 48 128 115 104 119 106 96
105 97 88 97 89 80 122 102 80 101 92 85
102 81 63 138 131 125 124 116 101 108 110 112
163 151 144 175 158 147 122 117 107 81 75 47
18 18 11 86 70 47 92 86 76 100 90 82
101 91 81 102 93 83 101 93 83 104 82 62
42 33 25 76 64 38 81 82 82 100 99 85
131 121 112 133 125 118 145 137 131 130 121 111
74 66 58 139 118 99 135 127 120 128 119 111
126 119 110 120 107 85 119 118 108 135 126 118
73 81 57 159 148 140 216 213 214 210 207 208
249 243 238 233 231 230 237 242 244 188 189 188
55 53 53 247 237 227 200 179 157 194 182 168
203 181 159 209 195 181 195 195 195 195 170 144
78 59 45 165 137 107 183 157 131 179 152 123
163 139 117 160 139 109 117 108 77 159 131 100
173 152 124 55 42 25 123 118 89 107 103 77
70 73 50 71 80 58 88 90 64 54 52 40
84 82 80 249 243 237 202 180 160 199 184 170
202 179 155 206 192 177 197 196 196 195 166 142
20 14 10 75 67 42 69 71 48 88 90 68
89 90 68 73 83 60 74 84 61 80 82 57
12 13 16 101 103 73 117 125 94 136 135 113
201 176 151 196 184 173 200 189 178 194 178 162
102 79 57 213 210 207 212 210 208 201 203 205
204 203 203 213 198 184 197 184 171 198 199 201
60 69 42 150 143 136 181 172 163 174 152 126
216 211 205 199 200 201 228 210 199 180 167 155
67 66 65 231 229 227 186 185 183 183 167 150
181 167 153 175 150 122 187 163 139 180 154 125
92 78 56 78 58 28 133 112 86 165 139 109
103 109 78 48 39 14 133 104 74 175 157 149
171 148 122 74 80 53 60 71 44 52 55 30
84 88 57 89 97 65 80 85 56 47 39 12
62 61 61 231 228 225 186 185 183 182 166 150
181 168 154 176 150 123 183 160 135 180 156 128
26 26 27 50 52 27 56 62 37 67 74 47
65 72 46 63 72 46 79 79 54 71 76 51
48 52 40 84 89 60 100 109 76 101 109 76
156 145 129 181 154 126 172 146 117 163 136 111
112 86 69 184 159 134 181 169 157 183 181 178
182 159 134 178 152 125 184 169 152 183 183 182
53 57 47 157 146 137 199 185 170 221 190 167
203 188 174 182 180 178 199 192 188 170 147 118
69 54 37 207 209 210 198 197 195 182 161 140
186 159 132 177 155 129 171 147 121 189 178 168
87 78 56 102 92 63 143 120 90 116 109 76
97 95 62 75 84 55 110 108 77 156 133 110
175 147 124 92 97 66 74 78 53 60 66 42
85 85 60 93 100 68 99 109 75 61 70 46
70 55 38 207 208 210 198 197 195 182 161 140
186 159 132 177 155 129 179 156 129 188 174 160
24 24 23 78 82 57 48 41 17 73 78 52
66 75 49 68 75 50 84 83 58 86 83 59
58 67 42 94 102 70 101 110 77 102 111 78
128 126 105 160 140 114 162 141 116 171 146 122
78 70 50 186 172 156 189 193 197 185 165 144
180 155 126 173 149 125 185 163 139 177 177 176
52 55 46 132 133 135 199 195 191 209 203 200
214 196 184 192 169 146 184 161 136 111 117 86
52 57 32 178 175 171 189 166 143 169 143 117
171 149 123 167 142 118 172 148 123 185 175 164
75 56 39 173 146 119 158 133 105 143 133 109
126 121 96 110 106 80 122 116 86 153 124 97
123 114 85 76 82 53 68 75 50 66 74 49
74 77 52 75 79 53 88 92 63 61 62 37
51 57 32 179 176 172 189 166 143 169 143 117
171 149 123 167 142 118 180 157 131 181 161 138
16 24 2 75 78 53 53 53 29 62 73 48
60 68 47 73 78 52 75 78 53 74 78 53
45 46 47 92 100 68 86 90 61 89 96 65
141 129 104 123 121 94 121 121 94 164 143 114
96 81 62 185 168 149 181 169 156 184 171 156
189 175 161 190 165 139 192 177 162 195 197 200
67 76 48 116 116 117 178 155 134 167 148 125
187 166 145 203 201 200 244 207 185 163 142 117
61 49 30 189 178 166 184 182 180 180 157 132
184 159 133 186 159 133 180 157 130 177 152 123
60 46 28 163 139 111 172 147 123 176 148 119
163 141 112 141 124 102 140 120 98 148 125 91
106 111 93 45 45 21 66 74 48 82 82 57
84 89 61 80 81 56 82 81 56 72 74 46
62 49 31 193 182 170 184 182 180 180 157 132
185 160 133 186 160 133 178 155 129 178 154 127
15 24 0 65 74 48 66 76 50 55 54 29
49 48 35 64 74 48 80 81 56 64 74 48
40 35 22 104 114 81 94 100 69 67 76 49
123 123 99 142 131 106 154 133 106 140 126 96
92 79 59 189 174 159 188 161 133 189 162 135
190 167 145 181 158 131 188 168 145 194 182 169
61 70 45 121 118 117 191 192 192 180 178 175
203 201 199 180 180 181 189 175 162 173 149 121
76 56 40 188 190 191 204 206 207 192 193 193
190 167 145 182 161 139 177 154 128 181 157 132
87 67 50 163 137 109 168 143 119 155 130 101
148 123 89 147 121 88 140 114 82 157 131 99
184 160 137 52 62 39 83 84 58 91 98 66
91 98 66 83 82 57 75 79 53 78 78 68
73 54 37 188 189 191 204 206 207 192 193 193
189 167 144 182 161 139 178 154 128 181 157 131
16 24 2 82 82 57 65 74 48 56 56 30
53 52 27 66 74 49 84 83 58 66 74 49
42 32 9 104 114 81 106 116 83 95 104 72
109 112 83 97 107 75 142 125 102 167 139 116
91 78 58 181 156 128 186 162 136 190 163 136
189 164 139 189 163 137 176 150 124 170 144 116
55 63 41 108 93 82 166 153 138 193 168 144
187 183 183 180 182 183 186 184 181 168 152 138
89 81 60 180 179 179 180 171 161 189 176 164
179 168 154 187 174 160 183 158 132 191 165 140
101 77 61 149 129 95 182 158 132 167 144 115
135 111 79 144 120 88 150 124 99 144 128 104
187 163 138 81 90 62 86 89 61 86 90 61
86 90 61 82 82 57 80 81 56 70 74 62
61 56 35 180 179 179 180 171 161 189 176 164
184 171 158 189 175 161 183 158 132 191 165 140
24 24 23 84 82 58 66 74 48 66 77 51
55 61 38 66 74 49 89 96 65 66 74 49
39 35 25 94 101 69 102 111 78 102 109 77
91 99 66 122 120 96 170 142 119 161 136 109
67 67 44 190 164 138 188 163 137 186 173 160
181 180 179 189 165 142 177 154 128 179 156 132
49 50 48 114 106 98 184 170 156 143 130 104
131 124 96 182 172 163 188 187 187 113 108 86
58 70 43 199 200 200 178 164 150 173 150 122
183 181 180 192 163 136 169 147 121 189 164 139
96 78 57 147 127 105 183 159 133 163 136 108
113 117 88 101 105 77 106 114 83 124 114 90
135 133 130 99 107 73 81 80 56 81 80 56
82 83 57 82 81 57 91 98 66 66 74 49
31 44 8 199 200 200 178 164 150 173 150 122
184 182 181 196 166 139 169 147 121 189 163 138
25 25 23 75 79 54 83 84 62 73 77 52
60 69 45 63 73 47 82 83 57 65 74 48
33 27 14 97 105 73 85 89 60 79 87 58
91 99 67 115 119 91 160 136 113 159 135 109
54 60 46 147 136 110 189 163 138 195 197 199
201 201 201 191 188 185 191 165 139 186 187 187
60 68 44 120 109 100 152 154 146 98 104 78
89 101 68 151 144 128 174 153 127 87 95 62
55 58 46 185 181 181 163 159 155 155 141 116
173 169 156 152 145 116 87 90 63 192 167 139
74 81 54 122 111 82 167 142 115 130 122 90
109 120 86 117 112 78 109 113 80 120 124 96
176 150 128 90 98 68 87 87 62 87 87 62
89 87 62 88 87 61 110 120 87 74 79 66
32 36 20 185 181 179 163 158 153 153 139 114
170 167 156 151 144 115 86 90 63 195 171 143
35 44 15 92 100 68 65 60 47 67 75 51
74 81 56 79 83 57 98 101 71 69 78 53
47 47 45 108 117 85 98 105 72 92 98 67
106 115 82 126 128 100 133 131 106 137 135 121
68 76 53 130 129 104 197 172 145 197 198 200
200 202 204 178 157 134 160 144 118 194 183 170
32 38 27 91 89 87 130 130 125 111 102 95
87 79 53 99 91 64 97 95 79 58 62 39
17 19 23 99 91 66 133 111 90 143 120 99
103 98 74 59 69 38 24 25 0 97 97 86
33 45 20 51 63 36 87 89 63 85 93 70
78 87 59 80 84 53 90 82 52 79 83 55
103 93 67 39 46 17 40 49 21 40 48 21
47 51 25 54 57 33 68 74 45 39 47 16
6 5 8 102 93 72 138 117 101 154 128 107
114 105 76 60 69 39 25 26 0 77 76 63
7 5 0 56 55 39 35 34 6 44 53 25
46 51 23 55 59 34 73 66 43 46 54 26
14 10 6 79 87 56 71 79 53 57 61 36
64 69 40 73 81 54 80 84 60 81 85 64
25 26 9 117 93 74 127 105 84 137 126 116
141 127 115 112 99 75 110 100 85 132 104 79
63 51 46 32 26 13 116 99 75 116 100 85
111 99 88 92 90 76 100 91 81 98 97 94
98 86 73 108 106 91 112 102 90 108 92 79
100 90 76 113 105 91 112 97 72 107 97 86
102 88 70 122 122 121 82 67 44 28 24 12
88 86 84 113 110 96 122 115 105 113 109 95
107 105 91 117 109 98 112 111 108 112 112 108
113 113 109 115 118 119 123 117 109 125 118 106
103 101 100 99 105 102 69 58 45 29 25 15
87 81 71 137 126 115 112 109 93 108 92 70
98 82 63 112 107 97 115 113 99 114 108 95
113 99 72 115 100 75 110 108 94 113 109 95
100 94 88 71 65 53 26 22 9 98 82 58
123 117 109 127 128 127 126 127 126 127 127 125
114 112 112 136 134 134 129 127 127 127 124 121
123 111 99 122 103 78 109 104 94 148 140 133
115 112 109 58 50 41 183 162 139 170 142 118
129 125 98 134 136 114 153 139 132 176 152 135
185 156 130 176 153 136 155 144 121 158 136 111
178 152 130 160 149 138 137 134 108 135 133 105
174 161 148 213 213 213 113 112 114 51 49 46
191 169 147 189 169 148 200 180 161 196 173 150
185 164 142 180 156 133 190 165 143 195 171 148
194 171 147 198 185 173 199 199 199 185 162 140
143 123 96 132 123 92 110 101 78 59 49 36
181 157 135 255 238 221 234 213 195 196 170 143
181 152 124 181 158 136 181 157 136 160 133 120
177 146 125 178 150 127 185 164 141 182 161 138
204 181 158 116 93 78 44 33 7 145 118 94
204 203 203 212 212 212 214 214 214 209 210 212
215 217 219 219 218 217 211 211 211 209 210 211
180 160 137 169 143 112 188 167 143 254 250 246
104 105 105 46 41 29 150 134 119 128 122 110
125 125 110 126 114 89 114 117 90 126 124 107
141 128 103 126 125 112 123 125 112 145 139 129
130 126 111 115 119 100 112 116 89 138 128 106
154 146 136 195 194 194 119 104 91 48 49 50
184 181 178 177 175 171 184 167 151 186 162 138
185 185 185 186 172 156 183 158 132 183 158 132
186 160 134 183 156 128 178 156 131 165 141 111
143 120 89 161 133 103 128 114 104 58 50 40
182 158 131 234 234 233 255 239 224 176 151 126
133 123 96 158 132 107 149 124 99 157 138 111
167 142 118 159 133 110 159 131 109 177 153 126
186 160 134 116 89 68 39 30 6 120 95 75
187 163 138 189 190 190 202 202 202 187 179 170
177 166 154 186 161 136 195 195 195 195 196 197
179 154 127 159 134 109 166 141 116 203 188 172
106 106 106 30 24 9 154 141 130 154 129 115
141 115 98 163 129 110 143 128 116 124 126 113
143 121 98 134 131 125 143 141 141 144 129 123
145 131 118 149 135 119 133 132 134 138 134 132
148 147 144 178 179 180 118 105 94 51 49 46
194 168 144 187 163 139 187 171 155 186 183 181
190 177 165 180 160 138 177 153 127 179 156 130
181 157 131 179 157 131 177 153 127 183 159 134
186 161 136 187 166 145 144 137 131 47 49 50
190 165 139 225 226 227 201 192 181 162 133 113
125 105 73 141 113 87 170 148 121 219 178 149
162 136 113 177 152 128 177 150 127 194 169 144
192 167 141 142 120 101 59 47 26 107 82 66
175 152 125 188 187 186 188 187 187 186 168 149
180 152 121 189 165 140 189 189 189 190 186 182
191 166 140 161 136 109 164 138 115 187 160 133
106 106 106 16 17 20 167 159 151 158 147 136
112 115 84 142 128 103 162 142 119 147 135 128
169 142 118 148 135 125 159 136 115 123 119 93
159 131 113 155 137 123 127 127 115 110 118 91
147 136 125 185 182 180 117 107 97 56 49 42
139 134 104 145 130 106 186 163 143 183 161 137
176 151 123 172 148 121 183 159 133 190 164 139
190 165 139 190 165 139 187 162 136 188 163 137
187 162 136 186 172 157 143 135 127 48 49 50
180 156 130 214 211 208 182 165 149 172 145 121
158 126 103 157 132 107 183 159 133 165 143 118
174 148 123 189 163 137 184 160 134 171 146 116
175 150 125 133 119 106 75 58 41 110 85 69
178 151 125 190 165 139 179 181 183 185 172 160
187 174 162 181 180 178 179 179 180 182 173 164
189 164 138 171 148 122 171 148 122 190 165 141
106 106 106 28 28 27 180 173 166 171 156 140
132 130 117 126 127 113 128 126 110 137 133 128
168 147 122 171 149 123 136 133 131 147 135 109
150 135 122 143 129 108 123 122 96 145 131 105
169 139 112 163 149 134 129 98 76 49 49 49
122 111 88 113 92 74 161 130 110 170 147 120
171 148 122 171 147 121 176 152 126 189 163 138
180 156 130 172 147 123 173 150 124 183 159 133
189 164 138 190 163 136 124 113 103 56 49 41
178 154 128 207 194 182 194 171 148 186 164 140
208 196 184 222 222 222 190 163 136 171 146 121
176 155 134 182 161 138 177 152 127 164 140 110
172 147 123 131 104 80 64 49 32 120 95 76
180 166 152 185 171 157 186 173 160 184 177 170
179 181 183 180 181 181 182 180 178 185 174 163
190 164 139 166 140 116 173 150 123 190 163 135
106 106 106 26 26 26 181 172 161 191 163 134
165 141 120 165 139 118 129 128 118 162 138 116
137 133 130 150 140 128 144 146 149 186 163 141
168 145 121 138 125 113 122 122 95 146 131 109
149 136 124 149 139 130 84 77 57 44 37 15
108 83 58 123 97 65 171 147 122 169 145 120
164 138 115 169 144 119 179 155 129 172 149 123
163 138 114 166 141 115 171 147 120 180 156 130
173 150 124 168 144 120 134 104 78 50 49 48
177 153 127 194 170 146 193 178 162 200 196 191
214 213 212 214 211 208 194 180 166 174 151 124
180 164 148 187 173 159 186 162 136 180 157 131
184 158 130 129 102 78 63 48 30 111 86 69
171 150 128 189 165 142 188 160 133 190 173 156
181 181 181 181 180 180 188 165 142 191 162 133
190 164 139 188 163 137 188 163 137 185 173 160
106 106 106 20 20 20 193 195 196 186 172 159
171 147 124 160 137 116 155 124 109 160 137 117
159 137 119 144 133 124 165 152 138 182 168 153
156 145 134 135 124 109 129 129 116 136 139 138
142 146 149 132 133 134 66 75 48 44 43 42
84 69 35 109 90 55 177 154 127 189 164 137
167 143 118 171 148 121 172 148 121 173 149 121
173 149 123 173 153 130 175 155 132 192 165 139
190 164 139 167 142 118 122 106 92 57 49 41
179 155 129 185 170 156 175 160 147 190 180 169
196 184 172 184 173 161 184 162 140 175 150 121
194 178 163 177 150 124 163 139 113 177 154 128
193 179 165 126 113 102 63 52 30 110 86 68
185 157 132 186 170 154 183 159 133 191 164 138
180 180 178 180 182 184 186 184 182 186 170 154
188 162 136 177 154 127 191 166 141 181 181 182
106 106 106 17 17 17 159 159 158 187 163 138
144 143 140 150 136 122 165 138 114 152 138 124
145 133 120 168 139 114 181 159 134 190 165 140
162 153 142 153 135 121 140 140 144 143 142 141
164 153 140 159 158 158 108 87 72 50 50 50
88 84 55 105 95 70 188 161 135 191 166 142
185 160 134 181 156 130 188 166 144 188 166 145
188 162 137 182 169 155 185 172 159 188 165 141
182 158 131 173 151 125 114 105 97 66 50 32
184 159 133 188 164 140 191 193 195 206 208 210
205 207 209 180 182 184 190 165 140 176 151 126
195 173 151 186 162 136 146 122 90 146 121 88
171 150 123 122 98 79 62 50 29 82 64 43
175 146 124 188 170 152 182 158 132 150 125 97
160 131 113 185 172 159 195 196 196 183 176 169
185 164 142 170 147 121 168 144 115 188 164 139
106 106 106 16 16 16 174 174 174 173 162 150
171 147 123 173 149 125 169 144 120 164 133 112
148 132 107 163 137 115 181 167 153 177 175 173
192 164 136 168 147 123 128 127 115 163 135 115
179 178 176 178 179 179 94 84 74 49 49 49
116 101 67 161 126 109 221 183 157 184 183 182
191 167 143 191 165 140 184 169 155 184 169 153
174 151 125 182 154 125 180 179 177 186 179 175
186 162 137 176 151 123 108 108 107 49 49 48
187 163 140 190 176 162 198 198 198 200 199 198
184 182 181 181 180 178 182 179 176 186 162 139
172 147 121 174 150 124 175 152 125 149 124 96
158 135 107 114 102 94 82 64 48 105 81 65
192 167 141 190 173 156 158 128 109 119 95 61
161 129 111 192 165 137 178 177 176 185 173 162
178 165 150 167 143 118 165 141 115 185 161 134
106 107 107 25 25 25 208 208 208 176 166 154
142 131 106 127 125 112 157 133 109 174 149 120
175 150 123 167 143 119 170 147 120 188 163 137
191 166 141 149 136 124 113 117 87 139 123 101
185 173 161 184 181 178 89 78 56 49 47 46
128 114 86 144 127 105 184 164 142 185 183 183
187 185 182 189 164 138 170 144 118 179 162 144
189 162 136 191 178 166 232 221 214 249 215 197
185 186 186 187 175 162 160 136 115 49 49 49
208 204 200 220 222 226 196 193 194 168 139 117
167 145 117 176 153 129 188 164 140 180 177 174
160 137 112 168 138 119 180 155 130 167 140 119
189 185 183 152 150 148 83 65 49 106 82 65
189 163 138 189 174 158 160 129 110 134 110 77
157 134 106 177 151 129 189 165 141 189 162 133
169 144 117 169 145 121 174 151 124 190 165 139
104 99 99 21 21 21 180 181 182 182 158 132
136 128 103 96 107 73 111 113 85 147 136 126
164 143 121 174 150 122 162 162 162 187 172 158
180 155 129 117 119 88 89 99 66 106 116 84
168 142 115 171 156 142 111 85 70 71 58 45
126 125 101 162 141 116 184 170 155 186 163 137
185 162 138 190 164 138 192 166 140 185 175 165
186 170 153 184 186 188 206 204 203 214 216 217
229 210 202 190 192 194 133 132 130 49 49 49
224 217 210 153 156 142 149 121 96 183 168 150
175 151 124 161 136 108 163 140 114 178 159 137
142 112 77 167 135 112 151 119 101 148 120 96
190 167 145 146 136 128 83 65 48 108 82 65
191 166 141 189 168 146 163 138 115 137 111 80
100 82 48 149 119 94 190 164 138 173 149 125
159 131 111 159 135 106 168 143 119 189 164 138
83 80 59 16 16 16 163 160 156 160 151 140
135 127 103 119 113 85 124 124 99 138 126 119
147 134 121 151 134 121 164 161 159 181 160 136
163 139 117 112 118 89 113 118 89 113 120 90
122 123 98 148 136 125 125 100 78 84 72 61
146 131 107 166 139 116 182 158 131 187 164 139
192 165 140 174 155 132 175 154 132 189 164 139
188 179 169 180 180 179 182 172 162 186 173 161
196 175 156 184 184 184 126 126 126 49 49 49
210 211 212 199 197 191 181 165 146 192 175 156
184 160 134 187 163 136 176 172 166 188 183 177
219 196 185 189 180 168 165 137 108 178 152 123
189 187 185 138 127 111 83 65 48 84 78 54
182 155 127 190 163 137 183 159 132 160 130 109
113 83 49 90 71 40 110 88 64 147 123 95
183 159 133 163 139 110 161 135 113 189 164 138
86 77 56 16 16 16 150 139 130 158 143 129
139 128 104 127 118 95 127 122 98 131 122 97
126 123 95 140 125 119 151 136 123 173 151 127
144 141 138 124 123 99 107 115 83 109 102 77
116 112 83 159 140 122 121 99 81 63 55 47
141 129 105 176 153 127 190 188 187 182 180 177
182 157 130 153 138 123 155 141 125 185 172 158
188 189 189 189 188 188 180 174 167 191 161 132
187 174 159 189 189 189 140 141 142 49 49 49
218 217 217 249 241 234 207 198 189 184 168 154
189 163 138 190 162 134 190 180 168 193 182 171
184 178 171 196 185 175 198 184 170 191 176 162
189 189 189 149 124 100 85 67 50 102 81 64
187 175 163 190 164 139 165 138 116 140 120 88
145 117 96 92 73 50 71 70 41 144 119 93
178 152 127 161 137 109 177 150 125 191 166 140
91 80 59 16 16 16 124 126 115 115 117 87
101 115 82 126 116 91 139 124 103 141 122 103
128 127 114 169 148 125 164 153 142 152 142 132
155 129 110 106 115 83 91 99 67 115 89 73
141 119 100 153 139 125 102 88 80 62 56 49
159 136 113 189 161 133 179 181 183 184 162 139
164 143 122 156 141 126 156 142 126 180 182 185
196 197 199 187 189 191 180 168 157 186 172 158
189 193 198 211 211 211 154 144 135 49 49 49
227 228 229 232 235 237 225 226 227 162 136 107
166 140 117 193 182 170 208 211 215 206 210 214
194 177 160 176 148 121 179 157 136 188 170 151
188 189 189 131 117 105 74 58 40 108 82 65
190 189 188 190 164 139 149 120 96 145 132 105
177 150 127 162 136 109 152 131 97 159 131 106
155 130 99 156 128 102 145 136 110 180 156 130
56 68 44 15 15 15 104 115 80 97 107 74
121 110 82 125 122 98 113 117 88 137 122 101
171 149 127 192 166 139 177 155 132 151 136 121
126 121 97 105 115 82 106 116 83 108 115 84
162 131 112 177 152 124 117 91 73 89 68 48
187 162 137 186 175 165 181 170 159 189 161 132
158 142 127 153 131 107 162 137 117 182 179 177
191 178 166 186 174 162 189 164 138 187 165 143
188 175 161 190 190 190 147 132 119 49 49 49
202 193 183 245 234 225 220 223 224 172 149 121
189 163 138 196 189 182 201 188 174 189 176 163
188 162 135 171 148 122 180 155 128 191 176 161
190 188 187 131 104 79 64 49 31 97 81 59
185 172 158 189 163 137 186 172 158 180 156 130
179 156 129 165 140 117 155 130 98 156 131 101
160 135 106 146 121 91 113 105 74 163 138 114
49 49 48 21 22 23 117 117 87 104 115 82
121 110 83 120 112 84 128 115 90 165 143 118
188 162 133 185 161 135 174 150 123 161 129 109
128 107 82 103 113 80 97 105 73 113 119 89
164 139 116 169 146 121 112 89 72 66 57 48
179 151 124 175 165 152 179 175 170 185 174 163
185 171 156 174 152 129 143 131 109 164 145 124
190 163 135 185 184 183 185 173 162 176 151 124
174 149 121 181 181 180 143 140 138 49 49 49
215 192 179 253 234 218 236 213 202 181 160 138
184 160 134 174 156 142 177 150 123 175 148 121
183 158 133 187 162 137 174 150 126 177 150 124
182 159 135 130 105 82 63 49 30 88 78 58
189 168 147 193 169 146 172 152 130 159 134 107
159 130 110 159 128 109 159 134 105 162 131 110
154 128 97 149 124 90 158 123 105 164 137 111
49 49 49 21 17 11 153 138 131 118 120 89
100 115 81 117 121 95 159 138 114 171 148 122
154 145 131 167 144 119 166 139 116 160 130 110
116 118 90 98 108 75 98 106 74 104 115 81
115 120 91 124 122 97 67 76 50 45 48 50
151 140 131 158 139 124 176 152 129 185 174 163
189 191 193 184 170 157 143 131 119 147 131 120
170 146 122 178 168 155 184 173 162 179 155 129
172 149 124 185 187 190 151 151 152 49 49 49
236 210 200 243 235 226 222 216 212 187 173 159
165 140 116 161 132 109 185 160 136 184 161 136
174 150 125 182 155 127 179 152 124 182 158 133
182 158 131 108 83 66 58 46 25 112 83 67
188 184 181 198 196 193 188 163 137 175 150 124
177 150 127 162 131 112 129 108 76 108 96 66
119 95 70 109 94 61 121 96 64 137 110 86
50 50 49 12 7 4 167 160 152 150 136 122
118 120 89 119 120 91 127 124 99 126 124 99
125 112 90 116 116 88 147 131 107 156 131 114
124 123 99 107 114 83 100 108 76 95 102 70
113 110 80 122 124 99 73 70 48 55 50 43
161 151 140 141 128 110 139 123 101 176 150 121
180 182 184 191 162 134 164 132 111 165 134 111
179 151 127 188 161 132 177 154 129 162 137 114
157 128 109 175 161 145 134 134 134 49 49 49
239 216 200 255 239 219 223 224 225 190 162 134
189 164 138 182 159 133 168 141 113 177 150 122
190 165 139 190 177 164 191 178 165 191 166 140
180 157 131 105 81 64 66 50 33 88 78 57
164 141 119 172 150 126 191 163 136 192 166 139
187 162 135 186 161 135 158 143 118 117 98 65
103 81 46 100 90 62 102 96 64 77 57 31
45 44 46 38 41 29 184 168 152 163 147 128
152 136 125 152 136 124 164 138 115 120 121 96
125 112 82 139 119 94 155 135 115 152 134 123
124 123 99 113 92 74 88 95 63 91 99 67
121 116 90 126 115 90 68 74 49 61 50 37
172 149 121 82 92 62 104 116 83 169 145 121
175 162 149 163 149 133 172 149 122 162 142 120
151 138 110 176 152 129 185 171 157 180 155 129
177 148 123 175 164 151 108 108 108 49 49 49
248 234 222 242 234 226 218 218 217 185 170 154
182 158 132 191 165 140 208 198 187 210 199 189
189 164 138 188 191 193 188 190 191 189 164 138
177 154 128 111 86 69 65 50 32 101 81 63
180 155 128 189 162 135 185 171 157 189 167 145
174 149 120 178 153 128 195 167 142 176 150 126
128 102 72 147 115 90 183 161 135 174 148 122
51 56 44 33 28 13 194 165 135 164 148 130
139 129 105 137 129 107 144 131 107 142 130 106
142 132 111 149 135 112 147 134 122 144 130 103
114 119 90 107 114 82 97 106 73 99 108 75
118 111 83 107 114 81 64 70 46 58 49 39
142 132 108 76 86 57 124 122 97 184 160 133
183 156 128 159 149 138 179 158 134 153 142 129
120 124 113 135 133 132 186 160 134 174 151 126
151 139 127 183 172 160 113 113 113 48 49 49
235 224 215 232 231 230 213 212 212 188 179 170
187 162 136 189 164 138 209 198 188 209 198 187
190 165 140 189 188 186 189 191 193 191 165 140
174 149 124 135 108 85 65 50 32 107 81 65
192 166 141 190 168 146 188 166 144 189 175 161
191 166 141 191 165 140 189 164 138 157 133 105
156 127 103 173 149 123 182 157 131 186 163 137
68 74 48 13 9 7 165 156 145 160 149 136
126 127 116 139 128 103 120 121 96 125 125 99
153 149 146 147 147 147 131 125 99 111 118 90
105 115 82 122 123 97 115 120 91 99 107 75
89 99 66 85 91 62 68 64 45 47 49 52
131 113 90 106 103 76 167 143 117 184 162 138
182 160 135 186 162 139 182 177 172 182 179 176
172 158 147 156 158 160 163 163 162 146 146 146
128 128 130 183 166 149 111 112 113 51 49 47
233 206 197 240 233 227 211 214 215 189 189 188
189 166 142 189 164 138 186 158 130 186 158 130
187 162 136 186 161 134 188 173 158 185 162 134
180 155 131 113 91 67 65 50 32 108 84 67
183 159 133 176 163 149 191 164 138 190 162 135
190 165 139 191 165 140 188 163 137 149 121 99
143 121 90 185 161 135 183 160 133 154 130 100
73 69 49 16 10 2 162 149 139 154 145 136
127 127 117 128 125 100 124 123 98 141 122 102
161 130 113 147 134 123 147 132 108 126 124 99
122 122 97 123 123 98 125 123 99 123 124 98
102 110 77 66 74 49 44 46 44 49 46 36
166 140 122 136 124 98 180 159 135 178 176 173
180 180 179 192 167 141 185 173 162 174 177 178
182 156 129 181 169 157 187 187 187 166 155 143
161 131 111 180 161 140 135 132 129 56 49 41
245 237 195 241 235 228 230 210 202 191 166 142
182 179 176 191 165 140 191 166 142 169 145 120
164 137 107 161 149 136 198 183 168 210 168 157
176 149 122 92 75 60 65 50 32 124 98 78
174 148 124 171 147 119 183 158 133 190 165 140
183 158 133 181 156 130 166 140 116 125 104 75
109 88 56 155 127 104 181 156 131 157 134 102
116 93 71 16 16 15 133 123 93 109 109 79
107 116 81 126 122 98 123 121 97 139 122 102
140 121 101 161 130 109 135 127 103 119 121 96
123 123 98 123 123 98 120 121 95 123 122 98
106 116 83 83 80 56 40 40 42 47 44 32
191 179 164 199 169 144 215 202 192 218 185 164
199 194 193 212 213 213 187 191 195 188 182 179
155 155 154 155 154 153 193 194 195 195 193 192
186 170 152 183 180 178 136 124 113 48 49 51
238 223 201 255 224 201 196 174 156 182 158 132
187 163 140 183 159 133 183 157 129 178 155 131
180 168 156 209 211 213 223 226 229 198 178 168
199 186 174 139 123 111 65 50 32 77 71 48
155 121 105 170 145 118 179 155 129 165 141 112
148 123 95 148 124 92 163 137 114 161 141 116
142 114 89 145 114 92 163 134 114 152 124 101
133 115 100 15 15 15 77 89 59 84 86 58
97 107 75 139 122 101 161 131 111 138 121 101
117 122 96 122 124 98 142 130 105 144 131 106
122 122 97 122 122 97 114 118 90 122 122 97
103 113 79 73 70 48 55 48 41 58 49 36
174 147 118 129 125 96 195 165 140 193 187 184
207 172 149 182 168 157 191 176 163 231 205 193
213 212 211 191 178 165 167 158 150 173 163 151
181 174 167 187 188 189 122 126 129 50 49 45
254 220 196 255 217 195 186 173 159 172 146 120
169 144 118 179 155 129 178 164 149 175 173 172
208 209 210 223 223 222 219 215 212 183 155 124
205 206 208 166 140 116 66 50 33 33 29 8
156 122 106 128 118 90 166 142 117 161 135 111
160 136 110 171 148 121 179 155 129 133 123 91
116 97 63 150 120 98 170 146 121 170 146 120
115 108 101 24 24 24 98 106 73 78 74 52
59 60 37 122 102 80 148 135 110 148 127 107
143 126 106 142 126 105 167 136 116 166 135 116
128 127 102 128 127 102 129 127 103 126 126 100
118 125 95 72 78 51 45 44 38 59 50 41
180 168 154 95 89 55 129 124 95 179 158 133
173 150 124 145 125 102 142 130 101 152 144 122
183 158 135 181 162 146 166 149 133 177 150 122
187 175 163 191 190 187 123 109 98 33 28 16
222 221 220 234 217 203 194 196 199 191 177 163
185 162 135 196 170 145 192 174 155 209 211 213
216 219 222 229 231 233 200 181 162 214 203 193
210 212 213 151 152 153 62 47 30 81 67 57
158 124 108 126 115 89 169 141 119 180 156 130
181 156 131 181 158 131 174 150 125 161 134 100
139 114 81 156 123 103 169 143 119 154 130 100
117 105 95 32 32 32 96 105 73 71 78 52
67 70 56 74 79 53 78 89 61 86 94 69
99 98 74 99 98 74 95 97 73 95 97 73
94 98 73 94 98 73 94 98 73 82 90 62
76 74 47 72 61 52 51 55 45 43 45 46
161 139 118 118 90 65 95 89 64 124 101 81
130 110 88 131 110 90 88 96 70 90 95 69
133 107 87 111 107 86 113 88 70 112 88 71
122 98 71 127 108 88 89 67 47 43 35 14
188 188 189 192 183 178 156 156 155 159 137 116
160 134 110 160 135 110 161 145 132 169 156 144
179 155 134 177 164 152 178 152 130 180 169 159
171 160 147 127 115 107 86 66 49 103 80 63
144 114 94 112 85 61 120 95 78 147 122 101
153 128 106 151 126 105 150 125 101 123 99 74
100 83 55 109 87 63 139 115 94 132 107 87
