P3
16 16
255
0 0 0 0 0 0 0 0 0 0 0 0 0 0 0 0 0 0 0 0 0 0 0 0 0 0 0 0 0 0 0 0 0
0 0 0 0 0 0 0 0 0 0 0 0 0 0 0 0 0 0 0 0 0 0 0 0 0 0 0 0 0 0 0 0 0
181 49 32 181 49 32 181 49 32 181 49 32 181 49 32 0 0 0 0 0 0 0 0 0
0 0 0 0 0 0 0 0 0 0 0 0 0 0 0 0 0 0 0 0 0 181 49 32 181 49 32
181 49 32 181 49 32 181 49 32 181 49 32 181 49 32 181 49 32 181 49 32
0 0 0 0 0 0 0 0 0 0 0 0 0 0 0 0 0 0 0 0 0 107 109 0 107 109 0
107 109 0 234 158 34 234 158 34 107 109 0 234 158 34 0 0 0 0 0 0
0 0 0 0 0 0 0 0 0 0 0 0 0 0 0 0 0 0 107 109 0 234 158 34 107 109 0
234 158 34 234 158 34 234 158 34 107 109 0 234 158 34 234 158 34
234 158 34 0 0 0 0 0 0 0 0 0 0 0 0 0 0 0 0 0 0 107 109 0 234 158 34
107 109 0 107 109 0 234 158 34 234 158 34 234 158 34 107 109 0
234 158 34 234 158 34 234 158 34 0 0 0 0 0 0 0 0 0 0 0 0 0 0 0
107 109 0 107 109 0 234 158 34 234 158 34 234 158 34 234 158 34
107 109 0 107 109 0 107 109 0 107 109 0 0 0 0 0 0 0 0 0 0 0 0 0 0 0 0
0 0 0 0 0 0 0 0 0 234 158 34 234 158 34 234 158 34 234 158 34
234 158 34 234 158 34 234 158 34 0 0 0 0 0 0 0 0 0 0 0 0 0 0 0 0 0 0
0 0 0 0 0 0 107 109 0 107 109 0 107 109 0 107 109 0 181 49 32
107 109 0 0 0 0 234 158 34 0 0 0 0 0 0 0 0 0 0 0 0 0 0 0 0 0 0 0 0 0
234 158 34 107 109 0 107 109 0 107 109 0 107 109 0 107 109 0
107 109 0 234 158 34 234 158 34 234 158 34 0 0 0 0 0 0 0 0 0 0 0 0
0 0 0 234 158 34 234 158 34 181 49 32 107 109 0 107 109 0 107 109 0
107 109 0 107 109 0 234 158 34 234 158 34 0 0 0 0 0 0 0 0 0 0 0 0
0 0 0 0 0 0 107 109 0 107 109 0 181 49 32 181 49 32 181 49 32
181 49 32 181 49 32 181 49 32 181 49 32 0 0 0 0 0 0 0 0 0 0 0 0 0 0 0
0 0 0 0 0 0 107 109 0 181 49 32 181 49 32 181 49 32 181 49 32
181 49 32 181 49 32 181 49 32 181 49 32 0 0 0 0 0 0 0 0 0 0 0 0 0 0 0
0 0 0 107 109 0 107 109 0 181 49 32 181 49 32 181 49 32 0 0 0
181 49 32 181 49 32 181 49 32 0 0 0 0 0 0 0 0 0 0 0 0 0 0 0 0 0 0
0 0 0 107 109 0 0 0 0 0 0 0 0 0 0 0 0 0 107 109 0 107 109 0 107 109 0
0 0 0 0 0 0 0 0 0 0 0 0 0 0 0 0 0 0 0 0 0 0 0 0 0 0 0 0 0 0 0 0 0
0 0 0 0 0 0 107 109 0 107 109 0 107 109 0 107 109 0 0 0 0 0 0 0 0 0 0
0 0 0 0 0 0
