P3
64 64
255
189 74 40 189 74 40 189 74 40 189 74 40 189 74 40 189 74 40 189 74 40
189 74 40 189 74 40 189 75 40 189 74 40 186 69 34 186 69 34 189 74 40
189 75 40 189 74 40 189 74 40 189 74 40 189 74 40 189 74 40 189 74 40
189 74 40 189 74 40 189 74 40 189 74 40 189 74 40 189 74 40 189 74 40
189 74 40 189 74 40 189 74 40 189 74 40 189 74 40 189 74 40 189 74 40
189 74 40 189 74 40 189 74 40 189 74 40 189 74 40 189 74 40 189 74 40
189 74 40 189 74 40 189 74 40 189 74 40 189 74 40 189 74 40 189 74 40
189 75 40 189 74 40 186 69 34 186 69 34 189 74 40 189 75 40 189 74 40
189 74 40 189 74 40 189 74 40 189 74 40 189 74 40 189 74 40 189 74 40
189 74 40 227 139 111 227 139 111 227 139 111 227 139 111 227 139 111
227 139 111 227 139 111 227 139 111 227 139 110 228 140 112
225 135 106 188 73 38 188 73 38 225 135 106 228 140 112 227 139 110
227 139 111 227 139 111 227 139 111 227 139 111 227 139 111
227 139 111 227 139 111 227 139 111 227 139 111 227 139 111
227 139 111 227 139 111 227 139 111 227 139 111 227 139 111
227 139 111 227 139 111 227 139 111 227 139 111 227 139 111
227 139 111 227 139 111 227 139 111 227 139 111 227 139 111
227 139 111 227 139 111 227 139 111 227 139 111 227 139 111
227 139 111 227 139 111 227 139 110 228 140 111 225 134 105 188 73 38
188 73 38 225 135 106 228 140 112 227 139 110 227 139 111 227 139 111
227 139 111 227 139 111 227 139 111 227 139 111 227 139 111
227 139 111 232 145 116 232 145 116 232 145 116 232 145 116
232 145 116 232 145 116 232 145 116 232 145 116 231 144 116
232 146 118 229 140 111 188 73 38 188 73 38 229 140 111 232 146 118
231 144 116 232 145 116 232 145 116 232 145 116 232 145 116
232 145 116 232 145 116 232 145 116 232 145 116 232 145 116
232 145 116 232 145 116 232 145 116 232 145 116 232 145 116
232 145 116 232 145 116 232 145 116 232 145 116 232 145 116
232 145 116 232 145 116 232 145 116 232 145 116 232 145 116
232 145 116 232 145 116 232 145 116 232 145 116 232 145 116
232 145 116 232 145 116 232 145 116 231 145 116 233 148 120
229 142 113 188 73 38 188 73 38 229 140 111 232 146 118 231 144 116
232 145 116 232 145 116 232 145 116 232 145 116 232 145 116
232 145 116 232 145 116 232 145 116 226 120 86 226 120 86 226 120 86
226 120 86 226 120 86 226 120 86 226 120 86 226 120 86 226 120 86
227 121 87 224 117 82 188 72 37 188 72 37 224 117 82 227 121 87
226 120 85 226 120 86 226 120 86 226 120 86 226 120 86 226 120 86
226 120 86 226 120 86 226 120 86 226 120 86 226 120 86 226 120 86
226 120 86 226 120 86 226 120 86 226 120 86 226 120 86 226 120 86
226 120 86 226 120 86 226 120 86 226 120 86 226 120 86 226 120 86
226 120 86 226 120 86 226 120 86 226 120 86 226 120 86 226 120 86
226 120 86 226 120 86 226 119 84 226 121 87 231 144 116 228 140 112
188 73 39 188 71 36 224 117 83 227 121 87 226 120 85 226 120 86
226 120 86 226 120 86 226 120 86 226 120 86 226 120 86 226 120 86
226 120 86 225 115 79 225 115 79 225 115 79 225 115 79 225 115 79
225 115 79 225 115 79 225 115 79 225 114 78 226 116 80 223 112 77
188 71 36 188 71 36 223 112 77 226 116 80 225 115 79 225 115 79
225 115 79 225 115 79 225 115 79 225 115 79 225 115 79 225 115 79
225 115 79 225 115 79 225 115 79 225 115 79 225 115 79 225 115 79
225 115 79 225 115 79 225 115 79 225 115 79 225 115 79 225 115 79
225 115 79 225 115 79 225 115 79 225 115 79 225 115 79 225 115 79
225 115 79 225 115 79 225 115 80 225 115 80 225 115 79 225 115 80
226 117 82 226 119 84 231 144 116 228 141 112 188 73 39 188 71 36
223 112 77 226 116 80 225 115 79 225 115 79 225 115 79 225 115 79
225 115 79 225 115 79 225 115 79 225 115 79 225 115 79 220 87 43
220 89 46 220 87 43 219 86 43 220 86 43 220 86 43 219 86 43 220 87 43
220 89 46 220 87 44 217 85 42 188 70 34 188 70 34 217 85 43 220 87 43
219 86 43 219 86 43 220 86 43 219 86 43 220 87 43 220 89 46 220 87 43
219 86 43 220 86 43 220 86 43 219 86 43 220 87 43 220 89 46 220 87 43
219 86 43 220 86 43 219 86 43 219 86 43 220 86 43 219 86 43 220 87 43
220 89 46 220 87 43 219 86 43 220 86 43 219 86 43 220 86 43 219 86 43
219 86 42 220 87 43 219 86 42 220 89 46 225 115 80 226 120 86
231 144 116 228 140 112 188 74 39 187 69 33 217 86 43 220 87 43
219 86 42 219 86 43 220 86 43 220 86 43 219 86 43 220 87 43 220 89 46
220 87 43 219 86 43 219 86 43 224 108 71 219 86 42 219 83 38
219 84 40 219 84 39 219 83 38 219 86 42 224 109 71 220 86 43
217 82 38 188 70 34 188 70 34 217 82 39 219 84 39 219 83 39 219 84 39
219 84 39 219 83 38 219 86 42 224 109 71 219 86 42 219 83 38
219 84 40 219 84 39 219 83 38 219 86 42 224 109 71 219 86 42
219 83 38 219 84 39 219 84 39 219 83 39 219 84 39 219 83 38 219 86 42
224 109 71 219 86 42 219 83 38 219 84 40 219 83 39 219 83 39
219 84 40 219 86 42 219 84 40 219 83 38 219 86 42 225 115 79
226 120 86 231 144 116 228 140 112 188 74 39 187 69 33 217 83 39
220 84 40 219 86 42 219 84 40 219 83 39 219 84 40 219 83 38 219 86 42
224 109 71 219 86 42 219 83 38 219 84 41 220 87 43 219 84 41
219 84 40 219 84 39 219 84 40 219 84 40 219 84 41 219 87 43 220 85 41
217 83 40 188 70 34 188 70 34 217 83 40 220 84 40 219 84 40 219 84 39
219 84 40 219 84 40 219 84 41 220 87 43 219 84 41 219 84 40 219 84 39
219 84 40 219 84 40 219 84 41 220 87 43 219 84 41 219 84 40 219 84 40
219 84 39 219 84 40 219 84 40 219 84 40 219 84 41 220 87 43 219 84 41
219 84 40 219 84 39 219 84 40 219 84 39 220 87 43 224 110 72
220 87 44 219 83 39 220 87 43 225 115 79 226 120 86 231 144 116
228 140 112 188 74 39 187 69 33 217 83 39 220 87 43 224 109 72
220 87 43 219 83 39 219 84 40 219 84 40 219 84 41 220 87 43 219 84 41
219 84 40 219 84 40 219 83 39 219 84 40 219 84 40 220 87 43 219 84 40
219 84 40 219 84 40 219 83 39 220 84 40 217 83 40 188 70 34 188 70 34
217 83 40 220 84 40 219 84 40 220 87 43 219 84 40 219 84 40 219 84 40
219 83 39 219 84 40 219 84 40 220 87 43 219 84 40 219 84 40 219 84 40
219 83 39 219 84 40 219 84 40 219 84 40 220 87 43 219 84 40 219 84 40
219 84 40 219 84 40 219 83 39 219 84 40 219 84 40 220 87 43 219 84 40
219 84 40 219 84 40 220 87 43 219 84 41 219 83 39 220 86 43
225 115 79 226 120 86 231 144 116 228 140 112 188 74 39 187 69 33
217 83 40 220 85 40 219 86 43 219 84 40 219 84 40 220 87 43 219 84 40
219 84 40 219 83 39 219 84 40 219 84 40 219 84 40 219 84 40 219 83 39
220 87 43 224 109 72 220 87 43 219 83 39 219 83 39 219 84 40
220 84 40 217 83 40 188 70 34 188 70 34 217 83 40 219 84 39 219 86 43
224 109 72 220 87 43 219 83 39 219 83 39 219 84 40 219 83 39
220 87 43 224 109 72 220 87 43 219 83 39 219 84 40 219 84 40
219 84 40 219 83 39 220 87 43 224 109 72 220 87 43 219 83 39
219 84 40 219 83 39 219 84 40 219 83 39 220 87 43 224 109 72
220 87 43 219 83 39 219 84 40 219 83 39 219 84 40 219 83 39 219 86 43
225 115 79 226 120 86 231 144 116 228 140 112 188 74 39 187 69 33
217 83 40 220 84 40 219 83 39 219 83 39 220 87 43 224 109 72
220 87 43 219 83 39 219 84 41 219 84 40 219 84 40 219 84 40 219 83 39
219 84 40 219 84 40 220 87 43 219 84 40 219 84 40 220 87 43 219 84 40
220 84 40 217 83 40 188 70 34 188 70 34 217 83 40 220 84 40 219 84 40
220 87 43 219 84 40 219 84 40 220 87 43 219 84 40 219 84 40 219 84 40
220 87 43 219 84 40 219 84 40 219 84 40 219 83 39 219 84 40 219 84 40
219 84 40 220 87 43 219 84 40 219 84 40 219 84 40 220 87 43 219 84 40
219 84 40 219 84 40 220 87 43 219 84 40 219 84 40 219 84 40 219 84 40
219 84 40 219 83 39 219 86 43 225 115 79 226 120 86 231 144 116
228 140 112 188 74 39 187 69 33 217 83 40 219 84 39 219 84 40
219 84 40 219 84 40 220 87 43 219 84 40 219 84 40 219 83 39 219 84 40
219 84 40 219 84 40 220 86 43 219 84 40 219 84 40 219 83 39 219 83 39
220 87 43 224 109 72 219 86 43 219 84 39 217 83 40 188 70 34
188 70 34 217 83 40 220 84 40 219 84 40 219 83 39 219 83 39 220 87 43
224 109 72 220 87 43 219 83 39 219 84 40 219 83 39 219 84 40
219 84 40 219 84 40 220 87 43 219 84 40 219 84 40 219 84 40 219 83 39
219 84 40 219 83 39 220 87 43 224 109 72 220 87 43 219 83 39
219 84 40 219 83 39 219 84 40 219 84 40 219 84 40 219 83 39 219 84 40
219 83 39 219 86 43 225 115 79 226 120 86 231 144 116 228 140 112
188 74 39 187 69 33 217 84 40 220 87 43 219 84 40 219 84 40 219 84 40
219 83 39 219 84 40 219 84 40 220 87 43 219 84 40 219 84 40 219 87 43
224 109 72 219 86 43 219 83 39 219 84 40 219 84 40 219 84 40
219 86 43 219 84 40 219 84 40 217 83 40 188 70 34 188 70 34 217 83 40
219 84 40 219 84 40 219 84 40 219 84 40 219 84 40 219 86 43 219 84 40
219 84 40 219 84 40 219 84 40 219 84 40 219 83 39 219 86 43
224 109 72 219 86 43 219 83 39 219 84 40 219 84 40 219 84 40
219 84 40 219 84 40 219 86 43 219 84 40 219 84 40 219 84 40 219 84 40
219 84 40 219 84 40 219 84 40 219 86 43 219 84 40 219 83 39 219 86 43
225 115 79 226 120 85 231 144 116 228 140 112 188 74 40 187 68 32
217 86 43 225 110 72 219 86 43 219 83 39 219 84 40 219 84 40
219 83 39 219 86 43 224 109 72 219 86 43 219 83 39 220 85 40
220 87 43 220 85 40 220 84 40 220 84 40 220 84 40 220 84 40 219 84 39
219 84 40 220 85 40 217 83 40 188 70 34 188 70 34 217 83 40 220 85 40
219 84 40 220 84 40 220 84 40 220 84 40 219 84 39 220 84 40 220 84 40
220 84 40 220 84 40 220 84 40 220 84 40 220 85 40 220 87 43 220 85 40
220 84 40 220 84 40 220 84 40 220 84 40 220 84 40 220 84 40 219 84 39
220 84 40 220 84 40 220 84 40 220 84 40 220 84 40 219 84 39 220 87 43
225 110 72 220 87 43 219 83 39 220 87 43 226 116 80 227 121 87
232 146 117 229 142 113 189 74 40 187 69 33 218 84 40 221 87 43
219 84 40 220 84 40 220 84 40 220 84 40 220 84 40 220 85 40 220 87 43
220 85 40 220 84 40 217 83 40 217 83 39 217 83 40 217 83 40 217 83 40
217 83 40 217 83 40 217 83 40 217 83 40 217 84 40 215 82 40 188 70 35
188 70 35 215 82 40 217 84 40 217 83 40 217 83 40 217 83 40 217 83 40
217 83 40 217 83 40 217 83 40 217 83 40 217 83 40 217 83 40 217 83 40
217 83 40 217 83 39 217 83 40 217 83 40 217 83 40 217 83 40 217 83 40
217 83 40 217 83 40 217 83 40 217 83 40 217 83 40 217 83 40 217 83 40
217 83 40 217 83 40 217 84 40 217 86 43 217 84 40 217 83 39 217 86 43
223 112 77 224 117 83 229 140 111 226 136 107 189 74 39 188 69 33
215 83 40 217 83 39 217 83 40 217 83 40 217 83 40 217 83 40 217 83 40
217 83 40 217 83 39 217 83 40 217 83 40 187 69 33 187 69 33 187 69 33
187 69 33 187 69 33 187 69 33 187 69 33 187 69 33 187 69 33 187 69 33
187 69 33 185 68 33 185 68 33 187 69 33 187 69 33 187 69 33 187 69 33
187 69 33 187 69 33 187 69 33 187 69 33 187 69 33 187 69 33 187 69 33
188 69 33 188 70 34 188 70 34 188 69 33 187 69 33 187 69 33 187 69 33
187 69 33 187 69 33 187 69 33 187 69 33 187 69 33 187 69 33 187 69 33
187 69 33 187 69 33 187 69 33 187 69 33 187 69 33 187 68 32 187 69 33
187 69 33 187 69 33 188 71 36 188 71 36 188 73 38 188 73 38 185 68 33
185 68 32 187 69 33 188 69 33 188 70 34 188 70 34 188 69 33 187 69 33
187 69 33 187 69 33 187 69 33 187 69 33 187 69 33 188 74 39 188 74 39
188 74 39 188 74 39 188 74 39 188 74 39 188 74 39 188 74 39 188 74 39
188 74 39 189 74 39 189 74 39 189 74 39 189 74 39 188 74 39 188 74 39
188 74 39 188 74 39 188 74 39 188 74 39 188 74 39 188 74 39 188 74 39
189 74 40 188 74 39 186 69 34 186 69 34 188 73 39 189 74 39 188 74 39
188 74 39 188 74 39 188 74 39 188 74 39 188 74 39 188 74 39 188 74 39
188 74 39 188 74 39 188 74 39 188 74 39 188 74 39 188 74 39 188 74 40
188 74 39 188 74 39 188 74 39 188 73 39 188 73 39 188 73 38 188 73 38
189 74 39 189 74 39 189 74 39 188 73 39 186 69 34 186 69 34 188 73 39
189 74 39 188 74 39 188 74 39 188 74 39 188 74 39 188 74 39
228 140 112 228 140 112 228 140 112 228 140 112 228 140 112
228 140 112 228 140 112 228 140 112 228 140 112 228 140 112
228 140 112 228 140 112 228 140 112 228 140 112 228 140 112
228 140 112 228 140 112 228 140 112 228 140 112 228 140 112
228 140 112 228 140 112 228 140 112 229 141 113 225 135 106 188 73 38
188 73 38 226 136 107 229 142 113 228 140 112 228 140 112 228 140 112
228 140 112 228 140 112 228 140 112 228 140 112 228 140 112
228 140 112 228 140 112 228 140 112 228 140 112 228 140 112
228 140 112 228 140 112 228 140 112 228 140 112 228 140 112
228 141 112 228 141 112 228 141 112 228 141 112 228 140 112
228 140 112 229 142 113 226 136 107 188 73 38 188 73 38 226 136 107
229 142 113 228 140 112 228 140 112 228 140 112 228 140 112
228 140 112 231 144 116 231 144 116 231 144 116 231 144 116
231 144 116 231 144 116 231 144 116 231 144 116 231 144 116
231 144 116 231 144 116 231 144 116 231 144 116 231 144 116
231 144 116 231 144 116 231 144 116 231 144 116 231 144 116
231 144 116 231 144 116 231 144 116 231 144 116 233 148 120
229 141 113 188 73 38 188 73 38 229 140 111 232 146 117 231 144 116
231 144 116 231 144 116 231 144 116 231 144 116 231 144 116
231 144 116 231 144 116 231 144 116 231 144 116 231 144 116
231 144 116 231 144 116 231 144 116 231 144 116 231 144 116
231 144 116 231 144 116 231 144 116 231 144 116 231 144 116
231 144 116 231 144 116 231 144 116 232 146 117 229 140 111 188 73 38
188 73 38 229 140 111 232 146 117 231 144 116 231 144 116 231 144 116
231 144 116 231 144 116 226 120 86 226 120 86 226 120 86 226 120 86
226 120 86 226 120 86 226 120 86 226 120 86 226 120 86 226 120 86
226 120 86 226 120 86 226 120 86 226 120 86 226 120 86 226 120 86
226 120 86 226 120 86 226 120 86 226 120 86 226 120 86 226 119 84
226 121 87 231 144 116 228 140 112 188 73 39 188 71 36 224 117 83
227 121 87 226 120 85 226 120 86 226 120 86 226 120 86 226 120 86
226 120 86 226 120 86 226 120 86 226 120 86 226 120 86 226 120 86
226 120 86 226 120 86 226 120 86 226 120 86 226 120 86 226 120 86
226 120 86 226 120 86 226 120 86 226 120 86 226 120 86 226 120 86
226 120 85 227 121 87 224 117 82 188 72 37 188 72 37 224 117 82
227 121 87 226 120 85 226 120 86 226 120 86 226 120 86 226 120 86
225 115 79 225 115 79 225 115 79 225 115 79 225 115 79 225 115 79
225 115 79 225 115 79 225 115 79 225 115 79 225 115 80 225 115 79
225 115 79 225 115 79 225 115 79 225 115 79 225 115 80 225 115 79
225 115 79 225 115 79 225 115 80 226 117 82 226 119 84 231 144 116
228 141 112 188 73 39 188 71 36 223 112 77 226 116 80 225 115 79
225 115 79 225 115 79 225 115 79 225 115 79 225 115 79 225 115 79
225 115 79 225 115 80 225 115 79 225 115 79 225 115 79 225 115 79
225 115 79 225 115 79 225 115 79 225 115 79 225 115 79 225 115 79
225 115 79 225 115 79 225 115 79 225 115 79 225 115 79 226 116 80
223 112 77 188 71 36 188 71 36 223 112 77 226 116 80 225 115 79
225 115 79 225 115 79 225 115 79 225 115 79 219 86 43 220 87 43
220 89 46 220 87 43 219 86 43 220 86 43 219 86 43 219 86 43 220 86 43
219 86 43 219 86 42 219 86 43 220 86 43 219 86 43 220 86 43 219 86 43
219 86 42 219 86 43 220 87 43 219 86 42 220 89 46 225 115 80
226 120 86 231 144 116 228 140 112 188 74 39 187 69 33 217 86 43
220 87 43 219 86 43 220 87 43 220 89 46 220 87 43 219 86 43 220 86 43
220 86 43 219 86 43 219 86 42 219 86 43 220 86 43 219 86 43 220 86 43
219 86 43 220 87 43 220 89 46 220 87 43 219 86 43 220 86 43 220 87 43
219 86 43 220 87 43 220 89 46 219 87 43 220 87 43 217 85 43 188 70 34
188 70 34 217 85 43 220 87 43 219 86 43 220 87 43 220 89 46 220 87 43
219 86 43 219 83 38 219 86 42 224 109 71 219 86 42 219 83 38
219 84 39 219 83 39 219 84 39 219 83 39 219 84 40 219 86 42 219 84 40
219 83 39 219 83 39 219 83 39 219 84 40 219 86 42 219 84 40 219 83 39
219 83 39 219 86 42 225 115 79 226 120 86 231 144 116 228 140 112
188 74 39 187 69 33 217 83 39 219 84 39 218 82 38 219 86 42
224 109 71 219 86 42 219 83 38 219 84 39 219 83 39 219 84 40
219 86 42 219 84 40 219 83 39 219 83 39 219 84 40 219 83 38 219 86 42
224 109 71 219 86 42 219 83 38 219 83 39 219 83 39 219 83 38
219 86 42 224 109 71 219 86 42 219 83 39 217 83 39 188 70 34
188 70 34 217 82 39 219 84 40 219 83 38 219 86 42 224 109 71
219 86 42 219 83 38 219 84 40 219 84 41 220 87 43 219 84 41 219 84 40
219 84 40 219 84 40 219 84 40 219 83 39 220 87 43 224 110 72
220 87 43 219 84 39 219 85 41 219 84 39 220 87 43 224 110 72
220 87 43 219 84 40 219 84 40 220 87 43 225 115 79 226 120 86
231 144 116 228 140 112 188 74 39 187 69 33 217 83 40 220 85 41
219 87 43 219 85 41 220 87 43 219 84 41 219 84 40 219 84 41 219 84 39
220 87 43 224 110 72 220 87 43 219 84 39 219 84 40 219 84 39
219 84 40 219 84 41 220 87 43 219 84 41 219 84 40 219 84 41 220 87 43
219 84 40 219 84 40 220 87 43 219 84 40 220 84 40 217 83 40 188 70 34
188 70 34 217 83 40 220 84 40 219 84 40 219 84 41 220 87 43 219 84 41
219 84 40 219 84 40 219 84 40 219 83 39 219 84 40 219 84 40 219 84 40
219 84 40 220 87 43 219 84 40 219 84 40 220 87 43 219 84 40 219 84 40
219 83 39 219 84 40 219 84 40 220 87 43 219 84 40 219 84 40 219 83 38
219 86 43 225 115 79 226 120 86 231 144 116 228 140 112 188 74 39
187 69 33 217 83 39 220 87 43 224 109 72 220 86 43 219 83 38
219 84 40 219 84 40 219 83 39 219 84 40 219 84 40 220 87 43 219 84 40
219 84 40 219 84 40 220 87 43 219 84 40 219 84 40 219 83 39 219 84 40
219 83 39 220 87 43 224 109 72 220 87 43 219 83 39 219 84 40
219 84 40 220 84 40 217 83 40 188 70 34 188 70 34 217 83 40 220 84 40
219 83 39 219 84 40 219 83 39 219 84 40 219 84 40 219 84 40 219 84 40
219 84 40 219 84 40 219 84 40 219 83 39 220 87 43 224 109 72
220 87 43 219 83 39 219 84 40 219 84 40 219 84 40 220 87 43 219 84 40
219 84 40 219 84 39 219 84 40 219 84 41 219 86 42 220 87 43
225 115 79 226 120 86 231 144 116 228 140 112 188 74 39 187 69 33
217 83 40 220 85 40 219 86 43 219 84 41 219 84 40 219 84 40 219 84 40
220 87 43 219 84 40 219 84 40 219 83 39 219 84 40 219 83 39 220 87 43
224 109 72 220 87 43 219 83 39 219 84 40 219 84 40 219 84 40
219 84 40 220 87 43 219 84 40 219 84 40 219 83 39 219 84 40 220 84 40
217 83 40 188 70 34 188 70 34 217 83 40 220 85 40 219 86 43 219 84 40
219 84 40 219 84 40 219 84 40 219 84 40 219 84 40 219 84 40 219 84 40
219 84 40 219 84 40 219 84 40 220 87 43 219 84 40 219 84 40 219 84 40
219 83 39 220 87 43 224 109 72 220 87 43 219 83 39 219 84 40
219 83 39 220 87 43 224 109 71 220 89 46 225 115 79 226 120 86
231 144 116 228 140 112 188 74 39 187 69 33 217 83 40 220 84 40
219 83 39 219 83 39 219 84 40 219 83 39 220 87 43 224 109 72
220 87 43 219 83 39 219 84 40 219 83 39 219 84 40 219 84 40 220 87 43
219 84 40 219 84 40 220 87 43 219 84 40 219 84 40 219 84 40 219 83 39
219 84 40 219 84 40 220 87 43 219 84 40 220 84 40 217 83 40 188 70 34
188 70 34 217 82 39 220 87 43 224 109 72 220 87 43 219 83 39
219 83 39 219 84 40 219 84 40 219 84 40 219 83 39 219 84 40 219 84 40
219 84 40 219 84 40 219 83 39 219 84 40 219 84 40 220 87 43 219 84 40
219 84 40 220 87 43 219 84 40 219 84 40 220 87 43 219 84 40 219 84 40
219 86 42 220 87 43 225 115 79 226 120 86 231 144 116 228 140 112
188 74 39 187 69 33 217 83 40 220 84 40 219 84 40 220 87 43 219 84 40
219 84 40 219 84 40 220 87 43 219 84 40 219 84 40 219 84 40 220 87 43
219 84 40 219 84 40 219 83 39 219 83 39 220 87 43 224 109 72
220 87 43 219 83 39 219 84 40 219 84 40 219 83 39 220 87 43
224 109 72 219 86 43 219 84 39 217 83 40 188 70 34 188 70 34
217 83 40 220 85 40 219 86 43 219 84 40 219 84 40 220 86 43 219 84 40
219 84 40 219 84 40 219 86 43 219 84 40 219 84 40 219 84 40 219 84 40
219 84 40 219 83 39 219 86 43 224 109 72 219 86 43 219 83 39
219 84 39 219 83 39 219 86 43 224 109 72 219 86 43 219 83 39
219 83 39 219 86 43 225 115 79 226 120 85 231 144 116 228 140 112
188 74 39 187 69 33 217 83 40 219 84 39 219 86 43 224 109 72
219 86 43 219 83 39 219 84 40 219 83 39 219 84 40 219 83 39 219 86 43
224 109 72 219 86 43 219 83 39 219 84 40 219 84 40 219 84 40
219 86 43 219 84 40 219 84 40 219 84 40 219 84 40 219 84 40 219 84 40
219 86 43 219 84 40 219 84 40 217 83 40 188 70 34 188 70 34 217 83 40
219 84 40 219 83 39 219 83 39 219 86 43 224 109 72 219 87 43
219 84 39 220 87 43 225 110 72 220 87 43 219 84 39 220 84 40
220 84 40 220 84 40 220 84 40 220 85 40 220 87 43 220 85 40 220 84 40
220 84 40 220 84 40 220 85 40 220 87 43 220 85 40 220 84 40 219 84 40
220 87 43 226 116 80 227 121 87 232 146 117 229 142 113 189 74 39
187 69 33 218 84 40 220 84 40 219 84 40 220 87 43 220 85 40 220 84 40
220 84 40 220 84 40 220 84 40 220 84 40 220 85 40 220 87 43 220 85 40
220 84 40 220 84 40 220 84 40 220 84 40 219 84 39 220 84 40 220 84 40
220 84 40 220 84 40 220 84 40 220 84 40 219 84 39 219 84 40 220 85 40
217 83 40 188 70 34 188 70 34 217 83 40 220 85 40 219 84 40 220 84 40
220 85 40 220 87 43 220 85 40 217 83 40 217 84 40 217 86 43 217 84 40
217 83 40 217 83 40 217 83 40 217 83 40 217 83 40 217 83 40 217 82 39
217 83 40 217 83 40 217 83 40 217 83 40 217 83 40 217 83 39 217 83 40
217 83 40 217 83 39 217 86 43 223 112 77 224 117 83 229 140 111
226 136 107 189 74 39 188 69 33 215 83 40 217 84 40 217 83 40
217 83 39 217 83 40 217 83 40 217 83 40 217 83 40 217 83 40 217 83 40
217 83 40 217 83 39 217 83 40 217 83 40 217 83 40 217 83 40 217 83 40
217 83 40 217 83 40 217 83 40 217 83 40 217 83 40 217 83 40 217 83 40
217 83 40 217 83 40 217 84 40 215 82 40 188 70 35 188 70 35 215 82 40
217 84 40 217 83 40 217 83 40 217 83 40 217 83 39 217 83 40 187 69 33
187 69 33 187 68 32 187 69 33 187 69 33 187 69 33 187 69 33 187 69 33
188 69 33 188 70 34 188 70 35 188 69 33 187 69 33 187 69 33 187 69 33
187 69 33 187 69 33 187 69 33 187 69 33 187 69 33 187 69 33 188 71 36
188 71 36 188 73 38 188 73 38 185 68 33 185 68 32 187 69 33 187 69 33
187 69 33 187 69 33 187 69 33 187 69 33 187 69 33 187 69 33 187 69 33
187 69 33 187 69 33 188 69 33 188 70 34 188 70 34 188 69 33 187 69 33
187 69 33 187 69 33 187 69 33 187 69 33 187 69 33 187 69 33 187 69 33
187 69 33 187 69 33 187 69 33 187 69 33 187 69 33 185 68 33 185 68 33
187 69 33 187 69 33 187 69 33 187 69 33 187 69 33 187 69 33 187 69 33
188 74 39 188 74 39 188 74 40 188 74 39 188 74 39 188 74 39 188 74 39
189 74 40 188 74 39 186 69 34 186 69 34 188 73 39 189 74 39 188 74 39
188 74 39 188 74 39 188 74 39 188 74 39 188 74 39 188 74 39 188 74 39
188 73 39 188 73 39 188 73 38 188 73 38 189 74 39 189 74 40 189 74 39
188 74 39 188 74 39 188 74 39 188 74 39 188 74 39 188 74 39 188 74 39
188 74 39 188 74 39 189 74 39 188 73 39 186 69 34 186 69 34 188 73 39
189 74 39 188 74 39 188 74 39 188 74 39 188 74 39 188 74 39 188 74 39
188 74 39 188 74 39 188 74 39 188 74 39 188 74 39 189 74 39 189 74 39
189 74 39 189 74 39 188 74 39 188 74 39 188 74 39 188 74 39 188 74 39
188 74 39 228 140 112 228 140 112 228 140 112 228 140 112 228 140 112
228 140 112 228 140 112 229 141 113 225 135 106 188 73 38 188 73 38
226 136 107 229 142 113 228 140 112 228 140 112 228 140 112
228 140 112 228 140 112 228 140 112 228 140 112 228 140 112
228 141 112 228 141 112 228 141 112 228 141 112 228 140 112
228 140 112 228 140 112 228 140 112 228 140 112 228 140 112
228 140 112 228 140 112 228 140 112 228 140 112 228 140 112
228 140 112 229 142 113 226 136 107 188 73 38 188 73 38 226 136 107
229 142 113 228 140 112 228 140 112 228 140 112 228 140 112
228 140 112 228 140 112 228 140 112 228 140 112 228 140 112
228 140 112 228 140 112 228 140 112 228 140 112 228 140 112
228 140 112 228 140 112 228 140 112 228 140 112 228 140 112
228 140 112 228 140 112 231 144 116 231 144 116 231 144 116
231 144 116 231 144 116 231 144 116 231 144 116 233 148 120
229 141 113 188 73 38 188 73 38 229 140 111 232 146 117 231 144 116
231 144 116 231 144 116 231 144 116 231 144 116 231 144 116
231 144 116 231 144 116 231 144 116 231 144 116 231 144 116
231 144 116 231 144 116 231 144 116 231 144 116 231 144 116
231 144 116 231 144 116 231 144 116 231 144 116 231 144 116
231 144 116 231 144 116 231 144 116 232 146 117 229 140 111 188 73 38
188 73 38 229 140 111 232 146 117 231 144 116 231 144 116 231 144 116
231 144 116 231 144 116 231 144 116 231 144 116 231 144 116
231 144 116 231 144 116 231 144 116 231 144 116 231 144 116
231 144 116 231 144 116 231 144 116 231 144 116 231 144 116
231 144 116 231 144 116 231 144 116 226 120 86 226 120 86 226 120 86
226 120 86 226 120 86 226 119 84 226 121 87 231 144 116 228 140 112
188 73 39 188 71 36 224 117 83 227 121 87 226 120 85 226 120 86
226 120 86 226 120 86 226 120 86 226 120 86 226 120 86 226 120 86
226 120 86 226 120 86 226 120 86 226 120 86 226 120 86 226 120 86
226 120 86 226 120 86 226 120 86 226 120 86 226 120 86 226 120 86
226 120 86 226 120 86 226 120 86 226 120 85 227 121 87 224 117 82
188 72 37 188 72 37 224 117 82 227 121 87 226 120 85 226 120 86
226 120 86 226 120 86 226 120 86 226 120 86 226 120 86 226 120 86
226 120 86 226 120 86 226 120 86 226 120 86 226 120 86 226 120 86
226 120 86 226 120 86 226 120 86 226 120 86 226 120 86 226 120 86
226 120 86 225 115 79 225 115 79 225 115 80 225 115 80 225 116 80
226 117 82 226 119 84 231 144 116 228 141 112 188 73 39 188 71 36
223 112 77 226 116 80 225 115 79 225 115 79 225 115 79 225 115 80
225 115 79 225 115 79 225 115 79 225 115 79 225 115 80 225 115 79
225 115 79 225 115 79 225 115 79 225 115 79 225 115 80 225 115 79
225 115 79 225 115 79 225 115 79 225 115 79 225 115 80 225 115 79
225 115 79 225 115 79 226 116 80 223 112 77 188 71 36 188 71 36
223 112 77 226 116 80 225 115 79 225 115 79 225 115 79 225 115 79
225 115 79 225 115 79 225 115 79 225 115 80 225 115 79 225 115 79
225 115 79 225 115 79 225 115 79 225 115 80 225 115 79 225 115 79
225 115 79 225 115 79 225 115 79 225 115 80 225 115 79 219 86 43
220 86 43 220 87 43 219 85 42 220 89 46 225 116 80 226 120 86
231 144 116 228 140 112 188 74 39 187 69 33 217 86 43 220 87 43
219 86 43 220 86 43 219 86 43 219 86 42 219 86 43 220 86 43 220 86 43
219 86 43 219 86 42 219 86 43 220 86 43 219 86 43 220 86 43 219 86 43
219 86 42 219 86 43 220 86 43 219 86 43 220 86 43 219 86 43 219 86 42
219 86 43 220 86 43 219 86 43 220 87 43 217 85 43 188 70 34 188 70 34
217 85 43 220 87 43 219 86 42 219 86 43 220 86 43 219 86 43 219 86 43
220 86 43 219 86 43 219 86 42 219 86 43 220 86 43 219 86 43 220 86 43
219 86 43 219 86 42 219 86 43 220 86 43 219 86 43 220 86 43 219 86 43
219 86 42 219 86 43 219 83 39 219 83 39 219 84 40 219 85 42 219 86 43
225 115 79 226 120 86 231 144 116 228 140 112 188 74 39 187 69 33
217 83 39 219 84 39 219 83 39 219 83 39 219 84 40 219 86 42 219 84 40
219 83 39 219 83 39 219 84 40 219 86 42 219 84 40 219 83 39 219 84 39
219 83 39 219 84 40 219 86 42 219 84 40 219 83 39 219 83 39 219 83 39
219 84 40 219 86 42 219 84 40 219 83 39 219 83 39 219 84 39 217 82 39
188 70 34 188 70 34 217 82 39 220 84 40 219 86 42 219 84 40 219 83 39
219 84 39 219 83 39 219 83 39 219 84 40 219 86 42 219 84 40 219 83 39
219 84 39 219 83 39 219 84 40 219 86 42 219 84 40 219 83 39 219 84 39
219 83 39 219 84 40 219 86 42 219 84 40 219 84 40 219 83 39 220 87 44
224 109 72 220 89 46 225 115 79 226 120 86 231 144 116 228 140 112
188 74 39 187 69 33 217 83 40 220 84 40 219 84 40 219 84 40 220 87 43
224 110 72 220 87 43 219 83 39 219 84 39 220 87 43 224 110 72
220 87 43 219 83 39 219 84 40 219 83 39 220 87 43 224 110 72
220 87 43 219 84 40 219 84 41 219 84 39 220 87 43 224 110 72
220 87 43 219 84 40 219 84 40 220 84 40 217 83 40 188 70 34 188 70 34
217 83 39 220 87 43 224 109 72 220 87 43 219 83 39 219 84 40
219 84 40 219 84 39 220 87 43 224 110 72 220 87 43 219 83 39
219 84 40 219 83 39 220 87 43 224 110 72 220 87 43 219 83 39
219 84 40 219 83 39 220 87 43 224 109 72 220 87 44 219 84 40
219 86 43 219 85 41 219 86 43 220 87 43 225 115 79 226 120 86
231 144 116 228 140 112 188 74 39 187 69 33 217 83 40 220 84 40
219 84 40 219 83 39 219 84 40 220 86 43 219 84 41 220 86 43 219 84 40
219 84 40 220 87 43 219 84 40 219 84 40 220 87 43 219 84 40 219 84 40
220 87 43 219 84 40 219 83 39 219 84 40 219 84 40 219 84 40 220 87 43
219 84 40 219 83 39 219 84 40 220 84 40 217 83 40 188 70 34 188 70 34
217 83 40 220 85 40 219 86 43 219 84 40 219 84 40 220 87 43 219 84 40
219 84 40 219 84 40 220 87 43 219 84 40 219 84 40 220 87 43 219 84 40
219 84 40 220 87 43 219 84 40 219 84 40 220 87 43 219 84 40 219 84 40
220 87 43 219 84 40 220 87 43 224 109 72 220 87 43 218 81 37
220 86 43 225 115 80 226 120 86 231 144 116 228 140 112 188 74 39
187 69 33 217 83 40 220 84 40 219 84 40 220 87 43 219 84 40 219 83 38
220 86 43 224 109 72 220 87 43 219 83 39 219 84 40 219 83 39
220 87 43 224 109 72 220 87 43 219 83 39 219 84 39 219 84 40
220 87 43 219 84 40 219 84 40 219 84 40 219 83 39 219 84 40 220 87 43
219 84 40 220 84 40 217 83 40 188 70 34 188 70 34 217 83 40 220 84 40
219 84 39 219 83 39 220 87 43 224 109 72 220 87 43 219 83 39
219 84 40 219 83 39 219 83 39 220 87 43 224 109 72 220 87 43
219 83 39 219 84 40 219 83 39 220 87 43 224 109 72 220 87 43
219 83 39 219 83 39 219 84 40 219 84 40 219 86 43 219 85 41 219 86 43
220 87 43 225 115 79 226 120 86 231 144 116 228 140 112 188 74 39
187 69 33 217 83 40 219 84 39 219 86 43 224 109 72 220 86 43
219 83 38 219 84 40 220 87 43 219 84 40 219 84 40 219 84 39 219 84 40
219 84 40 220 87 43 219 84 40 219 84 40 219 83 39 220 86 43
224 109 72 220 87 43 219 83 39 219 84 40 219 83 39 220 87 43
224 109 72 219 86 43 219 84 39 217 83 40 188 70 34 188 70 34
217 83 40 220 84 40 219 83 39 219 84 40 219 84 40 220 87 43 219 84 40
219 84 40 219 84 40 220 87 43 219 84 40 219 84 40 220 87 43 219 84 40
219 84 40 219 84 39 219 84 40 219 84 40 220 87 43 219 84 40 219 84 40
220 87 43 219 84 40 219 84 40 219 83 38 220 87 43 224 109 71
220 89 46 225 115 79 226 120 86 231 144 116 228 140 112 188 74 39
187 69 33 217 83 40 220 84 40 219 84 40 220 86 43 219 84 41 220 86 43
219 84 40 219 83 39 219 84 40 219 84 40 220 87 43 219 84 40 219 84 40
219 83 39 219 84 40 219 84 40 220 86 43 219 84 41 220 86 43 219 84 40
219 84 40 220 87 43 219 84 40 219 84 40 220 87 43 219 84 40 220 84 40
217 83 40 188 70 34 188 70 34 217 83 40 220 85 40 219 86 43 219 84 40
219 84 40 219 83 39 219 84 40 219 83 39 220 87 43 224 109 72
220 87 43 219 83 39 219 83 39 219 84 40 219 84 40 220 87 43 219 84 40
219 84 40 219 83 39 219 83 39 220 87 43 224 109 72 220 87 43
219 84 40 219 84 40 219 84 41 219 86 42 219 87 43 225 115 79
226 120 85 231 144 116 228 140 112 188 74 39 187 69 33 217 83 40
219 84 40 219 84 40 219 83 38 219 86 43 224 109 72 219 86 43
219 84 39 219 83 39 219 86 43 224 109 72 219 86 43 219 83 39
219 84 40 219 83 39 219 86 43 224 109 72 219 86 43 219 83 39
219 83 39 219 86 43 224 109 72 219 86 43 219 83 39 219 83 39
219 84 40 219 84 40 217 83 40 188 70 34 188 70 34 217 82 39 220 87 43
224 109 72 219 86 43 219 83 39 219 84 40 219 84 40 219 84 40
219 84 40 219 86 43 219 84 40 219 84 40 219 84 40 219 83 39 219 86 43
224 109 72 219 86 43 219 83 39 219 84 40 219 84 40 219 84 40
219 86 43 219 84 40 220 84 40 220 84 40 220 84 40 219 83 39 220 87 43
226 116 80 227 121 87 232 146 117 229 142 113 189 74 39 187 69 33
217 84 40 220 85 40 219 84 40 220 84 40 220 85 40 220 87 43 220 85 40
220 84 40 220 84 40 220 85 40 220 87 43 220 85 40 220 84 40 220 84 40
220 84 40 220 85 40 220 87 43 220 85 40 220 84 40 220 84 40 220 85 40
220 87 43 220 85 40 220 84 40 220 84 40 219 84 40 220 85 40 217 83 40
188 70 34 188 70 34 217 83 40 220 85 41 220 87 43 220 85 40 220 84 40
220 84 40 220 84 40 220 84 40 220 84 40 219 84 39 220 84 40 220 84 40
220 84 40 220 84 40 220 85 40 220 87 43 220 85 40 220 84 40 220 84 40
220 84 40 220 84 40 219 84 39 220 84 40 217 83 40 217 83 40 217 83 40
217 83 39 217 86 43 223 112 77 224 117 83 229 140 111 226 136 107
189 74 39 188 69 33 215 83 40 217 84 40 217 83 40 217 83 40 217 83 40
217 83 39 217 83 40 217 83 40 217 83 40 217 83 40 217 83 39 217 83 40
217 83 40 217 83 40 217 83 40 217 83 40 217 82 39 217 83 40 217 83 40
217 83 40 217 83 40 217 83 39 217 83 40 217 83 40 217 83 40 217 83 40
217 84 40 215 82 40 188 70 35 188 70 35 215 82 40 217 84 40 217 83 39
217 83 40 217 83 40 217 83 40 217 83 40 217 83 40 217 83 40 217 83 40
217 83 40 217 83 40 217 83 40 217 83 40 217 83 40 217 82 39 217 83 40
217 83 40 217 83 40 217 83 40 217 83 40 217 83 40 217 83 40 187 69 33
187 69 33 187 69 33 187 69 33 187 69 33 188 71 36 188 71 36 188 73 38
188 73 38 185 68 33 185 68 32 187 69 33 187 69 33 187 69 33 187 69 33
187 69 33 187 69 33 187 69 33 187 69 33 187 69 33 187 69 33 187 69 33
187 69 33 187 69 33 187 69 33 188 69 33 188 70 34 188 70 35 188 69 33
187 69 33 187 69 33 187 69 33 187 69 33 187 69 33 187 69 33 187 69 33
187 69 33 187 69 33 187 69 33 185 68 33 185 68 33 187 69 33 188 69 33
187 69 33 187 69 33 187 69 33 187 69 33 187 69 33 187 69 33 187 69 33
187 69 33 187 69 33 187 69 33 187 69 33 187 69 33 188 69 33 188 70 35
188 70 34 188 69 33 187 69 33 187 69 33 187 69 33 187 69 33 187 69 33
188 74 39 188 74 39 188 74 39 188 74 39 188 74 39 188 73 39 188 73 39
188 73 38 188 73 38 189 74 39 189 74 40 189 74 39 188 74 39 188 74 39
188 74 39 188 74 39 188 74 39 188 74 39 188 74 39 188 74 39 188 74 39
188 74 39 188 74 39 188 74 39 189 74 40 188 74 39 186 69 34 186 69 34
188 73 39 189 74 39 188 74 39 188 74 39 188 74 39 188 74 39 188 74 39
188 74 39 188 74 39 188 74 39 189 74 39 189 74 39 189 74 39 189 74 39
188 74 39 188 74 39 188 74 39 188 74 39 188 74 39 188 74 39 188 74 39
188 74 39 188 74 39 188 74 39 188 74 39 188 74 39 189 74 39 188 73 39
186 69 34 186 69 34 188 73 39 189 74 39 188 74 39 188 74 39 188 74 39
188 74 39 228 140 112 228 140 112 228 140 112 228 140 112 228 140 112
228 141 112 228 141 112 228 141 112 228 141 112 228 140 112
228 140 112 228 140 112 228 140 112 228 140 112 228 140 112
228 140 112 228 140 112 228 140 112 228 140 112 228 140 112
228 140 112 228 140 112 228 140 112 228 140 112 229 141 113
225 135 106 188 73 38 188 73 38 226 136 107 229 142 113 228 140 112
228 140 112 228 140 112 228 140 112 228 140 112 228 140 112
228 140 112 228 140 112 228 140 112 228 140 112 228 140 112
228 140 112 228 140 112 228 140 112 228 140 112 228 140 112
228 140 112 228 140 112 228 140 112 228 140 112 228 140 112
228 140 112 228 140 112 228 140 112 229 142 113 226 136 107 188 73 38
188 73 38 226 136 107 229 142 113 228 140 112 228 140 112 228 140 112
228 140 112 231 144 116 231 144 116 231 144 116 231 144 116
231 144 116 231 144 116 231 144 116 231 144 116 231 144 116
231 144 116 231 144 116 231 144 116 231 144 116 231 144 116
231 144 116 231 144 116 231 144 116 231 144 116 231 144 116
231 144 116 231 144 116 231 144 116 231 144 116 231 144 116
233 148 120 229 141 113 188 73 38 188 73 38 229 140 111 232 146 117
231 144 116 231 144 116 231 144 116 231 144 116 231 144 116
231 144 116 231 144 116 231 144 116 231 144 116 231 144 116
231 144 116 231 144 116 231 144 116 231 144 116 231 144 116
231 144 116 231 144 116 231 144 116 231 144 116 231 144 116
231 144 116 231 144 116 231 144 116 231 144 116 232 146 117
229 140 111 188 73 38 188 73 38 229 140 111 232 146 117 231 144 116
231 144 116 231 144 116 231 144 116 226 120 86 226 120 86 226 120 86
226 120 86 226 120 86 226 120 86 226 120 86 226 120 86 226 120 86
226 120 86 226 120 86 226 120 86 226 120 86 226 120 86 226 120 86
226 120 86 226 120 86 226 120 86 226 120 86 226 120 86 226 120 86
226 120 86 226 119 84 226 121 87 231 144 116 228 140 112 188 73 39
188 71 36 224 117 83 227 121 87 226 120 85 226 120 86 226 120 86
226 120 86 226 120 86 226 120 86 226 120 86 226 120 86 226 120 86
226 120 86 226 120 86 226 120 86 226 120 86 226 120 86 226 120 86
226 120 86 226 120 86 226 120 86 226 120 86 226 120 86 226 120 86
226 120 86 226 120 86 226 120 85 227 121 87 224 117 82 188 72 37
188 72 37 224 117 82 227 121 87 226 120 85 226 120 86 226 120 86
226 120 86 225 115 79 225 115 79 225 115 79 225 115 79 225 115 79
225 115 79 225 115 79 225 115 79 225 115 79 225 115 79 225 115 79
225 115 80 225 115 79 225 115 79 225 115 79 225 115 79 225 115 79
225 115 79 225 115 79 225 115 80 225 115 79 225 115 80 226 117 82
226 119 84 231 144 116 228 141 112 188 73 39 188 71 36 223 112 77
226 116 80 225 115 79 225 115 79 225 115 79 225 115 79 225 115 80
225 115 79 225 115 79 225 115 79 225 115 79 225 115 80 225 115 79
225 115 79 225 115 79 225 115 79 225 115 79 225 115 79 225 115 79
225 115 79 225 115 79 225 115 79 225 115 79 225 115 79 225 115 80
225 115 79 226 116 80 223 112 77 188 71 36 188 71 36 223 112 77
226 116 80 225 115 79 225 115 79 225 115 80 225 115 79 219 86 43
220 86 43 219 86 43 220 87 43 220 89 46 220 87 43 219 86 43 220 86 43
219 86 43 220 86 43 219 86 43 219 86 42 219 86 43 220 86 43 219 86 43
219 86 43 219 86 43 220 86 43 219 86 43 219 86 42 219 86 42 220 89 46
225 115 80 226 120 86 231 144 116 228 140 112 188 74 39 187 69 33
217 86 43 220 86 42 219 86 43 220 86 43 220 86 43 219 86 43 219 86 42
219 86 43 220 86 43 220 86 43 219 86 43 219 86 42 219 86 43 220 86 43
220 86 43 219 86 43 220 87 43 220 89 46 220 87 43 219 86 43 220 86 43
219 86 43 220 86 43 219 86 43 219 86 42 219 86 43 220 87 43 217 85 43
188 70 34 188 70 34 217 85 43 220 87 43 219 86 43 219 86 43 219 86 42
219 86 43 219 83 39 219 84 39 219 83 38 219 86 42 224 109 71
219 86 42 219 83 38 219 84 40 219 83 39 219 83 39 219 84 40 219 86 42
219 84 40 219 83 39 219 83 39 219 84 39 219 83 39 219 83 39 219 84 40
219 86 43 219 83 39 219 86 42 225 115 79 226 120 86 231 144 116
228 140 112 188 74 39 187 69 33 217 83 40 220 86 43 219 84 40
219 83 39 219 83 39 219 84 40 219 86 42 219 84 40 219 83 39 219 83 39
219 84 40 219 86 42 219 84 40 219 83 39 219 84 39 219 83 39 219 86 42
224 109 71 219 86 42 219 83 38 219 84 40 219 83 39 219 83 39
219 84 40 219 86 42 219 84 40 219 84 39 217 83 39 188 70 34 188 70 34
217 83 39 219 84 40 219 83 39 219 84 40 219 86 42 219 84 40 219 84 40
219 84 40 219 84 40 219 84 41 220 87 43 219 84 41 219 84 40 219 84 39
219 84 40 219 84 39 220 87 43 224 110 72 220 87 43 219 84 39
219 84 40 219 84 39 219 84 40 219 84 39 220 87 43 224 110 72
219 86 43 219 86 42 225 115 80 226 120 86 231 144 116 228 140 112
188 74 40 187 68 32 218 86 43 225 110 72 219 87 43 219 84 39
219 83 39 220 87 43 224 110 72 220 87 43 219 84 40 219 84 39
219 86 43 224 109 72 220 87 43 219 84 39 219 84 40 219 83 39
219 84 40 220 87 43 219 84 41 219 84 40 219 84 39 219 84 40 219 84 39
220 87 43 224 110 72 219 87 43 219 83 39 217 83 40 188 70 34
188 70 34 217 83 40 220 84 40 219 83 39 220 87 43 224 109 72
220 87 44 219 84 40 219 83 39 219 84 40 219 84 40 219 83 39 219 84 40
219 84 40 220 87 43 219 84 40 219 84 40 219 84 40 220 87 43 219 84 40
219 84 40 219 84 40 220 87 43 219 84 40 219 84 40 219 84 41 220 87 43
219 84 40 219 86 43 225 115 79 226 120 86 231 144 116 228 140 112
188 74 39 187 69 33 217 84 40 220 87 43 219 84 40 219 84 40 220 86 43
219 84 41 220 86 43 219 84 40 219 84 40 219 84 40 220 87 43 220 87 43
219 84 40 219 84 40 219 84 40 220 87 43 219 84 40 219 83 39 219 84 40
219 84 40 220 87 43 219 84 40 219 84 40 219 84 40 220 86 43 219 84 41
220 87 43 217 83 40 188 70 34 188 70 34 217 83 40 220 87 43 219 84 40
219 84 40 220 86 43 219 84 40 219 84 40 220 86 43 219 84 40 219 84 40
219 84 40 219 83 39 220 87 43 224 109 72 220 87 43 219 83 39
219 84 40 219 83 39 219 84 40 219 83 39 220 87 43 224 109 72
220 87 43 219 83 39 219 83 39 219 83 39 219 83 39 220 86 43
225 115 79 226 120 86 231 144 116 228 140 112 188 74 39 187 69 33
217 83 40 219 84 40 219 83 39 220 87 43 224 109 72 220 86 43
219 83 39 219 84 40 219 83 39 220 87 43 224 109 72 219 86 42
219 84 39 219 84 39 220 87 43 224 109 72 220 87 43 219 84 40
219 84 39 220 87 43 224 109 72 220 87 43 219 83 39 219 84 40
219 83 39 219 86 43 225 110 72 217 86 43 188 69 34 188 69 34
217 86 43 225 110 72 219 86 43 219 83 39 219 84 40 219 84 40
220 87 43 224 109 72 220 86 43 219 83 38 219 84 40 219 84 40
219 84 40 220 87 43 219 84 40 219 84 40 219 84 40 219 83 39 219 84 40
219 84 40 219 84 40 220 87 43 219 84 40 219 84 40 220 87 43 219 85 41
219 83 39 220 86 43 225 115 79 226 120 86 231 144 116 228 140 112
188 74 39 187 69 33 217 83 40 219 84 39 219 84 40 219 84 40 220 87 43
219 84 40 219 83 39 219 84 40 219 84 40 219 84 40 220 87 43 219 84 40
219 83 39 219 84 40 219 84 40 220 87 43 219 84 40 219 83 39 219 84 40
219 84 40 220 87 43 219 84 40 219 84 40 219 84 40 219 83 39 219 84 40
220 87 43 217 83 40 188 70 34 188 70 34 217 83 40 220 87 43 219 84 40
219 84 40 219 84 39 219 84 40 219 84 40 219 86 43 219 85 41 220 86 43
219 84 40 219 84 40 219 84 40 219 83 39 219 84 40 219 84 40 219 84 40
220 87 43 219 84 40 219 84 40 219 84 40 219 83 39 219 83 39 220 87 43
224 109 72 220 87 43 219 83 38 220 87 43 225 115 79 226 120 86
231 144 116 228 140 112 188 74 39 187 69 33 217 84 40 220 87 43
219 84 40 219 84 40 219 83 39 219 84 40 220 87 43 219 84 40 219 84 40
219 84 40 219 83 39 219 84 40 220 87 43 219 84 40 219 84 40 219 83 39
219 84 40 220 87 43 219 84 40 219 84 40 219 83 39 219 84 40 219 84 40
219 84 40 220 87 43 219 84 40 219 84 39 217 83 40 188 70 34 188 70 34
217 83 40 219 84 39 219 84 40 219 84 40 220 86 43 219 84 40 219 84 40
219 83 38 219 86 43 224 109 72 219 86 43 219 83 39 219 84 40
219 84 40 219 84 40 219 83 39 219 86 43 224 109 72 219 86 43
219 83 39 219 84 40 219 84 40 219 84 40 219 84 40 219 86 43 219 84 40
219 83 39 219 86 43 225 115 79 226 120 85 231 144 116 228 140 112
188 74 40 187 68 32 217 86 43 225 110 72 219 86 43 219 83 39
219 84 39 219 86 43 224 109 72 219 86 43 219 83 39 219 84 40
219 83 39 219 86 43 224 109 72 219 86 43 219 83 39 219 84 39
219 86 43 224 109 72 219 86 43 219 83 39 219 84 40 219 84 40
219 83 39 219 86 43 224 109 72 219 86 43 219 84 39 217 83 40
188 70 34 188 70 34 217 83 40 219 84 40 219 83 39 219 86 43
224 109 72 219 87 43 220 84 40 220 84 40 220 85 40 220 87 43
220 85 40 220 84 40 220 84 40 220 84 40 220 84 40 220 84 40 220 85 40
220 87 43 220 85 40 220 84 40 220 84 40 220 84 40 220 84 40 220 84 40
220 84 39 220 84 40 220 84 39 220 87 43 226 116 80 227 121 87
232 146 118 229 142 114 189 74 40 187 69 33 218 84 40 221 87 43
220 85 40 220 84 40 220 84 40 220 85 40 220 87 43 220 85 40 220 84 40
220 84 40 220 84 40 220 85 40 220 87 43 220 85 40 220 84 40 220 84 40
220 85 40 220 87 43 220 85 40 220 84 40 220 84 40 220 84 40 220 84 40
220 85 40 220 87 43 220 85 40 220 85 40 218 83 40 188 70 34 188 70 34
218 83 40 220 85 40 220 84 40 220 85 40 220 87 43 220 85 40 216 83 39
216 83 40 216 83 39 216 82 39 216 83 39 216 83 40 216 83 39 216 83 39
216 83 39 216 83 40 216 83 39 216 82 39 216 83 39 216 83 40 216 83 39
216 83 39 216 83 39 216 83 40 216 83 40 216 83 40 216 82 39 217 85 42
222 111 76 223 116 81 228 138 109 225 134 105 188 73 39 187 69 33
214 82 39 217 82 39 216 83 39 216 83 40 216 83 40 216 83 39 216 82 39
216 83 39 216 83 40 216 83 39 216 83 40 216 83 39 216 82 39 216 83 39
216 83 40 216 83 40 216 83 39 216 82 39 216 83 39 216 83 40 216 83 39
216 83 39 216 83 40 216 83 39 216 82 39 216 83 39 217 83 40 214 82 39
188 70 34 188 70 34 214 82 39 217 83 40 216 83 39 216 83 39 216 82 39
216 83 39 188 70 34 188 70 34 188 70 34 188 70 35 188 70 34 188 70 34
188 70 34 188 70 34 188 70 34 188 70 34 188 70 34 188 70 35 188 70 34
188 70 34 188 70 34 188 70 34 188 70 34 188 70 34 188 70 34 188 70 34
188 70 34 188 70 35 189 72 37 189 73 38 189 75 40 189 74 40 186 69 34
186 69 34 188 70 34 188 70 35 188 70 34 188 70 34 188 70 34 188 70 34
188 70 35 188 70 34 188 70 34 188 70 34 188 70 34 188 70 34 188 70 35
188 70 34 188 70 34 188 70 34 188 70 34 188 70 35 188 70 34 188 70 34
188 70 34 188 70 34 188 70 34 188 70 34 188 70 35 188 70 34 188 70 34
188 70 34 186 69 34 186 69 34 188 70 34 188 70 34 188 70 34 188 70 34
188 70 35 188 70 34
