P3
64 64
255
1 1 1 1 1 1 1 1 1 0 0 0 0 0 0 0 0 0 0 0 0 0 0 0 1 1 1 1 1 1 1 1 1
1 1 1 1 1 1 0 0 0 0 0 0 0 1 2 1 1 2 1 1 1 1 1 1 1 0 0 2 1 0 13 12 10
20 19 17 13 12 10 7 7 4 6 5 4 6 5 5 7 5 5 4 3 2 3 1 1 5 3 3 5 4 2
3 2 0 3 2 0 4 3 1 4 3 1 3 2 1 4 3 1 5 4 3 8 7 5 3 3 1 0 0 0 0 0 0
0 0 0 0 0 2 0 0 2 0 0 0 0 0 0 0 0 0 0 0 0 0 0 0 0 0 0 0 0 0 0 0 0
0 0 0 0 0 0 0 0 0 0 0 0 0 0 0 0 0 0 0 0 0 0 0 0 0 0 0 0 0 0 1 1 1
1 1 1 1 1 1 0 0 0 0 0 0 0 0 0 0 0 0 0 0 0 1 1 1 1 1 1 1 1 1 1 1 1
1 1 1 0 0 0 0 0 0 1 1 1 1 1 1 1 1 1 0 0 0 6 5 4 23 22 20 20 19 17
15 14 12 9 8 6 7 6 4 5 4 2 4 3 1 3 2 0 4 4 1 3 2 0 3 3 1 3 3 1 4 3 1
4 3 1 4 3 1 5 4 2 2 1 0 3 2 0 3 2 0 4 3 1 7 6 4 5 4 3 0 0 0 0 0 0
0 0 1 0 0 2 0 0 0 0 0 0 0 0 0 0 0 0 0 0 0 0 0 0 0 0 0 0 0 0 0 0 0
0 0 0 0 0 0 0 0 0 0 0 0 0 0 0 0 0 0 0 0 0 0 0 0 0 0 0 1 1 1 1 1 1
1 1 1 0 0 0 0 0 0 0 0 0 0 0 0 0 0 0 1 1 1 1 1 1 1 1 1 1 1 1 0 0 0
0 0 0 0 0 0 1 0 0 1 1 1 1 0 0 10 9 8 26 25 22 27 25 23 16 15 13
12 11 9 7 6 4 3 2 0 3 2 0 4 1 0 3 1 0 5 3 1 5 3 2 4 2 0 4 2 1 6 4 2
6 4 2 6 4 2 4 2 0 4 3 1 4 3 1 3 2 0 2 1 0 4 3 1 7 6 4 6 5 4 0 0 0
0 0 0 0 0 0 0 0 0 0 0 0 0 0 0 0 0 0 0 0 0 0 0 0 0 0 0 0 0 0 0 0 0
0 0 0 0 0 0 0 0 0 0 0 0 0 0 0 0 0 0 0 0 0 0 0 0 0 0 0 1 1 1 1 1 1
1 1 1 1 1 1 1 1 1 0 0 0 0 0 0 0 0 0 0 0 0 0 0 0 0 0 0 0 0 0 0 0 0
0 0 0 0 0 0 1 0 0 2 1 0 11 11 9 22 20 18 28 24 21 28 25 23 17 17 15
8 7 5 5 4 2 3 2 0 4 2 0 8 4 1 9 5 3 10 6 4 14 9 7 12 7 5 8 4 3 8 3 2
8 4 3 8 4 3 7 3 2 7 3 2 7 4 2 5 2 0 5 2 1 4 1 0 4 2 0 7 6 3 6 5 4
0 0 0 0 0 0 0 0 0 0 0 0 0 0 0 0 0 0 0 0 0 0 0 0 0 0 0 0 0 0 0 0 0
0 0 0 0 0 0 0 0 0 0 0 0 0 0 0 0 0 0 0 0 0 0 0 0 0 0 0 1 1 1 1 1 1
1 1 1 1 1 1 1 1 1 0 0 0 0 0 0 0 0 0 0 0 0 0 0 0 0 0 0 0 0 0 0 0 0
0 0 0 0 0 0 0 0 0 9 8 6 17 16 14 19 16 13 20 16 12 25 22 20 23 22 20
13 12 10 7 6 4 5 4 2 6 4 1 12 8 5 19 15 12 19 15 12 19 15 11 21 17 15
16 12 11 17 13 12 17 13 12 14 10 9 10 6 5 11 7 6 10 6 5 8 4 3 8 4 3
6 2 1 5 1 0 5 3 1 8 7 5 8 7 5 0 0 0 0 0 0 0 0 0 0 0 0 0 0 0 0 0 0
0 0 0 0 0 0 0 0 0 0 0 0 0 0 0 0 0 0 0 0 0 0 0 0 0 0 0 0 0 0 0 0 0
0 0 0 0 0 0 1 1 3 1 1 3 1 1 3 1 1 3 1 1 3 1 1 3 1 1 3 1 1 3 0 0 2
0 0 2 1 1 1 1 1 0 1 1 3 1 1 2 0 0 0 5 4 2 17 15 13 16 15 13 13 11 9
14 13 11 22 20 19 30 28 28 28 26 26 18 16 16 8 6 6 11 8 7 21 17 15
28 23 21 24 20 16 24 20 15 26 22 19 26 21 22 26 22 22 28 24 23
21 17 15 15 11 10 16 11 9 15 11 8 12 9 6 8 5 2 7 5 1 4 3 1 3 3 1
3 3 1 9 8 6 5 4 3 0 0 0 1 1 1 0 0 0 0 0 0 0 0 0 0 0 0 0 0 0 0 0 0
0 0 0 0 0 0 0 0 0 0 0 0 0 0 0 0 0 0 0 0 0 0 0 0 0 0 0 0 0 0 1 1 3
1 1 3 1 1 3 1 1 3 1 1 3 1 1 3 1 1 3 1 1 3 0 0 2 0 0 2 1 1 1 1 1 1
1 1 3 0 0 1 2 2 2 14 11 8 18 12 9 17 12 11 18 13 12 21 18 17 28 24 23
28 23 21 26 22 20 28 24 22 21 17 14 16 11 10 23 16 17 28 22 21
32 27 24 30 25 22 34 29 26 33 26 25 39 31 29 35 28 24 38 31 27
32 25 21 29 20 20 25 16 15 21 14 13 20 12 12 15 8 7 7 6 4 7 6 3 6 5 3
7 6 4 11 10 8 1 0 0 0 0 0 0 0 0 0 0 0 0 0 0 0 0 0 0 0 0 0 0 0 0 0 0
0 0 0 0 0 0 0 0 0 0 0 0 0 0 0 0 0 0 0 0 0 0 0 0 0 0 0 1 1 3 1 1 3
1 1 3 1 1 3 1 1 3 1 1 3 1 1 3 1 1 3 0 0 2 1 1 3 1 1 1 1 1 2 1 1 3
1 0 1 9 8 6 18 16 13 17 14 10 16 13 10 21 17 16 26 22 21 29 25 23
32 28 25 25 21 19 20 18 16 22 21 20 18 15 14 23 17 16 21 16 15
24 20 17 24 19 16 25 21 18 32 26 24 37 30 28 35 27 24 42 34 31
47 39 36 44 35 34 37 27 26 28 19 18 29 22 20 25 19 16 15 11 8 10 6 3
9 6 4 6 4 3 11 11 9 7 6 6 0 0 0 0 0 0 0 0 0 0 0 0 0 0 0 0 0 0 0 0 0
0 0 0 0 0 0 0 0 0 0 0 0 0 0 0 0 0 0 0 0 0 0 0 0 0 0 0 0 0 0 1 1 3
1 1 3 1 1 3 1 1 3 1 1 3 1 1 3 1 1 3 1 1 3 1 1 3 1 1 3 1 1 2 1 1 3
1 0 3 3 1 3 17 14 12 21 19 15 18 17 13 23 21 16 33 27 23 40 33 27
45 37 32 47 38 34 39 32 29 24 19 16 20 15 13 20 15 13 18 13 8
21 15 12 19 14 11 21 15 12 27 21 19 34 26 26 38 31 29 40 30 29
43 32 30 53 42 40 53 44 39 49 39 35 42 34 30 44 37 32 42 35 30
26 19 16 15 9 6 9 5 2 8 4 2 10 9 7 16 16 16 2 2 2 0 0 0 0 0 0 0 0 0
0 0 0 0 0 0 0 0 0 0 0 0 0 0 0 0 0 0 0 0 0 0 0 0 0 0 0 0 0 0 0 0 0
0 0 0 0 0 0 1 1 3 1 1 3 1 1 3 1 1 3 1 1 3 1 1 3 1 1 3 1 1 3 1 1 3
1 1 3 0 1 3 1 1 3 1 0 2 7 4 4 21 16 13 23 18 15 28 21 19 47 36 32
66 49 43 92 71 63 100 78 69 96 76 65 85 67 57 76 60 52 63 47 40
53 39 32 45 32 25 42 29 24 43 29 25 46 33 31 53 39 36 63 48 42
78 61 56 74 56 51 80 60 55 78 58 53 70 54 49 63 47 42 69 54 48
71 57 51 64 50 44 44 35 31 27 19 16 14 9 6 9 4 3 11 8 7 18 18 17
6 6 6 0 0 0 0 0 0 0 0 0 0 0 0 0 0 0 0 0 0 0 0 0 0 0 0 0 0 0 0 0 0
0 0 0 0 0 0 0 0 0 0 0 0 0 0 0 0 0 0 1 1 3 1 1 3 1 1 3 1 1 3 1 1 3
1 1 3 1 1 3 1 1 3 1 1 3 1 1 3 1 1 3 1 1 3 1 1 1 11 10 7 19 15 11
25 24 20 48 37 34 92 68 62 117 89 77 139 110 96 146 116 102
151 120 104 148 116 99 147 116 99 144 114 100 142 114 100 134 105 94
125 97 86 125 97 88 127 101 93 136 110 101 144 116 106 155 126 115
160 129 118 155 122 109 147 114 102 134 105 93 118 90 80 112 85 75
107 81 72 95 71 63 81 62 53 42 30 24 20 16 13 11 9 7 11 6 5 20 16 13
12 11 9 0 0 0 0 0 0 0 0 0 0 0 0 0 0 0 0 0 0 0 0 0 0 0 0 0 0 0 0 0 0
0 0 0 0 0 0 0 0 0 0 0 0 0 0 0 0 0 0 1 1 3 1 1 3 1 1 3 1 1 3 1 1 3
1 1 3 1 1 3 1 1 3 1 1 3 1 1 3 1 1 3 0 1 2 3 3 2 14 13 10 19 16 11
30 28 23 66 53 47 122 95 86 141 114 100 149 122 109 158 130 116
153 123 107 155 121 104 152 116 98 153 117 100 160 125 109
163 128 112 166 132 118 166 134 121 164 133 122 170 140 129
172 143 132 178 148 136 176 144 131 174 141 127 177 143 128
177 145 132 174 144 131 169 140 128 162 135 123 159 132 121
141 114 103 68 51 44 28 21 18 16 13 11 12 8 6 20 15 11 19 17 15 0 0 0
0 0 0 0 0 0 0 0 0 0 0 0 0 0 0 0 0 0 0 0 0 0 0 0 0 0 0 0 0 0 0 0 0
0 0 0 0 0 0 0 0 0 0 0 0 1 1 3 1 1 3 1 1 3 1 1 3 1 1 3 1 1 3 1 1 3
1 1 3 1 1 3 1 1 3 1 1 3 0 0 1 8 7 7 18 15 13 23 19 15 35 30 24
79 63 55 141 116 107 151 127 114 158 135 125 164 137 128 158 128 116
156 123 108 155 119 102 158 121 104 161 124 108 162 126 110
165 131 115 168 136 121 167 135 122 172 142 131 175 149 138
181 154 142 180 151 140 182 152 140 181 152 138 182 153 139
186 157 145 188 160 148 188 160 149 187 159 148 177 147 138 102 80 73
42 32 27 25 20 17 15 11 8 19 14 11 25 23 21 1 1 1 0 0 0 0 0 0 0 0 0
0 0 0 0 0 0 0 0 0 0 0 0 0 0 0 0 0 0 0 0 0 0 0 0 0 0 0 0 0 0 0 0 0
0 0 0 1 1 3 1 1 3 1 1 3 1 1 3 1 1 3 1 1 3 1 1 3 1 1 3 1 1 3 1 1 3
1 1 3 0 0 1 12 10 10 20 16 14 28 24 20 44 36 31 94 76 69 153 129 120
158 136 125 165 142 135 166 139 131 159 129 117 155 123 108
160 124 108 165 128 113 162 126 111 165 129 113 167 133 117
173 140 126 172 141 129 178 148 137 178 151 140 184 156 146
188 160 149 190 162 151 190 163 151 187 159 147 188 160 148
191 163 151 189 162 149 184 157 145 180 151 141 122 99 91 56 43 36
38 31 27 23 19 15 21 16 12 31 29 27 4 4 4 0 0 0 0 0 0 0 0 0 0 0 0
0 0 0 0 0 0 0 0 0 0 0 0 0 0 0 0 0 0 0 0 0 0 0 0 0 0 0 0 0 0 0 0 0
1 1 3 1 1 3 1 1 3 1 1 3 1 1 3 1 1 3 1 1 3 1 1 3 1 1 3 1 1 3 1 1 3
1 0 1 16 13 14 22 17 15 34 29 25 49 43 38 106 91 84 158 136 127
160 140 129 166 144 136 163 135 126 154 122 109 155 121 106
162 126 111 166 132 119 165 132 118 163 130 115 166 134 121
169 138 127 172 143 132 178 149 139 180 151 143 178 149 141
182 153 144 191 162 154 191 163 154 184 158 145 186 160 147
188 162 149 186 159 146 186 158 146 176 150 139 132 112 101 73 60 51
48 40 35 30 25 21 24 20 16 36 34 32 5 5 5 0 0 0 0 0 0 0 0 0 0 0 0
0 0 0 0 0 0 0 0 0 0 0 0 0 0 0 0 0 0 0 0 0 0 0 0 0 0 0 0 0 0 0 0 0
1 1 3 1 1 3 1 1 3 2 2 4 2 2 4 1 1 3 1 1 3 1 1 3 1 1 3 1 1 3 1 1 3
2 1 3 21 18 17 24 20 17 41 37 34 61 52 46 117 101 93 163 140 134
161 138 129 163 140 129 162 134 123 156 124 111 157 121 108
161 123 110 162 127 115 168 134 121 166 132 118 171 138 126
168 137 125 170 139 129 173 143 133 176 147 139 171 142 134
176 147 139 185 156 148 185 157 148 185 158 146 186 158 146
184 157 145 181 154 142 185 159 146 173 148 137 124 105 96 84 71 64
56 47 43 37 30 27 29 24 21 37 33 31 10 8 8 0 0 0 0 1 1 0 0 0 0 0 0
0 0 0 0 0 0 0 0 0 0 0 0 0 0 0 0 0 0 0 0 0 0 0 0 0 0 0 0 0 0 0 0 0
2 2 4 2 2 4 2 2 4 2 2 4 2 2 4 1 1 3 1 1 3 1 1 3 1 1 3 1 1 3 1 1 4
4 4 5 24 22 21 30 26 23 51 45 42 79 66 62 138 118 113 164 141 136
165 140 132 161 137 125 160 134 121 159 126 113 156 119 105
156 117 103 160 122 109 160 126 112 166 132 118 172 138 126
170 137 125 172 140 129 174 142 131 177 146 137 179 148 138
179 149 139 185 157 146 186 157 147 185 157 145 186 156 145
185 155 144 185 157 145 187 163 150 165 141 130 114 95 88 86 73 69
65 55 53 46 39 36 34 29 26 40 36 33 15 12 11 0 0 0 0 1 1 0 0 1 0 0 0
0 0 0 0 0 0 0 0 0 0 0 0 0 0 0 0 0 0 0 0 0 0 0 0 0 0 0 0 0 0 0 0 0
2 2 4 2 2 4 2 2 4 2 2 4 2 2 4 2 2 4 2 2 4 2 2 4 2 2 4 2 2 4 1 1 3
5 5 6 30 28 28 39 33 31 63 54 49 96 80 76 150 129 125 164 142 136
162 138 129 158 134 122 156 129 115 156 123 110 159 121 106
158 119 104 162 124 109 167 132 119 170 136 125 168 134 123
165 131 121 168 135 125 165 132 122 166 132 122 176 142 132
177 146 135 181 150 139 184 154 142 180 153 138 184 155 142
185 155 144 187 159 149 190 163 154 167 144 134 114 95 87 88 74 69
74 64 62 55 49 47 43 38 35 42 38 35 21 18 17 0 0 0 1 1 1 0 0 1 0 0 0
0 0 0 0 0 0 0 0 0 0 0 0 0 0 0 0 0 0 0 0 0 0 0 0 0 0 0 0 0 0 0 0 0
2 2 4 2 2 4 2 2 4 2 2 4 2 2 4 2 2 4 2 2 4 2 2 4 2 2 4 2 2 4 1 1 2
8 8 8 35 33 34 44 36 34 80 66 60 114 95 89 147 126 120 159 139 131
163 141 132 163 139 129 161 134 122 160 128 116 160 123 109
162 123 109 169 132 118 172 138 126 176 143 133 168 135 125
165 131 121 169 135 125 162 128 118 166 132 122 176 142 132
175 143 132 181 149 138 184 153 141 185 157 142 186 155 142
187 156 145 186 157 147 187 159 150 176 153 142 132 110 101 100 84 76
81 70 65 59 52 49 48 43 40 46 41 38 24 20 20 0 0 0 0 1 2 0 0 1 0 0 0
0 0 0 0 0 0 0 0 0 0 0 0 0 0 0 0 0 0 0 0 0 0 0 0 0 0 0 0 0 0 0 0 0
2 2 4 2 2 4 2 2 4 2 2 4 2 2 4 2 2 4 2 2 4 2 2 4 2 2 4 2 2 5 0 0 1
0 0 1 31 30 32 48 38 37 108 91 86 140 119 110 143 121 112 155 136 126
166 145 137 173 149 144 168 142 134 162 133 122 164 129 118
167 130 118 169 134 122 171 138 128 175 142 133 170 137 128
167 133 123 168 134 124 166 132 121 171 139 129 176 143 133
182 151 140 187 157 146 187 156 146 188 158 147 191 159 148
185 153 142 186 156 145 186 160 147 180 154 142 168 144 131
136 116 105 94 79 72 63 54 50 53 48 45 47 43 40 26 22 22 0 0 0 0 1 2
0 0 1 0 0 0 0 0 0 0 0 0 0 0 0 0 0 0 0 0 0 0 0 0 0 0 0 0 0 0 0 0 0
0 0 0 0 0 0 2 2 4 2 2 4 2 2 4 2 2 4 2 2 4 2 2 4 2 2 4 2 2 4 2 2 4
0 1 3 9 7 7 57 44 37 44 33 31 47 42 41 116 99 90 140 119 106
142 121 111 158 139 131 168 148 141 172 148 144 171 142 133
165 134 120 163 129 116 165 129 117 166 131 120 166 132 122
169 137 126 172 138 129 166 132 123 170 136 127 176 143 133
177 145 135 179 147 137 188 157 148 192 163 154 186 157 148
185 157 146 191 162 152 189 160 150 189 160 149 185 156 144
177 150 139 177 149 137 177 149 137 123 104 95 66 56 51 57 50 47
49 46 44 13 11 12 0 0 0 1 2 4 0 0 1 0 0 0 0 0 0 0 0 0 0 0 0 0 0 0
0 0 0 0 0 0 0 0 0 0 0 0 0 0 0 0 0 0 0 0 0 2 2 4 2 2 4 2 2 4 2 2 4
2 2 4 2 2 4 2 2 4 2 2 4 3 3 5 0 0 0 39 29 29 140 103 89 70 45 40
28 22 23 118 99 90 142 121 108 140 119 110 140 121 115 125 106 103
125 105 102 132 108 103 132 105 97 132 101 93 145 108 99 154 113 103
156 117 108 166 131 123 164 127 121 162 124 119 170 133 129
177 141 135 169 131 122 171 136 127 175 141 132 182 150 143
181 148 142 178 140 133 171 136 130 178 148 143 188 164 154
179 158 144 173 149 136 173 145 131 176 148 133 133 115 105 68 61 55
64 57 54 44 35 33 37 25 22 52 43 39 3 1 2 0 0 1 0 0 0 0 0 0 0 0 0
0 0 0 0 0 0 0 0 0 0 0 0 0 0 0 0 0 0 0 0 0 0 0 0 0 0 0 2 2 4 2 2 4
2 2 4 2 2 4 2 2 4 2 2 4 2 2 4 2 2 4 3 3 5 0 0 0 59 39 37 116 70 58
106 76 72 43 32 33 63 47 42 86 72 65 90 74 68 74 58 53 69 52 48
68 50 46 56 38 36 54 35 33 60 36 33 84 54 48 109 74 66 138 102 91
152 117 102 151 112 98 157 117 104 160 122 109 164 126 116 144 105 97
130 93 85 111 77 71 111 79 74 101 72 66 101 73 67 118 87 81
134 102 97 162 132 127 178 151 145 178 149 139 184 153 141
187 158 147 141 119 113 67 55 53 46 38 34 66 41 37 156 119 110
153 116 107 38 26 24 0 0 0 1 1 1 0 0 0 0 0 0 0 0 0 0 0 0 0 0 0 0 0 0
0 0 0 0 0 0 0 0 0 0 0 0 0 0 0 2 2 4 2 2 4 2 2 4 2 2 4 2 2 4 2 2 4
2 2 4 2 2 4 4 4 6 0 0 0 65 45 41 91 49 37 111 83 78 63 52 48 49 38 31
3 2 2 18 13 13 65 52 46 92 73 65 96 74 66 85 66 57 73 55 46 63 44 37
59 40 32 59 41 34 77 53 47 100 68 59 115 78 69 128 90 81 131 95 86
120 87 80 96 65 56 77 49 41 68 42 35 64 42 35 66 47 40 73 55 49
94 71 63 94 69 61 82 60 56 108 89 86 133 116 110 133 116 108 99 83 76
54 42 38 52 46 44 78 63 56 153 116 109 170 123 110 125 68 59 79 56 52
0 0 0 2 2 2 0 0 0 0 0 0 0 0 0 0 0 0 0 0 0 0 0 0 0 0 0 0 0 0 0 0 0
0 0 0 0 0 0 3 3 5 3 3 5 3 3 5 2 2 4 2 2 4 2 2 4 2 2 4 3 3 5 5 4 6
0 0 0 50 33 31 113 78 68 131 105 100 88 71 62 135 119 110 39 35 33
70 62 57 91 75 66 90 72 63 87 72 66 69 57 54 65 54 50 60 49 44
57 44 40 59 45 40 41 30 25 32 21 19 47 29 25 51 31 27 38 21 19
48 31 27 87 62 53 89 66 57 80 59 52 81 62 55 104 83 77 124 96 91
123 93 85 128 102 92 73 60 53 0 0 0 28 21 16 37 30 21 22 16 6
37 30 22 74 66 59 155 128 117 177 136 129 150 111 101 150 89 85
103 71 67 0 0 0 2 1 1 0 0 0 0 0 0 0 0 0 0 0 0 0 0 0 0 0 0 0 0 0 0 0 0
0 0 0 0 0 0 0 0 0 3 3 5 3 3 5 3 3 5 2 2 4 2 2 4 3 3 5 3 3 5 3 3 5
4 4 6 0 0 1 34 22 21 139 105 97 111 80 77 100 77 67 155 133 121
127 114 105 130 115 104 110 92 81 66 49 41 79 66 65 60 54 55 10 6 6
58 47 47 63 48 46 45 27 24 65 49 43 91 70 64 125 92 83 150 116 104
121 94 84 112 88 78 99 71 62 78 52 45 71 50 45 51 37 32 43 34 29
62 49 45 82 61 53 92 67 57 116 95 86 49 33 28 101 77 70 142 118 109
157 133 125 152 128 119 100 75 67 146 110 100 173 128 121 174 141 129
168 112 108 118 84 82 0 0 0 1 1 1 0 0 0 0 0 0 0 0 0 0 0 0 0 0 0 0 0 0
0 0 0 0 0 0 0 0 0 0 0 0 0 0 0 3 3 5 3 3 5 3 3 5 3 3 5 3 3 5 3 3 5
3 3 5 3 3 5 4 4 6 0 0 0 33 26 24 114 79 70 50 16 12 100 77 67
152 131 115 140 125 114 141 126 115 145 127 117 140 122 114
128 110 105 94 78 74 82 65 60 114 92 88 120 99 95 86 69 63 85 72 65
95 73 68 156 117 109 173 137 123 152 125 112 112 88 77 126 100 89
100 71 64 95 69 67 87 72 71 27 20 19 54 44 45 87 71 67 100 77 69
132 108 99 126 102 94 163 135 122 181 153 141 187 160 148 165 138 126
112 88 76 122 88 78 160 110 104 181 143 127 178 127 119 99 71 70
0 0 0 2 2 2 0 0 0 0 0 0 0 0 0 0 0 0 0 0 0 0 0 0 0 0 0 0 0 0 0 0 0
0 0 0 0 0 0 3 3 5 3 3 5 3 3 5 3 3 5 3 3 5 3 3 5 3 3 5 3 3 5 4 4 6
0 0 0 35 28 26 108 74 65 46 13 8 108 85 75 150 127 113 146 127 117
139 120 109 150 130 118 152 131 122 141 119 112 128 103 97 131 102 98
134 105 100 136 111 105 125 106 98 96 80 73 117 93 86 164 127 118
170 135 123 165 137 125 110 87 76 131 110 100 130 102 96 123 91 89
127 97 96 129 102 101 133 112 107 148 124 116 179 151 141 174 147 138
154 128 120 184 155 142 188 160 146 180 152 139 166 138 126
136 109 97 113 77 66 107 54 49 149 101 90 186 136 129 58 41 38 0 0 0
2 2 2 0 0 0 0 0 0 0 0 0 0 0 0 0 0 0 0 0 0 0 0 0 0 0 0 0 0 0 0 0 0
0 0 0 3 3 5 3 3 5 3 3 5 3 3 5 3 3 5 3 3 5 3 3 5 3 3 5 4 4 6 0 0 0
32 27 26 135 102 93 87 54 48 119 96 84 145 122 108 152 132 122
144 124 113 146 124 114 138 113 103 146 119 110 143 120 109
141 120 108 150 126 116 156 131 122 147 122 115 111 89 81 143 117 109
163 127 119 176 143 130 171 144 130 150 125 114 157 132 124
150 122 115 142 113 108 147 121 116 153 130 123 155 133 122
163 140 128 174 150 138 164 141 130 164 141 130 191 164 150
190 162 148 182 154 140 163 134 122 152 123 111 176 138 126
157 107 100 148 94 86 181 136 130 34 26 23 0 0 0 2 1 1 0 0 0 0 0 0
0 0 0 0 0 0 0 0 0 0 0 0 0 0 0 0 0 0 0 0 0 0 0 0 0 0 0 3 3 5 3 3 5
3 3 5 3 3 5 3 3 5 3 3 5 3 3 5 3 3 5 4 4 6 0 0 1 30 25 25 150 118 107
129 97 89 116 94 81 144 119 106 157 136 129 155 135 127 170 150 143
151 126 119 142 114 103 149 122 111 154 129 117 158 133 122
164 139 130 144 118 112 125 100 92 154 125 115 160 124 115
178 147 135 176 148 136 163 135 124 187 160 151 184 155 147
167 139 131 165 139 132 166 143 134 167 144 131 165 142 130
169 146 134 166 143 130 187 163 151 193 168 154 192 165 152
176 149 137 158 130 119 160 131 120 177 138 126 154 111 100
165 116 106 165 128 121 20 15 13 0 0 0 1 1 1 0 0 0 0 0 0 0 0 0 0 0 0
0 0 0 0 0 0 0 0 0 0 0 0 0 0 0 0 0 0 0 0 0 3 3 5 3 3 5 3 3 5 3 3 5
3 3 5 3 3 5 3 3 5 3 3 5 4 4 6 0 0 1 29 24 23 134 103 94 129 94 86
121 98 84 139 116 104 160 139 133 156 134 128 156 132 127 167 142 135
149 121 110 152 121 111 156 124 115 151 121 113 139 112 105 93 69 63
130 106 98 160 131 120 163 131 121 179 151 140 182 156 144
156 128 116 165 137 125 189 160 152 184 156 150 176 147 142
173 144 137 172 146 137 169 142 134 163 136 128 184 157 148
201 173 163 193 170 156 190 165 153 171 145 133 155 128 117
160 130 121 153 112 101 179 141 129 189 147 137 146 115 110 5 3 2
0 1 1 1 0 0 0 0 0 0 0 0 0 0 0 0 0 0 0 0 0 0 0 0 0 0 0 0 0 0 0 0 0
0 0 0 0 0 0 4 4 6 4 4 6 4 4 6 4 4 6 4 4 6 4 4 6 4 4 6 4 4 6 5 5 7
0 0 2 21 16 14 130 104 99 137 101 91 118 95 80 135 115 103
158 134 127 164 139 132 159 130 123 152 123 114 147 119 108
142 116 105 142 114 104 140 110 102 114 84 78 101 73 68 152 125 118
163 132 124 174 142 135 188 160 151 195 169 158 167 136 124
143 108 95 160 131 122 174 149 142 174 149 142 165 139 130
161 134 126 161 134 126 182 155 146 195 170 162 197 173 163
193 169 156 187 161 148 167 141 126 154 127 114 159 130 119
177 141 128 188 155 141 194 161 152 112 88 85 0 0 0 2 4 4 1 0 0 0 0 0
1 1 1 1 1 1 0 0 0 0 0 0 0 0 0 0 0 0 0 0 0 0 0 0 0 0 0 0 0 0 4 4 6
4 4 6 4 4 6 4 4 6 4 4 6 4 4 6 4 4 6 4 4 6 3 3 5 5 5 7 1 0 0 90 72 70
137 111 103 111 90 77 132 110 96 152 129 119 164 143 133 173 147 137
172 143 132 168 138 127 164 130 119 163 126 116 149 112 103 115 80 73
139 109 102 139 111 104 146 112 108 164 128 123 173 143 135
179 147 139 189 155 146 157 123 112 151 114 101 167 130 117
173 140 131 170 140 134 178 149 141 193 165 156 197 169 160
199 172 163 198 172 162 189 163 151 178 152 139 161 135 120
153 126 113 158 130 119 168 139 121 179 141 126 188 157 148 54 43 39
0 0 0 3 3 4 0 0 0 0 0 0 1 1 1 1 1 1 1 1 1 0 0 0 0 0 0 0 0 0 0 0 0
0 0 0 0 0 0 0 0 0 4 4 6 4 4 6 4 4 6 4 4 6 4 4 6 4 4 6 4 4 6 4 4 6
4 4 6 4 4 6 3 2 4 12 5 6 35 22 20 91 75 66 131 108 94 140 118 106
153 133 121 158 132 121 154 125 113 154 120 109 152 115 103
145 108 95 119 84 74 92 61 52 119 96 86 86 64 55 106 78 72 122 92 86
113 86 77 131 103 95 185 154 146 175 142 131 142 101 86 148 104 87
170 130 119 180 145 138 187 155 146 193 163 153 192 164 154
194 167 156 194 167 156 184 157 145 172 146 132 153 127 112
153 127 114 157 131 119 178 143 130 199 155 147 144 116 110 5 4 1
0 1 3 2 1 2 1 1 1 1 1 1 0 0 0 0 0 0 0 0 0 0 0 0 0 0 0 0 0 0 0 0 0
0 0 0 0 0 0 0 0 0 4 4 6 4 4 6 4 4 6 4 4 6 4 4 6 4 4 6 4 4 6 4 4 6
4 4 6 4 4 6 5 4 6 4 5 7 0 0 0 65 52 48 130 108 96 131 108 94
136 113 101 142 117 104 143 114 101 143 109 97 140 104 90 129 93 80
112 78 67 87 58 49 84 61 53 66 48 40 78 58 50 85 60 53 68 45 37
60 35 25 120 88 80 167 130 121 163 123 110 133 91 77 143 103 91
168 131 121 174 141 131 179 147 136 183 153 142 186 159 146
182 156 143 178 150 138 167 139 127 149 123 108 157 131 117
151 125 113 91 65 61 92 71 69 30 19 18 0 0 0 2 3 5 1 1 1 1 1 1 1 1 1
0 0 0 0 0 0 0 0 0 0 0 0 0 0 0 0 0 0 0 0 0 0 0 0 0 0 0 0 0 0 4 4 6
4 4 6 4 4 6 4 4 6 4 4 6 4 4 6 4 4 6 4 4 6 4 4 6 4 4 6 4 4 5 4 6 8
0 1 3 42 33 32 125 106 95 133 107 95 128 103 91 131 105 92 131 102 88
130 97 83 128 92 78 122 86 74 115 81 72 118 88 81 115 89 83 119 97 89
101 77 70 94 67 60 115 89 82 106 77 70 119 85 78 167 130 121
174 137 128 153 115 104 132 94 82 151 114 101 161 126 115 164 131 120
170 139 128 175 147 134 176 149 136 173 145 133 161 133 120
149 124 109 156 131 117 140 116 105 17 11 10 0 0 0 0 0 1 5 1 4 3 2 4
1 1 2 1 1 1 1 1 1 0 0 0 0 0 0 0 0 0 0 0 0 0 0 0 0 0 0 0 0 0 0 0 0
0 0 0 0 0 0 4 4 6 4 4 6 4 4 6 4 4 6 4 4 6 4 4 6 4 4 6 4 4 6 4 4 6
4 4 6 4 4 6 5 4 6 1 2 5 19 15 15 117 98 88 139 114 101 135 111 98
132 105 92 129 99 85 126 92 78 124 91 79 107 77 67 107 82 73
138 115 106 146 122 112 146 118 107 148 117 107 127 97 87 151 121 111
176 146 136 167 137 127 159 129 118 155 119 110 156 117 107
139 102 89 135 100 85 151 116 102 155 122 107 161 129 115 166 137 123
170 141 128 168 139 128 158 130 117 148 123 109 153 131 118
120 100 90 6 4 4 2 3 5 2 2 4 1 1 3 1 1 3 1 1 3 0 0 3 0 0 1 0 0 0
0 0 0 0 0 0 0 0 0 0 0 0 0 0 0 0 0 0 0 0 0 0 0 0 0 0 0 4 4 6 4 4 6
4 4 6 4 4 6 4 4 6 4 4 6 4 4 6 4 4 6 4 4 6 4 4 6 3 4 6 4 4 6 4 4 8
3 0 1 92 77 68 138 115 102 136 112 99 137 109 97 135 105 91 121 87 72
96 68 56 67 45 38 103 82 75 132 108 102 126 96 89 128 93 85
153 117 106 155 120 109 157 123 111 162 129 117 168 134 123
173 139 129 159 128 116 134 105 91 141 111 96 141 107 92 145 110 94
151 119 102 159 127 111 162 133 117 166 137 122 166 138 126
156 129 115 147 122 108 155 133 120 108 87 78 0 0 0 2 3 5 1 1 3 1 1 3
1 1 3 1 1 3 0 0 3 0 0 1 0 0 0 0 0 0 0 0 0 0 0 0 0 0 0 0 0 0 0 0 0
0 0 0 0 0 0 0 0 0 4 4 6 4 4 6 4 4 6 4 4 6 4 4 6 4 4 6 4 4 6 4 4 6
4 4 6 4 4 6 4 4 7 4 4 6 5 5 9 0 0 0 57 47 41 136 115 104 130 105 93
132 104 92 137 107 93 135 102 85 94 68 54 50 29 21 61 39 32 92 64 60
105 71 66 100 58 54 103 55 51 110 65 61 125 81 76 123 80 75 119 75 71
116 77 71 117 87 78 83 59 48 98 70 60 139 105 94 148 114 95
155 122 105 162 130 113 163 134 116 166 137 121 164 136 124
153 126 112 144 120 105 157 134 121 111 90 81 1 0 0 1 2 4 1 1 3 1 1 3
1 1 3 1 1 3 1 1 3 1 1 2 1 1 1 0 0 0 0 0 0 0 0 0 0 0 0 0 0 0 0 0 0
0 0 0 0 0 0 0 0 0 4 4 6 4 4 6 5 5 7 4 4 6 4 4 6 4 4 6 4 4 6 4 4 6
4 4 6 4 4 6 4 3 7 5 3 6 5 5 8 0 0 3 28 23 20 124 104 96 126 100 90
127 99 87 137 107 93 152 119 102 143 112 96 99 70 58 99 71 61
126 97 89 127 94 86 124 84 79 131 85 84 134 88 87 150 103 103
159 112 112 148 102 100 134 93 85 116 82 72 114 84 73 77 47 36
124 89 78 156 122 106 157 125 108 160 128 112 161 131 116 162 133 119
159 132 120 145 119 104 143 119 104 156 132 120 119 96 88 8 5 5 0 1 3
2 2 3 1 1 3 1 1 3 1 1 3 1 1 3 1 1 3 1 1 1 0 0 0 0 0 0 0 0 0 0 0 0
0 0 0 0 0 0 0 0 0 0 0 0 0 0 0 4 4 6 4 4 6 5 5 7 4 4 6 4 4 6 4 4 6
4 4 6 4 4 6 5 5 7 5 5 7 4 3 7 5 3 5 4 4 6 3 4 8 6 4 3 98 81 73
125 100 89 122 95 82 137 106 92 147 114 98 149 114 96 129 93 76
133 101 87 133 103 92 107 75 65 87 53 44 89 54 45 96 59 51 96 57 50
114 72 67 131 90 80 144 106 88 154 116 99 166 130 113 138 103 87
134 100 84 158 124 109 155 122 108 158 125 112 159 130 116
160 131 118 153 127 114 140 114 100 152 127 113 158 134 122 107 85 76
0 0 0 3 4 6 2 2 3 1 1 3 1 1 3 1 1 3 1 1 3 1 1 3 1 1 1 0 0 0 0 0 0
0 0 0 0 0 0 0 0 0 0 0 0 0 0 0 0 0 0 0 0 0 5 5 7 5 5 7 5 5 7 5 5 7
4 4 6 5 5 7 5 5 7 5 5 7 4 4 6 5 5 7 4 4 6 4 4 6 4 4 6 6 6 8 0 0 0
54 45 41 121 100 90 119 90 78 129 96 81 137 106 91 142 113 97
145 115 98 150 118 103 150 117 102 140 106 92 130 94 81 125 88 74
127 90 75 134 96 81 140 102 87 156 118 103 169 132 114 166 129 112
159 123 106 152 118 101 146 113 96 155 121 107 153 121 105
155 123 107 156 126 111 157 127 115 144 116 103 142 115 104
157 130 117 150 124 110 142 124 114 40 37 38 0 0 0 4 4 6 2 1 3 2 0 3
1 1 3 1 1 3 1 1 3 1 1 3 0 0 2 0 0 1 0 0 0 0 0 0 0 0 0 0 0 0 0 0 0
0 0 0 0 0 0 5 5 7 5 5 7 5 5 7 5 5 7 4 4 6 5 5 7 5 5 7 5 5 7 5 5 7
5 5 7 4 4 6 4 4 6 4 4 6 5 5 7 3 3 6 15 9 7 99 84 75 117 94 81
120 92 77 129 103 88 141 114 100 147 119 104 151 123 108 156 125 112
155 122 109 155 120 107 158 120 107 163 125 111 170 133 119
168 132 118 169 133 119 176 140 126 169 136 120 158 124 108
155 122 105 145 113 97 148 115 102 148 116 100 148 118 102
152 123 109 150 122 109 137 112 98 145 120 108 157 128 115
145 118 104 163 145 136 175 174 175 12 13 15 1 1 3 3 2 5 2 1 4 1 1 3
1 1 3 1 1 3 1 1 3 0 0 2 0 0 1 0 0 0 0 0 0 0 0 0 0 0 0 0 0 0 0 0 0
0 0 0 5 5 7 5 5 7 5 5 7 5 5 7 5 5 7 5 5 7 5 5 7 5 5 7 4 4 6 4 4 6
4 4 6 4 4 6 4 4 6 4 4 6 5 5 7 1 0 0 48 39 35 111 93 81 115 92 78
119 98 85 133 111 99 145 121 108 150 123 111 150 121 109 151 121 109
156 122 110 152 116 102 157 122 109 172 138 125 180 147 135
179 146 135 178 147 135 173 142 129 170 140 125 162 131 116
147 116 101 142 110 97 145 115 99 144 116 99 148 121 107 140 113 101
137 114 99 148 123 110 154 124 110 147 119 106 151 133 126
227 226 228 85 87 91 0 0 0 6 6 8 2 2 4 1 1 3 1 1 3 1 1 3 1 1 3 1 1 3
0 0 1 0 0 0 0 0 0 0 0 0 0 0 0 0 0 0 0 0 0 0 0 0 5 5 7 5 5 7 5 5 7
5 5 7 5 5 7 5 5 7 5 5 7 5 5 7 4 4 6 4 4 6 5 5 7 5 5 7 4 4 6 4 4 6
5 5 7 3 4 7 9 5 5 85 70 61 103 84 71 104 84 75 117 99 90 133 113 102
142 119 108 151 124 113 151 122 111 150 119 106 142 108 94 118 85 72
140 109 97 164 134 123 170 141 130 170 143 133 168 140 129
169 141 129 161 133 119 149 120 106 144 114 102 145 116 101
144 116 101 138 112 98 132 106 94 140 114 100 149 122 109 154 123 108
149 121 108 153 138 132 220 220 224 193 194 199 27 28 32 0 0 0 4 4 6
1 1 3 1 1 3 1 1 3 1 1 3 1 1 3 1 1 2 1 1 1 1 1 1 0 0 0 0 0 0 0 0 0
0 0 0 0 0 0 5 5 7 5 5 7 5 5 7 5 5 7 5 5 7 5 5 7 5 5 7 5 5 7 5 5 7
5 5 7 4 4 6 5 5 7 5 5 7 5 5 7 5 5 7 5 6 12 3 0 2 64 52 44 101 81 70
97 77 70 103 85 78 114 97 88 123 103 93 130 106 95 136 109 98
135 105 93 131 98 85 104 72 60 129 99 88 145 116 105 148 121 111
161 137 127 163 138 127 158 131 119 148 121 108 141 113 100
136 107 94 132 104 90 133 106 92 127 102 89 131 106 94 143 116 102
151 122 108 160 128 113 152 127 114 175 164 159 225 227 233
235 237 243 152 153 157 0 0 0 4 4 6 1 1 3 1 1 3 1 1 3 1 1 3 1 1 3
1 1 2 1 1 1 1 1 1 0 0 0 0 0 0 0 0 0 0 0 0 0 0 0 5 5 7 5 5 7 5 5 7
5 5 7 5 5 7 5 5 7 5 5 7 5 5 7 5 5 7 5 5 7 5 5 7 5 5 7 5 5 7 5 5 7
5 5 7 7 7 8 0 0 0 68 58 54 113 90 78 95 75 67 94 77 72 92 75 66
95 78 71 96 77 69 103 79 73 114 86 78 124 96 85 98 71 60 110 84 73
127 99 89 139 112 102 144 120 110 147 123 111 137 113 101 129 106 93
127 103 90 130 103 90 125 101 88 122 99 86 127 102 89 134 108 94
145 119 102 158 127 110 161 130 113 152 130 121 204 195 194
230 232 236 224 227 234 219 220 225 41 42 45 0 0 0 4 4 5 1 1 3 1 1 3
1 1 3 1 1 3 1 1 3 1 1 2 0 0 2 0 0 0 0 0 0 0 0 0 0 0 0 0 0 0 5 5 7
5 5 7 5 5 7 5 5 7 5 5 7 5 5 7 5 5 7 5 5 7 5 5 7 5 5 7 5 5 7 5 5 7
5 5 7 5 5 7 7 7 9 0 0 0 47 45 46 124 112 106 113 90 77 104 83 73
95 78 72 88 71 64 78 64 57 75 60 53 71 54 47 78 57 51 89 67 59
76 56 48 78 58 50 88 67 59 100 78 71 104 84 77 112 91 83 115 94 83
118 96 83 114 91 79 118 95 84 118 96 85 119 96 84 121 95 82
134 106 91 152 123 106 164 130 111 159 127 110 168 151 143
227 226 227 230 233 237 223 226 233 236 237 244 98 99 103 0 0 0 6 5 7
2 2 4 1 1 3 1 1 3 1 1 3 1 1 3 1 1 3 0 0 2 0 0 0 0 0 0 0 0 0 0 0 0
0 0 0 5 5 7 5 5 7 5 5 7 5 5 7 5 5 7 5 5 7 5 5 7 5 5 7 5 5 7 5 5 7
5 5 7 5 5 7 5 5 7 7 7 9 2 2 4 17 17 19 134 128 127 93 77 68 115 93 80
114 92 79 100 81 72 93 75 68 78 65 57 68 57 48 61 50 44 61 47 42
65 50 45 67 53 48 65 51 46 65 51 45 69 54 49 77 61 56 87 69 62
103 83 74 110 87 76 112 88 77 111 90 80 112 89 78 108 81 68 123 93 77
147 115 98 161 126 111 164 129 112 159 132 118 205 196 191
230 235 240 227 231 236 221 223 230 244 244 252 143 144 149 0 0 0
4 4 6 2 2 4 1 1 3 1 1 3 1 1 3 1 1 3 1 1 3 0 0 2 0 0 0 0 0 0 0 0 0
0 0 0 0 0 0 5 5 7 5 5 7 5 5 7 5 5 7 5 5 7 5 5 7 5 5 7 5 5 7 5 5 7
5 5 7 5 5 7 5 5 7 5 5 7 8 8 10 0 0 0 107 107 108 127 117 112 74 53 41
112 90 78 125 103 90 113 90 79 100 80 71 88 72 63 78 64 56 72 59 51
69 55 49 69 55 50 72 57 52 71 56 51 70 56 50 72 59 52 78 62 56
87 69 62 99 80 71 105 83 72 106 82 72 99 74 64 99 71 58 117 84 68
143 109 91 154 119 100 165 128 111 151 124 112 187 175 169
231 230 232 228 232 238 222 226 231 226 229 235 244 244 252
165 165 172 11 12 17 7 6 9 1 1 3 2 2 4 1 1 3 1 1 3 1 1 3 1 1 3 0 0 2
1 1 1 1 1 1 0 0 0 0 0 0 0 0 0 5 5 7 5 5 7 5 5 7 5 5 7 5 5 7 5 5 7
6 6 8 6 6 8 6 6 8 6 6 8 6 6 8 6 6 8 8 8 10 0 0 0 86 86 88 171 169 169
95 82 73 74 50 35 96 75 64 126 103 92 124 97 86 113 89 78 100 80 69
90 71 63 85 66 59 81 63 56 80 63 55 81 61 55 80 60 54 79 61 54
79 62 55 83 65 56 87 68 60 89 68 59 87 66 55 86 61 50 99 70 56
122 89 72 141 105 86 155 117 99 164 126 107 155 118 100 166 148 141
225 227 231 228 233 240 226 227 232 230 232 237 230 233 240
242 242 250 158 158 167 11 11 18 20 20 23 5 5 7 0 0 2 1 1 3 1 1 3
1 1 3 1 1 3 1 1 2 1 1 1 1 1 1 0 0 0 0 0 0 0 0 0 5 5 7 5 5 7 5 5 7
5 5 7 5 5 7 6 6 8 6 6 8 6 6 8 5 5 7 5 5 7 6 6 6 9 9 10 0 0 0 60 61 65
203 206 210 147 140 138 86 67 57 60 40 28 84 66 57 133 109 98
129 101 88 121 95 84 114 91 80 99 76 66 86 63 55 82 60 53 80 59 54
78 57 51 80 58 51 80 57 49 76 56 47 76 57 47 77 55 44 80 55 43
87 60 47 107 75 60 136 99 80 149 113 96 158 122 106 163 125 107
158 120 100 148 128 120 224 216 215 230 233 239 225 229 237
231 232 238 234 235 240 228 230 235 245 246 251 138 139 145 7 8 14
25 25 31 18 19 23 5 6 10 0 0 2 1 1 3 1 1 2 1 1 1 1 1 1 0 0 1 0 0 2
0 0 1 0 0 0 0 0 0 6 6 8 6 6 8 6 6 8 6 6 8 6 6 8 6 6 8 6 6 8 6 6 8
6 6 8 6 6 8 8 8 8 2 2 3 26 27 31 177 178 183 204 206 211 141 131 129
90 71 62 58 41 32 72 55 47 135 111 100 133 105 92 130 103 91
125 99 88 114 90 80 98 74 65 84 60 53 80 56 50 84 60 52 85 60 51
84 58 48 84 58 47 87 60 49 94 65 53 101 67 54 122 85 71 140 101 85
152 115 95 160 119 99 163 121 101 155 119 101 147 120 108 214 206 204
234 232 235 229 230 237 231 234 241 234 235 241 231 232 237
230 230 235 245 246 251 100 101 106 7 8 13 23 23 29 18 19 24 18 19 23
8 9 13 0 0 2 0 1 2 1 1 2 1 1 3 0 0 2 0 0 2 0 0 1 0 0 0 0 0 0 6 6 8
6 6 8 6 6 8 6 6 8 6 6 8 6 6 8 6 6 8 6 6 8 6 6 8 6 6 8 7 8 9 0 0 3
132 133 138 201 202 207 191 193 197 149 143 142 105 91 84 59 45 36
56 40 33 130 107 95 137 109 94 130 105 91 129 103 90 121 95 84
117 91 81 105 78 69 97 68 58 102 74 63 104 75 62 107 77 64 111 80 66
116 83 68 122 87 71 128 91 74 143 102 85 155 116 98 156 121 101
167 123 99 164 120 97 142 115 102 200 190 189 242 240 244 231 232 238
232 235 243 232 235 242 231 231 236 234 235 240 236 237 242
226 227 232 47 48 53 13 14 19 20 21 26 20 21 26 20 21 25 20 21 25
12 13 17 2 1 5 0 0 2 1 1 3 1 1 3 0 0 2 0 0 0 0 0 0 0 0 0 6 6 8 6 6 8
6 6 8 6 6 8 6 6 8 5 5 7 4 4 6 5 5 7 6 7 9 11 12 14 0 1 4 63 64 69
200 201 206 187 187 193 193 193 198 166 162 163 128 118 113 59 48 40
40 27 19 126 102 90 139 111 95 132 105 90 132 105 91 128 100 88
120 91 80 111 82 71 107 77 66 113 82 69 120 89 74 125 93 77 127 95 78
130 99 80 134 102 82 146 112 92 155 120 100 161 125 105 166 132 112
161 125 106 149 119 105 196 184 180 235 237 242 230 232 237
235 236 243 233 235 242 232 234 240 233 234 239 230 231 236
246 247 252 173 174 179 10 11 16 20 21 26 20 21 26 20 21 26 19 20 25
18 19 24 20 21 25 20 19 25 10 9 15 1 1 4 0 0 2 1 1 2 1 1 1 0 0 0
0 0 0 6 6 8 6 6 8 6 6 8 5 5 7 6 6 7 7 8 10 8 9 11 11 12 14 14 15 17
12 13 15 8 11 14 165 166 171 207 208 215 184 184 191 198 196 202
186 184 185 146 139 136 67 58 52 31 19 11 126 102 90 146 117 101
138 111 94 132 104 89 131 101 89 129 98 88 115 85 75 117 86 75
124 92 79 131 99 84 133 101 85 135 102 84 140 105 86 147 112 92
155 119 99 161 126 106 170 133 112 162 126 104 154 130 120
207 197 198 228 229 235 230 235 240 235 235 240 234 233 239
233 233 238 230 230 235 231 232 237 229 230 235 245 246 251 84 85 90
5 6 11 21 22 27 18 19 24 18 19 24 18 19 24 18 19 24 18 19 25 23 23 29
27 26 32 20 19 23 6 6 7 0 0 0 0 0 0 0 0 0 0 0 0 5 6 9 4 5 9 5 6 9
9 9 13 13 13 17 14 15 17 14 15 17 14 15 18 14 15 19 0 0 0 83 86 91
216 218 224 205 205 211 197 197 203 195 195 200 186 185 188
165 161 160 81 72 67 27 12 4 108 87 76 151 126 111 142 116 98
137 110 93 133 106 89 136 107 92 128 99 85 128 98 84 132 100 86
136 105 88 141 109 92 145 112 95 151 118 100 156 122 103 163 127 107
167 131 110 161 126 107 163 139 131 202 192 191 228 231 237
231 234 242 234 234 241 231 231 236 232 232 237 228 228 233
230 231 236 227 228 233 243 244 249 196 197 202 16 17 22 17 18 23
19 20 25 20 21 26 18 19 24 16 17 22 16 17 22 19 20 26 24 24 29
22 23 27 25 26 30 26 27 30 16 16 19 3 3 5 0 0 0 0 0 1 6 7 12 10 11 15
14 15 19 15 16 20 15 16 20 14 15 17 12 13 15 12 13 17 5 6 10 21 22 26
184 187 194 214 217 224 210 211 216 207 208 213 203 203 208
195 195 198 179 177 177 103 94 91 31 15 7 78 58 47 146 121 107
147 121 104 142 115 98 141 114 97 143 114 98 142 113 97 138 110 94
139 110 94 144 114 96 153 123 105 155 125 107 160 128 110 165 131 111
164 132 110 151 121 104 164 142 131 215 207 206 225 222 226
223 225 232 229 230 238 233 233 239 228 229 234 228 229 234
226 227 232 228 229 234 226 227 232 247 248 253 104 105 110 3 4 9
21 22 27 18 19 24 18 19 24 16 17 22 15 16 21 14 15 20 22 23 28
22 23 27 20 21 25 22 23 27 23 24 28 24 25 29 24 24 29 13 13 16 2 1 5
14 15 19 16 17 21 15 16 20 13 14 18 13 14 18 12 13 16 12 13 17
13 14 18 0 0 2 111 112 117 225 227 234 209 212 218 212 213 218
206 207 212 206 207 211 201 200 204 198 196 199 141 133 132 43 28 23
57 36 26 123 98 83 153 127 110 146 119 102 145 118 101 145 117 101
146 118 101 148 121 104 152 124 108 155 127 109 161 133 115
162 133 115 167 134 115 166 133 112 149 122 104 169 152 146
221 214 216 218 218 221 229 227 234 231 229 238 227 227 235
220 223 227 227 228 233 229 229 234 229 230 235 227 228 233
235 236 241 210 211 216 26 27 32 15 16 21 18 19 24 17 18 23 17 18 23
13 14 19 13 14 19 19 20 25 19 20 25 19 20 25 21 22 26 20 21 25
21 22 26 22 23 27 24 25 30 28 28 34 23 24 29 14 15 19 15 16 20
16 17 21 15 16 20 13 14 18 12 13 17 11 12 16 3 4 9 34 35 41
199 200 205 214 216 223 210 213 219 216 217 222 210 211 216
205 205 210 206 207 211 205 205 210 182 177 179 75 62 58 52 30 20
101 75 60 155 129 112 151 124 107 146 119 102 145 116 100 146 118 102
150 123 106 152 125 108 161 132 114 164 136 118 166 136 117
170 138 119 151 126 110 172 156 148 222 216 220 224 225 234
223 227 232 230 230 238 226 225 232 229 231 236 226 230 235
231 232 237 227 228 233 230 231 236 224 225 230 247 248 253
115 116 121 3 4 9 20 21 26 17 18 23 17 18 23 15 16 21 15 16 21
18 19 24 19 20 25 19 20 25 20 21 25 20 21 25 20 21 25 20 21 26
23 24 28 24 25 30 25 26 31 27 28 33 15 16 20 17 18 22 18 19 23
15 16 20 13 14 18 12 13 17 11 12 16 0 0 3 131 132 137 241 242 248
227 229 237 227 230 236 216 218 223 214 215 220 208 208 212
205 205 210 209 210 215 208 204 208 117 104 102 58 36 26 95 69 54
155 129 112 160 133 116 152 126 108 149 121 104 152 123 107
154 126 109 157 128 112 166 135 118 170 139 121 174 142 123
155 124 106 166 150 141 225 222 224 223 225 233 218 219 228
232 231 237 233 235 240 228 232 236 228 231 236 228 229 234
225 226 231 222 223 228 224 225 230 239 240 245 202 203 208 24 25 30
16 17 22 19 20 25 17 18 23 16 17 22 15 16 21 19 20 25 19 20 25
18 19 24 20 21 26 20 21 25 19 20 24 21 22 26 20 21 25 21 22 26
23 24 28 23 24 28 25 26 31 16 17 21 20 21 25 15 16 20 12 13 17
13 14 18 12 13 17 0 2 6 43 45 50 202 203 208 150 150 156 103 104 110
71 73 78 80 81 85 210 211 216 218 219 223 212 213 219 208 207 212
208 205 210 182 173 174 89 65 56 104 73 57 155 127 111 165 138 121
160 133 116 159 130 114 160 131 116 164 135 119 169 137 118
170 139 120 176 145 127 163 131 114 159 138 130 215 209 208
224 229 234 219 222 230 227 225 233 236 235 240 230 232 236
230 233 237 223 225 230 225 225 231 219 220 225 226 227 232
226 227 232 249 250 255 107 108 113 3 4 9 22 23 28 17 18 23 15 16 21
15 16 21 19 20 25 20 21 26 19 20 25 18 19 24 19 20 25 21 22 26
19 20 24 19 20 25 20 21 25 20 21 26 22 23 27 25 26 30 26 27 31
19 20 24 16 17 21 15 16 20 15 16 20 13 14 18 10 11 15 1 3 8
107 111 116 74 75 80 0 0 0 0 0 0 0 0 0 57 57 61 228 229 234
216 218 223 217 219 225 220 218 223 210 209 213 210 207 213
142 120 113 122 88 72 156 128 112 168 141 124 168 141 124 170 141 124
171 142 126 171 141 124 173 141 121 170 144 129 167 143 130
171 151 142 217 211 212 228 228 232 226 229 236 225 226 233
231 230 236 234 236 241 232 233 238 225 226 231 223 223 228
220 221 226 227 228 233 228 229 234 240 241 246 210 211 216 29 30 35
14 15 20 17 18 23 15 16 21 15 16 21 18 19 24 20 21 26 19 20 25
20 21 26 18 19 24 18 19 24 20 21 26 18 19 24 19 20 25 21 22 27
22 23 28 23 24 29 23 24 29 26 27 32 18 19 23 15 16 20 16 17 21
16 17 21 13 14 18 3 4 8 46 48 53 94 97 103 0 0 0 4 4 8 10 10 14 0 0 4
40 41 45 216 217 221 223 224 230 219 219 225 219 217 221 220 220 226
223 223 231 181 165 161 137 106 92 155 126 110 168 141 124
175 148 131 177 148 133 177 148 133 177 147 128 176 147 130
189 170 162 198 187 184 215 209 208 224 226 229 218 218 225
196 195 204 230 230 237 233 235 239 232 232 237 225 226 231
219 220 225 225 226 231 226 227 232 231 232 237 227 228 233
247 248 253 138 139 144 3 4 9 19 20 25 15 16 21 14 15 20 19 20 25
22 23 28 19 20 25 21 22 27 20 21 26 19 20 25 19 20 25 19 20 25
21 22 27 19 20 25 20 21 26 22 23 28 21 22 27 21 22 27 24 25 30
