P3
160 160
255
205 72 12 205 72 12 205 72 12 205 72 12 207 71 12 207 71 12 207 71 12
208 72 13 210 71 13 207 69 11 203 64 6 200 62 4 203 62 5 204 63 6
204 63 6 204 63 6 203 64 6 203 64 6 203 64 6 203 64 6 203 64 6
203 64 6 203 64 6 203 64 6 203 64 6 203 64 6 203 64 6 202 63 5
200 64 5 202 66 7 206 70 11 209 73 14 208 72 11 208 72 11 208 72 11
208 72 11 207 73 11 207 73 11 207 73 11 207 73 11 205 72 10 205 72 10
205 72 10 205 72 10 205 72 8 205 72 8 205 72 8 204 71 7 204 73 8
206 76 10 210 79 14 212 81 16 212 82 14 212 82 14 212 82 14 212 82 14
212 82 14 212 82 14 213 83 15 213 83 15 213 85 16 214 86 18 215 87 19
215 87 19 215 87 19 215 87 19 215 87 19 215 87 19 213 88 19 213 88 19
213 88 17 213 88 17 213 88 17 213 88 17 213 89 15 213 89 15 212 90 15
213 91 16 213 91 16 214 92 17 215 93 18 216 94 19 216 94 19 218 95 21
216 96 21 216 96 21 216 97 19 216 97 19 211 94 15 208 94 14
223 111 28 220 111 27 220 113 28 218 114 28 216 114 28 215 115 28
216 114 28 218 114 28 220 113 28 221 112 28 209 97 16 210 96 16
212 95 16 212 95 16 212 95 18 212 95 18 212 95 18 211 94 17 210 92 16
211 94 17 214 97 21 218 101 24 217 99 23 217 99 23 217 99 23
217 99 23 217 99 23 217 99 23 217 99 23 217 99 23 212 95 18 212 95 18
212 95 18 212 95 18 212 95 18 212 95 18 214 94 18 214 94 18 212 93 15
211 92 14 231 114 35 226 114 34 224 114 30 222 115 30 220 116 28
219 117 28 220 116 28 220 116 28 219 117 26 217 118 26 224 130 37
221 132 37 220 133 37 220 133 37 223 131 37 223 131 37 220 133 37
220 133 37 224 132 40 228 128 39 211 100 14 212 96 12 218 99 19
218 99 19 218 99 19 218 99 19 217 98 20 217 98 20 217 98 20 217 98 20
205 72 12 205 72 12 205 72 12 205 72 12 207 71 12 207 71 12 207 71 12
208 72 13 210 71 13 207 69 11 203 64 6 200 62 4 203 62 5 204 63 6
204 63 6 204 63 6 203 64 6 203 64 6 203 64 6 203 64 6 203 64 6
203 64 6 203 64 6 203 64 6 203 64 6 203 64 6 203 64 6 202 63 5
200 64 5 202 66 7 206 70 11 209 73 14 208 72 11 208 72 11 208 72 11
208 72 11 207 73 11 207 73 11 207 73 11 207 73 11 205 72 10 205 72 10
205 72 10 205 72 10 205 72 8 205 72 8 205 72 8 204 71 7 204 73 8
206 76 10 210 79 14 212 81 16 212 82 14 212 82 14 212 82 14 212 82 14
212 82 14 212 82 14 213 83 15 213 83 15 213 85 16 214 86 18 215 87 19
215 87 19 215 87 19 215 87 19 215 87 19 215 87 19 213 88 19 213 88 19
213 88 17 213 88 17 213 88 17 213 88 17 213 89 15 213 89 15 212 90 15
213 91 16 213 91 16 214 92 17 215 93 18 216 94 19 216 94 19 218 95 21
216 96 21 216 96 21 216 97 19 216 97 19 211 94 15 208 94 14
223 111 28 220 111 27 220 113 28 218 114 28 216 114 28 215 115 28
216 114 28 218 114 28 220 113 28 221 112 28 209 97 16 210 96 16
212 95 16 212 95 16 212 95 18 212 95 18 212 95 18 211 94 17 210 92 16
211 94 17 214 97 21 218 101 24 217 99 23 217 99 23 217 99 23
217 99 23 217 99 23 217 99 23 217 99 23 217 99 23 212 95 18 212 95 18
212 95 18 212 95 18 212 95 18 212 95 18 214 94 18 214 94 18 212 93 15
211 92 14 231 114 35 226 114 34 224 114 30 222 115 30 220 116 28
219 117 28 220 116 28 220 116 28 219 117 26 217 118 26 224 130 37
221 132 37 220 133 37 220 133 37 223 131 37 223 131 37 220 133 37
220 133 37 224 132 40 228 128 39 211 100 14 212 96 12 218 99 19
218 99 19 218 99 19 218 99 19 217 98 20 217 98 20 217 98 20 217 98 20
205 72 12 205 72 12 205 72 12 205 72 12 207 71 12 207 71 12 207 71 12
208 72 13 210 71 13 207 69 11 203 64 6 200 62 4 203 62 5 204 63 6
204 63 6 204 63 6 203 64 6 203 64 6 203 64 6 203 64 6 203 64 6
203 64 6 203 64 6 203 64 6 203 64 6 203 64 6 203 64 6 202 63 5
200 64 5 202 66 7 206 70 11 209 73 14 208 72 11 208 72 11 208 72 11
208 72 11 207 73 11 207 73 11 207 73 11 207 73 11 205 72 10 205 72 10
205 72 10 205 72 10 205 72 8 205 72 8 205 72 8 204 71 7 204 73 8
206 76 10 210 79 14 212 81 16 212 82 14 212 82 14 212 82 14 212 82 14
212 82 14 212 82 14 213 83 15 213 83 15 213 85 16 214 86 18 215 87 19
215 87 19 215 87 19 215 87 19 215 87 19 215 87 19 213 88 19 213 88 19
213 88 17 213 88 17 213 88 17 213 88 17 213 89 15 213 89 15 212 90 15
213 91 16 213 91 16 214 92 17 215 93 18 216 94 19 216 94 19 218 95 21
216 96 21 216 96 21 216 97 19 216 97 19 211 94 15 208 94 14
223 111 28 220 111 27 220 113 28 218 114 28 216 114 28 215 115 28
216 114 28 218 114 28 220 113 28 221 112 28 209 97 16 210 96 16
212 95 16 212 95 16 212 95 18 212 95 18 212 95 18 211 94 17 210 92 16
211 94 17 214 97 21 218 101 24 217 99 23 217 99 23 217 99 23
217 99 23 217 99 23 217 99 23 217 99 23 217 99 23 212 95 18 212 95 18
212 95 18 212 95 18 212 95 18 212 95 18 214 94 18 214 94 18 212 93 15
211 92 14 231 114 35 226 114 34 224 114 30 222 115 30 220 116 28
219 117 28 220 116 28 220 116 28 219 117 26 217 118 26 224 130 37
221 132 37 220 133 37 220 133 37 223 131 37 223 131 37 220 133 37
220 133 37 224 132 40 228 128 39 211 100 14 212 96 12 218 99 19
218 99 19 218 99 19 218 99 19 217 98 20 217 98 20 217 98 20 217 98 20
205 72 12 205 72 12 205 72 12 207 71 12 207 71 12 207 71 12 207 71 12
208 72 13 210 71 13 207 69 11 203 64 6 200 62 4 203 62 5 204 63 6
204 63 6 204 63 6 203 64 6 203 64 6 203 64 6 203 64 6 203 64 6
203 64 6 203 64 6 203 64 6 203 64 6 203 64 6 203 64 6 202 63 5
200 64 5 202 66 7 206 70 11 209 73 14 208 72 11 208 72 11 208 72 11
208 72 11 207 73 11 207 73 11 207 73 11 207 73 11 205 72 10 205 72 10
205 72 10 205 72 10 205 72 8 205 72 8 205 72 8 204 71 7 204 73 8
206 76 10 210 79 14 212 81 16 212 82 14 212 82 14 212 82 14 212 82 14
212 82 14 212 82 14 213 83 15 213 83 15 213 85 16 213 85 16 214 86 18
214 86 18 215 87 19 215 87 19 215 87 19 215 87 19 213 88 19 213 88 19
213 88 17 213 88 17 213 88 17 213 88 17 213 89 15 213 89 15 212 90 15
213 91 16 213 91 16 214 92 17 215 93 18 216 94 19 216 94 19 218 95 21
216 96 21 216 96 21 216 97 19 216 97 19 211 94 15 208 94 14
223 111 28 220 111 27 220 113 28 218 114 28 216 114 28 215 115 28
216 114 28 218 114 28 220 113 28 221 112 28 209 97 16 210 96 16
212 95 16 212 95 16 212 95 18 212 95 18 212 95 18 211 94 17 210 92 16
211 94 17 214 97 21 218 101 24 217 99 23 217 99 23 217 99 23
217 99 23 217 99 23 217 99 23 217 99 23 217 99 23 212 95 18 212 95 18
212 95 18 212 95 18 212 95 18 212 95 18 214 94 18 214 94 18 212 93 15
211 92 14 231 114 35 226 114 34 224 114 32 222 115 30 220 116 28
219 117 28 220 116 28 220 116 28 219 117 26 217 118 26 224 130 37
221 132 37 220 133 37 220 133 37 223 131 37 223 131 37 220 133 37
220 133 37 224 132 40 228 128 39 211 100 14 212 96 12 217 98 18
217 98 18 217 98 18 217 98 18 217 98 20 217 98 20 217 98 20 217 98 20
207 71 12 207 71 12 207 71 12 207 71 12 209 70 12 209 70 12 207 71 12
208 72 13 210 71 13 207 69 11 203 64 6 200 62 4 203 62 5 204 63 6
204 63 6 204 63 6 203 64 6 203 64 6 203 64 6 203 64 6 203 64 6
203 64 6 203 64 6 203 64 6 203 64 6 203 64 6 203 64 6 202 63 5
200 64 5 202 66 7 206 70 11 209 73 14 208 72 11 208 72 11 208 72 11
208 72 11 207 73 11 207 73 11 207 73 11 207 73 11 207 71 10 207 71 10
207 71 10 207 71 10 205 72 8 205 72 8 205 72 8 204 71 7 205 72 8
208 75 10 211 78 14 213 81 16 213 81 16 213 81 16 213 81 14 213 81 14
213 81 14 213 81 14 213 83 15 213 83 15 211 84 15 213 85 16 214 86 18
214 86 18 214 86 18 214 86 18 214 86 18 214 86 18 212 87 18 212 87 18
212 87 16 212 87 16 212 87 16 212 87 16 212 88 14 212 88 14 211 88 14
212 90 15 212 90 15 213 91 16 214 92 17 215 93 18 215 93 18 216 94 19
216 96 21 216 96 21 216 97 19 216 97 19 211 94 15 208 94 14
223 111 28 220 111 27 220 113 28 218 114 28 216 114 28 216 114 28
216 114 28 218 114 28 220 113 28 221 112 28 209 97 16 210 96 16
212 95 16 212 95 16 212 95 18 212 95 18 212 95 18 211 94 17 210 92 16
211 94 17 214 97 21 218 101 24 218 101 24 218 101 24 218 101 24
218 101 24 218 101 24 218 101 24 218 101 24 218 101 24 213 96 19
213 96 19 213 96 19 213 96 19 213 96 19 213 96 19 215 95 19 215 95 19
214 94 18 212 93 17 232 115 38 228 115 37 225 115 34 223 116 32
222 117 30 220 118 30 222 117 30 222 117 30 220 119 28 218 119 28
223 129 36 220 131 36 219 132 36 219 132 36 223 131 37 223 131 37
220 133 37 220 133 37 224 132 40 228 128 39 211 100 14 212 96 12
217 98 18 217 98 18 217 98 18 217 98 18 217 98 20 217 97 22 217 97 22
217 97 22 207 71 12 207 71 12 207 71 12 207 71 12 209 70 12 209 70 12
207 71 12 208 72 13 210 71 13 207 69 11 203 64 6 200 62 4 203 62 5
204 63 6 204 63 6 204 63 6 203 64 6 203 64 6 203 64 6 203 64 6
203 64 6 203 64 6 203 64 6 203 64 6 203 64 6 203 64 6 203 64 6
202 63 5 200 64 5 202 66 7 206 70 11 209 73 14 208 72 11 208 72 11
208 72 11 208 72 11 207 73 11 207 73 11 207 73 11 207 73 11 207 71 10
207 71 10 207 71 10 207 71 10 205 72 8 205 72 8 205 72 8 204 71 7
205 72 8 208 75 10 211 78 14 213 81 16 213 81 16 213 81 16 213 81 14
213 81 14 213 81 14 213 81 14 213 83 15 213 83 15 211 84 15 211 84 15
213 85 16 213 85 16 214 86 18 214 86 18 214 86 18 212 87 18 212 87 18
212 87 18 212 87 16 212 87 16 212 87 16 212 87 16 212 88 14 212 88 14
211 88 14 212 90 15 212 90 15 213 91 16 214 92 17 215 93 18 215 93 18
216 94 19 216 96 21 216 96 21 216 97 19 216 97 19 211 94 15 208 94 14
223 111 28 220 111 27 220 113 28 218 114 28 216 114 28 216 114 28
216 114 28 218 114 28 220 113 28 221 112 28 209 97 16 210 96 16
212 95 16 212 95 16 212 95 18 212 95 18 212 95 18 211 94 17 210 92 16
211 94 17 214 97 21 218 101 24 218 101 24 218 101 24 218 101 24
218 101 24 218 101 24 218 101 24 218 101 24 218 101 24 213 96 19
213 96 19 213 96 19 213 96 19 213 96 19 213 96 19 215 95 19 215 95 19
214 94 18 212 93 17 232 115 38 228 115 37 225 115 34 223 116 34
222 117 32 220 118 30 222 117 30 222 117 30 220 119 28 218 119 28
223 129 36 220 131 36 219 132 36 219 132 36 223 131 37 223 131 37
220 133 37 220 133 37 224 132 40 228 128 39 211 100 14 212 96 12
216 97 17 216 97 19 216 97 19 216 97 19 217 97 22 217 97 22 217 97 22
217 97 22 207 71 12 207 71 12 207 71 12 207 71 12 209 70 12 209 70 12
207 71 12 208 72 13 210 71 13 207 69 11 201 65 6 202 63 5 203 64 6
203 64 6 204 65 7 204 65 7 204 63 6 204 63 6 204 63 6 204 63 6
203 64 6 203 64 6 203 64 6 203 64 6 203 64 6 203 64 6 203 64 6
202 63 5 200 64 5 202 66 7 206 70 11 209 73 14 208 72 11 208 72 11
208 72 11 208 72 11 207 73 11 205 74 11 205 74 11 207 73 11 207 71 10
207 71 10 207 71 10 207 71 10 205 72 8 205 72 8 205 72 8 204 71 7
205 72 8 208 75 10 211 78 14 213 81 16 213 81 16 213 81 16 213 81 14
213 81 14 213 81 14 213 81 14 213 83 15 213 83 15 211 84 15 211 84 15
211 86 16 211 86 16 212 87 18 212 87 18 212 87 18 212 87 18 211 88 16
211 88 16 212 87 16 212 87 16 212 87 16 212 87 16 212 88 14 212 88 14
211 88 14 212 90 15 212 90 15 213 91 16 214 92 17 215 93 18 215 93 18
216 94 19 216 97 19 216 97 19 216 97 19 216 97 19 211 94 15 208 94 14
223 111 28 220 111 27 220 113 28 218 114 28 216 114 28 216 114 28
216 114 28 218 114 28 220 113 28 221 112 28 209 97 16 210 96 16
212 95 16 212 95 16 212 95 18 212 95 18 212 95 18 211 94 17 211 94 17
212 95 18 214 97 21 218 101 24 218 101 24 218 101 24 218 101 24
218 101 24 218 101 24 218 101 24 218 101 24 218 101 24 213 96 19
213 96 19 213 96 19 213 96 19 213 96 19 213 96 19 215 95 19 215 95 19
214 94 18 212 93 17 232 115 38 228 115 37 225 115 34 223 116 34
222 117 32 220 118 30 222 117 30 222 117 30 220 119 28 218 119 28
223 129 36 220 131 36 219 132 36 219 132 36 223 131 37 223 131 37
220 133 37 220 133 37 224 132 40 228 128 39 211 100 14 212 96 14
216 97 19 216 96 21 216 96 21 216 96 21 217 97 22 217 97 24 217 97 24
217 97 24 208 72 13 208 72 13 208 72 13 208 72 13 210 71 13 210 71 13
208 72 13 209 73 14 210 71 13 207 69 11 201 65 6 200 64 5 203 64 6
203 64 6 204 65 7 205 64 7 204 63 6 204 63 6 204 63 6 204 63 6
203 64 6 203 64 6 203 64 6 203 64 6 203 64 6 203 64 6 203 64 6
202 63 5 202 63 5 204 65 7 207 69 11 209 73 14 208 72 11 207 73 11
207 73 11 207 73 11 205 74 11 205 74 11 205 74 11 207 73 11 207 71 10
207 71 10 207 71 10 207 71 10 205 72 8 205 72 8 205 72 8 204 71 7
207 74 9 209 76 11 212 79 15 215 82 17 215 82 17 215 82 17 215 82 15
215 82 15 215 82 15 215 82 15 213 83 15 213 83 15 213 85 16 213 85 16
211 86 16 211 86 16 212 87 18 212 87 18 212 87 18 211 88 18 209 89 16
209 89 16 209 89 16 211 88 16 212 87 16 212 87 16 212 88 14 212 88 14
211 88 14 212 90 15 212 90 15 213 91 16 214 92 17 215 93 18 215 93 18
216 94 19 216 97 19 216 97 19 216 97 19 214 97 19 209 95 15 207 94 14
221 112 28 219 112 27 220 113 28 218 114 28 218 114 28 216 114 28
216 114 28 218 114 28 220 113 28 221 112 28 209 97 16 210 96 16
212 95 16 212 95 16 212 95 18 212 95 18 212 95 18 211 94 17 211 94 17
212 95 18 214 97 21 216 98 22 218 101 24 218 101 24 218 101 24
218 101 24 218 101 24 218 101 24 218 101 24 218 101 24 213 96 19
213 96 19 213 96 19 213 96 19 213 96 19 213 96 19 215 95 19 215 95 19
214 94 18 211 94 17 230 115 38 228 115 37 225 115 34 223 116 34
222 117 32 222 117 30 222 117 30 222 117 30 220 118 30 218 119 28
223 129 36 222 130 36 220 131 36 220 131 36 223 131 37 223 131 37
221 132 37 221 132 37 224 132 38 226 130 37 208 102 12 209 98 12
213 98 19 214 97 23 214 97 23 214 97 23 216 98 24 216 98 24 216 98 24
216 98 24 210 71 13 210 71 13 210 71 13 210 71 13 210 71 13 210 71 13
210 71 13 210 71 13 208 72 13 203 67 9 201 65 6 200 64 5 201 65 4
204 66 5 204 66 5 205 65 5 207 64 5 207 64 5 204 64 4 204 64 4
202 63 3 202 63 3 200 64 3 200 64 3 202 63 5 202 63 5 203 62 5
202 61 4 203 63 3 205 65 5 210 70 10 213 75 15 208 74 12 206 76 10
206 76 10 206 76 10 206 76 10 206 76 10 206 76 10 208 75 10 209 74 10
209 74 10 209 74 10 209 74 10 209 73 12 209 73 12 209 73 12 208 72 11
208 72 11 210 75 13 214 78 17 216 80 19 215 82 17 215 82 17 215 82 17
215 82 17 215 82 17 215 82 17 216 83 16 214 84 16 213 85 14 213 85 14
212 87 16 212 87 16 212 87 16 212 87 16 211 88 16 211 88 16 212 92 19
211 93 19 208 93 16 210 92 16 213 91 16 216 89 16 215 90 16 215 90 16
215 90 14 216 92 15 214 92 15 215 94 16 215 94 16 216 95 17 215 95 17
216 97 19 217 98 20 216 99 20 216 99 18 214 100 18 209 95 13
215 103 20 221 112 28 220 113 28 220 113 28 220 113 28 218 114 28
218 114 28 216 114 28 218 114 28 220 113 28 221 112 28 209 97 16
210 96 16 212 95 16 212 95 16 212 95 18 212 95 18 212 95 18 212 95 18
212 95 18 212 95 18 213 96 19 214 97 21 217 99 23 217 99 23 217 99 23
217 99 23 217 99 23 217 99 23 217 99 23 217 99 23 214 94 18 214 94 18
214 94 18 214 94 18 212 94 20 212 94 20 212 94 20 211 93 19 212 95 18
214 99 22 220 105 28 223 110 32 224 113 35 222 115 32 222 115 32
220 116 30 220 116 30 220 116 30 219 117 28 217 118 28 227 131 38
226 132 38 226 132 38 226 132 38 227 133 37 227 133 37 225 134 37
225 134 37 228 136 40 228 134 38 204 108 13 204 102 11 211 101 22
212 99 26 212 99 26 212 99 26 214 100 27 214 100 27 214 100 27
214 100 27 207 69 11 207 69 11 207 69 11 207 69 11 207 69 11
207 69 11 207 69 11 207 69 11 205 68 10 201 65 6 201 65 6 200 64 5
201 65 4 202 66 5 204 66 5 205 65 5 207 66 6 208 65 6 205 65 5
204 66 5 203 65 4 201 65 4 200 66 4 200 66 4 200 66 6 201 65 6
201 65 6 201 65 6 201 65 4 204 66 5 205 67 6 206 70 9 208 78 13
207 79 13 207 79 13 207 79 13 208 78 13 208 78 13 208 78 13 208 78 13
205 72 8 207 72 8 207 72 8 207 72 8 207 71 10 207 71 10 207 71 10
206 70 9 207 71 10 209 73 12 213 77 16 215 79 18 213 81 16 213 81 16
213 81 16 213 81 16 213 81 16 213 81 16 215 82 15 213 83 15 213 85 14
213 85 14 212 87 16 212 87 16 212 87 16 212 87 16 211 88 16 208 88 14
206 89 14 205 89 14 205 93 15 207 94 16 211 92 16 213 91 16 213 91 16
213 91 16 213 91 14 211 92 14 211 92 14 211 92 14 212 93 15 212 93 15
211 94 15 211 94 15 210 96 16 210 96 16 210 96 14 209 97 14 211 99 17
217 107 23 220 113 28 220 113 28 220 113 28 220 113 28 218 114 28
218 114 28 216 114 28 218 114 28 220 113 28 221 112 28 209 97 16
210 96 16 212 95 16 212 95 16 212 95 18 212 95 18 212 95 18 212 95 18
212 95 18 212 95 18 213 96 19 213 96 19 214 97 21 214 97 21 214 97 21
214 97 21 214 97 21 214 97 21 214 97 21 213 96 19 215 95 19 215 93 18
215 93 18 214 94 18 214 94 20 214 94 20 214 94 20 215 95 21 218 99 23
221 101 25 224 104 29 224 106 30 226 109 32 224 110 32 224 110 30
223 111 30 223 111 30 221 112 28 221 112 28 220 113 26 234 130 42
234 130 42 234 130 42 234 130 42 234 132 44 234 132 44 234 132 44
234 133 42 227 128 36 227 128 36 204 105 14 208 103 18 215 102 26
216 101 28 216 101 28 216 101 28 217 102 29 219 101 29 219 101 29
219 101 29 203 64 6 203 64 6 203 64 6 203 64 6 203 64 6 203 64 6
203 64 6 204 65 7 202 66 7 200 64 5 198 65 5 201 67 7 203 70 8
206 70 9 206 70 9 207 69 9 209 68 9 207 66 6 207 66 6 206 68 8
222 87 23 220 88 23 219 88 23 217 89 25 217 89 25 217 89 25 217 89 25
217 89 25 217 89 25 217 86 21 214 84 18 211 83 17 211 83 17 209 83 16
209 83 16 209 81 15 209 81 15 209 81 15 209 81 15 211 80 15 202 69 4
203 68 4 203 68 4 203 68 4 203 68 6 203 68 6 203 68 6 202 66 5
203 68 6 206 70 9 209 73 12 212 76 15 210 77 13 210 77 13 210 77 13
210 77 13 210 77 13 210 77 13 210 77 11 208 78 11 214 86 16 212 87 16
212 87 16 211 88 16 212 87 16 212 87 16 211 88 16 209 89 16 213 96 19
215 100 23 219 107 29 222 112 33 224 112 33 226 111 33 226 111 33
226 111 33 226 111 31 224 112 31 223 111 30 223 111 30 223 111 30
223 111 30 222 110 29 222 110 29 223 111 28 223 111 28 223 111 28
221 112 28 213 104 20 220 113 28 220 113 28 220 113 28 220 113 28
220 113 28 218 114 28 218 114 28 216 114 28 218 114 28 220 113 28
221 112 28 209 97 16 210 96 16 212 95 16 212 95 16 212 95 18
212 95 18 212 95 18 212 95 18 213 96 19 213 96 19 213 96 19 213 96 19
212 95 18 212 95 18 212 95 18 212 95 18 212 95 18 212 95 18 212 95 18
214 94 18 204 81 7 205 81 7 205 81 7 205 81 7 205 80 9 205 80 9
205 80 9 206 81 10 206 82 8 207 80 7 204 78 4 204 78 4 204 78 4
206 79 5 206 79 5 204 79 5 204 79 5 202 81 3 202 81 3 202 81 3
201 82 3 201 82 3 201 82 3 201 82 3 200 83 5 200 83 7 200 83 7
200 83 7 204 87 10 209 91 17 191 73 0 195 75 2 199 76 6 201 75 8
202 74 8 202 74 8 203 75 9 205 74 9 205 74 9 205 74 9 199 61 3
199 61 3 199 61 3 199 61 3 199 61 3 199 61 3 199 61 3 200 62 4
200 64 5 200 64 5 198 65 5 201 67 7 203 70 8 204 71 9 206 70 9
206 70 9 207 69 9 206 68 8 206 68 8 205 69 8 222 89 24 220 90 24
217 91 24 215 92 24 215 92 24 214 93 24 214 93 24 215 94 25 216 93 25
213 90 22 208 85 17 205 81 14 210 84 17 210 84 17 210 84 17 209 83 16
210 82 16 210 82 16 210 82 16 212 81 16 201 68 3 202 67 3 202 67 3
202 67 3 202 66 5 202 66 5 202 66 5 201 65 4 202 66 5 205 69 8
208 72 11 210 75 13 209 76 11 209 76 11 209 76 11 209 76 11 209 76 11
209 76 11 209 76 9 207 77 9 214 86 16 212 87 16 211 88 16 211 88 16
212 87 16 212 87 16 211 88 16 211 88 16 206 89 12 210 96 18
217 106 28 222 112 33 221 113 33 221 113 33 221 113 33 221 113 33
221 114 31 220 112 30 220 112 30 219 111 29 219 111 29 219 109 28
219 109 28 218 108 27 219 110 26 219 110 26 219 110 26 216 109 25
216 109 25 220 113 28 220 113 28 220 113 28 220 113 28 220 113 28
218 114 28 218 114 28 216 114 28 218 114 28 220 113 28 221 112 30
209 97 16 210 96 16 212 95 16 212 95 16 212 95 18 212 95 18 212 95 18
212 95 18 213 96 19 213 96 19 212 95 18 212 95 18 211 94 17 211 94 17
211 94 17 211 94 17 210 92 16 210 92 16 210 92 16 211 92 16 205 81 7
207 80 7 207 80 7 207 80 7 207 79 9 208 79 9 208 79 9 211 81 11
213 84 11 213 82 10 208 76 4 204 72 3 204 72 3 207 72 4 207 72 4
207 72 4 205 73 4 205 74 2 207 75 3 207 75 3 206 76 6 207 77 7
208 79 9 208 79 9 210 79 12 208 80 12 208 80 12 208 80 12 203 75 9
209 81 17 197 66 3 203 72 9 207 73 11 207 74 9 207 74 9 208 73 9
209 74 10 209 73 12 209 73 12 209 73 12 201 60 3 201 60 3 201 60 3
201 60 3 201 60 3 201 60 3 199 61 3 200 62 4 200 64 5 200 64 5
200 66 6 202 68 9 203 70 8 204 71 9 206 70 9 206 70 9 206 70 9
207 71 10 207 71 10 203 70 8 221 93 27 219 93 27 218 95 25 216 95 25
213 95 23 213 95 23 213 95 23 213 95 23 213 95 23 210 92 20 205 87 15
209 88 18 209 83 14 210 83 14 210 83 14 210 83 14 210 82 16 210 82 16
210 82 16 212 81 16 203 68 4 205 67 4 205 67 4 205 67 4 205 67 6
205 67 6 205 67 6 204 66 5 203 68 6 206 70 9 209 73 12 212 76 15
212 76 15 212 76 15 212 76 13 212 76 13 212 76 13 212 76 13 210 77 11
208 78 11 215 88 17 213 88 17 212 89 17 212 89 17 212 89 17 212 89 17
213 88 17 212 89 17 214 94 18 209 94 17 222 112 33 221 113 33
219 114 33 219 114 33 219 114 31 219 114 31 219 114 31 219 114 31
218 113 30 218 113 30 218 113 30 220 112 30 219 111 29 219 111 29
219 112 27 219 112 27 219 112 27 219 112 27 219 112 27 219 112 27
219 112 27 219 112 27 220 113 28 220 113 28 218 114 28 218 114 28
218 113 30 218 113 30 220 112 30 221 112 30 209 96 18 210 96 18
212 95 18 212 95 18 212 95 18 212 95 18 212 95 18 212 95 18 213 96 19
213 96 19 213 96 19 213 96 19 212 95 18 212 95 18 211 94 17 211 94 17
210 92 16 210 92 16 210 92 16 212 93 17 206 82 8 210 80 8 210 80 8
210 80 8 210 80 10 211 79 10 211 79 10 212 80 11 213 81 12 215 80 12
209 75 6 207 72 6 209 71 6 209 71 6 209 71 6 209 71 6 209 71 6
209 72 4 210 73 5 210 72 7 211 73 10 212 74 11 213 75 13 213 75 13
213 77 16 213 77 16 213 77 16 212 76 15 210 76 17 209 75 15 209 75 15
208 72 13 207 71 12 206 70 9 207 71 10 209 70 10 209 70 10 209 70 12
210 71 13 210 71 13 201 60 3 201 60 3 201 60 3 201 60 3 201 60 3
201 60 3 200 62 4 200 62 4 199 63 4 199 63 4 202 66 7 203 69 10
203 69 10 204 70 11 206 70 11 206 70 9 206 70 9 207 71 10 205 72 10
201 70 8 219 93 27 218 94 27 216 95 25 216 95 25 213 95 23 213 95 23
213 96 21 213 96 21 213 96 21 210 92 18 205 87 13 209 89 16 209 83 14
210 83 14 210 83 14 210 83 14 210 82 16 210 82 16 210 82 16 212 81 16
203 68 4 205 67 4 205 67 4 205 67 6 205 67 6 205 67 6 205 67 6
204 66 5 203 68 6 206 70 9 209 73 12 212 76 15 212 76 15 212 76 15
212 76 13 212 76 13 212 76 13 212 76 13 210 77 11 208 78 11 215 88 17
213 88 17 212 89 17 212 89 17 212 89 17 212 89 17 213 88 17 212 89 17
214 94 18 209 94 17 222 112 33 221 113 33 219 114 33 219 114 33
219 114 31 219 114 31 219 114 31 218 115 31 216 114 30 216 114 30
218 113 30 218 113 30 217 112 29 217 112 29 217 112 27 217 112 27
217 112 27 217 112 27 219 112 27 219 112 27 219 112 27 219 112 27
220 113 28 220 113 28 218 114 28 218 114 28 218 113 30 218 113 30
220 112 30 221 112 30 209 96 18 210 96 18 212 95 18 212 95 18
212 95 18 212 95 18 212 95 18 212 95 18 213 96 19 213 96 19 213 96 19
213 96 19 212 95 18 212 95 18 212 95 18 212 95 18 211 94 17 211 94 17
211 94 17 212 93 17 208 81 8 210 80 8 210 80 8 210 80 8 211 79 10
211 79 10 211 79 10 212 80 11 213 81 12 215 80 12 209 74 8 207 72 6
209 71 6 209 71 6 209 71 6 209 71 6 209 71 6 209 71 8 210 72 9
211 71 9 212 72 12 214 73 13 215 74 15 213 75 15 214 76 18 214 76 18
214 76 18 212 75 17 212 75 17 210 74 15 210 74 15 208 72 13 207 71 12
206 70 11 207 71 10 207 71 10 207 71 12 207 71 12 208 72 13 208 72 13
201 60 3 201 60 3 201 60 3 201 60 3 201 60 3 201 60 3 199 61 3
199 61 3 202 63 7 203 64 8 203 67 11 207 70 14 207 70 14 208 72 15
208 72 15 208 72 13 208 72 13 207 73 13 205 74 13 202 74 10 219 93 27
218 94 27 216 95 25 216 96 23 216 96 23 215 95 21 215 95 21 215 95 19
216 94 21 213 90 18 208 86 13 211 88 16 209 83 14 209 83 14 209 83 14
209 83 14 210 82 16 210 82 16 210 82 16 212 81 16 203 68 6 205 67 6
205 67 6 205 67 6 207 66 9 207 66 9 207 66 9 204 65 7 203 68 6
206 70 9 209 73 12 212 76 15 212 76 15 212 76 15 212 76 13 212 76 13
212 76 13 212 76 13 210 77 11 208 78 11 215 88 17 213 88 17 212 89 17
212 89 17 212 89 17 212 89 17 213 88 17 212 89 17 214 94 18 209 94 17
222 112 33 221 113 33 221 113 33 221 113 33 221 114 31 221 114 31
221 114 31 219 114 31 218 113 30 218 113 30 218 113 30 218 113 30
215 113 29 215 113 29 215 113 27 215 113 27 215 113 27 217 112 27
217 112 27 217 112 27 217 112 27 217 112 27 218 114 28 218 114 28
218 114 28 216 114 28 216 114 30 218 113 30 220 112 30 221 112 30
209 96 18 210 96 18 212 95 18 212 95 18 212 95 18 212 95 18 212 95 18
212 95 18 213 96 19 213 96 19 213 96 19 213 96 19 212 95 18 212 95 18
212 95 18 212 95 18 211 94 17 211 94 17 211 94 17 212 93 17 208 81 8
211 79 8 211 79 8 211 79 8 211 79 8 211 79 8 211 79 8 212 81 9
212 80 11 212 80 11 208 75 8 205 73 6 205 73 6 205 73 6 205 72 8
205 72 8 207 72 8 207 71 10 208 72 11 210 72 11 212 73 15 212 73 15
213 75 17 212 75 17 213 77 16 213 77 16 213 77 16 210 77 15 210 77 15
209 75 13 208 74 12 204 73 10 204 73 10 203 72 9 204 73 10 204 73 10
204 72 12 204 72 12 205 74 13 205 74 13 201 60 3 201 60 3 201 60 3
201 60 3 201 60 3 201 60 3 199 61 3 199 61 3 202 63 7 204 65 9
203 67 11 207 70 14 207 70 14 208 72 15 208 72 15 208 72 15 208 72 15
207 73 13 205 74 13 201 74 10 218 94 27 218 95 25 216 96 23 216 96 23
216 96 23 216 94 19 216 94 19 218 93 19 218 93 21 216 89 18 211 84 13
214 86 16 210 83 14 210 83 14 210 83 14 210 83 14 212 81 16 212 81 16
212 81 16 213 81 16 203 68 6 205 67 6 205 67 6 205 67 6 207 66 9
207 66 9 207 66 9 204 65 7 205 67 6 206 70 9 209 73 12 212 76 15
212 76 15 212 76 15 212 76 13 212 76 13 212 76 13 212 76 13 210 77 11
208 78 11 215 88 17 213 88 17 212 89 17 212 89 17 212 89 17 212 89 17
213 88 17 213 88 17 214 94 18 209 94 17 222 112 33 221 113 33
221 113 33 221 113 33 221 114 31 221 114 31 221 114 31 219 114 31
218 113 30 218 113 30 218 113 30 218 113 30 215 113 29 215 113 29
215 113 27 215 113 27 215 113 27 215 113 27 217 112 27 217 112 27
217 112 27 217 112 27 218 114 28 218 114 28 216 114 28 216 114 28
216 114 30 218 113 30 220 112 30 221 112 30 209 96 18 210 96 18
212 95 18 212 95 18 212 95 18 212 95 18 212 95 18 212 95 18 213 96 19
213 96 19 213 96 19 213 96 19 212 95 18 212 95 18 212 95 18 212 95 18
211 94 17 211 94 17 211 94 17 214 92 17 210 80 8 211 79 8 211 79 8
211 79 8 211 79 8 211 79 8 211 79 8 212 80 11 211 81 11 211 81 11
206 76 8 204 74 6 204 74 6 205 72 8 205 72 8 205 72 8 205 72 10
205 72 10 208 72 13 208 72 13 210 74 15 210 74 15 212 75 17 212 75 17
213 77 16 213 77 16 213 77 16 210 77 15 210 77 15 209 75 13 208 74 12
205 72 10 204 73 10 203 72 9 204 73 10 204 73 10 204 72 12 204 72 12
205 74 13 205 74 13 199 61 3 199 61 3 199 61 3 199 61 3 199 60 5
199 60 5 199 60 5 199 60 5 200 61 6 203 64 8 206 67 14 209 69 16
210 70 17 210 70 17 210 70 17 210 70 17 208 72 15 207 73 13 205 74 13
202 76 11 218 94 27 216 95 25 216 96 23 215 95 19 216 94 19 218 93 19
220 93 19 220 92 21 220 92 21 218 88 18 213 83 15 214 84 16 213 83 13
212 82 12 212 82 14 213 81 14 213 81 16 213 81 16 213 81 16 215 80 16
205 67 6 205 66 9 207 66 9 207 66 9 205 66 9 205 66 9 205 66 9
204 65 7 205 67 6 207 69 9 211 73 12 213 75 15 212 76 15 212 76 15
212 76 13 212 76 13 212 76 13 212 76 13 210 77 11 208 78 11 215 88 17
213 88 17 212 89 17 210 90 17 212 89 17 212 89 17 213 88 17 213 88 17
215 93 18 209 94 17 222 113 31 219 114 31 218 115 31 218 115 31
218 115 31 219 114 31 219 115 29 219 115 29 219 115 29 219 115 29
218 114 28 218 114 28 218 114 28 218 114 28 218 114 28 218 114 28
218 114 28 218 114 28 216 114 28 216 114 28 216 114 28 216 114 28
216 114 30 216 114 30 216 114 30 216 114 30 218 113 30 218 113 30
220 112 30 221 112 30 209 96 18 210 96 18 212 95 18 212 95 18
212 94 20 212 94 20 212 94 20 212 94 20 213 96 21 213 96 21 212 94 20
212 94 20 214 94 18 214 94 18 212 93 17 212 93 17 212 93 17 212 93 17
212 93 17 214 92 17 210 80 8 211 79 8 211 79 10 211 79 10 211 79 10
211 79 10 211 79 10 211 79 12 212 80 13 211 79 12 207 74 7 204 72 5
205 72 8 207 72 8 207 71 10 207 71 10 207 71 10 207 71 10 207 71 10
207 71 10 210 75 13 212 76 15 212 76 15 212 76 15 213 77 16 214 76 16
214 76 16 213 77 16 213 77 16 210 74 15 209 73 14 207 71 12 206 70 11
206 70 11 206 70 11 206 70 11 207 71 12 207 71 12 207 71 12 207 71 12
199 61 3 199 61 3 199 61 3 199 61 3 199 60 5 199 60 5 199 60 5
199 60 5 200 61 6 203 64 8 206 67 14 209 69 16 210 70 17 210 70 17
210 70 17 210 70 17 208 72 15 207 73 13 205 74 11 202 76 9 218 95 25
214 97 23 214 97 21 213 96 17 216 95 17 218 94 17 220 93 19 220 93 19
220 93 19 218 88 18 213 83 13 214 84 14 213 83 13 213 81 12 213 81 12
213 81 14 215 80 14 215 80 16 215 80 16 215 80 16 205 67 6 205 67 6
207 66 6 207 66 6 205 67 6 205 66 9 205 66 9 204 66 5 205 67 6
207 69 9 211 73 12 213 75 15 212 76 15 212 76 15 212 76 13 212 76 13
212 76 13 212 76 13 210 77 11 208 78 11 215 88 17 213 88 17 212 89 17
210 90 17 212 89 17 213 88 17 215 88 17 213 88 17 215 93 18 209 94 17
221 114 31 219 114 31 218 115 31 218 115 31 218 115 31 219 114 31
219 115 29 219 115 29 219 115 29 219 115 29 218 114 28 220 113 28
220 113 28 220 113 28 220 113 28 220 113 28 220 113 28 218 114 28
218 114 28 218 114 28 218 114 28 218 114 28 218 113 30 218 113 30
218 113 30 218 113 30 218 113 30 220 112 30 220 112 30 223 111 30
210 96 18 212 95 18 214 94 18 214 94 18 214 94 20 214 94 20 214 94 20
214 94 20 215 95 21 215 95 21 214 94 20 214 94 20 214 94 20 214 94 20
212 92 19 212 92 19 212 92 19 212 92 19 212 92 19 214 92 19 210 80 10
211 79 10 211 79 10 211 79 10 211 79 10 211 79 12 211 79 12 211 79 12
212 80 13 211 79 12 207 74 7 204 72 5 207 72 8 207 72 8 207 71 10
207 71 10 207 71 10 207 71 10 207 71 10 207 71 10 210 75 13 212 76 15
212 76 15 212 76 15 214 76 16 214 76 16 214 76 16 214 76 16 214 76 18
212 73 15 211 72 14 209 70 12 207 69 11 207 69 11 207 69 11 207 69 11
209 70 12 209 70 12 209 70 12 209 70 12 200 62 4 200 62 4 200 62 4
200 62 4 200 62 4 200 62 4 200 62 4 200 62 4 200 63 7 202 66 9
205 68 12 208 72 15 208 72 15 208 72 15 208 72 15 208 72 15 208 72 15
207 73 13 203 75 9 202 76 7 215 95 19 213 96 17 212 97 15 212 97 15
213 97 15 215 96 15 216 95 15 218 94 17 218 94 17 216 89 16 211 85 11
213 86 12 211 85 11 212 83 10 212 83 10 213 81 12 213 81 14 213 81 14
215 80 14 215 80 14 205 67 4 205 67 4 205 67 4 205 67 4 205 67 4
205 67 6 205 67 6 204 66 5 203 68 6 207 71 10 209 73 12 210 75 13
210 75 13 210 75 13 210 75 11 210 75 11 210 75 11 210 75 11 209 76 9
207 77 9 214 86 16 212 87 16 211 88 16 209 89 16 212 89 17 213 88 17
215 88 17 213 88 17 215 93 18 209 94 17 221 114 31 219 114 31
219 114 31 219 114 31 219 114 31 221 114 31 221 114 29 221 114 29
221 114 29 221 114 29 220 113 28 221 112 28 221 112 28 221 112 28
221 112 28 221 112 28 221 112 28 220 113 28 220 113 28 221 114 29
220 113 28 220 113 28 220 112 30 220 112 30 220 112 30 220 112 30
220 112 30 221 112 30 223 111 30 224 110 30 214 94 18 215 93 18
215 93 18 215 93 18 215 93 20 215 93 20 215 93 20 215 93 20 216 94 21
216 94 21 215 93 20 214 94 20 214 94 20 214 93 22 212 92 21 212 92 21
211 93 21 211 93 21 211 93 21 214 91 21 210 79 12 211 79 12 211 79 12
211 79 12 211 79 12 211 78 14 211 78 14 211 78 14 213 77 14 212 76 13
208 73 7 206 71 5 207 72 8 207 71 10 207 71 10 207 71 10 207 71 10
207 71 10 207 71 10 207 71 10 212 76 15 212 76 15 212 76 15 212 76 15
214 76 16 214 76 16 214 76 16 214 76 16 214 76 18 212 73 15 210 71 13
207 69 11 207 69 11 207 69 11 207 69 11 207 69 11 209 70 12 209 70 12
209 70 12 209 70 12 202 63 5 202 63 5 202 63 5 202 63 5 202 63 5
202 63 5 202 63 5 200 64 5 200 64 5 201 67 9 203 69 12 207 72 15
207 72 15 207 72 15 207 72 15 207 73 13 207 73 13 205 74 11 202 76 7
200 78 5 213 96 17 212 97 15 210 99 13 208 100 13 210 99 13 212 98 13
213 97 13 213 97 15 213 97 15 211 92 14 207 87 9 208 88 10 207 87 9
206 86 10 207 85 10 207 85 10 207 85 12 209 83 14 209 83 14 210 83 14
202 69 2 203 68 2 203 68 2 203 68 2 203 68 2 203 68 4 203 68 4
202 67 3 203 68 6 208 72 11 209 73 12 209 73 12 209 73 12 209 73 12
209 74 10 209 74 10 209 74 10 209 74 10 208 75 10 206 76 8 213 85 16
211 86 14 211 88 16 209 89 16 209 87 14 209 87 14 215 88 17 215 88 17
215 93 20 211 94 17 221 113 33 219 114 31 221 114 31 222 113 31
222 113 31 222 113 31 222 113 29 222 113 29 222 113 29 222 113 29
221 112 28 221 112 28 221 112 28 221 112 28 221 112 28 221 112 28
221 112 28 221 112 28 221 112 28 222 113 29 221 112 28 221 112 30
221 112 30 221 112 30 221 112 30 221 112 30 223 111 30 223 111 30
224 110 30 228 108 32 215 93 18 217 92 18 218 91 18 218 91 20
218 91 20 218 91 20 218 91 20 218 91 20 218 93 21 218 93 23 217 92 22
217 92 22 217 92 22 217 92 22 216 90 21 216 90 21 214 91 21 214 91 23
214 91 23 216 90 23 210 79 14 211 78 14 211 78 14 211 78 14 211 78 14
211 78 14 211 78 14 211 78 14 213 77 14 212 76 13 208 73 9 205 69 6
207 71 10 207 71 10 207 71 10 207 71 10 207 71 10 207 71 10 207 71 10
207 71 10 212 76 15 212 76 15 212 76 15 212 76 15 214 76 16 214 76 16
214 76 16 214 76 16 214 76 18 212 73 15 210 71 13 207 69 11 207 69 11
207 69 11 207 69 11 207 69 11 209 70 12 209 70 12 209 70 12 209 70 12
203 64 6 203 64 6 203 64 6 203 64 6 203 64 6 203 64 6 201 65 6
200 66 6 200 66 6 200 69 9 221 90 29 225 93 33 221 90 29 221 90 29
221 90 29 221 90 27 220 91 27 218 92 25 216 94 21 213 96 19
235 121 39 232 123 37 230 124 35 229 125 35 229 125 35 230 124 35
230 124 35 230 124 37 230 124 37 230 123 39 230 123 39 230 123 39
230 123 39 230 123 41 230 123 41 230 123 41 230 122 43 230 122 45
230 122 45 233 120 45 210 85 13 213 83 13 213 83 13 212 82 12
213 81 14 212 80 13 212 80 13 213 81 16 213 81 16 209 76 11 207 74 9
205 72 8 207 71 10 207 71 10 207 72 8 207 72 8 207 71 10 207 71 10
205 72 8 204 73 8 210 83 14 209 83 14 206 83 13 204 84 13 206 85 14
207 84 14 208 80 12 210 79 12 206 81 10 200 83 9 210 103 23
209 103 23 212 102 23 214 101 23 214 101 21 214 101 21 214 101 21
214 101 21 214 101 21 214 101 21 222 110 29 222 110 29 222 110 29
222 110 29 223 111 30 223 111 30 223 111 30 223 111 30 224 112 31
224 112 31 209 97 16 210 98 17 210 98 19 210 98 19 210 98 19
212 97 19 212 97 19 213 96 19 215 95 19 216 94 21 206 78 7 207 77 7
207 77 7 207 77 9 207 77 9 207 77 9 207 77 9 207 77 9 209 76 9
205 72 8 202 69 4 200 67 2 202 69 4 202 69 4 202 69 4 202 69 4
203 68 4 203 68 6 202 68 6 202 68 6 203 68 6 203 68 6 203 68 6
203 68 6 203 68 6 203 68 6 203 68 6 203 68 6 203 68 6 203 68 6
203 68 6 205 69 8 203 68 6 203 68 6 203 68 6 203 68 6 203 68 6
203 68 6 203 68 6 202 66 5 202 66 5 201 65 4 201 65 4 201 65 4
203 64 6 203 64 6 203 64 6 203 64 6 203 64 6 203 64 6 203 64 6
203 64 6 203 64 6 203 64 6 203 64 6 203 64 6 203 64 8 203 64 8
203 64 8 203 64 8 204 65 7 204 65 7 204 65 7 204 65 7 204 65 7
202 66 7 202 66 7 201 67 7 199 68 5 199 70 6 220 91 27 223 95 31
220 91 27 220 91 27 220 91 27 218 92 25 218 92 25 216 93 23 213 96 19
212 97 17 232 123 37 230 124 35 227 126 33 225 127 33 225 127 33
225 127 33 225 126 35 225 126 35 224 127 37 224 127 37 224 127 37
225 126 37 225 126 37 225 126 39 225 126 39 225 126 39 224 126 41
224 126 41 224 126 41 229 124 41 207 87 11 211 85 11 211 85 11
210 83 10 210 83 12 211 81 13 211 81 13 212 82 14 213 81 16 210 77 13
207 74 9 204 71 7 206 70 9 206 70 9 206 70 7 206 70 7 206 70 9
206 70 9 204 71 7 203 72 7 209 81 13 208 82 13 206 83 13 204 84 13
203 83 12 205 82 12 210 79 12 210 79 12 208 81 10 202 82 9 210 103 23
209 103 23 214 101 23 217 99 23 217 100 21 215 101 21 215 101 21
215 101 21 215 101 21 215 101 21 223 109 29 222 110 29 222 110 29
222 110 29 223 111 30 223 111 30 223 111 30 224 110 30 226 111 31
226 111 31 210 96 16 212 97 17 212 97 19 213 96 19 213 96 19
213 96 19 213 96 19 215 95 19 216 94 21 218 93 21 206 78 7 207 77 7
209 76 9 209 76 9 209 76 9 210 75 9 210 75 9 210 75 9 210 75 11
207 72 8 203 68 4 201 66 2 205 67 4 205 67 4 205 67 4 205 67 6
205 67 6 205 67 6 205 67 6 205 67 6 205 67 6 205 67 6 203 68 6
203 68 6 203 68 6 203 68 6 203 68 6 203 68 6 203 68 6 203 68 6
203 68 6 203 68 6 203 68 6 203 68 6 203 68 6 203 68 6 203 68 6
203 68 6 203 68 6 202 66 5 202 66 5 201 65 4 201 65 4 201 65 4
203 64 6 203 64 6 203 64 6 203 64 6 203 64 6 203 64 6 203 64 6
203 64 6 203 64 6 203 64 6 203 64 6 203 64 6 203 64 8 203 64 8
203 64 8 203 64 8 203 67 9 203 67 9 203 67 9 203 67 9 203 67 9
203 67 9 203 68 6 202 68 6 199 70 6 198 73 6 218 92 25 222 96 29
218 92 25 218 92 25 218 92 25 216 93 23 216 93 23 215 95 21 212 97 17
210 98 15 230 124 35 229 125 33 225 127 31 224 128 31 222 129 31
221 129 33 222 128 33 222 128 35 222 128 35 222 128 35 222 128 35
224 127 35 224 127 35 224 127 37 224 127 37 224 127 37 224 127 37
224 126 39 225 126 39 229 124 39 205 88 9 210 86 9 210 85 11
209 84 10 209 84 12 209 82 11 209 81 13 212 82 14 212 82 14 210 79 12
207 74 9 203 70 6 203 70 6 203 70 6 205 69 6 205 69 6 206 68 8
205 69 8 203 70 6 201 71 6 208 80 12 206 81 12 205 82 12 203 83 12
203 83 12 205 82 12 210 79 12 210 79 12 208 81 10 202 82 9 210 103 23
210 103 23 215 100 23 218 99 23 218 99 21 217 100 21 217 100 21
217 100 21 217 100 21 217 100 21 223 109 29 223 109 29 223 109 29
223 109 29 224 110 30 224 110 30 224 110 30 224 110 30 227 110 31
228 111 32 212 95 16 213 96 17 213 96 19 215 95 19 215 95 19
215 95 19 215 95 19 216 94 19 216 94 21 218 93 21 206 78 7 207 77 7
209 76 9 210 75 9 210 75 9 212 75 9 212 74 11 212 74 11 212 74 11
209 71 8 205 67 6 203 65 4 203 68 6 203 68 6 203 68 6 203 68 6
203 67 9 203 67 9 203 67 9 203 67 9 205 66 9 205 66 9 205 66 9
205 66 9 205 66 9 205 66 9 205 66 9 205 66 9 203 68 6 203 68 6
203 68 6 203 68 6 203 68 6 203 68 6 203 68 6 203 68 6 205 66 9
205 66 9 205 66 9 204 65 7 204 65 7 203 64 6 203 64 6 203 64 6
203 64 6 203 64 6 203 64 6 203 64 6 203 64 6 203 64 6 203 64 6
203 64 6 203 64 6 203 64 6 203 64 6 203 64 6 203 64 6 203 64 6
203 64 6 203 64 6 203 67 9 203 67 9 203 67 9 203 67 9 203 67 9
203 67 9 203 68 6 202 68 6 199 71 4 198 73 6 218 93 23 222 96 27
216 93 23 216 93 23 216 93 23 216 93 23 215 95 21 213 96 19 212 97 17
208 100 13 230 124 35 227 126 33 225 127 31 222 129 29 221 130 31
221 129 33 221 129 33 222 128 33 222 128 35 222 128 35 222 128 35
224 127 35 224 127 35 224 127 35 224 127 35 224 127 35 224 127 35
225 126 37 225 126 37 229 124 37 205 88 9 208 86 11 210 85 11
209 84 12 209 84 12 208 83 11 209 81 13 210 83 14 212 82 14 210 79 12
207 74 9 203 70 6 203 70 6 203 70 6 205 69 6 205 69 6 206 68 8
206 68 8 205 69 6 201 71 6 208 80 14 206 81 14 205 81 14 205 82 12
206 81 12 208 80 12 210 79 12 210 79 12 208 81 10 202 82 9 214 101 25
212 102 23 215 100 23 218 99 23 218 99 21 217 100 21 217 100 21
217 100 21 217 100 21 217 100 21 223 109 29 223 109 29 223 109 29
223 109 29 224 110 30 224 110 30 224 110 30 224 110 30 227 110 31
228 111 32 212 95 16 213 96 17 213 96 19 213 96 19 213 96 19
213 96 19 215 95 19 215 95 19 216 94 21 218 93 21 206 78 7 207 77 7
209 76 9 210 75 9 212 75 9 212 75 9 212 74 11 212 74 11 212 74 11
209 71 8 205 67 6 203 65 4 205 67 6 205 67 6 205 67 6 205 67 6
205 66 9 205 66 9 205 66 9 205 66 9 205 66 9 205 66 9 205 66 9
205 66 9 205 66 9 205 66 9 205 66 9 205 66 9 203 68 6 203 68 6
203 68 6 203 68 6 203 68 6 203 68 6 203 68 6 203 68 6 205 66 9
205 66 9 205 66 9 204 65 7 204 65 7 203 64 6 203 64 6 203 64 6
203 64 6 203 64 6 203 64 6 203 64 6 203 64 6 203 64 6 203 64 6
203 64 6 203 64 6 203 64 6 203 64 6 203 64 6 203 64 6 203 64 6
203 64 6 203 64 6 203 67 9 203 67 9 203 67 9 203 67 9 203 68 6
203 68 6 203 68 6 202 69 4 200 70 4 200 72 4 218 93 23 222 97 25
216 94 21 216 94 21 215 95 21 215 95 21 215 95 21 213 96 19 212 97 17
208 100 13 230 124 35 227 126 33 225 127 31 224 128 29 222 129 31
222 128 33 222 128 35 224 127 35 224 127 35 224 127 35 224 127 35
225 126 35 225 127 33 225 127 33 225 127 33 225 127 33 225 127 33
227 126 35 227 126 35 230 124 37 205 88 9 208 86 13 210 85 13
210 85 13 209 83 14 209 83 14 210 83 14 210 83 14 212 81 16 208 78 13
205 72 8 203 70 6 203 70 8 203 70 8 205 69 8 205 69 8 206 68 8
206 68 8 205 69 8 201 70 8 208 79 16 206 80 16 205 81 16 206 81 14
211 79 12 213 78 12 211 79 12 210 79 12 208 80 12 204 81 11 217 99 25
215 100 25 215 100 23 217 99 23 217 100 21 215 101 21 215 101 21
215 101 21 215 101 21 215 101 21 223 109 29 223 109 29 223 109 29
223 109 29 224 110 30 224 110 30 224 110 30 224 110 30 226 111 31
227 112 32 210 96 18 212 97 19 212 97 19 212 97 19 212 96 21
212 96 21 212 96 21 213 96 21 215 95 21 216 94 21 206 78 9 207 77 9
207 77 9 209 76 9 212 75 9 214 74 9 214 74 9 214 74 9 214 73 11
210 70 8 207 66 4 204 64 2 207 66 6 207 66 6 207 66 6 207 66 6
207 66 9 207 66 9 207 66 9 205 66 9 205 66 9 205 66 9 205 66 9
205 66 9 205 66 9 205 66 9 205 66 9 205 66 9 203 68 6 203 68 6
203 68 6 203 68 6 203 68 6 203 68 6 203 68 6 203 68 6 205 66 9
207 65 11 207 65 11 207 65 11 205 64 9 205 64 9 205 64 9 205 64 9
204 65 7 204 65 7 204 65 7 203 64 6 203 64 8 202 63 7 202 63 5
202 63 5 203 64 6 203 64 6 203 65 4 203 65 4 203 64 6 203 64 6
203 64 6 203 64 6 203 67 9 203 67 9 203 67 9 203 67 9 203 68 6
203 68 6 203 68 4 203 68 4 202 69 2 201 71 4 220 92 21 222 97 25
216 94 19 216 94 19 215 95 21 215 95 21 215 95 21 213 96 19 212 97 17
210 98 15 230 124 35 229 125 33 225 127 31 224 128 31 224 128 33
224 127 35 224 127 35 224 127 35 225 126 35 225 126 35 225 126 35
225 126 35 225 127 33 225 127 33 225 127 33 225 127 33 227 126 33
227 126 33 227 126 33 230 124 37 205 88 11 210 85 13 210 85 13
210 85 15 209 83 14 210 83 14 210 83 14 210 83 14 212 81 16 208 78 13
205 72 8 203 70 6 203 70 8 203 70 8 205 69 8 205 69 8 206 68 8
206 68 8 205 69 8 201 70 8 208 79 16 206 80 16 205 81 16 206 80 16
213 77 14 214 77 12 213 78 12 210 79 12 208 80 12 205 80 11 220 97 25
217 99 25 215 100 23 214 101 23 214 101 21 214 101 21 214 101 21
214 101 21 214 101 21 214 101 21 222 110 29 222 110 29 222 110 29
222 110 29 223 111 30 223 111 30 223 111 30 223 111 30 224 112 31
225 113 35 209 96 18 210 98 19 210 98 19 210 97 21 208 98 21
208 98 21 210 97 21 212 96 21 213 96 21 216 94 21 204 79 9 206 78 9
207 77 9 209 76 9 212 75 9 214 74 9 214 74 9 214 74 9 214 73 11
210 70 8 207 66 4 204 64 2 207 66 6 207 66 6 207 66 6 207 66 6
207 66 9 207 66 9 207 66 9 207 66 9 205 66 9 205 66 9 205 66 9
205 66 9 205 66 9 205 66 9 205 66 9 205 66 9 203 68 6 203 68 6
203 68 6 203 68 6 203 68 6 203 68 6 203 68 6 203 68 6 205 66 9
207 65 11 207 65 11 207 65 11 205 64 9 205 64 9 205 64 9 205 64 9
204 65 7 204 65 7 204 65 7 203 64 6 203 64 8 202 63 7 202 63 5
202 63 5 203 64 6 203 64 6 203 65 4 203 65 4 203 64 6 203 64 6
203 64 6 203 64 6 202 68 6 202 68 6 202 68 6 202 68 6 202 68 6
202 68 6 203 68 4 203 68 4 202 69 2 201 71 4 220 92 21 222 97 25
216 94 19 216 94 19 215 95 21 215 95 21 215 95 21 213 96 19 212 97 17
210 98 15 232 123 37 229 125 33 227 126 31 225 127 31 225 127 33
225 126 35 224 127 37 224 127 37 225 126 35 227 126 35 227 126 35
227 126 35 225 126 35 225 126 35 225 126 35 225 126 35 227 126 35
227 126 35 227 126 35 230 124 37 207 87 11 210 85 15 211 84 15
211 84 15 210 82 16 210 82 16 212 81 16 212 81 16 210 82 16 208 78 13
204 71 7 203 70 6 203 70 8 203 70 8 205 69 8 205 69 8 206 68 8
206 68 8 205 69 8 201 70 8 208 79 16 206 80 16 205 81 16 206 80 16
213 77 14 214 77 12 213 78 12 210 79 12 208 80 12 205 80 11 220 97 25
217 99 25 212 102 23 210 103 23 210 103 21 210 103 21 210 103 21
210 103 21 210 103 21 210 103 21 219 111 29 219 111 29 219 111 29
219 111 29 220 112 32 220 112 32 220 112 32 220 112 32 221 113 33
222 114 35 206 98 20 207 99 21 207 99 21 207 99 21 207 98 23
207 98 23 208 98 21 210 97 21 213 96 21 215 95 21 204 79 9 206 78 9
207 77 9 209 76 9 210 75 9 212 75 9 212 75 9 212 75 9 212 74 11
209 71 8 205 67 4 203 65 2 205 67 6 205 67 6 205 67 6 205 67 6
205 66 9 205 66 9 205 66 9 205 66 9 205 66 9 205 66 9 205 66 9
205 66 9 205 66 9 205 66 9 205 66 9 205 66 9 203 68 6 203 68 6
203 68 6 203 68 6 203 68 6 203 68 6 203 68 6 203 68 6 205 66 9
205 66 9 205 66 9 205 66 9 204 65 7 204 65 7 204 65 7 204 65 7
204 65 7 204 65 7 204 65 7 203 64 6 203 64 8 202 63 7 202 63 5
202 63 5 203 64 6 203 64 6 203 65 4 203 65 4 203 65 4 203 65 4
203 65 4 203 65 4 202 68 6 202 68 6 202 68 6 202 68 6 202 68 6
202 68 6 203 68 4 203 68 4 201 68 1 201 71 4 220 92 21 223 96 25
219 95 21 218 95 21 216 96 23 216 96 23 215 95 21 215 95 21 213 96 19
210 98 15 232 123 37 230 124 35 227 126 33 225 127 33 225 126 35
225 126 37 224 127 37 225 126 37 227 125 37 227 126 35 227 126 35
227 126 35 225 126 35 225 126 35 225 126 35 225 126 35 227 126 35
227 126 35 227 126 35 230 124 37 206 86 10 209 83 14 210 83 14
210 83 14 209 81 15 209 81 15 211 80 15 212 81 16 210 82 16 207 79 13
201 71 6 202 69 4 203 70 8 203 70 8 205 69 8 205 69 8 206 68 8
206 68 8 205 69 8 203 70 8 211 80 17 208 81 17 206 82 17 208 81 17
214 79 15 216 78 15 214 79 15 212 80 13 208 80 12 205 80 11 220 97 27
217 99 25 212 101 25 210 103 23 210 103 23 210 103 23 210 103 23
210 103 23 210 103 23 210 103 23 219 111 31 219 111 31 219 111 31
219 111 31 220 112 32 220 112 32 220 112 32 220 112 32 221 113 33
222 114 35 206 98 20 207 99 21 207 99 21 207 99 21 207 98 23
207 98 23 208 98 21 212 96 21 213 96 21 216 93 23 204 79 9 206 78 11
207 77 11 209 76 11 210 75 11 210 75 11 212 74 11 212 74 11 212 74 11
209 71 8 206 68 6 203 65 4 205 67 6 205 67 6 205 67 6 205 66 9
205 66 9 205 66 9 205 66 9 205 66 9 205 66 9 205 66 9 205 66 9
205 66 9 205 66 9 205 66 9 205 66 9 205 66 9 203 68 6 203 68 6
203 68 6 203 68 6 203 68 6 203 68 6 203 68 6 203 68 6 203 68 6
205 66 9 205 66 9 205 66 9 204 65 7 204 65 7 204 65 7 204 65 7
204 65 7 204 65 7 204 65 7 203 64 6 203 64 8 202 63 7 202 63 5
202 63 5 203 64 6 203 64 6 203 65 4 203 65 4 203 65 4 203 65 4
203 65 4 203 65 4 205 72 10 205 72 10 205 72 10 205 72 10 205 72 8
205 72 8 205 72 8 205 73 6 202 69 2 204 74 6 217 90 19 223 96 25
219 95 21 218 95 21 218 95 23 218 95 23 216 96 23 216 96 23 214 97 21
211 99 17 232 123 37 230 124 35 229 125 33 227 126 33 225 126 35
225 126 37 224 126 39 225 126 39 227 125 37 227 125 37 226 124 35
226 124 35 224 125 35 224 125 35 223 124 34 223 124 34 225 123 32
226 122 32 226 122 32 229 120 34 206 86 10 209 84 12 210 83 14
210 83 14 209 81 15 209 81 15 209 81 15 209 81 15 214 86 20 216 88 22
200 70 4 202 69 4 203 68 6 203 68 6 203 68 6 203 68 6 206 68 10
206 68 10 205 68 10 203 69 10 211 80 17 208 81 17 206 82 17 208 81 17
212 79 17 216 77 17 214 78 17 212 79 15 210 79 14 208 80 14 222 99 29
220 102 30 214 98 26 212 99 24 211 100 24 211 100 24 211 100 24
211 100 24 211 100 24 211 100 24 219 108 32 219 108 32 219 108 32
219 108 32 220 110 33 220 110 33 220 110 33 220 110 33 219 108 32
222 112 35 210 99 23 214 104 27 210 99 25 210 99 25 210 99 25
211 98 25 213 97 25 214 96 25 218 95 25 219 94 25 207 77 11 209 75 13
210 75 13 210 75 13 212 74 13 212 74 13 212 74 13 212 74 13 212 74 13
207 69 9 205 67 6 203 65 4 204 65 7 204 65 7 205 66 9 205 66 9
205 66 11 205 66 11 205 66 9 205 66 9 204 65 7 204 65 7 204 65 7
204 65 7 205 66 9 205 66 9 205 66 9 205 66 9 203 68 6 202 66 5
202 67 3 202 67 3 201 68 3 202 69 4 202 69 4 202 69 4 202 69 4
203 68 6 203 68 6 203 68 6 203 68 6 203 68 6 203 68 6 203 68 6
203 67 9 203 67 9 203 67 9 202 66 7 204 65 7 203 64 6 203 64 6
203 64 6 202 63 5 202 63 5 202 63 3 202 63 3 203 65 4 203 65 4
203 65 4 203 65 4 202 68 6 202 68 6 202 68 6 202 68 6 202 69 4
202 69 4 202 69 2 202 69 2 203 72 5 207 77 9 215 88 17 220 92 21
218 93 19 216 94 19 216 94 21 216 94 21 215 95 21 215 95 21 213 96 19
212 97 17 229 117 34 225 119 32 224 120 30 222 121 30 221 121 32
221 121 32 219 122 34 221 121 34 222 121 32 223 122 33 223 122 33
225 123 34 225 123 34 224 125 35 224 125 35 227 125 37 229 125 35
229 125 35 229 125 35 232 123 37 208 88 12 211 86 14 213 85 16
213 85 16 211 83 17 211 83 17 211 83 17 211 83 17 213 88 21 216 88 22
199 69 3 201 68 3 203 68 6 203 68 6 203 68 6 203 68 6 206 68 10
205 66 9 206 70 11 205 72 12 206 75 12 204 78 13 204 80 15 205 79 15
210 77 15 213 75 15 212 76 15 212 76 15 216 83 18 210 82 16 221 98 28
218 98 27 216 95 25 214 96 25 214 97 23 214 97 23 214 97 23 214 97 23
214 97 23 214 97 23 226 108 34 226 108 34 226 108 34 226 108 34
227 109 35 227 109 35 227 109 35 227 109 35 219 101 27 224 106 32
211 93 19 214 96 25 212 94 22 212 94 22 212 94 22 212 94 22 214 93 22
215 92 22 217 92 22 220 90 24 209 75 13 210 75 13 212 74 13 212 74 13
212 74 13 212 74 13 212 74 13 212 74 13 206 68 8 204 66 5 202 63 3
202 63 3 203 64 6 203 64 6 204 65 7 204 65 7 204 65 9 204 65 9
204 65 7 204 65 7 204 65 7 204 65 7 204 65 7 204 65 7 205 66 9
205 66 9 205 66 9 205 66 9 202 66 5 203 68 6 205 69 6 205 69 6
203 70 6 202 69 4 202 69 4 202 69 4 202 69 4 202 69 4 202 69 4
201 68 3 201 68 3 201 66 2 201 66 2 201 65 4 201 65 6 201 65 6
200 66 6 198 65 5 200 64 5 200 62 4 200 62 4 200 62 4 204 65 7
204 65 7 204 66 5 204 66 5 204 66 5 204 66 5 204 66 5 204 66 5
215 82 17 215 82 17 215 82 17 215 82 17 215 82 17 215 82 17 215 82 15
215 82 15 207 77 9 210 79 12 214 86 16 215 88 17 213 89 15 212 90 15
212 89 17 212 89 17 211 91 18 211 91 18 210 92 16 208 94 14
221 109 26 217 111 24 216 112 22 214 113 22 214 112 24 213 113 24
211 114 26 213 113 26 214 112 24 215 110 23 215 110 23 213 109 21
212 110 21 211 109 20 211 109 20 209 108 19 211 107 19 211 107 19
211 107 19 214 105 21 211 92 16 215 90 18 216 88 20 216 88 20
215 87 21 215 87 21 215 87 21 215 87 21 213 88 21 215 89 22 198 67 2
201 68 3 203 68 6 203 68 6 203 68 6 202 66 5 205 66 9 205 66 9
206 70 11 204 70 11 203 72 9 201 72 9 199 75 10 201 74 10 205 72 10
209 70 10 207 71 10 207 71 10 203 70 6 194 66 0 203 78 8 199 74 5
202 76 7 203 76 7 203 76 5 203 76 5 203 76 5 203 76 5 203 76 5
203 76 5 202 75 4 202 75 4 202 75 4 202 75 4 203 76 7 203 76 7
203 76 7 203 76 7 204 77 8 208 80 12 196 69 0 200 72 4 202 74 8
202 74 8 201 75 8 201 75 8 202 74 6 202 74 6 204 74 6 205 72 8
199 61 1 201 60 1 201 60 1 201 60 1 201 60 1 201 60 1 202 61 2
202 61 2 202 61 2 202 61 2 204 64 4 204 64 4 204 63 6 204 63 6
204 63 6 204 63 6 204 63 8 204 63 8 204 63 6 204 63 6 205 64 7
205 64 7 205 64 7 205 64 7 205 66 9 205 66 9 205 66 9 205 66 9
202 66 5 205 69 8 210 75 11 213 77 14 215 82 17 215 82 17 215 82 17
215 82 17 213 83 15 213 83 15 213 83 15 213 83 15 208 78 11 210 77 11
210 77 11 210 77 13 210 77 15 210 76 17 210 76 17 209 75 15 210 74 15
209 73 14 211 72 14 211 72 14 207 69 11 207 69 11 207 69 9 207 69 9
207 69 9 207 69 9 207 69 9 207 69 9 211 78 14 211 78 14 211 78 14
211 78 14 211 78 14 211 78 14 211 79 12 211 79 12 211 81 13 211 81 13
211 84 13 210 85 13 211 86 12 209 87 12 209 87 14 209 87 14 209 89 16
209 89 16 207 90 14 206 91 12 216 104 21 213 106 19 211 107 17
209 108 17 209 108 19 209 108 19 208 108 21 209 107 21 211 107 19
211 107 19 212 108 20 212 108 20 212 108 20 211 109 20 212 110 21
213 109 21 213 109 21 213 109 21 213 109 21 217 107 23 212 93 17
216 91 19 217 90 21 217 90 21 216 88 22 216 88 22 216 88 22 216 88 22
213 88 21 215 89 22 198 67 2 201 68 3 203 68 6 203 68 6 203 68 6
202 66 5 205 66 9 204 65 7 203 67 9 205 68 10 203 70 8 201 70 8
198 72 8 200 71 8 205 69 8 206 68 8 205 69 8 205 69 8 208 75 10
199 69 3 204 77 8 199 71 2 205 75 7 207 74 7 207 74 5 207 74 5
207 74 5 207 74 5 208 76 6 208 76 6 208 76 6 208 76 6 209 77 7
209 77 7 210 77 11 210 77 11 210 77 11 210 77 11 205 73 6 209 76 9
196 63 0 201 68 1 205 72 8 205 72 8 205 72 8 205 72 8 205 72 8
205 72 8 204 71 7 205 69 6 205 67 6 205 65 5 204 64 4 204 64 4
204 64 4 204 64 4 204 64 4 204 64 4 204 64 4 204 63 6 204 63 6
204 63 6 204 63 6 204 63 6 204 63 6 204 63 6 204 63 8 204 63 8
204 63 6 204 63 6 205 64 7 205 64 7 205 64 7 205 64 7 205 66 9
205 66 9 205 66 9 205 67 6 202 66 5 205 69 8 214 79 15 217 82 18
213 81 16 213 81 16 213 81 16 212 82 14 210 83 12 210 83 12 212 82 12
212 82 12 205 75 5 205 75 5 207 74 5 207 74 7 207 73 11 207 73 13
207 73 13 205 72 12 207 71 12 206 70 11 207 69 11 207 69 11 209 70 12
209 70 12 209 70 10 209 70 10 209 70 10 209 70 10 209 70 10 209 70 10
213 83 17 213 83 17 213 83 17 213 83 17 213 83 15 213 83 15 213 83 15
213 83 15 213 83 13 213 83 13 211 84 13 211 86 14 211 86 14 211 86 14
211 88 16 211 88 16 209 87 14 208 88 14 206 89 12 205 90 10
219 108 25 216 110 23 215 111 21 215 111 21 213 111 23 213 111 23
215 110 25 216 109 25 216 109 25 216 109 25 216 109 25 216 109 25
215 110 23 215 110 23 215 110 23 215 110 23 216 110 23 216 110 23
216 110 23 219 108 25 212 93 17 216 91 19 216 91 19 216 90 21
215 89 22 215 89 22 216 88 22 216 88 22 212 86 20 213 88 21 197 66 1
200 67 2 202 66 5 202 66 5 202 66 5 202 66 5 204 66 5 204 66 5
202 66 5 202 66 5 202 68 6 203 70 8 203 70 8 203 70 8 206 70 7
207 70 7 207 72 8 207 72 8 205 72 8 205 72 8 207 74 9 207 74 9
207 74 7 208 73 7 208 73 7 208 73 7 208 73 7 208 73 7 208 73 7
208 73 7 208 75 8 208 75 8 208 75 8 208 75 8 208 75 8 208 75 8
208 75 8 208 75 8 210 77 11 208 75 8 202 69 2 202 69 2 205 69 6
205 69 8 205 69 8 205 69 8 205 69 8 205 69 8 205 69 8 205 69 8
203 65 4 203 65 4 203 65 4 204 64 4 204 64 4 204 64 4 203 65 4
203 65 4 203 64 6 203 64 8 203 64 8 203 64 6 203 62 5 203 62 5
203 62 5 203 62 5 203 62 7 203 62 7 204 63 8 204 63 8 204 63 8
204 63 6 204 65 7 204 66 5 205 67 6 205 67 6 203 68 6 203 68 4
206 70 7 203 68 4 216 83 18 212 79 15 213 81 16 213 81 16 212 82 14
212 82 14 210 83 12 210 83 12 209 82 11 208 81 10 207 77 9 206 76 8
205 75 7 205 75 7 206 76 10 206 75 12 208 74 12 208 74 12 209 73 14
209 73 14 209 73 12 208 72 11 208 72 11 207 71 10 207 71 10 207 71 10
209 70 12 209 70 12 209 70 12 209 70 12 213 83 17 213 83 17 213 83 17
213 83 17 213 83 15 213 83 15 213 83 15 213 83 15 213 83 13 213 83 13
213 85 14 211 86 14 211 86 14 211 86 14 211 88 16 211 88 16 209 87 14
209 87 14 208 88 12 205 90 10 219 108 25 218 109 23 216 110 21
215 111 21 213 111 23 215 110 23 216 109 25 218 108 25 216 109 25
216 109 25 216 109 25 216 109 25 216 110 23 216 110 23 216 110 23
216 110 23 216 110 23 216 110 23 216 110 23 219 108 25 212 93 17
216 91 19 216 91 19 216 90 21 215 89 22 215 89 22 216 88 22 215 89 22
211 87 20 213 88 21 197 66 1 201 66 2 204 66 5 204 66 5 202 66 5
202 66 5 204 66 5 203 65 4 201 65 4 202 66 5 202 68 6 205 69 8
206 70 9 206 70 9 207 70 7 207 70 7 207 72 8 207 72 8 205 72 8
205 72 8 208 73 9 208 73 9 208 73 7 208 73 7 208 73 7 208 73 7
208 73 7 208 73 7 208 73 7 208 73 7 208 75 8 208 75 8 208 75 8
208 75 8 208 75 8 208 75 8 208 75 8 208 75 8 210 77 11 208 75 8
202 69 2 202 69 4 205 69 8 205 69 8 205 69 8 205 69 8 205 69 8
205 69 8 205 69 8 205 69 8 203 65 4 203 65 4 203 65 4 203 65 4
204 64 4 204 64 4 203 65 4 203 64 6 203 64 8 203 64 8 203 64 8
203 64 8 203 62 5 203 62 5 203 62 5 203 62 5 203 62 7 203 62 7
204 63 8 204 63 8 204 63 8 204 63 8 204 65 7 204 66 5 205 67 6
205 67 6 203 68 4 203 68 4 207 72 8 203 68 4 217 84 20 212 79 15
213 81 16 213 81 16 212 82 14 212 82 14 210 83 12 210 83 12 209 82 11
208 81 10 207 77 9 206 76 8 205 75 7 205 75 7 206 76 10 206 76 10
208 75 10 208 75 10 209 73 12 209 73 14 209 73 12 208 72 11 208 72 11
207 71 10 207 71 10 207 71 10 209 70 12 209 70 12 209 70 12 209 70 12
213 83 15 213 83 15 213 83 15 213 83 15 213 83 15 213 83 15 213 83 15
213 83 15 213 83 13 213 83 13 213 85 14 211 86 14 211 86 14 211 86 14
211 88 16 211 88 16 209 87 14 209 87 14 208 88 12 205 90 10
219 108 25 218 109 23 216 110 21 215 111 21 215 110 23 215 110 23
216 109 25 218 108 25 216 109 25 216 109 25 216 109 25 216 109 25
216 110 23 218 109 23 218 109 23 216 110 23 216 109 25 216 109 25
216 109 25 219 107 27 212 93 17 216 91 19 216 91 19 216 90 21
215 89 22 215 89 22 216 88 22 215 89 22 211 87 20 212 88 21 197 66 1
201 66 2 204 66 5 204 66 5 202 66 5 201 65 4 203 65 4 203 65 4
201 65 4 202 66 5 203 68 6 205 69 8 207 69 9 207 69 9 207 70 7
207 70 7 207 72 8 207 72 8 205 72 8 205 72 8 208 73 9 208 73 9
208 73 7 208 73 7 208 73 7 208 73 7 208 73 7 208 73 7 208 73 7
208 73 7 208 75 8 208 75 8 208 75 8 208 75 8 208 75 10 208 75 10
208 75 10 208 75 10 210 77 13 208 75 10 202 69 4 202 69 4 205 69 8
205 69 8 205 69 8 205 69 8 205 68 10 205 68 10 205 68 10 205 68 10
203 65 4 203 65 4 203 65 4 203 65 4 203 65 4 203 65 4 203 65 4
203 64 6 203 64 8 203 64 8 203 64 8 203 64 8 203 62 5 203 62 5
203 62 5 203 62 5 203 62 7 203 62 7 204 63 8 204 63 8 204 63 8
204 63 8 204 65 7 204 66 5 205 67 6 205 67 6 203 68 4 203 68 4
205 72 8 201 68 3 217 84 20 211 80 15 213 81 16 213 81 16 212 82 14
212 82 14 210 83 12 210 83 12 209 82 11 208 81 10 207 77 9 206 76 8
205 75 7 205 75 7 206 76 8 206 76 8 208 75 8 208 75 10 209 73 12
209 73 14 209 73 12 208 72 11 208 72 11 207 71 10 207 71 10 207 71 10
209 70 12 209 70 12 209 70 12 209 70 12 213 83 15 213 83 15 213 83 15
213 83 15 213 83 15 213 83 15 213 83 15 213 83 15 213 83 13 211 84 13
211 86 14 211 86 14 211 86 14 211 86 14 211 88 16 211 88 16 209 87 14
209 87 14 208 88 12 205 90 10 219 108 25 218 109 23 216 110 23
215 110 23 215 110 23 216 109 25 218 108 25 218 108 25 216 109 25
216 109 25 216 109 25 216 109 25 218 108 25 218 108 25 218 108 25
218 108 25 216 109 25 216 109 25 216 109 25 219 107 27 214 92 17
216 91 19 216 91 19 216 90 21 215 89 22 215 89 22 216 88 22 215 89 22
211 87 20 212 88 21 197 66 1 201 66 2 204 66 5 204 66 5 202 66 5
201 65 4 203 65 4 202 63 3 201 65 4 202 66 5 203 68 6 205 69 8
207 69 9 207 69 9 207 70 7 207 70 7 207 72 8 207 72 8 205 72 8
205 72 8 208 73 9 208 73 9 208 73 7 208 73 7 208 73 7 208 73 7
208 73 7 208 73 7 208 73 7 208 73 7 208 75 8 208 75 8 208 75 8
208 75 8 208 75 10 208 75 10 208 75 10 208 75 10 210 77 13 208 75 10
202 69 4 202 69 4 205 69 8 205 69 8 205 69 8 205 69 8 205 68 10
205 68 10 205 68 10 205 68 10 203 65 4 203 65 4 203 65 4 203 65 4
203 65 4 203 65 4 203 65 4 203 64 6 203 64 8 203 64 8 203 64 8
203 64 8 203 62 5 203 62 5 203 62 5 203 62 7 203 62 7 203 62 7
204 63 8 204 63 8 204 63 8 204 63 8 204 65 7 204 66 5 205 67 6
205 67 6 203 68 4 203 68 4 205 72 8 201 68 3 215 85 20 211 80 15
213 81 16 213 81 14 212 82 14 212 82 12 210 83 12 210 83 12 209 82 11
208 81 10 206 78 9 206 76 8 205 75 7 205 75 7 206 76 8 206 76 8
208 75 8 208 75 10 209 73 12 209 73 14 209 73 12 208 72 11 208 72 11
207 71 10 207 71 10 207 71 10 209 70 12 209 70 12 209 70 12 209 70 12
213 83 15 213 83 15 213 83 15 213 83 15 213 83 13 213 83 13 211 84 13
211 84 13 211 84 13 211 84 13 211 86 14 211 86 14 211 86 14 211 86 14
212 87 16 212 87 16 209 87 14 209 87 14 208 88 12 205 90 10
219 108 25 218 108 25 216 110 23 216 110 23 215 110 25 216 109 27
218 108 27 218 108 27 216 109 27 216 109 27 216 109 27 216 109 27
218 108 27 218 108 27 218 108 27 218 108 25 218 108 25 218 108 25
218 108 25 221 106 27 214 92 17 217 90 19 217 90 21 217 90 21
216 88 22 216 88 22 216 88 22 215 89 22 209 88 22 212 88 23 197 66 3
201 65 4 204 66 5 204 66 5 202 66 5 202 66 5 203 65 4 203 65 4
204 66 5 205 67 6 205 69 8 206 70 9 209 70 10 209 70 10 207 72 8
207 72 8 207 72 8 207 72 8 208 73 9 208 73 9 208 73 9 208 73 9
208 73 9 208 73 9 208 73 9 208 73 9 208 73 9 208 73 9 208 73 9
208 73 9 208 75 10 208 75 10 208 75 10 208 75 10 208 75 10 208 75 10
208 75 10 208 75 10 210 77 13 208 75 10 202 69 4 202 69 4 205 69 8
205 69 8 205 69 8 205 69 8 206 68 10 206 68 10 206 68 10 206 68 10
203 64 6 203 64 6 203 64 6 203 64 6 203 64 6 203 64 6 203 64 6
203 64 6 203 64 8 203 64 8 203 64 8 203 64 8 203 62 7 203 62 7
203 62 7 203 62 7 203 61 9 203 61 9 204 63 8 204 63 8 204 63 8
204 63 8 204 65 7 204 66 5 205 67 6 205 67 6 203 68 4 203 68 4
205 72 8 201 68 3 215 85 18 211 81 13 212 82 14 212 82 14 212 82 12
210 83 12 210 83 12 210 83 12 209 82 11 208 81 10 206 78 9 204 77 8
203 76 7 205 75 7 206 76 8 208 75 8 208 75 8 208 75 10 209 73 12
209 73 12 209 73 12 208 72 11 208 72 11 207 71 10 207 71 10 207 71 10
209 70 12 209 70 12 209 70 12 209 70 12 213 83 15 213 83 15 213 83 15
213 83 15 213 83 13 213 83 13 211 84 13 211 84 13 211 84 13 211 84 13
211 86 14 211 86 14 211 86 14 211 86 14 212 87 16 212 87 16 209 87 14
209 87 14 208 88 12 206 89 12 221 106 27 219 108 25 218 109 23
216 109 25 215 110 27 216 109 27 218 108 27 218 108 27 216 109 27
216 109 27 216 109 27 216 109 27 218 108 27 218 108 27 218 108 27
218 108 27 218 108 25 218 108 25 218 108 25 221 106 27 214 92 17
217 90 19 217 90 21 217 90 21 216 88 22 216 88 22 216 88 22 215 89 22
209 88 22 210 89 23 195 67 3 201 65 4 204 66 5 205 65 5 204 66 5
202 66 5 203 65 4 203 65 4 204 66 5 205 67 6 205 69 8 206 70 9
209 70 10 209 70 10 207 72 8 207 72 8 207 72 8 207 72 8 208 73 9
208 73 9 208 73 9 208 73 9 208 73 9 208 73 9 208 73 9 208 73 9
208 73 9 208 73 9 208 73 9 208 73 9 208 75 10 208 75 10 208 75 10
208 75 10 208 75 10 208 75 10 208 75 10 208 75 10 210 77 13 208 75 10
202 69 4 202 69 4 205 69 8 205 69 8 205 69 8 205 69 8 206 68 10
206 68 10 206 68 10 206 68 10 203 64 6 203 64 6 203 64 6 203 64 6
203 64 6 203 64 6 203 64 6 203 64 6 203 64 8 203 64 8 203 64 8
203 64 8 203 62 7 203 62 7 203 62 7 203 62 7 203 61 9 203 61 9
204 63 8 204 63 8 204 63 8 204 63 6 204 66 5 204 66 5 205 67 6
205 67 6 203 68 4 203 68 4 205 72 8 201 68 3 215 85 18 211 81 13
212 82 14 212 82 12 210 83 10 210 83 10 210 83 12 210 83 12 209 82 11
208 81 10 204 79 9 203 78 8 203 76 7 203 76 7 206 76 8 208 75 8
208 75 8 208 75 10 209 73 12 209 73 12 209 73 12 208 72 11 208 72 11
207 71 10 207 71 10 207 71 10 209 70 12 209 70 12 209 70 12 209 70 12
213 83 13 213 83 13 213 83 13 213 83 13 213 83 13 213 83 13 211 84 13
210 85 13 210 85 13 210 85 13 211 86 14 211 86 14 211 86 14 211 86 14
212 87 16 212 87 16 209 87 14 209 87 14 208 88 12 206 89 12
221 106 27 219 108 25 218 109 23 216 109 25 216 109 27 216 109 27
218 108 27 218 108 27 218 108 27 218 108 27 218 108 27 218 108 27
218 108 27 218 108 27 218 108 27 218 108 27 218 108 27 218 108 27
218 108 27 221 106 29 214 92 19 217 90 19 217 90 21 217 90 21
216 88 22 216 88 22 216 88 22 215 89 22 207 89 22 210 89 23 196 68 4
202 66 5 204 66 5 205 65 5 204 66 5 202 66 5 203 65 4 203 65 4
204 66 5 205 67 6 206 68 8 207 69 9 209 70 10 209 70 10 207 72 8
207 72 8 207 72 8 207 72 8 208 75 10 207 74 9 208 73 9 208 73 9
208 73 9 208 73 9 208 73 7 208 73 7 208 73 7 208 73 7 208 73 7
208 73 7 208 75 8 206 76 8 206 76 8 206 76 10 206 76 10 206 75 12
208 74 12 208 74 12 210 77 15 208 74 12 202 69 4 202 69 4 205 69 8
205 68 10 205 68 10 205 68 10 206 68 10 206 68 10 206 68 10 206 68 10
203 64 6 203 64 6 203 64 6 203 64 6 203 64 6 203 64 6 203 64 6
203 64 6 203 64 8 203 64 8 203 64 8 203 64 8 203 62 7 203 62 7
203 62 7 203 62 7 203 62 7 203 62 7 204 63 8 204 63 6 204 63 6
204 63 6 204 66 5 204 66 5 205 67 4 205 67 4 203 68 4 203 68 4
207 74 9 201 68 3 215 85 18 211 81 13 212 82 12 212 83 10 210 83 10
210 83 10 210 83 10 210 83 10 209 82 9 208 81 10 204 79 7 203 78 6
203 76 5 203 76 5 206 76 8 206 76 8 208 75 8 208 75 10 209 73 12
209 73 12 209 73 12 208 72 11 208 72 11 207 71 10 207 71 10 207 71 10
209 70 12 209 70 12 209 70 12 209 70 12 211 84 13 211 84 13 211 84 13
211 84 13 211 84 13 211 84 13 210 85 13 210 85 13 210 85 13 210 85 13
211 86 14 210 85 13 211 86 14 211 86 14 211 86 14 211 86 14 211 86 14
209 87 14 208 88 12 208 88 12 223 106 27 221 106 27 219 108 25
218 108 25 218 108 27 218 108 27 219 107 27 219 107 27 219 107 27
219 107 27 219 107 27 219 107 27 219 107 27 221 106 27 221 106 27
221 106 27 221 106 27 221 106 29 221 106 29 223 105 31 216 91 19
217 90 21 217 90 21 217 89 23 216 88 22 218 87 22 218 87 22 216 88 22
211 87 22 212 88 23 198 67 4 202 66 5 204 66 5 204 66 5 202 66 5
202 66 5 203 65 4 203 65 4 204 66 5 205 67 6 206 68 8 207 69 9
209 70 10 209 70 10 207 72 8 207 72 8 207 72 8 207 72 8 208 75 10
207 74 9 207 74 9 207 74 9 207 74 9 207 74 9 207 74 7 207 74 7
207 74 7 207 74 7 207 74 7 207 74 7 206 76 8 206 76 8 206 76 8
206 76 8 206 76 10 206 76 10 206 76 10 206 76 10 208 78 13 206 76 10
202 69 4 202 69 4 205 69 8 205 68 10 205 68 10 206 68 10 206 68 10
206 68 10 206 68 10 206 68 10 203 64 6 203 64 6 203 64 6 203 64 6
203 64 6 203 64 6 203 64 6 203 64 6 203 64 8 203 64 8 203 64 8
203 64 8 203 62 7 203 62 7 203 62 7 203 62 7 203 62 7 203 62 7
204 63 6 204 63 6 203 64 6 203 64 6 202 66 5 202 66 5 203 68 4
203 68 4 203 68 4 202 69 4 207 74 9 199 69 3 214 86 18 208 83 11
207 85 10 207 85 10 207 85 8 207 85 8 207 85 10 206 86 10 206 84 9
205 83 8 202 80 7 201 79 6 202 77 5 203 76 5 204 77 8 204 77 8
206 76 8 206 76 8 208 75 10 208 75 10 208 75 10 207 74 9 207 74 9
205 72 8 205 72 8 205 72 8 205 72 10 207 71 10 207 71 10 207 71 10
212 89 17 212 89 17 212 89 17 212 89 17 213 88 17 213 88 17 213 88 17
213 88 17 216 91 19 213 88 17 208 86 13 208 86 13 210 85 13 210 85 13
213 85 14 213 85 14 211 84 13 211 84 13 210 85 13 210 85 13 216 94 19
215 95 19 213 96 19 212 97 17 212 97 17 212 97 17 213 96 17 213 96 17
214 94 16 211 92 14 209 90 12 207 87 9 207 87 9 208 87 9 208 87 9
208 87 9 210 85 11 210 85 13 210 85 13 210 85 13 202 74 6 202 74 6
202 74 8 202 74 8 203 72 9 204 71 9 204 71 9 203 72 9 201 70 8
201 70 8 201 67 5 203 68 6 205 67 6 205 67 6 203 68 6 203 68 6
204 66 5 204 66 5 205 67 6 206 68 8 206 70 9 207 71 10 208 72 11
208 72 11 208 73 9 207 74 9 207 74 9 207 74 9 208 75 10 207 74 9
215 85 18 212 82 14 214 84 16 214 84 16 213 85 16 213 85 16 213 85 16
213 85 16 213 85 16 213 85 16 213 83 15 213 83 15 213 83 15 213 83 15
213 83 15 213 83 15 211 84 13 211 84 13 211 84 13 213 85 16 199 69 3
203 70 6 203 68 6 203 67 9 205 66 9 205 66 11 205 66 11 205 66 11
205 66 11 205 66 11 203 62 7 203 62 7 203 62 7 203 62 7 203 62 7
203 62 7 203 62 7 203 62 7 203 62 7 203 62 7 203 62 7 203 62 7
203 62 5 203 62 5 203 62 5 203 62 5 203 62 7 203 62 7 203 62 5
202 63 5 209 73 14 208 74 14 208 74 12 208 74 12 209 75 13 209 75 13
209 75 13 207 76 13 205 74 9 207 79 13 226 108 36 224 111 35
222 114 35 222 115 32 225 113 32 225 113 32 224 114 32 222 115 32
224 113 35 225 113 35 213 96 19 216 94 19 218 93 19 218 93 21
217 92 20 217 92 20 217 92 20 217 92 20 217 92 22 217 92 22 217 92 22
216 90 21 216 90 21 215 89 20 215 89 20 215 89 20 215 89 20 216 88 20
216 88 20 216 88 20 210 90 17 210 90 17 210 90 17 210 90 17 212 89 17
212 89 17 213 88 17 213 88 17 216 91 19 213 88 17 208 86 13 207 85 12
210 85 13 210 85 13 211 84 13 211 84 13 213 83 13 213 83 13 211 84 13
211 84 13 218 93 21 216 94 21 215 95 19 213 96 19 213 96 17 215 95 17
215 95 17 215 95 17 215 94 16 213 91 14 211 89 12 208 87 9 210 86 9
210 86 9 210 86 9 211 85 11 213 83 13 213 83 13 213 83 13 213 83 13
202 74 6 202 74 6 202 74 8 204 73 8 204 71 9 204 71 9 204 71 9
204 71 9 205 69 8 205 69 8 203 68 6 203 68 6 205 67 6 205 67 6
203 68 6 203 68 6 204 66 5 204 66 5 205 67 6 206 68 8 206 70 9
207 71 10 208 72 11 208 72 11 207 74 9 207 74 9 207 74 9 207 74 9
208 75 10 205 74 9 214 86 18 210 83 14 213 85 16 213 85 16 211 86 16
211 86 16 211 86 16 211 86 16 211 86 16 211 86 16 211 84 15 213 83 15
213 83 15 213 83 15 213 83 13 211 84 13 210 85 11 210 85 11 210 85 11
213 85 14 199 69 1 203 70 6 203 68 6 205 66 9 207 65 11 207 65 11
205 66 11 205 66 11 205 66 11 205 66 11 203 62 7 203 62 7 203 62 7
203 62 7 203 62 7 203 62 7 203 62 7 203 62 7 203 62 7 203 62 7
203 62 7 203 62 7 203 62 5 203 62 5 203 62 5 203 62 5 203 62 7
203 62 7 203 62 5 202 63 5 208 74 14 206 75 14 206 75 12 206 75 12
207 76 13 207 76 13 207 76 13 207 76 13 205 74 9 205 79 13 223 110 36
219 114 33 217 117 32 217 117 32 222 115 30 222 115 30 219 116 32
219 116 32 220 115 35 222 114 35 212 97 19 215 95 19 216 94 19
218 93 19 215 93 20 215 93 20 215 93 20 215 93 20 215 93 20 215 93 20
215 93 20 214 92 19 214 92 19 213 90 18 213 90 18 213 90 18 213 90 18
213 90 18 213 90 18 213 90 18 210 90 17 210 90 17 210 90 17 210 90 17
212 89 17 212 89 17 212 89 17 212 89 17 214 92 19 212 89 17 208 86 13
207 85 12 210 85 13 210 85 13 211 84 13 211 84 13 213 83 13 213 83 13
211 84 13 211 84 13 218 93 21 216 94 21 215 95 19 215 95 19 215 95 17
215 95 17 216 95 17 216 95 17 215 94 16 213 91 14 211 89 12 208 87 9
210 86 9 210 86 9 210 86 9 211 85 11 213 83 13 213 83 13 213 83 15
213 83 15 202 74 6 202 74 6 202 74 8 204 73 8 204 71 9 204 71 9
204 71 9 204 71 9 205 69 8 205 69 8 205 69 8 205 69 8 205 67 6
205 67 6 203 68 6 203 68 6 204 66 5 204 66 5 205 67 6 206 68 8
206 70 9 207 71 10 208 72 11 208 72 11 207 74 9 207 74 9 207 74 9
207 74 9 207 77 11 205 74 9 214 86 18 210 83 14 213 85 16 213 85 16
211 86 14 211 86 14 209 87 14 209 87 14 209 87 14 211 86 14 211 84 13
211 84 13 211 84 13 211 84 13 211 84 13 211 84 13 210 85 11 210 85 11
210 85 13 213 85 14 199 69 1 203 70 6 203 68 6 205 66 9 207 65 11
207 65 11 205 66 11 205 66 11 205 66 11 205 66 11 203 62 7 203 62 7
203 62 7 203 62 7 203 62 7 203 62 7 203 62 7 203 62 7 203 62 7
203 62 7 203 62 7 203 62 7 203 62 5 203 62 5 203 62 5 203 62 5
203 62 5 203 62 5 203 62 5 202 63 3 208 74 12 206 75 12 206 75 12
206 76 10 207 77 11 207 77 11 207 76 13 207 76 13 206 76 10 205 79 13
223 110 36 219 114 33 217 117 32 217 118 30 222 115 30 222 115 30
219 116 32 219 116 32 220 115 32 222 115 32 212 97 19 215 95 19
216 94 19 216 94 19 215 93 18 215 93 18 215 93 18 215 93 18 215 93 20
215 93 20 215 93 20 214 92 19 214 92 19 213 90 18 213 90 18 213 90 18
213 90 18 213 90 18 213 90 18 213 90 18 210 90 17 210 90 17 210 90 17
210 90 17 212 89 17 212 89 17 212 89 17 212 89 17 214 92 19 212 89 17
208 86 13 209 84 12 210 85 13 210 85 13 211 84 13 211 84 13 213 83 13
213 83 13 211 84 13 211 84 13 218 93 21 216 94 21 215 95 21 215 95 19
215 95 19 215 95 17 216 95 17 216 95 17 215 94 16 213 91 14 211 89 12
208 87 9 210 86 9 210 86 9 210 86 9 211 85 11 213 83 13 213 83 13
213 83 15 213 83 15 202 74 6 202 74 6 202 74 8 204 73 8 204 71 9
204 71 9 204 71 9 204 71 9 205 69 8 205 69 8 205 69 8 205 69 8
205 67 6 205 67 6 203 68 6 203 68 6 204 66 5 204 66 5 205 67 6
206 68 8 206 70 9 207 71 10 208 72 11 208 72 11 207 74 9 207 74 9
207 74 9 207 74 9 207 77 11 205 74 9 214 86 18 210 83 14 213 85 16
213 85 16 211 86 14 211 86 14 209 87 14 209 87 14 209 87 14 211 86 14
211 84 13 211 84 13 211 84 13 211 84 13 211 84 13 211 84 13 210 85 13
210 85 11 210 85 13 213 85 14 199 69 1 203 70 6 203 68 6 205 66 9
207 65 11 207 65 11 207 65 11 205 66 11 205 66 11 205 66 11 203 62 7
203 62 7 203 62 7 203 62 7 203 62 7 203 62 7 203 62 7 203 62 7
203 62 7 203 62 7 203 62 7 203 62 7 203 62 5 203 62 5 203 62 5
203 62 5 203 62 5 203 62 5 203 63 3 202 63 3 208 74 12 206 75 12
206 76 10 206 76 10 207 77 11 207 77 11 207 76 13 207 76 13 206 76 10
205 80 11 223 110 34 219 114 33 217 117 32 217 118 30 222 115 30
222 115 30 219 116 32 219 116 32 220 115 32 222 114 35 212 97 19
213 96 19 215 95 19 216 94 19 215 93 18 215 93 18 215 93 18 215 93 18
215 93 20 215 93 20 215 93 20 214 92 19 214 92 19 213 90 18 213 90 18
213 90 18 213 90 18 213 90 18 213 90 18 213 90 18 210 90 17 210 90 17
210 90 17 210 90 17 212 89 17 212 89 17 212 89 17 212 89 17 216 91 19
213 88 17 210 85 13 209 84 12 211 84 13 211 84 13 211 84 13 211 84 13
213 83 15 213 83 15 211 84 15 211 84 15 218 93 23 216 93 23 215 95 21
215 95 21 215 95 21 215 95 19 216 94 19 216 94 19 217 92 18 215 90 16
212 88 14 210 85 11 210 85 11 210 85 11 210 85 11 211 85 11 213 83 13
213 83 13 213 83 15 213 83 15 204 73 8 204 73 8 204 73 8 204 73 8
204 71 9 206 70 9 206 70 9 206 70 9 206 70 9 206 70 9 206 70 9
206 70 9 206 68 8 206 68 8 206 68 8 206 68 8 205 66 9 205 66 9
206 68 8 207 69 9 207 71 10 208 72 11 208 75 10 208 75 10 208 75 10
206 76 8 206 76 8 206 76 8 208 78 11 204 77 8 215 87 19 210 85 13
211 86 14 211 86 14 211 86 14 209 87 12 209 87 12 209 87 12 209 87 12
211 86 12 211 84 13 211 84 13 211 84 15 211 84 15 211 84 15 211 84 15
211 84 13 211 84 13 210 85 13 213 85 14 199 69 1 203 70 6 203 68 6
205 66 9 207 65 11 208 64 13 207 65 11 207 65 11 207 65 11 207 65 11
203 62 7 203 62 7 203 62 7 203 62 7 203 62 7 203 62 7 203 62 7
203 62 7 203 62 7 203 62 7 203 62 7 203 62 7 203 62 5 203 62 5
203 62 5 203 62 5 203 62 5 203 62 5 203 63 3 202 63 3 208 74 12
206 75 12 206 76 10 206 76 10 207 77 11 207 77 11 207 76 13 207 76 13
206 76 10 205 80 11 223 110 34 219 114 33 217 117 32 217 118 30
222 115 30 222 115 30 219 116 32 219 116 32 220 115 35 222 114 35
210 97 21 213 96 21 215 95 21 216 94 21 215 93 20 215 93 20 215 93 20
215 93 20 215 93 20 215 93 20 215 93 20 214 92 19 214 92 19 213 90 18
213 90 18 213 90 18 213 90 18 213 90 18 213 90 18 213 90 18 210 90 17
210 90 17 210 90 17 210 90 17 212 89 17 212 89 17 212 89 17 212 89 17
216 91 19 213 88 17 210 85 13 209 84 12 211 84 13 211 84 13 211 84 13
211 84 13 213 83 15 213 83 15 211 84 15 211 84 15 218 93 23 218 93 23
216 94 21 215 95 21 215 95 21 216 94 21 216 94 19 216 94 19 217 92 18
215 90 16 212 88 14 210 85 11 210 85 11 210 85 11 210 85 11 211 85 11
213 83 13 213 83 13 213 83 15 213 83 15 204 73 8 204 73 8 204 73 8
205 72 8 206 70 9 206 70 9 206 70 9 206 70 9 206 70 9 206 70 9
206 70 9 206 70 9 206 68 8 206 68 8 206 68 8 206 68 8 205 66 9
205 66 9 206 68 8 207 69 9 207 71 10 208 72 11 208 75 10 208 75 10
206 76 8 206 76 8 206 76 8 206 76 8 207 79 11 204 77 8 213 88 17
210 85 13 211 86 14 211 86 14 209 87 12 209 87 12 209 87 12 209 87 12
209 87 12 209 87 12 210 85 13 211 84 13 211 84 15 211 84 15 211 84 15
211 84 15 211 84 13 211 84 13 210 85 13 213 85 16 199 69 3 205 69 8
205 66 9 207 65 11 208 64 13 208 64 13 207 65 11 207 65 11 207 65 11
207 65 11 203 62 7 203 62 7 203 62 7 203 62 7 203 62 7 203 62 7
203 62 7 203 62 7 203 62 7 203 62 7 203 62 7 203 62 7 203 62 5
203 62 5 203 62 5 203 62 5 203 62 5 203 62 5 203 63 3 202 63 3
208 74 12 206 75 12 206 76 10 206 76 10 207 77 11 207 77 11 207 76 13
207 76 13 206 76 10 205 80 11 223 110 34 219 114 35 217 117 35
217 117 32 222 115 30 222 115 30 219 116 32 219 116 32 220 115 35
222 114 35 210 97 21 213 96 21 215 95 21 216 94 21 215 93 20
215 93 20 215 93 20 215 93 20 215 93 20 215 93 20 214 92 19 214 92 19
214 92 19 213 90 18 213 90 18 213 90 18 213 90 18 213 90 18 213 90 18
213 90 18 210 90 17 210 90 17 210 90 17 210 90 17 212 89 17 212 89 17
212 89 17 212 89 17 216 91 19 213 88 17 210 85 13 209 84 12 211 84 13
211 84 13 211 84 13 211 84 13 213 83 15 213 83 15 211 84 15 211 84 15
218 93 23 218 93 23 216 94 21 216 94 21 216 94 21 216 94 21 218 93 19
218 93 19 217 92 18 215 90 16 212 88 14 210 85 11 210 85 11 210 85 11
210 85 11 211 85 11 213 83 13 213 83 13 213 83 15 213 83 15 204 73 8
204 73 8 204 73 8 205 72 8 206 70 9 206 70 9 206 70 9 206 70 9
207 71 10 207 71 10 206 70 9 205 69 8 206 68 8 206 68 8 206 68 8
206 68 8 205 66 9 205 66 9 206 68 8 207 69 9 207 71 10 208 72 11
208 75 10 208 75 10 206 76 8 206 76 8 206 76 8 206 76 8 207 79 11
204 77 8 213 88 17 210 85 13 211 86 14 211 86 14 209 87 12 209 87 12
208 88 12 208 88 12 208 88 12 209 87 12 210 85 13 211 84 13 211 84 15
211 84 15 211 84 15 211 84 15 211 84 13 211 84 13 211 84 15 213 85 16
199 69 3 205 69 8 205 66 9 207 65 11 208 64 13 208 64 13 207 65 11
207 65 11 207 65 11 207 65 11 203 62 7 203 62 7 203 62 7 203 62 7
203 62 7 203 62 7 203 62 7 203 62 7 203 62 7 203 62 7 203 62 7
203 62 7 203 62 5 203 62 5 203 62 5 203 62 5 203 62 5 203 62 5
203 63 3 202 63 3 207 73 11 205 74 11 205 74 9 205 74 9 206 76 10
206 76 10 206 75 12 206 75 12 206 76 10 205 80 11 223 110 34
219 114 35 217 117 35 217 117 32 222 115 30 222 115 30 219 116 32
219 116 35 220 115 35 222 114 35 210 97 21 213 96 21 215 95 21
216 94 21 215 93 20 215 93 20 215 93 20 215 93 20 215 93 20 215 93 20
214 92 19 214 92 19 214 92 19 213 90 18 213 90 18 213 90 18 213 90 18
213 90 18 213 90 18 213 90 18 210 90 17 210 90 17 210 90 17 212 89 17
212 89 17 212 89 17 212 89 17 212 89 17 216 91 19 213 88 17 210 85 13
209 84 12 211 84 13 211 84 13 211 84 13 211 84 13 214 84 16 214 84 16
213 85 16 211 84 15 220 92 23 218 93 23 218 93 23 216 94 21 216 94 21
216 94 21 218 93 19 218 93 19 217 92 18 215 90 16 212 88 14 209 84 10
210 85 11 210 85 11 210 85 11 211 84 13 213 83 13 213 83 13 213 83 15
213 83 15 204 73 8 204 73 8 204 73 8 204 73 8 204 71 9 206 70 9
206 70 9 206 70 9 207 71 10 207 71 10 206 70 9 205 69 8 206 68 8
206 68 8 206 68 8 206 68 8 205 66 9 205 66 9 206 68 8 207 69 9
207 71 10 208 72 11 208 75 10 208 75 10 206 76 8 206 76 8 206 76 8
206 76 8 207 79 11 204 77 8 213 88 17 210 85 13 211 86 14 211 86 14
209 87 12 209 87 12 209 87 12 209 87 12 209 87 12 209 87 14 210 85 13
211 84 13 211 84 15 211 84 15 211 84 15 211 84 15 211 84 13 211 84 13
211 84 15 214 84 16 201 68 3 205 69 8 205 66 9 207 65 11 208 64 13
208 64 13 207 65 11 207 65 11 207 65 11 207 65 11 203 62 7 203 62 7
203 62 7 203 62 7 203 62 7 203 62 7 203 62 7 203 62 7 203 62 7
203 62 7 203 62 7 203 62 7 203 62 5 203 62 5 203 62 5 203 62 5
203 62 5 203 62 5 203 63 3 202 63 3 207 73 11 205 74 11 205 74 9
205 74 9 206 76 10 206 76 10 206 76 10 204 76 10 203 78 8 202 82 11
221 111 34 219 114 35 217 117 35 217 117 32 220 115 32 222 115 32
219 116 35 219 116 35 219 116 35 222 114 37 208 98 21 210 97 21
212 96 21 215 95 21 215 93 20 215 93 20 215 93 20 215 93 20 215 93 20
215 93 20 213 90 18 214 92 19 214 92 19 213 90 18 213 90 18 213 90 18
213 90 18 213 90 18 213 90 18 213 90 18 212 89 17 212 89 17 212 89 17
212 89 17 213 88 17 213 88 17 213 88 17 215 90 18 215 90 18 213 88 17
210 85 13 210 85 13 211 84 15 211 84 15 214 84 16 214 84 16 214 84 16
214 84 16 217 86 19 218 88 20 216 88 22 216 88 22 216 90 21 216 90 21
216 91 19 216 91 19 216 91 17 217 92 18 220 93 19 217 90 17 213 86 12
210 83 10 211 84 13 211 84 13 211 84 13 211 84 13 213 83 15 213 83 15
213 83 15 213 83 15 204 74 6 204 74 6 204 73 8 204 73 8 205 72 10
205 72 10 205 72 10 207 73 11 208 72 11 207 71 10 206 70 9 205 69 8
203 68 6 205 69 8 206 68 10 206 68 10 208 67 10 208 67 10 206 68 10
206 68 8 209 73 12 208 75 10 208 75 10 206 76 8 206 76 8 206 76 6
206 76 6 206 76 6 207 79 9 204 77 6 213 88 17 210 85 11 207 85 10
207 85 10 207 85 10 207 85 10 207 85 10 209 84 10 210 85 13 210 85 13
211 84 15 211 84 15 213 83 15 213 83 15 213 83 15 213 83 15 213 83 15
213 83 15 213 83 15 216 83 16 201 68 3 205 69 8 204 65 7 205 64 9
207 63 11 207 63 11 208 64 13 208 64 13 207 65 11 207 65 11 203 62 7
203 62 7 203 62 7 203 62 7 203 62 7 203 62 7 203 62 7 203 62 7
204 63 8 204 63 8 204 63 8 204 63 8 204 63 6 204 63 6 204 63 6
204 63 6 204 63 6 204 63 6 204 64 4 203 65 4 207 73 11 205 74 11
205 74 9 205 74 9 206 76 8 206 76 8 206 76 8 203 78 8 195 80 7
184 75 0 223 117 39 214 111 32 221 118 37 221 118 37 221 119 35
223 118 35 221 118 37 221 118 37 221 118 39 223 117 39 205 99 23
205 99 23 207 98 23 210 97 23 215 95 21 216 94 21 216 94 21 216 94 21
218 95 25 214 91 21 213 90 18 208 86 13 213 88 17 213 88 17 213 89 15
213 89 15 215 90 16 215 90 16 215 90 16 215 90 16 212 89 17 212 89 17
212 89 17 212 89 17 213 88 17 213 88 17 213 88 17 215 90 18 215 90 18
213 88 17 210 85 13 209 84 12 210 83 14 210 83 14 213 83 15 213 83 15
213 83 15 213 83 15 215 85 18 217 86 19 216 88 22 217 89 23 217 92 22
217 92 22 217 92 20 217 92 20 217 92 18 216 91 17 216 89 16 214 87 14
211 85 11 210 83 10 211 84 13 211 84 13 211 84 13 211 84 13 213 83 15
213 83 15 213 83 15 213 83 15 204 74 6 204 74 6 204 73 8 204 73 8
205 72 10 205 72 10 205 72 10 207 73 11 208 72 11 207 71 10 206 70 9
205 69 8 203 68 6 205 69 8 206 68 10 206 68 10 208 67 10 208 67 10
206 68 10 206 68 10 212 76 15 210 77 13 208 78 11 208 78 11 208 79 9
208 79 9 208 79 9 208 79 9 209 82 11 207 79 9 216 91 17 212 88 14
206 84 9 206 84 9 206 84 9 206 84 9 206 84 9 206 84 9 208 83 11
208 83 11 210 83 14 212 82 14 212 82 14 213 81 14 213 81 14 213 81 14
212 82 14 212 82 14 213 81 14 215 82 17 201 65 4 205 66 9 205 64 9
205 64 9 207 63 11 207 63 11 207 63 11 207 63 11 205 64 9 204 63 8
204 63 8 203 62 7 203 62 7 203 62 7 203 62 7 203 62 7 203 62 7
203 62 7 204 63 8 204 63 8 204 63 8 204 63 8 204 63 6 204 63 6
204 63 6 204 63 6 204 63 6 204 63 6 204 64 4 203 65 4 207 73 11
205 74 11 205 74 9 205 74 9 206 76 8 206 76 8 206 76 8 203 78 8
202 87 14 196 85 11 225 114 38 221 111 34 225 115 36 225 115 36
225 115 34 225 115 36 225 115 36 225 115 36 225 114 38 225 114 38
211 100 26 211 100 26 210 99 25 211 98 25 216 96 23 219 94 23
218 93 21 218 93 21 215 89 20 213 88 19 213 88 17 212 87 16 212 87 16
213 88 17 213 89 15 213 89 15 215 90 16 215 90 16 215 90 16 215 90 16
212 89 17 212 89 17 212 89 17 212 89 17 213 88 17 213 88 17 213 88 17
215 90 18 215 90 18 213 88 17 210 85 13 208 83 11 208 80 12 207 79 11
210 79 12 210 79 12 210 79 12 210 79 12 211 81 13 211 81 13 202 74 8
202 74 8 202 74 6 202 74 6 202 75 4 202 75 4 202 75 2 203 76 3
206 79 5 208 81 8 210 83 10 211 85 11 211 84 13 211 84 13 211 84 13
211 84 13 213 83 15 213 83 15 213 83 15 213 83 15 204 74 6 204 74 6
204 73 8 204 73 8 205 72 10 205 72 10 205 72 10 207 73 11 209 73 12
208 72 11 206 70 9 203 68 6 203 68 6 205 69 8 206 68 10 206 68 10
208 67 10 208 67 10 206 68 10 206 68 10 215 79 18 213 81 16 212 82 14
212 82 14 212 82 12 212 82 12 212 82 12 212 82 12 213 85 14 210 83 12
219 95 21 216 91 17 222 100 25 222 100 25 221 101 25 221 101 25
221 101 25 221 101 25 221 101 27 222 100 27 208 78 11 210 77 11
210 77 11 212 77 11 212 77 11 210 77 11 208 78 11 208 78 11 210 77 13
211 78 14 198 62 1 202 63 5 205 64 9 205 64 9 206 62 10 206 62 10
205 61 9 205 61 9 202 61 6 202 61 6 203 62 7 203 62 7 203 62 7
203 62 7 203 62 7 203 62 7 203 62 7 203 62 7 204 63 8 204 63 8
204 63 8 204 63 8 204 63 6 204 63 6 204 63 6 204 63 6 204 63 6
204 63 6 204 64 4 203 65 4 205 72 10 204 73 10 204 73 8 204 73 8
205 75 7 205 75 7 205 75 7 203 76 7 195 73 2 197 74 4 209 87 14
209 87 14 208 86 11 208 86 11 208 86 11 208 86 11 208 86 13 208 86 13
208 86 13 208 86 13 199 76 6 199 76 6 200 77 7 200 77 7 202 77 5
203 76 5 204 77 6 204 77 6 209 81 13 210 83 14 213 85 14 211 86 14
213 88 17 213 88 17 213 89 15 213 89 15 215 90 16 215 90 16 215 90 16
215 90 16 212 89 17 212 89 17 212 89 17 213 88 17 213 88 17 213 88 17
213 88 17 215 90 18 213 88 17 214 86 16 210 83 12 209 81 13 206 78 9
206 76 8 207 77 9 207 77 9 207 77 9 207 77 9 208 78 11 207 77 11
207 77 11 204 76 10 204 76 10 204 77 8 204 77 8 204 77 6 204 77 6
203 76 5 202 75 4 204 77 6 209 82 11 213 85 14 211 84 13 211 84 13
211 84 13 211 84 13 213 83 15 213 83 15 213 83 15 213 83 15 204 74 6
204 74 6 204 73 8 204 73 8 205 72 10 205 72 10 205 72 10 207 73 11
209 73 12 208 72 11 206 70 9 203 68 6 203 68 6 205 69 8 206 68 10
206 68 10 208 67 10 208 67 10 206 68 10 206 68 10 217 82 20 216 83 18
214 84 16 214 84 16 213 83 13 213 83 13 213 83 13 213 83 13 213 85 14
211 84 13 222 97 23 218 93 19 221 99 24 221 99 24 219 100 24
219 100 24 218 101 24 218 101 24 218 100 26 221 99 26 205 75 7
208 73 7 208 73 7 208 73 7 208 73 7 208 73 7 207 74 7 205 75 7
208 75 10 208 75 10 196 61 0 199 61 3 205 64 9 207 63 11 207 63 11
207 63 11 201 57 6 201 57 6 200 58 4 201 59 5 203 62 7 203 62 7
203 62 7 203 62 7 203 62 7 203 62 7 203 62 7 203 62 7 204 63 8
204 63 8 204 63 8 204 63 8 204 63 6 204 63 6 204 63 6 204 63 6
204 63 6 204 63 6 204 64 4 203 65 4 205 72 10 204 73 10 204 73 8
204 73 8 205 75 7 205 75 7 205 75 7 205 75 7 207 77 9 212 82 14
213 83 13 215 86 16 213 83 13 212 83 10 212 83 10 212 83 10 212 82 12
212 82 12 211 81 11 210 79 12 208 78 11 207 77 9 206 76 8 206 76 8
207 77 9 207 77 7 207 77 7 207 77 7 206 76 8 210 79 12 214 84 14
213 85 14 213 88 17 213 88 17 213 89 15 213 89 15 215 90 16 215 90 16
215 90 16 215 90 16 213 88 17 213 88 17 213 88 17 213 88 17 215 88 17
215 88 17 215 88 17 215 88 17 215 87 19 214 84 16 211 81 13 210 79 12
206 76 10 208 75 10 209 76 11 209 76 11 209 76 11 209 76 11 210 77 13
209 76 11 208 74 12 205 74 11 203 75 9 203 75 9 203 75 9 203 76 7
203 76 7 202 74 6 204 74 6 206 76 8 210 79 12 213 83 13 213 83 13
213 83 13 213 83 13 213 83 13 213 83 15 213 83 15 213 83 15 213 83 15
204 74 6 204 74 6 204 74 6 204 73 8 205 72 8 205 72 8 205 72 8
207 74 9 208 72 11 207 71 10 205 69 8 202 66 5 202 66 5 203 68 6
205 66 9 205 66 9 207 65 11 207 65 11 205 66 9 205 66 9 216 80 19
215 82 17 213 83 15 211 84 13 211 84 13 211 85 11 213 84 11 213 84 11
210 83 10 209 84 10 223 98 24 219 97 20 221 99 22 219 100 22
219 100 22 218 101 22 218 101 24 218 101 24 218 100 26 221 99 26
203 73 3 206 71 3 206 71 5 206 71 5 206 70 7 206 70 7 204 71 7
204 71 7 208 75 10 205 72 8 199 63 2 199 61 3 204 63 8 206 62 10
208 61 12 208 61 12 205 61 9 205 61 9 203 62 7 202 61 6 203 62 7
203 62 7 203 62 7 203 62 7 203 62 7 203 62 7 203 62 7 203 62 7
204 63 8 204 63 8 204 63 8 204 63 8 204 63 6 204 63 6 204 63 6
204 63 6 204 63 6 204 63 6 204 64 4 203 65 4 205 72 10 204 73 10
204 73 8 204 73 8 207 74 7 207 74 7 207 74 7 205 73 6 207 74 7
210 77 11 211 79 12 213 81 14 216 81 15 215 80 12 215 81 10 215 81 10
215 80 12 215 80 12 214 79 13 213 78 12 210 77 13 209 76 11 208 75 10
208 75 10 208 75 8 208 75 8 208 75 8 208 75 8 208 75 8 207 74 7
216 84 14 214 84 14 214 86 16 212 87 16 212 87 16 212 87 16 213 88 17
213 88 17 213 88 17 213 88 17 213 88 17 213 88 17 213 88 17 213 88 17
215 88 17 215 88 17 215 88 17 215 88 17 215 85 18 213 83 15 210 79 12
208 78 11 209 76 11 209 76 11 209 76 11 209 76 11 210 77 13 210 77 13
210 77 13 209 76 11 208 74 12 207 73 11 205 74 9 203 75 9 203 75 9
203 75 9 203 76 7 202 74 6 204 74 6 206 76 8 210 79 12 213 83 15
213 83 13 213 83 13 213 83 13 213 83 13 213 83 15 213 83 15 213 83 15
213 83 15 204 74 6 204 74 6 204 74 6 204 74 6 205 72 8 205 72 8
205 72 8 207 74 9 208 72 11 207 71 10 205 69 8 202 66 5 202 66 5
203 68 6 205 66 9 205 66 9 207 65 11 207 65 11 205 66 9 203 67 9
215 81 19 213 83 17 211 84 15 211 84 13 211 85 11 211 85 11 213 84 11
213 84 11 209 82 9 208 83 9 221 99 22 220 98 21 219 100 22 219 100 22
218 101 22 218 101 22 218 101 24 218 101 24 218 100 26 221 99 26
203 73 3 206 71 3 206 71 5 206 71 5 206 70 7 206 70 7 206 70 7
204 71 7 208 75 10 207 71 10 202 63 3 202 61 4 206 62 8 208 61 10
208 61 12 208 61 12 205 61 9 205 61 9 203 62 7 203 62 7 203 62 7
203 62 7 203 62 7 203 62 7 203 62 7 203 62 7 203 62 7 203 62 7
204 63 8 204 63 8 204 63 8 204 63 8 204 63 6 204 63 6 204 63 6
204 63 6 204 63 6 204 63 6 204 64 4 203 65 4 205 72 10 204 73 10
204 73 8 204 73 8 205 75 7 207 74 7 207 74 7 205 73 6 207 74 7
210 77 11 211 79 12 213 81 14 216 81 15 215 80 14 215 80 12 215 80 12
215 80 12 215 80 12 214 79 13 213 78 12 210 77 13 209 76 11 208 75 10
208 75 10 209 74 8 209 74 8 209 74 8 209 74 8 209 74 8 207 74 7
217 85 16 213 83 13 214 86 16 212 87 16 212 87 16 212 87 16 213 88 17
213 88 17 213 88 17 213 88 17 213 88 17 213 88 17 213 88 17 213 88 17
215 88 17 215 88 17 215 88 17 215 88 17 215 85 18 213 83 15 210 79 12
208 78 11 209 76 11 209 76 11 209 76 11 209 76 11 210 77 13 210 77 13
210 77 13 209 76 11 208 74 12 207 73 11 205 74 9 205 74 9 205 74 9
205 74 9 205 75 7 204 74 6 204 74 6 206 76 8 210 79 12 213 83 15
213 83 13 213 83 13 213 83 13 213 83 13 211 84 13 211 84 13 211 84 13
211 84 13 204 74 6 204 74 6 204 74 6 204 74 6 205 72 8 205 72 8
205 72 8 207 74 9 208 72 11 207 71 10 205 69 8 202 66 5 202 66 5
203 68 6 205 66 9 205 66 9 205 66 11 205 66 11 205 66 9 203 67 9
215 81 19 213 83 17 211 84 15 210 85 13 210 85 11 211 85 11 213 84 11
213 84 11 209 82 9 208 83 9 221 99 22 220 98 21 219 100 22 219 100 22
219 100 22 219 100 22 218 101 24 218 101 24 218 100 26 221 99 26
204 72 3 207 70 3 207 70 5 207 70 5 207 70 7 207 70 7 206 70 7
206 70 7 209 73 12 207 71 10 202 63 3 202 61 4 206 63 6 208 61 8
209 60 12 208 61 12 205 61 9 205 61 7 203 62 7 203 62 7 203 62 7
203 62 7 203 62 7 203 62 7 203 62 7 203 62 7 203 62 7 203 62 7
204 63 8 204 63 8 204 63 8 204 63 8 204 63 6 204 63 6 204 63 6
204 63 6 204 63 6 204 63 6 204 64 4 203 65 4 205 72 10 204 73 10
204 73 8 204 73 8 205 75 7 205 75 7 205 75 7 204 74 6 205 75 7
208 78 11 210 79 12 212 82 14 211 84 15 210 83 14 210 83 12 210 83 12
210 83 14 210 83 14 209 81 13 208 80 12 207 79 13 206 78 11 204 76 10
206 76 10 209 74 8 211 73 8 211 73 8 211 73 8 209 74 8 208 73 7
219 84 16 215 82 13 212 87 16 211 88 16 211 88 16 211 88 16 212 89 17
212 89 17 212 89 17 212 89 17 213 88 17 213 88 17 213 88 17 215 88 17
215 88 17 215 88 17 215 88 17 215 88 17 215 85 18 213 83 15 210 79 12
208 78 11 209 76 11 209 76 11 209 76 11 209 76 11 210 77 13 210 77 13
210 77 13 209 76 11 208 74 12 207 73 11 207 74 9 207 74 9 207 74 9
207 74 9 207 74 7 204 74 6 204 74 6 206 76 8 210 79 12 213 83 15
213 83 13 213 83 13 213 83 13 213 83 13 211 84 13 211 84 13 211 84 13
211 84 13 204 74 6 204 74 6 204 74 6 204 74 6 205 72 8 205 72 8
205 72 8 207 74 9 208 72 11 207 71 10 205 69 8 202 66 5 202 66 5
203 68 6 205 66 9 205 66 9 205 66 11 205 66 11 203 67 9 203 67 9
215 81 19 213 83 17 211 84 15 210 85 13 210 85 11 210 85 11 211 85 11
213 84 11 209 82 9 206 84 9 219 100 22 217 100 21 219 100 22
219 100 22 219 100 22 219 100 22 218 101 24 218 101 24 218 100 26
221 99 26 204 72 3 207 70 3 207 70 5 207 70 5 207 70 7 207 70 7
206 70 7 206 70 7 208 72 11 207 71 10 202 63 3 202 61 2 206 63 6
208 61 8 209 60 10 208 61 10 205 61 7 205 61 7 203 62 7 203 62 7
203 62 7 203 62 7 203 62 7 203 62 7 203 62 7 203 62 7 203 62 7
203 62 7 204 63 8 204 63 8 204 63 8 204 63 8 204 63 6 204 63 6
204 63 6 204 63 6 204 63 6 204 63 6 204 64 4 203 65 4 205 72 10
204 73 10 204 73 8 204 73 8 203 76 7 203 76 7 203 76 7 202 74 6
203 76 7 207 79 11 208 80 12 210 83 14 211 84 15 210 83 14 210 83 14
210 83 14 210 83 14 210 83 14 209 81 13 208 80 12 207 79 13 206 78 11
204 76 10 204 76 10 208 75 8 209 74 8 209 74 8 209 74 8 209 74 8
208 73 7 219 84 16 215 82 13 212 87 16 211 88 16 211 88 16 211 88 16
212 89 17 212 89 17 212 89 17 212 89 17 215 88 17 215 88 17 215 88 17
215 88 17 217 86 19 217 86 19 217 86 19 217 86 19 215 85 18 213 83 15
210 79 12 208 78 11 210 77 13 210 77 13 210 77 13 210 77 13 209 75 13
209 75 13 209 75 13 208 74 12 208 74 12 207 73 11 207 73 11 208 72 11
208 73 9 208 73 9 208 73 9 205 72 8 204 74 6 206 76 8 210 79 12
212 82 14 211 84 13 211 84 13 211 84 13 211 84 13 211 84 13 211 84 13
211 84 13 211 84 13 204 74 6 205 72 8 205 72 8 205 72 8 205 72 8
205 72 8 205 72 8 207 74 9 208 72 11 207 71 10 205 69 8 202 66 5
202 66 5 203 68 6 203 67 9 203 67 9 205 66 11 205 66 11 203 67 9
203 67 9 215 81 19 213 83 17 211 84 15 210 85 13 208 86 11 210 85 11
211 85 11 213 84 11 209 82 9 204 85 9 215 103 22 214 101 21
218 101 22 219 100 22 218 101 22 218 101 22 218 101 24 218 101 24
218 100 26 221 99 26 203 73 3 206 71 3 206 71 5 206 71 5 206 70 7
206 70 7 206 70 9 205 72 10 207 73 11 206 70 9 203 65 4 203 63 3
206 63 4 208 62 6 208 62 6 208 62 6 205 61 5 205 61 5 203 62 7
203 62 7 203 62 7 203 62 7 203 62 7 203 62 7 203 62 7 203 62 7
203 62 7 203 62 7 204 63 8 204 63 8 204 63 8 204 63 8 204 63 6
204 63 6 204 63 6 204 63 6 204 63 6 204 63 6 204 64 4 203 65 4
205 72 10 204 73 10 204 73 8 204 73 8 205 74 9 205 74 9 205 74 9
204 73 8 205 75 7 208 78 11 210 79 12 212 82 14 213 83 15 212 82 14
212 82 14 212 81 16 212 81 16 212 81 16 211 80 15 210 79 14 208 78 13
207 77 11 206 76 10 206 76 10 206 76 8 208 75 8 208 75 8 208 75 8
208 75 8 207 74 7 217 84 18 213 83 15 212 87 18 211 88 18 211 88 16
211 88 16 212 89 17 212 89 17 212 89 17 212 89 17 215 88 17 215 88 17
215 88 17 215 88 17 217 86 19 217 86 19 217 86 19 217 86 19 215 85 18
213 83 15 210 79 12 208 78 11 210 77 13 210 77 13 210 77 13 210 77 13
209 75 13 209 75 13 209 75 13 208 74 12 208 74 12 207 73 11 208 72 11
208 72 11 208 73 9 208 73 9 208 73 9 207 72 8 205 73 6 206 76 8
210 79 12 212 82 14 213 83 15 211 84 13 211 84 13 211 84 13 211 84 13
211 84 13 211 84 13 213 83 15 205 72 8 205 72 8 205 72 8 205 72 8
205 72 8 205 72 8 205 72 8 207 74 9 208 72 11 207 71 10 205 69 8
202 66 5 202 66 5 203 68 6 203 67 9 203 67 9 205 66 11 205 66 11
203 67 9 202 68 9 213 82 19 211 83 17 210 85 15 210 85 13 208 86 11
210 85 11 211 85 11 213 84 11 209 82 9 204 85 9 213 103 22 210 103 21
216 102 22 218 101 22 218 101 22 218 101 22 218 101 24 218 101 24
218 100 26 219 99 26 203 73 3 206 71 3 206 71 5 206 71 5 206 70 7
204 71 7 204 71 9 205 72 10 205 72 10 204 71 9 201 65 4 202 63 3
204 64 4 206 63 4 206 63 4 206 63 4 205 61 5 205 61 5 203 62 7
203 62 7 203 62 7 203 62 7 203 62 7 203 62 7 203 62 7 203 62 7
203 62 7 203 62 7 204 63 8 204 63 8 204 63 8 204 63 8 204 63 6
204 63 6 204 63 6 204 63 6 204 63 6 204 63 6 204 64 4 203 65 4
205 72 10 204 73 10 204 73 8 204 73 8 205 74 9 205 74 9 205 74 9
204 73 8 205 75 7 208 78 11 210 79 12 212 82 14 213 83 15 212 82 14
212 81 16 212 81 16 212 81 16 212 81 16 211 80 15 210 79 14 208 78 13
207 77 11 206 76 10 206 76 10 206 76 8 206 76 8 206 76 8 206 76 8
208 75 8 207 74 7 217 84 18 213 83 15 212 87 18 212 87 18 212 87 16
212 87 16 213 88 17 213 88 17 213 88 17 213 88 17 215 88 17 215 88 17
215 88 17 215 88 17 217 86 19 217 86 19 217 86 19 217 86 19 215 85 18
213 83 15 210 79 12 208 78 11 210 77 13 210 77 13 210 77 13 210 77 13
209 75 13 209 75 13 209 75 13 208 74 12 208 74 12 207 73 11 208 72 11
208 72 11 208 73 9 208 73 9 208 73 9 206 70 7 204 71 7 208 75 10
211 78 14 213 81 16 213 83 15 213 83 15 213 83 15 213 83 15 213 83 15
213 83 15 213 83 15 213 83 15 205 72 8 205 72 8 205 72 8 205 72 8
205 72 8 205 72 8 205 72 8 207 74 9 208 72 11 207 71 10 205 69 8
202 66 5 202 66 5 203 68 6 203 67 9 203 67 9 203 67 11 203 67 11
203 67 9 202 68 9 213 82 19 211 83 17 210 85 15 208 86 13 208 86 11
210 85 11 211 85 11 213 84 11 209 82 9 204 85 9 214 105 23 210 103 21
215 103 22 216 102 22 216 102 22 216 102 22 216 101 24 216 101 24
216 101 26 218 100 26 201 74 3 204 72 3 204 72 5 204 72 5 204 71 7
203 72 7 203 72 9 204 73 10 204 73 10 203 72 9 200 67 2 200 65 1
203 65 4 204 64 4 204 64 4 204 64 4 203 63 3 203 62 5 203 62 5
203 62 5 203 62 7 203 62 7 203 62 7 203 62 7 203 62 7 203 62 7
203 62 7 203 62 7 204 63 8 204 63 8 204 63 8 204 63 8 204 63 6
204 63 6 205 64 7 205 64 7 205 64 7 205 64 7 205 65 5 204 66 5
207 73 11 205 74 11 205 74 9 205 74 9 206 76 10 206 76 10 206 76 10
205 74 9 205 75 7 208 78 11 210 79 12 211 81 13 213 83 15 212 82 14
212 81 16 212 81 16 212 81 16 212 81 16 210 79 14 208 78 13 208 78 13
207 77 11 206 76 10 206 76 10 206 76 8 206 76 8 206 76 8 206 76 8
206 76 8 206 76 8 215 85 18 213 83 15 214 86 18 214 86 18 214 86 16
214 86 16 215 88 17 215 88 17 215 88 17 215 88 17 215 88 17 215 88 17
215 88 17 217 86 19 217 86 19 217 86 19 217 86 19 217 86 19 215 85 18
213 83 15 210 79 12 210 77 13 210 77 13 210 77 13 210 77 13 210 77 15
209 75 13 210 75 13 210 75 13 209 73 12 209 73 12 208 72 11 208 72 11
208 72 11 208 72 11 208 72 11 208 72 11 205 69 6 205 69 6 208 75 10
211 78 14 213 81 16 215 82 17 215 82 17 215 82 17 215 82 17 215 82 17
215 82 17 215 82 17 215 82 17 205 72 8 205 72 8 204 71 7 204 71 7
205 72 8 205 72 8 205 72 8 207 74 9 207 71 10 207 71 10 205 69 8
202 66 5 202 66 5 203 68 6 203 67 9 203 67 9 203 67 11 203 67 11
202 68 9 202 68 6 213 83 17 211 83 17 210 85 15 208 86 13 208 86 13
210 85 11 211 85 11 213 84 11 209 82 9 204 85 9 214 105 23 210 103 21
213 103 22 215 103 22 215 103 22 215 103 22 215 102 24 215 102 24
215 102 26 216 101 26 199 74 3 203 73 3 203 72 5 203 72 5 203 72 7
201 73 7 201 72 9 202 74 10 202 74 10 201 72 9 198 67 2 198 65 1
201 65 4 203 65 4 203 65 4 204 64 4 203 63 3 203 63 3 203 62 5
203 62 5 203 62 7 203 62 7 203 62 7 203 62 7 203 62 7 203 62 7
203 62 7 203 62 7 204 63 8 204 63 8 204 63 8 204 63 8 204 63 6
204 63 6 205 64 7 205 64 7 205 64 7 205 64 7 205 65 5 204 66 5
207 73 11 205 74 11 205 74 9 205 74 9 206 76 10 206 76 10 206 76 10
205 74 9 205 75 7 207 77 9 207 77 9 210 79 12 213 83 15 212 82 14
212 81 16 212 81 16 212 81 16 212 81 16 208 78 13 207 77 11 207 77 11
206 76 10 206 76 10 206 76 10 206 76 8 206 76 8 206 76 8 206 76 8
206 76 8 206 76 8 215 85 18 213 83 15 215 85 18 215 85 18 215 86 16
215 86 16 217 87 17 217 87 17 217 87 17 217 87 17 205 75 7 205 75 7
205 75 7 205 75 7 207 74 9 207 74 9 207 74 9 207 74 9 205 72 8
203 70 6 200 67 2 198 65 1 200 64 3 200 64 3 200 64 3 200 64 3
201 65 6 203 64 6 203 64 6 203 64 6 203 64 6 203 64 6 203 64 6
203 64 6 203 64 6 203 64 6 203 64 6 205 67 6 203 68 6 201 65 4
201 65 4 201 65 4 202 66 5 202 66 5 202 66 5 202 66 5 202 66 5
202 66 5 203 68 6 203 68 6 203 68 6 203 68 6 206 70 9 206 70 9
206 70 9 206 70 9 206 70 9 206 70 9 207 71 10 207 71 10 210 75 13
213 77 16 209 75 13 209 75 13 209 75 13 209 75 15 209 75 15 209 75 15
209 75 15 209 75 13 212 81 16 210 82 16 209 83 14 209 83 14 208 86 13
210 85 13 213 83 13 213 83 13 208 81 10 206 86 10 215 106 24
217 112 29 220 112 30 221 112 30 221 112 30 221 112 30 221 112 30
221 111 32 221 111 32 223 110 32 209 87 14 213 85 14 213 85 14
213 85 16 213 85 16 211 85 18 211 85 18 211 85 18 210 84 17 208 82 15
204 76 10 205 74 9 208 75 10 209 74 10 211 73 10 211 73 10 212 72 12
212 72 12 211 73 12 211 72 14 203 62 7 203 62 7 203 62 7 203 62 7
203 62 7 203 62 7 203 62 5 203 62 5 204 63 6 204 63 6 205 64 7
205 64 7 205 64 7 205 64 7 205 64 7 205 64 7 205 64 7 205 64 7
205 65 5 204 66 5 207 73 11 205 74 11 205 74 9 205 74 9 206 76 10
206 76 10 206 76 10 206 76 10 205 74 9 206 76 10 206 76 10 207 77 11
204 73 8 204 73 8 204 73 8 204 73 8 204 73 8 204 73 8 206 76 10
206 76 10 206 76 10 206 76 10 205 74 9 205 74 9 206 76 8 206 76 8
207 77 9 207 77 9 207 77 11 206 76 10 208 78 11 208 78 11 208 78 11
210 77 11 210 77 11 210 77 11 211 79 12 211 79 12 211 79 12 211 79 12
205 75 7 205 75 7 205 75 7 205 75 7 207 74 9 207 74 9 207 74 9
207 74 9 205 72 8 203 70 6 200 67 2 198 65 1 200 64 3 200 64 3
200 64 3 200 64 3 203 64 6 203 64 6 203 64 6 203 64 6 203 64 6
203 64 6 203 64 6 203 64 6 203 64 6 203 64 6 203 64 6 204 65 7
202 66 5 201 65 4 201 65 4 201 65 4 202 66 5 202 66 5 202 66 5
202 66 5 202 66 5 202 66 5 203 68 6 203 68 6 203 68 6 203 68 6
205 69 8 205 69 8 206 70 9 206 70 9 206 70 9 206 70 9 206 70 9
207 71 10 210 75 13 213 77 16 209 75 13 209 75 13 209 75 13 209 75 13
209 75 15 209 75 15 209 75 13 209 75 13 212 81 16 210 82 16 209 83 14
209 83 14 208 86 13 210 85 13 213 83 13 213 83 13 208 81 10 206 85 12
217 106 28 217 112 29 218 113 30 220 112 30 220 112 30 220 112 30
220 112 30 220 112 30 220 112 32 221 111 32 208 88 14 211 86 14
211 86 14 211 86 14 211 86 16 211 86 16 209 86 18 209 86 18 208 85 17
206 83 15 203 78 8 203 76 7 206 76 10 208 75 10 209 74 10 211 73 10
211 73 12 211 73 12 211 73 12 211 72 14 203 62 7 203 62 7 203 62 7
203 62 7 203 62 7 203 62 7 203 62 5 203 62 5 204 63 6 204 63 6
205 64 7 205 64 7 205 64 7 205 64 7 205 64 7 205 64 7 205 64 7
205 64 7 205 64 7 204 66 5 207 73 11 205 74 11 205 74 9 205 74 9
206 76 10 206 76 10 206 76 10 206 76 10 205 74 9 205 74 9 205 74 9
206 76 10 204 73 8 204 73 8 204 73 8 204 73 8 204 73 8 204 73 8
205 74 9 205 74 9 205 74 9 205 74 9 205 74 9 205 74 9 206 76 8
206 76 8 207 77 9 207 77 9 207 77 11 206 76 10 208 78 11 208 78 11
210 77 11 210 77 11 210 77 11 210 77 11 211 79 12 211 79 12 211 79 12
211 79 12 205 75 7 205 75 7 205 75 7 205 75 7 207 74 9 207 74 9
207 74 9 207 74 9 205 72 8 203 70 6 200 67 2 198 65 1 200 64 3
200 64 3 200 64 3 200 64 3 203 64 6 203 64 6 203 64 6 203 64 6
203 64 6 203 64 6 203 64 6 203 64 6 203 64 6 203 64 6 203 64 6
203 64 6 203 64 6 203 64 6 203 64 6 203 64 6 204 65 7 204 65 7
204 65 7 204 65 7 204 65 7 204 65 7 205 66 9 205 66 9 203 68 6
203 68 6 205 69 8 205 69 8 206 70 9 206 70 9 206 70 9 206 70 9
206 70 9 207 71 10 210 75 13 213 77 16 209 75 13 209 75 13 209 75 13
209 75 13 209 75 15 209 75 15 210 77 15 210 77 15 211 80 15 209 81 15
209 83 14 209 83 14 208 86 13 210 85 13 213 83 13 213 83 13 209 82 11
207 87 13 219 109 30 218 113 30 218 113 30 218 113 30 218 113 30
218 113 30 218 113 30 218 113 30 218 113 32 220 112 32 206 89 14
209 87 14 209 87 14 209 87 14 209 87 16 209 87 16 209 86 18 208 87 18
207 86 17 206 83 15 203 78 8 203 76 7 204 76 10 206 76 10 208 75 10
209 74 10 209 74 10 211 73 10 211 73 12 210 71 13 204 63 8 203 62 7
203 62 7 203 62 7 203 62 7 203 62 7 203 62 5 203 62 5 204 63 6
204 63 6 205 64 7 205 64 7 205 64 9 205 64 9 207 65 11 207 65 11
207 65 11 207 65 11 207 66 9 206 68 8 207 73 11 206 76 10 206 76 10
206 76 10 207 77 11 207 77 11 206 76 10 206 76 10 206 76 10 206 76 10
205 74 9 205 74 9 204 73 8 204 73 8 204 73 8 204 73 8 204 73 8
204 73 8 204 73 8 204 73 8 205 74 9 205 74 9 205 74 9 205 74 9
206 76 8 206 76 8 207 77 9 207 77 9 207 77 11 207 77 11 208 78 11
208 78 11 210 77 11 212 77 11 212 77 11 212 77 11 213 78 12 213 78 12
213 78 12 213 78 12 205 75 7 205 75 7 205 75 7 207 74 7 207 74 9
207 74 9 207 74 9 207 74 9 205 72 8 203 70 6 200 67 2 200 64 3
200 64 3 200 64 3 200 64 3 200 64 3 203 64 6 203 64 6 203 64 6
203 64 6 203 64 6 203 64 6 203 64 6 203 64 6 203 64 6 203 64 6
203 64 6 203 64 6 203 64 6 203 64 6 203 64 6 203 64 6 204 65 7
204 65 7 204 65 7 204 65 7 204 65 7 204 65 7 205 66 9 205 66 9
203 68 6 203 68 6 205 69 8 205 69 8 206 70 9 206 70 9 206 70 9
206 70 9 206 70 9 207 71 10 210 75 13 213 77 16 209 75 13 209 75 13
209 75 13 209 75 13 209 75 15 209 75 15 210 77 15 208 77 15 211 80 15
209 81 15 210 83 14 209 83 14 210 85 13 210 85 13 213 83 13 215 82 13
209 82 11 207 87 13 219 109 30 218 113 30 216 114 30 216 114 30
216 114 30 216 114 30 216 114 30 216 114 30 216 114 32 220 112 32
206 89 14 209 87 14 209 87 14 209 87 14 209 87 16 209 87 16 209 86 18
209 86 18 208 85 17 206 83 15 203 78 8 202 76 7 204 76 10 204 76 10
206 76 10 208 75 10 208 75 10 209 74 10 209 73 12 210 72 11 204 63 6
203 62 7 203 62 7 203 62 7 203 62 7 203 62 7 203 62 5 203 62 5
204 63 6 204 63 6 205 64 7 205 64 7 205 64 9 204 65 9 205 66 11
205 66 11 205 66 11 205 66 11 205 66 11 205 68 10 207 73 11 206 76 10
206 76 10 206 76 10 207 77 11 207 77 11 206 76 10 206 76 10 206 76 10
206 76 10 205 74 9 205 74 9 204 73 8 204 73 8 204 73 8 204 73 8
204 73 8 204 73 8 204 73 8 204 73 8 205 74 9 205 74 9 205 74 9
205 74 9 206 76 8 206 76 8 207 77 9 207 77 9 207 77 11 207 77 11
208 78 11 210 77 11 212 77 11 212 77 11 212 77 11 212 77 11 213 78 12
213 78 12 213 78 12 213 78 12 207 74 7 207 74 7 207 74 7 207 74 7
208 73 9 208 73 9 208 73 9 208 73 9 207 71 10 205 69 8 201 65 4
200 64 3 202 63 5 202 63 5 202 63 5 202 63 5 203 64 6 203 64 6
203 64 6 203 64 6 202 63 5 202 63 5 202 63 5 202 63 5 202 63 5
202 63 5 202 63 5 202 63 5 204 63 8 204 63 8 205 64 9 205 64 9
204 65 7 204 65 7 205 66 9 205 66 9 205 66 9 205 66 9 205 66 9
205 66 9 203 68 6 203 68 6 203 68 6 203 68 6 203 70 8 203 70 8
203 70 8 203 70 8 203 70 6 204 71 7 208 75 10 210 77 13 210 77 13
210 77 13 210 77 15 210 77 15 210 77 15 210 77 15 208 77 15 208 77 15
211 80 15 211 80 15 209 81 13 209 81 13 209 84 12 210 83 12 213 81 12
213 81 12 211 81 11 208 86 13 221 108 30 218 113 32 218 115 31
216 116 31 216 116 29 216 116 31 216 116 31 216 116 33 216 116 33
219 114 33 206 89 12 209 87 12 209 87 14 209 87 14 211 86 16
211 86 16 211 86 16 211 86 16 211 86 16 209 83 14 204 79 9 203 78 8
206 78 9 206 78 9 206 78 9 207 77 9 206 76 10 208 75 10 209 73 12
210 72 11 203 64 6 203 62 5 203 62 7 205 61 7 205 61 5 203 62 5
203 62 5 202 63 5 203 64 8 203 64 8 203 64 8 204 65 9 205 66 11
203 67 11 203 67 11 203 67 11 203 66 13 203 66 13 203 69 12 203 69 10
205 74 11 205 74 9 206 76 8 206 76 8 206 76 8 206 76 8 206 76 8
206 76 8 208 75 8 208 75 8 208 75 8 208 75 8 207 74 7 207 74 7
207 74 7 207 74 7 207 74 7 207 74 7 207 74 7 207 74 7 207 74 9
207 74 9 207 74 9 207 74 9 208 75 10 208 75 10 208 75 10 208 75 10
209 76 11 209 76 11 209 76 11 209 76 11 212 76 13 212 76 13 212 77 11
212 77 11 213 78 12 213 78 12 213 78 12 213 78 12 207 74 7 207 74 7
207 74 7 207 74 7 208 73 9 208 73 9 208 73 9 208 73 9 207 71 10
205 69 8 201 65 4 200 64 3 202 63 5 202 63 5 202 63 5 202 63 5
203 64 6 203 64 6 203 64 6 203 64 6 202 63 5 202 63 5 202 63 5
202 63 5 202 63 5 202 63 5 202 63 5 202 63 5 204 63 8 204 63 8
205 64 9 205 64 9 204 65 7 204 65 7 205 66 9 205 66 9 205 66 9
205 66 9 205 66 9 205 66 9 203 68 6 203 68 6 203 68 6 203 68 6
203 70 8 203 70 8 203 70 8 203 70 8 203 70 6 204 71 7 208 75 10
210 77 13 210 77 13 210 77 13 210 77 15 210 77 15 210 77 15 210 77 15
208 77 15 208 77 15 211 80 15 211 80 15 209 81 13 209 81 13 209 84 12
210 83 12 213 81 12 213 81 12 211 81 11 208 86 13 221 108 30
218 113 32 218 115 31 218 115 31 218 116 29 218 115 31 218 115 33
218 115 33 218 115 33 221 113 33 206 89 12 209 87 12 209 87 14
211 86 14 211 86 16 211 86 16 211 86 16 211 86 16 211 86 16 209 83 14
204 79 9 204 77 8 206 78 9 206 78 9 206 78 7 206 78 7 206 76 8
206 76 10 208 74 12 208 72 11 203 64 6 202 63 5 203 62 7 205 61 7
205 61 5 203 62 5 202 63 5 202 63 5 203 64 8 203 64 8 201 65 8
202 66 9 203 67 11 203 67 11 203 67 11 203 67 11 203 67 11 202 68 11
203 69 12 203 69 10 207 73 11 207 74 9 208 75 8 208 75 8 208 75 8
208 75 8 208 75 8 208 75 8 208 75 8 208 75 8 208 75 8 208 75 8
207 74 7 207 74 7 207 74 7 207 74 7 207 74 7 207 74 7 207 74 7
207 74 7 207 74 9 207 74 9 207 74 9 207 74 9 208 75 10 208 75 10
208 75 10 208 75 10 209 76 11 209 76 11 209 76 11 209 76 11 212 76 13
212 76 13 212 77 11 212 77 11 213 78 12 213 78 12 213 78 12 213 78 12
207 74 7 207 74 7 207 74 7 207 74 7 208 73 9 208 73 9 208 73 9
208 73 9 207 71 10 205 69 8 201 65 4 200 64 3 202 63 5 202 63 5
202 63 5 202 63 5 203 64 6 203 64 6 203 64 6 203 64 6 202 63 5
202 63 5 202 63 5 202 63 5 202 63 5 202 63 5 202 63 5 202 63 5
204 63 8 204 63 8 205 64 9 205 64 9 204 65 7 204 65 7 205 66 9
205 66 9 205 66 9 205 66 9 205 66 9 205 66 9 205 69 8 205 69 8
205 69 8 205 69 8 204 71 9 204 71 9 204 71 9 204 71 9 203 70 6
204 71 7 208 75 10 210 77 13 210 77 13 210 77 13 210 77 15 210 77 15
210 77 15 210 77 15 210 79 16 210 79 16 210 79 14 210 79 14 209 81 13
209 81 13 209 84 12 210 83 12 213 81 12 213 81 12 212 82 12 209 87 14
222 109 31 221 113 33 219 114 31 219 114 31 219 115 29 219 114 31
219 114 33 219 114 33 219 114 33 222 112 33 208 88 12 211 86 12
211 86 14 211 86 14 213 85 16 213 85 16 213 85 16 213 85 16 213 85 16
210 83 14 206 78 9 204 77 8 207 77 9 207 77 9 206 78 7 206 78 7
204 77 8 206 76 10 208 74 12 207 71 10 204 65 7 202 63 5 203 62 7
203 62 7 203 62 5 203 62 5 202 63 5 202 63 5 203 64 6 203 64 6
203 64 6 204 65 7 205 66 9 205 66 9 205 66 9 205 66 9 205 66 9
203 67 9 205 68 10 206 70 9 207 72 8 208 73 9 209 74 8 209 74 8
209 74 8 209 74 8 209 74 8 209 74 8 209 74 8 209 74 8 209 74 8
209 74 8 207 74 7 207 74 7 207 74 7 207 74 7 207 74 7 207 74 7
207 74 7 207 74 7 208 75 10 208 75 10 208 75 10 208 75 10 208 75 10
208 75 10 208 75 10 208 75 10 209 76 11 209 76 11 209 76 11 209 76 11
210 77 13 210 77 13 210 77 11 210 77 11 211 79 12 211 79 12 211 79 12
211 79 12 207 74 9 207 74 9 207 74 9 207 74 9 208 73 9 208 73 9
208 73 9 208 73 9 207 71 10 205 69 8 201 65 4 200 64 3 202 63 5
202 63 5 202 63 5 202 63 5 203 64 6 203 64 6 203 64 6 203 64 6
202 63 5 202 63 5 202 63 5 202 63 5 202 63 5 202 63 5 202 63 5
202 63 5 204 63 8 204 63 8 205 64 9 205 64 9 204 65 7 204 65 7
205 66 9 205 66 9 205 66 9 205 66 9 205 66 9 205 66 9 205 69 8
205 69 8 205 69 8 205 69 8 206 70 9 204 71 9 204 71 9 204 71 9
203 70 6 203 70 6 208 75 10 210 77 13 210 77 13 210 77 13 210 77 15
210 77 15 210 77 15 208 77 15 210 79 16 210 79 16 210 79 14 210 79 14
211 81 13 209 81 13 210 83 14 210 83 12 213 81 12 213 81 12 213 83 13
211 88 16 222 109 31 220 112 32 222 113 31 222 113 31 222 113 31
222 113 31 222 112 33 222 112 33 222 112 33 226 111 33 207 87 11
210 85 11 210 85 13 210 85 13 210 85 15 211 84 15 211 84 15 211 84 15
211 84 15 209 81 13 204 77 8 203 76 7 206 76 8 206 76 8 204 77 6
204 77 6 204 77 8 206 76 8 208 75 10 207 71 10 204 65 7 202 63 5
203 62 7 203 62 7 203 62 5 202 63 5 202 63 5 202 63 5 203 64 6
203 64 6 203 64 6 204 65 7 205 66 9 205 66 9 205 66 9 205 66 9
205 66 9 205 67 6 206 68 8 207 69 9 209 71 8 210 72 9 211 73 8
209 74 8 209 74 8 209 74 8 209 74 8 209 74 8 209 74 8 209 74 8
209 74 8 209 74 8 207 74 7 207 74 7 207 74 7 207 74 7 207 74 7
207 74 7 207 74 7 207 74 7 208 75 10 208 75 10 208 75 10 208 75 10
208 75 10 208 75 10 208 75 10 208 75 10 209 76 11 209 76 11 209 76 11
209 76 11 210 77 13 210 77 13 210 77 11 210 77 11 211 79 12 211 79 12
211 79 12 211 79 12 208 72 11 208 72 11 208 72 11 208 72 11 208 72 11
208 72 11 208 72 11 209 73 12 207 71 10 205 69 8 202 66 5 200 64 3
202 63 5 202 63 5 202 63 5 202 63 5 204 63 8 204 63 8 204 63 8
204 63 8 203 62 7 203 62 7 203 62 7 203 62 7 203 62 7 203 62 7
203 62 7 203 62 7 204 63 8 204 63 8 205 64 9 205 64 9 205 66 9
205 66 9 205 66 9 205 66 9 205 66 9 205 66 9 205 66 9 205 66 9
206 68 10 206 68 10 206 68 10 206 68 10 206 70 9 206 70 9 206 70 9
206 70 9 204 71 9 201 67 5 210 77 15 205 72 10 207 77 11 207 77 11
207 77 11 207 77 11 207 77 11 207 77 11 208 78 13 208 78 13 208 78 13
208 78 13 210 79 14 210 79 14 209 81 13 211 81 13 212 80 13 212 80 13
215 85 18 211 88 16 222 107 30 219 109 30 222 109 31 222 109 31
223 109 29 223 109 29 223 108 31 223 108 31 225 108 31 225 108 31
207 87 11 208 86 11 208 86 11 208 86 13 208 86 13 210 85 13 210 85 13
211 84 13 211 84 13 211 81 11 206 76 6 205 75 5 206 76 6 206 76 6
204 77 6 204 77 6 206 78 9 207 77 9 209 76 11 208 72 11 203 64 6
200 62 4 202 61 6 202 61 6 200 62 4 199 63 4 199 63 2 199 63 2
200 64 3 196 61 0 206 70 9 203 68 6 205 69 8 205 69 8 205 69 8
205 69 8 205 69 8 205 69 6 206 70 7 206 70 7 207 72 8 207 72 6
208 73 7 207 74 7 207 74 7 207 74 7 207 74 7 207 74 7 207 74 7
208 75 8 209 76 9 209 76 9 209 76 9 208 75 8 208 75 8 208 75 8
208 75 8 208 75 8 209 76 9 209 76 9 208 75 10 208 75 10 209 76 11
209 76 11 209 76 11 209 76 11 209 76 11 209 76 11 209 75 13 209 75 13
210 77 13 210 77 13 210 77 13 210 77 13 210 77 11 210 77 11 210 77 13
210 77 13 210 77 13 210 77 13 207 71 10 207 71 10 207 71 10 207 71 10
207 71 10 207 71 10 207 71 10 207 71 10 207 71 10 205 69 8 202 66 5
200 64 3 202 63 5 202 63 5 202 63 5 202 63 5 204 63 8 204 63 8
204 63 8 204 63 8 203 62 7 203 62 7 203 62 7 203 62 7 203 62 7
203 62 7 203 62 7 203 62 7 204 63 8 204 63 8 204 63 8 204 63 8
204 65 7 204 65 7 204 65 7 204 65 7 204 65 7 204 65 7 204 65 7
204 65 7 206 68 10 206 68 10 206 68 10 206 68 10 206 70 9 206 70 9
206 70 9 206 70 9 204 71 9 201 67 5 215 81 19 211 80 17 211 80 15
211 80 15 211 80 15 211 80 15 209 81 15 209 81 15 211 80 15 211 80 15
210 79 14 210 79 14 211 78 14 211 78 14 211 81 13 211 81 13 212 80 13
212 80 13 214 84 16 208 85 15 219 103 28 217 105 26 226 111 33
226 111 33 227 110 31 227 110 31 227 110 33 227 110 33 229 109 33
229 109 33 209 89 14 209 89 14 211 88 14 211 88 14 211 88 16
211 88 16 212 87 16 212 87 16 214 86 16 213 83 13 208 79 9 207 77 7
208 79 9 208 79 9 206 78 7 206 78 7 206 78 9 206 78 9 206 76 10
205 72 8 200 64 3 199 61 3 201 59 5 201 59 5 198 61 3 196 62 3
196 63 1 196 63 1 197 64 2 195 62 0 205 74 11 204 73 8 198 67 2
196 68 2 196 68 2 196 68 2 196 68 2 196 68 2 196 68 2 196 69 0
207 79 11 207 79 11 207 79 11 207 79 11 207 79 11 207 79 11 207 79 11
208 78 11 211 79 12 210 77 11 208 75 8 207 74 7 207 74 7 207 74 7
207 74 7 207 74 7 207 74 7 207 74 7 208 75 8 208 75 8 208 75 10
208 75 10 209 76 11 209 76 11 209 76 11 209 76 11 209 76 11 209 76 11
209 75 13 209 75 13 209 76 11 209 76 11 209 76 11 209 76 11 209 76 9
209 76 9 209 76 11 209 76 11 209 76 11 209 76 11 205 69 8 205 69 8
205 69 8 205 69 8 205 69 8 205 69 8 205 69 8 206 70 9 206 70 9
205 69 8 202 66 5 200 64 3 202 63 5 202 63 5 202 63 5 202 63 5
204 63 8 204 63 8 204 63 8 204 63 8 203 62 7 203 62 7 203 62 7
203 62 7 203 62 7 203 62 7 203 62 7 203 62 7 204 63 8 204 63 8
204 63 8 204 63 8 202 63 5 202 63 5 202 63 5 202 63 5 202 63 5
202 63 5 202 63 5 202 63 5 207 69 11 207 69 11 207 69 11 207 69 11
207 71 10 207 71 10 207 71 10 207 71 10 203 70 6 203 70 6 219 88 23
219 88 23 217 89 23 217 90 21 219 89 21 219 89 21 217 89 23 217 89 23
217 89 23 217 89 23 210 79 14 210 79 14 211 78 14 211 78 14 211 81 13
211 81 13 212 80 13 212 80 13 211 81 13 205 82 12 215 100 25
214 101 23 209 94 17 211 94 17 211 94 15 211 94 15 212 93 17
212 93 17 212 93 17 212 93 17 212 93 17 212 93 17 212 93 17 214 92 17
214 92 19 216 91 19 216 91 19 216 91 19 217 90 19 215 88 17 210 83 12
209 82 11 210 83 12 211 84 13 211 84 13 213 85 14 213 85 14 214 86 18
215 85 18 216 83 18 210 75 13 210 71 13 211 70 15 210 71 15 207 73 13
205 74 13 205 74 11 205 74 11 205 74 9 205 74 9 218 90 24 218 92 25
220 97 27 218 98 27 218 98 27 218 98 27 218 98 27 218 98 27 218 98 27
218 98 25 219 99 26 219 99 26 219 99 26 219 99 26 219 99 26 219 99 26
219 99 26 221 99 26 228 98 28 225 93 24 219 87 18 216 84 14 218 88 20
218 88 20 218 88 20 218 88 20 218 88 20 218 88 20 219 87 20 219 87 20
210 77 13 210 77 13 210 77 13 210 77 13 209 76 11 209 76 11 209 76 11
209 76 11 209 75 13 209 75 13 209 76 11 208 75 10 208 75 10 207 74 9
207 74 7 207 74 7 207 74 9 207 74 9 207 74 9 207 74 9 202 66 5
202 66 5 202 66 5 202 66 5 202 66 5 202 66 5 202 66 5 202 66 5
207 71 10 203 68 6 201 65 4 200 64 3 202 63 5 202 63 5 202 63 5
202 63 5 204 63 8 204 63 8 204 63 8 204 63 8 203 62 7 203 62 7
203 62 7 203 62 7 203 62 7 203 62 7 203 62 7 203 62 7 204 63 8
204 63 8 203 62 7 203 62 7 200 62 4 200 62 4 200 62 4 200 62 4
200 62 4 200 62 4 200 62 4 200 62 4 207 69 11 207 69 11 207 69 11
207 69 11 207 71 10 207 71 10 207 71 10 207 71 10 203 70 6 205 72 8
222 92 27 223 95 29 220 95 26 220 95 26 220 95 26 220 95 26 220 95 28
220 95 28 222 94 28 222 94 28 210 79 14 211 78 14 211 78 14 211 78 14
211 79 12 211 79 12 213 78 12 211 79 12 207 77 9 204 79 9 214 97 23
213 98 21 212 95 18 212 95 18 212 95 16 212 95 16 214 94 18 214 94 18
214 94 18 214 94 18 215 95 19 215 95 19 215 95 19 215 95 19 216 94 21
218 93 21 218 93 21 218 93 21 218 93 21 217 90 19 213 85 14 211 84 13
213 85 14 213 85 14 213 85 14 213 85 14 213 85 14 213 85 14 214 84 16
213 81 16 208 72 11 207 69 9 209 68 11 207 68 13 204 70 11 203 71 11
203 71 11 203 72 9 201 70 8 202 74 8 218 93 23 219 96 26 215 95 21
213 96 21 212 96 21 212 96 21 212 96 21 212 96 21 212 96 21 212 96 21
219 103 28 219 103 28 219 103 28 219 103 28 219 103 28 219 103 28
219 103 28 220 102 28 229 104 32 225 95 25 217 87 17 208 81 10
215 87 19 215 87 19 217 86 19 217 86 19 217 86 19 217 86 19 218 86 19
218 86 19 210 77 13 210 77 13 210 77 13 210 77 13 209 76 11 209 76 11
209 76 11 209 76 11 209 75 13 209 75 13 209 76 11 208 75 10 204 71 7
204 71 7 204 72 5 204 72 5 205 72 8 205 72 8 205 72 8 205 72 8
202 66 5 202 66 5 202 66 5 202 66 5 204 65 7 204 65 7 204 65 7
204 65 7 205 66 9 205 66 9 203 64 6 200 62 4 202 63 5 202 63 5
202 63 5 202 63 5 203 62 7 203 62 7 203 62 7 203 62 7 204 63 8
204 63 8 204 63 8 204 63 8 204 63 8 204 63 8 204 63 8 204 63 8
203 62 7 203 62 7 203 62 7 203 62 7 202 63 5 202 63 5 200 62 4
200 62 4 200 62 4 200 62 4 200 62 4 200 62 4 209 70 12 209 70 12
209 70 10 209 70 10 210 72 11 210 72 11 210 72 9 208 73 9 207 74 9
207 74 9 222 92 25 220 92 23 217 92 22 215 92 22 214 93 22 214 93 22
215 92 22 217 92 22 218 90 24 218 90 24 210 79 14 211 78 14 212 76 13
212 76 13 211 79 12 211 79 12 212 77 11 210 77 11 207 77 9 204 79 9
214 97 23 213 97 23 213 96 19 213 96 19 213 96 17 213 96 17 213 96 17
213 96 17 213 96 17 213 96 17 215 95 17 215 95 17 215 95 17 215 95 19
216 94 19 216 94 19 216 94 19 216 94 19 216 94 19 216 91 17 211 86 12
210 85 11 213 85 14 213 85 14 211 86 12 211 86 12 211 86 12 213 85 14
214 84 16 216 83 18 208 72 11 207 69 9 209 68 11 207 69 11 204 70 11
204 70 11 206 69 13 206 69 13 205 72 12 204 76 10 219 96 24
219 100 24 217 99 23 217 99 23 217 99 23 217 99 23 217 99 23
217 99 23 216 101 24 216 101 24 216 101 24 216 101 24 216 103 25
216 103 25 217 103 25 217 103 25 217 103 25 219 102 25 223 103 30
220 97 25 212 89 17 208 86 13 212 87 16 214 86 16 214 86 16 214 86 16
215 86 16 215 86 16 215 86 16 215 85 18 209 76 9 209 76 9 209 76 9
209 76 9 209 76 9 209 76 9 209 76 9 209 76 11 209 76 11 209 76 11
209 76 11 207 74 9 204 71 7 204 71 7 204 71 7 204 71 7 205 72 8
205 72 8 205 72 8 205 72 8 202 66 5 202 66 5 202 66 5 202 66 5
204 65 7 204 65 7 204 65 7 204 65 7 205 66 9 204 65 7 202 63 5
200 62 4 202 63 5 202 63 5 202 63 5 202 63 5 203 62 7 203 62 7
203 62 7 203 62 7 204 63 8 204 63 8 204 63 8 204 63 8 204 63 8
204 63 8 204 63 8 204 63 8 203 62 7 203 62 7 203 62 7 203 62 7
202 63 5 202 63 5 202 63 5 202 63 5 202 63 5 202 63 5 202 63 5
202 63 5 209 70 12 209 70 12 209 70 10 209 70 10 210 72 11 210 72 11
210 72 9 210 72 9 209 74 10 206 76 10 221 93 25 218 93 23 215 92 22
214 93 22 212 94 22 212 94 22 214 93 22 215 92 22 217 91 24 218 90 24
210 79 14 211 78 14 212 76 13 212 76 13 210 77 11 210 77 11 210 75 9
209 76 9 207 77 9 204 79 9 216 96 23 214 97 23 213 96 19 213 96 19
213 96 17 213 96 17 213 96 17 213 96 17 213 96 17 213 96 17 215 95 17
215 95 17 215 95 17 215 95 17 216 94 19 216 94 19 216 94 19 216 94 19
216 94 19 214 92 17 209 87 12 210 85 11 213 85 14 213 85 14 211 86 12
211 86 12 211 86 12 211 86 12 213 85 14 214 84 16 207 74 9 206 70 9
207 69 11 207 69 11 206 70 11 206 70 11 207 68 13 206 69 13 205 72 12
204 76 12 217 97 24 218 101 22 217 99 23 217 99 23 217 99 23
217 99 23 217 100 21 217 100 21 216 102 22 216 102 22 216 101 24
216 101 24 216 103 25 216 103 25 217 103 25 217 103 25 217 103 25
217 103 25 221 104 30 217 99 25 209 91 17 207 87 13 211 88 16
212 87 16 214 86 16 214 86 16 215 86 16 215 86 16 215 86 16 215 86 16
209 76 9 209 76 9 209 76 9 209 76 9 209 76 9 209 76 9 209 76 9
209 76 9 209 76 11 209 76 11 208 75 10 205 72 8 204 71 7 204 71 7
204 71 7 204 71 7 205 72 8 205 72 8 205 72 8 205 72 8 202 66 5
202 66 5 202 66 5 202 66 5 204 65 7 204 65 7 204 65 7 204 65 7
205 66 9 204 65 7 202 63 5 200 62 4 202 63 5 202 63 5 202 63 5
202 63 5 203 62 7 203 62 7 203 62 7 203 62 7 204 63 8 204 63 8
204 63 8 204 63 8 204 63 8 204 63 8 204 63 8 204 63 8 203 62 7
203 62 7 203 62 7 203 62 7 202 63 5 202 63 5 202 63 5 202 63 5
202 63 5 202 63 5 202 63 5 202 63 5 209 70 12 209 70 12 209 70 10
209 70 10 210 72 11 210 72 11 210 72 9 210 72 9 209 74 8 206 76 8
221 93 25 218 93 21 215 93 20 214 94 20 212 94 20 212 94 20 214 93 22
215 92 22 217 91 24 218 90 24 210 79 14 211 78 14 212 76 13 212 76 13
212 77 11 212 77 11 210 75 9 209 76 9 207 77 9 204 79 9 216 96 23
216 96 23 215 95 19 215 95 19 215 95 17 215 95 17 215 95 17 215 95 17
215 95 17 215 95 17 213 96 17 213 96 17 213 96 17 215 95 17 215 95 19
215 95 19 215 95 19 215 95 19 216 94 19 214 92 17 209 87 14 210 85 13
213 85 14 213 85 14 211 86 14 209 87 14 211 86 12 211 86 12 213 85 14
214 84 16 207 74 9 206 70 9 207 69 11 207 69 11 206 70 11 206 70 11
207 68 13 206 69 13 205 72 12 204 76 12 217 97 24 218 101 24
217 100 21 217 100 21 217 100 21 217 100 21 217 100 21 217 100 21
216 102 22 216 102 22 216 102 22 216 102 22 216 104 23 216 104 23
217 103 23 217 103 23 217 103 23 217 103 25 221 104 28 217 99 23
209 91 15 207 87 11 211 88 16 212 87 16 212 87 16 214 86 16 214 86 16
214 86 16 215 86 16 215 86 16 209 76 9 209 76 9 207 77 9 207 77 9
209 76 9 209 76 9 209 76 9 209 76 9 209 76 11 209 76 11 207 74 9
204 71 7 204 71 7 204 71 7 204 71 7 204 71 7 205 72 8 205 72 8
205 72 8 205 72 8 202 66 5 202 66 5 202 66 5 202 66 5 204 65 7
204 65 7 204 65 7 204 65 7 205 66 9 204 65 7 202 63 5 200 62 4
202 63 5 202 63 5 202 63 5 202 63 5 203 62 7 203 62 7 203 62 7
203 62 7 204 63 8 204 63 8 204 63 8 204 63 8 204 63 8 204 63 8
204 63 8 204 63 8 203 62 7 203 62 7 203 62 7 203 62 7 202 63 5
202 63 5 202 63 5 202 63 5 202 63 5 202 63 5 202 63 5 202 63 5
209 70 12 209 70 12 209 70 10 209 70 10 210 72 11 210 72 11 210 72 9
210 72 9 208 73 7 205 75 7 220 92 21 217 92 20 215 93 20 214 94 20
212 94 20 212 94 20 214 93 22 215 92 22 217 91 24 218 90 24 210 79 14
211 78 14 212 76 13 212 76 13 212 76 13 212 77 11 210 75 9 209 76 9
207 77 9 206 78 9 218 95 25 216 96 23 215 95 21 215 95 19 215 95 19
215 95 19 215 95 19 215 95 19 215 95 19 215 95 17 213 96 17 213 96 17
213 96 17 213 96 17 215 95 19 215 95 19 215 95 19 215 95 19 216 94 19
214 92 17 209 87 14 210 85 13 213 85 14 213 85 14 211 86 14 209 87 14
211 86 12 211 86 14 213 85 14 214 84 16 207 74 9 204 71 7 206 70 9
206 70 11 204 70 11 206 70 11 207 68 13 207 68 13 207 71 12 206 75 12
219 96 24 218 101 24 217 100 21 217 100 21 217 100 21 217 100 21
217 100 21 217 100 21 216 102 22 216 102 22 216 102 22 215 103 22
214 105 23 214 105 23 216 104 23 217 103 23 217 103 23 217 103 23
221 104 28 217 99 23 209 91 15 207 87 11 211 88 16 211 88 16
212 87 16 212 87 16 214 86 16 214 86 16 215 86 16 215 86 16 209 76 9
209 76 9 207 77 9 207 77 9 209 76 9 209 76 9 209 76 9 209 76 9
209 76 11 208 75 10 205 72 8 204 71 7 204 71 7 204 71 7 204 71 7
204 71 7 205 72 8 205 72 8 205 72 8 205 72 8 204 65 7 204 65 7
204 65 7 204 65 7 204 65 7 204 65 7 204 65 7 204 65 7 205 66 9
204 65 7 202 63 5 202 63 5 202 63 5 202 63 5 202 63 5 202 63 5
202 63 7 202 63 7 202 63 7 202 63 7 203 64 8 203 64 8 203 64 8
203 64 8 203 64 8 203 64 8 203 64 6 203 64 6 202 63 5 202 63 5
202 63 5 202 63 5 202 63 5 202 63 5 202 63 5 202 63 5 202 63 5
202 63 5 202 63 5 202 63 5 209 70 10 209 70 10 209 70 10 209 71 8
210 72 9 210 72 9 210 72 9 210 72 9 207 72 6 204 74 6 218 91 20
216 91 19 214 92 19 212 92 19 211 93 19 211 93 19 214 94 20 215 92 22
217 92 22 218 91 22 210 79 14 211 78 14 213 77 16 214 76 16 213 75 13
213 75 13 212 76 13 210 77 13 208 78 13 207 79 13 220 95 26 219 96 26
218 95 25 218 95 23 218 95 23 218 95 23 218 95 23 218 95 23 218 95 23
216 96 21 213 96 17 213 96 17 213 96 17 213 96 17 215 95 19 215 95 19
215 95 19 215 95 19 216 94 19 214 92 17 209 87 14 210 85 13 213 85 16
213 85 16 211 86 14 209 87 14 211 86 14 211 86 14 213 85 16 214 84 16
207 74 9 204 71 7 206 70 9 206 70 9 204 71 9 206 70 11 207 68 13
207 68 13 207 71 12 206 76 10 219 96 24 218 101 24 217 99 23
217 99 23 217 99 23 217 99 23 217 100 21 217 100 21 218 101 22
218 101 22 216 102 22 215 103 22 214 105 21 214 105 21 216 104 21
217 103 21 217 103 21 217 103 23 221 104 26 217 100 21 209 92 13
207 87 11 209 87 12 209 87 12 211 86 12 211 86 12 214 87 14 214 87 14
215 86 14 215 86 16 209 77 7 209 77 7 207 77 7 207 77 7 207 77 9
207 77 9 207 77 9 207 77 9 209 76 11 208 75 10 205 72 8 204 71 7
204 71 7 204 71 7 204 71 7 204 71 7 205 72 8 205 72 8 205 72 8
205 72 8 204 65 7 204 65 7 204 65 7 204 65 7 204 65 7 204 65 7
204 65 7 204 65 7 205 66 9 204 65 7 202 63 5 202 63 5 202 63 5
202 63 5 203 64 6 203 64 6 203 64 8 203 64 8 203 64 8 203 64 8
204 65 9 204 65 9 204 65 9 204 65 9 204 65 9 204 65 9 204 65 7
204 65 7 203 64 6 203 64 6 203 64 6 203 64 6 202 63 5 202 63 5
203 64 6 203 64 6 203 64 6 203 64 6 203 64 6 203 64 6 210 72 11
210 72 11 210 72 9 210 72 9 211 73 10 211 73 10 211 73 10 211 73 10
206 71 5 204 72 5 219 89 19 215 88 17 215 90 18 213 90 18 211 91 18
210 92 18 214 94 20 215 93 20 217 92 22 220 90 22 211 78 14 213 77 14
214 76 16 214 76 16 212 74 11 212 74 11 212 76 13 212 76 13 210 77 13
208 78 13 222 94 26 220 95 26 219 94 25 218 95 25 218 95 23 218 95 23
218 95 23 218 95 23 218 95 23 218 95 23 215 95 19 213 96 17 213 96 17
213 96 17 215 95 19 215 95 19 215 95 19 215 95 19 216 94 19 214 92 17
209 87 14 210 85 13 213 85 16 213 85 16 211 86 14 209 87 14 211 86 14
213 85 14 214 84 16 214 84 16 207 74 9 204 71 7 206 70 9 206 70 9
204 71 9 206 70 9 207 69 11 207 69 11 207 71 10 206 76 10 218 95 23
218 101 24 216 98 22 216 98 22 216 98 22 216 98 22 216 99 20
216 99 20 218 101 22 218 101 22 216 102 22 215 103 22 214 105 21
214 105 21 216 104 21 217 103 21 217 103 21 217 103 21 221 104 26
217 100 21 209 92 13 207 87 9 209 87 12 209 87 12 211 86 12 211 86 12
214 87 14 214 87 14 215 86 14 215 86 14 209 77 7 207 77 7 206 78 7
206 78 7 207 77 9 207 77 9 207 77 9 207 77 9 209 76 11 208 75 10
205 72 8 205 72 8 204 71 7 204 71 7 204 71 7 204 71 7 205 72 8
205 72 8 205 72 8 205 72 8 204 65 7 204 65 7 204 65 7 204 65 7
204 65 7 204 65 7 204 65 7 204 65 7 205 66 9 204 65 7 203 64 6
203 64 6 203 64 6 203 64 6 203 64 6 203 64 6 203 64 8 203 64 8
203 64 8 203 64 8 204 65 9 204 65 9 204 65 9 204 65 9 205 66 11
205 66 11 205 66 9 204 65 7 203 64 6 203 64 6 203 64 6 203 64 6
202 63 5 202 63 5 203 64 6 203 64 6 203 64 6 203 64 6 203 64 6
203 64 6 210 72 11 210 72 11 210 72 9 210 72 9 211 73 10 211 73 10
211 73 10 211 73 10 206 71 5 204 72 5 219 89 19 215 88 17 215 90 18
213 90 18 211 91 18 211 91 18 214 94 20 215 93 20 217 92 22 220 90 22
211 78 14 213 77 14 214 76 16 214 76 16 211 73 10 211 73 10 212 76 13
212 76 13 210 77 13 208 78 13 222 94 26 222 94 26 219 94 25 219 94 25
219 94 23 219 94 23 219 94 23 219 94 23 219 94 23 218 95 23 215 95 19
213 96 17 213 96 17 213 96 17 215 95 19 215 95 19 215 95 19 215 95 19
216 94 19 214 92 17 209 87 14 210 85 15 213 85 16 213 85 16 211 86 16
209 87 16 211 86 14 213 85 14 214 84 16 214 84 16 207 74 9 205 72 8
207 71 10 207 71 10 204 71 9 206 70 9 207 69 11 207 69 11 207 71 10
205 74 9 218 95 25 218 100 26 214 97 21 214 97 21 214 97 21 214 97 21
214 97 19 214 97 19 218 101 22 218 101 22 216 102 22 215 103 22
213 106 21 213 106 21 216 104 21 217 103 21 217 103 21 217 103 21
221 104 26 217 100 21 209 92 13 207 87 9 209 87 12 209 87 12
211 86 12 211 86 12 214 87 14 214 87 14 215 86 14 215 86 14 209 77 7
207 77 7 206 78 7 206 78 7 207 77 9 207 77 9 207 77 9 207 77 9
209 76 11 208 75 10 207 74 9 205 72 8 205 72 8 205 72 8 205 72 8
205 72 8 205 72 8 205 72 8 205 72 8 205 72 8 204 65 7 204 65 7
204 65 7 204 65 7 204 65 7 204 65 7 204 65 7 204 65 7 205 66 9
204 65 7 203 64 6 203 64 6 203 64 6 203 64 6 204 65 7 204 65 7
204 65 9 204 65 9 204 65 9 204 65 9 205 66 11 205 66 11 205 66 11
205 66 11 206 67 12 206 67 12 206 68 10 205 66 9 204 65 7 204 65 7
204 65 7 204 65 7 203 64 6 203 64 6 204 65 7 204 65 7 204 65 7
204 65 7 204 65 7 204 65 7 211 73 12 211 73 12 211 73 10 211 73 10
212 74 11 212 74 11 212 74 11 210 75 11 205 73 6 203 72 5 217 90 19
214 86 16 213 88 17 212 89 17 210 90 17 210 90 17 214 94 20 215 93 20
217 92 22 220 90 22 211 78 14 213 77 14 214 76 16 214 76 16 210 72 9
210 72 9 210 75 11 210 75 11 209 76 11 207 77 11 222 94 28 222 94 26
219 94 25 219 94 25 219 94 23 219 94 23 219 94 23 221 93 23 221 93 23
219 94 23 216 94 21 216 94 21 216 94 21 216 94 21 216 94 21 218 93 21
218 93 21 218 93 21 218 93 21 216 91 19 211 86 16 211 84 15 214 84 16
214 84 16 213 85 16 211 86 16 213 85 14 213 85 14 214 84 16 214 84 16
207 74 9 205 72 8 207 71 10 207 71 10 204 71 9 206 70 9 207 69 11
207 69 11 207 71 10 205 74 9 216 93 23 218 100 26 213 96 19 213 96 19
213 96 19 213 96 19 213 96 17 213 96 17 218 101 22 216 102 22
215 103 22 213 103 22 213 106 21 213 106 21 214 105 21 216 104 21
216 104 21 216 104 21 218 106 26 214 101 21 205 93 13 203 89 9
206 89 12 206 89 12 206 89 12 208 88 12 209 89 14 211 88 14 211 88 14
212 88 14 206 78 7 206 78 7 204 79 7 206 78 7 207 77 9 207 77 9
207 77 9 207 77 9 209 76 11 208 75 10 207 74 9 207 74 9 205 72 8
205 72 8 205 72 8 205 72 8 205 72 8 205 72 8 205 72 8 205 72 8
204 65 7 204 65 7 204 65 7 204 65 7 204 65 7 204 65 7 204 65 7
204 65 7 204 65 7 204 65 7 204 65 7 204 65 7 204 65 7 204 65 7
205 66 9 205 66 9 204 65 9 204 65 9 205 66 11 205 66 11 206 67 12
206 67 12 206 68 10 206 68 10 206 68 10 206 68 10 206 68 10 206 68 10
205 66 9 204 65 7 205 66 9 205 66 9 202 66 9 202 66 9 202 66 9
202 66 9 202 66 9 202 66 9 202 66 9 202 66 7 209 73 12 209 74 10
209 74 10 209 74 10 210 75 11 210 75 11 210 75 9 208 75 8 207 74 7
208 78 11 209 81 13 214 86 18 213 88 19 212 89 19 210 90 17 210 90 17
208 86 13 208 86 13 210 85 15 213 83 15 204 71 7 206 70 7 207 69 9
207 69 9 210 72 11 210 72 11 207 71 10 207 71 10 205 72 10 204 73 10
203 75 9 203 75 9 203 76 7 203 76 7 204 77 6 204 77 6 204 77 6
206 76 6 205 75 5 205 75 7 204 73 8 204 73 10 203 72 9 203 72 9
203 72 9 204 71 9 204 71 9 204 71 9 202 68 6 203 70 6 207 74 7
209 76 9 206 76 10 206 76 10 206 76 8 206 76 8 204 77 8 204 77 8
206 76 8 206 76 8 207 74 9 205 72 8 207 71 10 207 71 10 207 71 10
207 71 10 209 70 12 209 70 12 207 71 10 205 74 9 216 93 23 212 92 19
215 95 19 215 95 19 215 95 19 215 95 19 215 95 19 215 95 19 210 93 14
207 94 14 227 123 37 226 124 37 227 123 37 227 123 37 227 123 35
227 123 35 227 123 35 227 123 37 227 123 37 226 122 36 222 117 32
222 117 34 224 117 35 224 117 35 224 117 35 223 116 34 223 116 34
222 115 32 224 114 32 225 113 35 213 97 23 216 96 23 218 95 23
221 93 23 222 93 23 222 93 23 222 93 23 222 92 25 221 91 23 222 92 25
205 75 7 205 75 7 204 74 6 204 74 6 204 74 6 204 74 6 207 74 9
207 74 9 207 74 9 207 74 9 204 65 7 204 65 7 204 65 7 204 65 7
204 65 7 204 65 7 204 65 7 204 65 7 204 65 7 204 65 7 204 65 7
204 65 7 204 65 7 204 65 7 206 68 10 206 68 10 205 66 11 205 66 11
206 67 12 206 67 12 207 68 13 207 68 13 207 69 11 207 69 11 207 69 11
207 69 11 207 69 11 207 69 11 206 68 10 205 66 9 205 66 9 205 66 9
205 68 12 205 68 12 203 67 11 203 67 11 203 67 11 203 67 11 203 67 11
203 67 9 210 75 13 210 75 11 210 75 11 210 75 11 210 77 13 210 77 13
210 77 11 209 76 9 207 77 9 208 78 11 209 81 13 213 85 16 212 87 18
212 87 18 211 88 16 209 89 16 208 86 13 210 85 13 211 84 15 213 83 15
204 71 7 206 70 7 207 69 9 207 69 9 209 70 10 209 70 10 205 69 8
205 69 8 203 70 8 203 70 8 203 72 7 201 73 7 201 73 5 201 73 5
202 75 4 204 74 4 204 74 4 204 74 4 203 73 3 203 72 5 203 69 10
203 69 12 202 68 11 202 68 11 203 67 11 203 67 11 203 67 9 203 67 9
203 67 9 205 69 8 208 73 9 210 75 9 208 75 10 208 75 10 208 75 8
208 75 8 206 76 8 204 77 8 206 76 8 206 76 8 207 74 9 205 72 8
207 71 10 207 71 10 207 71 10 209 70 10 210 69 12 210 69 12 209 70 10
207 74 9 217 92 22 212 92 19 214 94 18 214 94 18 214 94 18 214 94 18
214 94 18 214 94 18 210 93 14 207 94 14 226 124 37 224 124 37
226 124 37 226 124 37 224 125 35 224 125 35 224 125 35 224 125 35
224 124 37 223 123 36 218 119 32 218 119 32 221 119 35 221 119 35
220 119 35 218 118 34 218 118 34 219 116 32 220 115 32 222 114 35
210 99 23 213 97 23 218 95 23 219 94 23 221 93 23 222 93 23 222 93 23
222 93 23 221 91 23 222 92 25 205 75 7 206 76 8 204 74 6 204 74 6
204 74 6 204 74 6 207 74 9 207 74 9 207 74 9 207 74 9 204 65 7
204 65 7 204 65 7 204 65 7 204 65 7 204 65 7 204 65 7 204 65 7
204 65 7 204 65 7 205 66 9 205 66 9 205 66 9 205 66 9 206 68 10
206 68 10 205 66 11 205 66 11 206 67 12 206 67 12 207 68 13 207 68 13
207 69 11 207 69 11 209 70 12 209 70 12 209 70 12 207 69 11 206 68 10
205 66 9 205 66 9 205 66 9 205 68 12 205 68 12 203 67 11 203 67 11
203 67 11 203 67 11 203 67 11 203 67 9 210 75 13 210 75 11 210 75 11
210 75 11 210 77 13 210 77 13 210 77 11 209 76 9 207 77 9 208 78 11
209 81 13 213 85 16 212 87 18 212 87 18 211 88 16 211 88 16 208 86 13
210 85 13 211 84 15 213 83 15 204 71 7 206 70 7 207 69 9 207 69 9
207 69 9 207 69 9 205 69 8 205 69 8 203 70 8 203 70 8 203 72 7
203 72 7 203 72 5 203 72 5 204 74 4 204 74 4 205 73 4 205 73 4
204 72 3 204 72 5 203 69 10 203 69 12 202 68 11 202 68 11 203 67 11
203 67 11 203 67 9 203 67 9 203 67 9 205 69 8 208 73 9 210 75 11
208 75 10 208 75 10 209 74 10 208 75 10 206 76 8 206 76 8 206 76 8
206 76 8 207 74 9 207 74 9 208 72 11 208 72 11 207 71 10 209 70 10
210 70 10 210 70 10 209 70 10 205 72 8 217 92 22 212 92 19 212 93 17
212 93 17 212 93 17 212 93 17 212 93 17 212 93 17 210 93 14 207 94 14
226 124 37 224 124 37 226 124 37 226 124 37 224 125 35 224 125 35
224 125 35 224 125 35 224 124 37 223 123 36 218 119 32 218 119 32
221 119 35 221 119 35 220 119 35 218 118 34 218 118 34 219 116 32
220 115 32 222 114 35 210 99 23 213 97 23 216 96 23 219 94 23
221 93 23 222 93 23 222 93 23 222 93 23 221 91 23 222 92 25 206 76 8
206 76 8 205 75 7 205 75 7 205 75 7 205 75 7 207 74 9 207 74 9
207 74 9 207 74 9 204 65 7 204 65 7 204 65 7 204 65 7 204 65 7
204 65 7 204 65 7 204 65 7 204 65 7 204 65 7 205 66 9 205 66 9
205 66 9 205 66 9 206 68 10 206 68 10 206 67 12 206 67 12 207 68 13
207 68 13 209 70 14 209 70 14 209 70 12 209 70 12 210 71 13 210 71 13
210 71 13 209 70 12 207 69 11 206 68 10 206 68 10 206 68 10 205 68 12
205 68 12 205 68 12 205 68 12 205 68 12 205 68 12 205 68 12 205 68 10
212 76 15 212 76 13 212 76 13 212 76 13 211 78 14 211 78 14 211 79 12
210 77 11 207 77 9 208 78 11 209 81 13 211 84 15 213 85 16 211 86 16
209 87 14 209 87 14 208 86 13 210 85 13 211 84 15 213 83 15 204 71 7
206 70 7 207 69 9 207 69 9 206 68 8 206 68 8 205 69 8 205 69 8
203 70 8 203 70 8 204 71 9 203 72 7 203 72 7 203 72 5 204 74 6
204 74 6 205 73 6 205 73 6 204 72 5 204 71 7 203 69 10 203 69 12
202 68 11 202 68 11 203 67 11 203 67 11 203 67 9 203 67 9 203 67 9
205 68 10 208 72 11 210 75 11 208 75 10 208 75 10 209 74 10 209 74 10
208 75 8 206 76 8 206 76 8 206 76 8 207 74 9 207 74 9 208 72 11
208 72 11 207 71 10 209 70 10 210 70 10 210 70 10 209 70 10 205 72 8
216 90 21 212 92 21 211 91 18 211 92 16 211 92 16 211 92 16 211 92 16
211 92 16 211 92 16 207 94 14 226 123 39 223 125 37 224 124 37
226 124 37 224 125 35 224 125 35 224 125 35 224 125 35 224 124 37
223 123 36 218 119 32 218 119 32 221 119 35 221 119 35 220 119 35
218 118 34 218 118 34 219 116 32 220 115 32 222 115 32 208 98 19
212 96 21 215 95 21 218 93 21 221 93 23 222 93 23 222 93 23 222 93 23
221 91 23 222 92 25 206 76 8 207 77 9 205 75 7 205 75 7 205 75 7
205 75 7 207 74 9 207 74 9 207 74 9 207 74 9 204 65 7 204 65 7
204 65 7 204 65 7 204 65 7 204 65 7 204 65 7 204 65 7 205 64 7
205 64 7 204 65 7 204 65 7 205 66 9 205 66 9 205 66 9 205 66 9
205 68 12 205 68 12 205 68 12 205 68 12 206 69 13 206 69 13 206 70 11
206 70 11 207 71 12 207 71 12 207 71 10 207 71 10 206 70 11 206 70 11
206 70 11 206 70 11 205 68 10 205 68 10 205 68 10 205 68 10 205 68 12
205 68 12 205 68 12 205 68 10 212 76 13 212 77 11 212 77 11 212 77 11
211 79 12 211 79 12 211 79 12 210 77 11 207 77 9 208 78 11 211 81 13
213 83 15 213 85 16 211 86 16 209 87 14 209 87 14 211 86 12 211 86 14
213 85 14 214 84 16 203 70 6 205 69 6 206 68 8 206 68 10 206 68 10
206 68 10 205 68 10 205 68 10 205 68 10 205 68 10 204 71 9 204 71 9
204 71 7 204 71 7 205 72 8 205 72 8 205 72 8 205 72 8 204 71 7
204 71 9 205 68 10 205 68 10 203 67 9 203 67 9 203 67 11 203 67 11
203 67 9 203 67 9 203 67 9 205 68 10 208 72 11 210 75 11 208 74 12
208 74 12 209 74 10 209 74 10 208 75 10 206 76 10 208 75 10 208 75 10
207 74 9 207 74 9 207 74 9 207 74 9 207 72 8 209 71 8 210 70 10
210 70 10 209 71 8 205 72 8 216 90 21 212 92 21 213 90 18 213 90 18
213 90 18 213 90 18 213 90 18 213 90 18 213 91 16 208 93 16
226 123 39 223 125 39 224 124 37 224 124 37 224 125 35 224 125 35
224 125 35 224 125 35 224 125 35 223 124 34 218 119 30 218 119 32
221 119 33 221 119 33 220 120 33 220 120 33 218 119 32 220 118 32
222 117 32 223 116 34 208 98 19 212 97 19 213 96 19 216 94 19
220 92 21 220 92 21 220 92 21 220 92 21 220 90 22 221 91 23 205 75 7
206 76 8 206 76 10 206 76 10 206 76 10 206 76 10 208 75 10 208 75 10
208 75 10 208 75 10 204 65 7 204 65 7 204 65 7 204 65 7 204 65 7
204 65 7 204 65 7 204 65 7 205 64 7 205 64 7 204 65 7 204 65 7
205 66 9 205 66 9 205 66 9 205 66 9 205 68 12 205 68 12 205 68 12
205 68 12 206 69 13 206 69 13 206 70 11 206 70 11 207 71 12 207 71 12
207 71 10 207 71 10 206 70 9 206 70 11 206 70 11 206 70 11 205 68 10
205 68 10 205 68 10 205 68 10 205 68 12 205 68 12 205 68 12 205 68 10
212 76 13 212 77 11 212 77 11 212 77 11 211 79 12 211 79 12 211 79 12
210 77 11 207 77 9 208 78 11 211 81 13 213 83 15 213 85 16 211 86 16
211 86 14 211 86 14 211 86 12 213 86 12 214 84 14 216 83 16 205 69 6
205 69 8 206 68 10 206 68 10 206 68 10 205 68 10 205 68 10 205 68 10
205 68 10 205 68 10 204 71 9 204 71 9 204 71 7 204 71 7 205 72 8
205 72 8 205 72 10 205 72 10 204 71 9 204 71 9 205 68 10 205 68 10
203 67 9 203 67 9 203 67 11 203 67 11 203 67 9 203 67 9 203 67 9
205 68 10 208 72 11 210 75 11 208 74 12 208 74 12 209 74 10 209 74 10
208 75 10 206 76 10 208 75 10 208 75 10 207 74 9 207 74 9 207 74 9
207 74 9 207 72 8 209 71 8 210 70 10 210 70 10 209 71 8 205 72 8
216 90 21 212 92 21 213 90 18 213 90 18 213 90 18 213 90 18 213 90 18
213 90 18 213 91 16 210 92 16 227 122 39 223 125 39 224 124 37
224 124 37 224 125 35 224 125 35 224 125 35 224 125 35 224 125 35
223 124 34 218 119 30 218 119 30 221 119 33 221 119 33 220 120 33
220 120 33 218 119 32 220 118 32 222 117 32 223 116 34 207 97 18
210 96 18 212 95 18 215 93 18 218 93 19 220 92 21 220 92 21 220 92 21
220 90 22 221 91 23 205 75 7 206 76 8 206 76 10 206 76 10 206 76 10
206 76 10 208 75 10 208 75 10 208 75 10 208 75 10 204 65 7 204 65 7
204 65 7 204 65 7 204 65 7 204 65 7 204 65 7 204 65 7 205 64 7
204 65 7 202 66 7 202 66 7 205 67 6 205 67 6 203 67 9 203 67 9
205 68 10 205 68 10 205 68 12 205 68 12 206 69 13 206 69 13 206 70 11
206 70 9 207 71 10 207 71 10 207 71 10 207 72 8 206 70 7 206 70 9
206 70 9 206 70 9 205 69 8 205 69 8 205 68 10 205 68 10 205 68 10
205 68 10 205 68 12 205 68 10 212 76 13 212 77 11 212 77 11 212 77 11
211 79 12 211 79 12 211 79 12 210 77 11 207 77 9 208 78 11 211 81 13
213 83 15 213 85 16 211 86 16 211 86 14 211 86 14 213 86 12 213 86 12
214 84 14 216 83 16 205 69 6 205 69 8 206 68 10 206 68 10 205 69 8
203 70 8 203 70 8 203 70 8 203 70 8 203 70 8 204 71 9 204 71 9
206 70 7 206 70 7 207 72 8 207 72 8 207 71 10 207 71 10 206 70 9
206 70 9 205 68 10 205 68 10 203 67 9 203 67 9 203 67 11 203 67 11
203 67 9 203 67 9 203 67 9 205 68 10 208 72 11 210 75 13 209 73 12
209 73 12 209 73 12 209 73 12 208 75 10 208 75 10 208 75 10 208 75 10
207 74 9 207 74 9 207 74 9 207 74 9 207 72 8 209 71 8 210 70 8
210 70 8 209 71 8 205 73 6 216 90 21 212 92 21 213 90 20 215 89 20
215 89 20 215 89 20 215 90 18 215 90 18 215 90 16 210 92 16
227 122 39 223 125 39 223 125 37 223 125 37 224 125 35 224 125 35
224 125 35 224 125 35 224 125 35 223 124 34 218 119 30 218 119 30
220 120 33 220 120 33 220 120 33 220 120 33 218 119 32 220 118 32
222 117 32 223 116 34 207 97 18 210 96 18 212 95 18 215 93 18
218 93 19 218 93 19 220 93 19 220 92 21 220 90 22 221 91 23 205 75 7
206 76 8 206 76 10 206 76 10 206 76 10 206 76 10 208 75 10 208 75 10
208 75 10 208 75 10 204 65 7 204 65 7 204 65 7 204 65 7 204 65 7
204 65 7 204 65 7 204 65 7 205 64 7 204 65 7 202 66 7 201 67 5
202 69 4 202 69 4 203 68 6 203 68 6 205 69 8 205 68 10 205 68 10
205 68 12 206 69 13 206 70 11 206 70 9 206 70 9 207 71 10 207 72 8
207 72 8 207 72 8 206 70 7 207 70 7 207 70 7 207 70 7 205 69 6
205 69 8 205 69 8 205 69 8 205 69 8 205 69 8 205 68 10 205 69 8
210 77 13 210 77 11 210 77 11 210 77 11 210 79 12 210 79 12 210 79 12
208 78 11 207 77 9 207 79 11 209 81 13 211 84 15 211 86 16 211 86 16
211 86 14 211 86 14 213 86 12 213 86 12 214 84 14 214 84 14 203 70 4
205 69 6 205 69 8 205 69 8 203 70 8 203 70 8 203 70 8 203 70 8
203 70 8 203 70 8 203 70 8 204 71 9 206 70 7 206 70 7 207 72 8
207 72 8 207 71 10 207 71 10 206 70 9 206 70 9 205 68 10 205 68 10
203 67 9 203 67 9 203 67 11 203 67 11 203 67 9 203 67 9 203 67 9
205 68 10 208 72 11 210 75 13 209 73 12 209 73 12 209 73 12 209 73 12
208 75 10 208 75 10 208 75 10 208 75 10 207 74 9 207 74 9 207 74 9
207 74 9 207 72 8 207 72 8 209 71 8 209 71 8 207 72 6 205 73 6
216 90 21 216 90 21 215 89 20 215 89 20 215 89 20 215 89 20 215 90 18
215 90 18 215 90 16 211 92 16 227 122 39 223 125 39 223 125 37
223 125 37 224 125 35 224 125 35 224 125 35 224 125 35 224 125 35
223 124 34 218 119 30 218 119 32 220 120 33 220 120 33 220 120 33
220 120 33 220 118 32 222 117 32 223 116 32 225 115 34 209 97 16
210 96 18 212 95 18 214 94 16 215 95 17 216 95 17 216 94 19 216 94 19
216 91 19 220 92 23 206 76 8 207 77 9 206 76 10 206 76 10 206 76 10
206 76 10 208 75 10 208 75 10 208 75 10 208 75 10 204 65 7 204 65 7
204 65 7 204 65 7 204 65 7 204 65 7 204 65 7 204 65 7 207 66 9
203 62 5 210 77 15 204 73 10 198 73 6 200 72 4 201 71 4 203 70 4
206 70 7 206 70 9 206 70 9 206 70 11 206 70 11 206 70 9 204 71 9
204 71 7 205 72 8 205 73 6 205 73 6 207 72 6 203 65 0 211 71 7
205 63 0 211 71 7 207 70 5 206 70 7 206 70 7 206 70 7 206 70 7
206 70 7 206 70 7 204 71 7 207 77 9 206 78 9 206 78 9 206 78 9
207 79 9 207 79 9 207 79 9 206 78 7 204 79 7 206 81 10 209 84 12
210 85 13 210 85 13 210 85 13 208 86 13 210 85 13 211 84 13 211 84 13
213 83 13 213 83 13 203 72 5 204 72 5 204 71 7 204 71 7 203 72 7
203 72 7 203 72 7 201 71 6 201 67 5 201 67 5 203 70 6 203 70 6
204 71 9 205 72 10 205 72 8 205 72 8 207 71 10 207 71 10 206 70 9
206 70 9 205 68 10 205 68 10 203 67 9 203 67 9 203 67 9 203 67 9
203 67 9 203 68 6 203 68 6 205 69 8 208 72 11 210 75 11 209 74 10
209 74 10 209 74 10 209 74 10 208 75 10 208 75 10 208 75 10 208 75 10
207 74 9 207 74 9 207 74 9 207 74 9 205 72 8 205 72 8 207 72 8
207 72 8 205 72 8 205 72 8 220 90 24 221 91 25 220 91 25 220 91 25
220 91 25 220 92 23 220 92 21 220 92 21 220 93 19 215 95 19
228 121 38 223 123 38 223 123 36 223 123 36 223 123 36 223 123 36
223 123 36 223 123 36 223 123 36 222 122 35 217 118 30 217 118 30
220 117 34 220 117 34 218 118 34 220 117 34 222 115 32 225 113 32
225 113 32 225 113 32 211 99 19 213 98 19 213 98 19 213 99 17
214 100 18 214 99 20 211 101 20 211 101 22 209 96 20 216 95 25
204 77 8 208 78 13 207 74 9 207 74 9 207 74 9 207 74 9 208 75 10
208 75 10 208 75 10 208 75 10 204 65 7 204 65 7 204 65 7 204 65 7
204 65 7 204 65 7 204 65 7 205 64 7 201 58 2 197 56 0 208 74 12
202 74 8 197 74 4 197 74 4 201 72 2 203 71 2 203 72 5 203 72 7
204 73 8 204 73 8 204 73 8 204 73 8 205 74 9 203 76 7 203 78 8
203 78 6 204 77 6 206 76 6 202 70 0 211 74 6 202 63 0 207 67 0
207 70 5 206 71 5 206 71 5 206 71 5 206 71 5 206 71 5 206 71 5
204 72 5 206 78 9 204 79 9 204 79 9 204 79 9 205 80 9 205 80 9
205 80 9 204 79 7 202 80 7 205 82 10 207 85 12 208 86 13 210 85 13
210 85 13 208 86 13 208 86 13 210 85 13 211 84 13 211 84 13 213 83 13
200 70 2 200 70 2 200 70 2 200 70 2 200 70 4 200 70 4 200 70 4
201 71 6 205 72 10 205 72 10 203 70 6 203 70 6 203 70 8 204 71 9
204 71 7 204 71 7 206 70 9 206 70 9 205 69 8 205 69 8 203 67 9
203 67 9 202 66 7 202 66 7 202 66 7 202 66 7 202 66 5 202 66 5
202 66 5 203 68 6 207 72 8 209 74 10 209 74 10 209 74 10 209 74 10
209 74 10 208 75 10 208 75 10 208 75 10 208 75 10 207 74 9 207 74 9
207 74 9 207 74 9 205 72 8 205 72 8 205 72 8 205 72 8 205 72 8
205 72 8 219 86 22 218 85 21 217 86 21 215 87 21 215 87 21 215 87 21
215 87 19 215 88 17 215 88 15 212 90 15 229 122 39 226 123 39
226 124 37 226 124 37 226 124 37 226 124 37 226 124 37 226 124 37
226 124 37 225 123 36 220 118 32 220 118 32 221 119 35 221 119 35
221 119 35 223 118 35 225 115 34 226 114 34 226 114 34 226 114 34
209 95 15 209 95 15 209 95 13 209 95 13 209 97 14 207 98 14 204 99 16
204 99 16 210 103 23 215 99 27 203 77 10 206 76 10 207 74 9 207 74 9
207 74 9 207 74 9 208 75 10 208 75 10 208 75 10 208 75 10 204 65 7
204 65 7 204 65 7 204 65 7 204 65 7 204 65 7 204 65 7 205 64 7
209 66 10 209 68 11 223 89 27 218 92 25 214 91 21 214 92 19 217 90 19
217 90 17 217 92 20 215 93 20 216 93 23 218 95 25 219 96 26 220 97 27
219 99 28 218 100 26 217 102 27 217 103 25 219 102 25 221 101 25
219 96 24 224 97 26 211 81 11 215 82 13 212 77 9 212 77 9 212 77 9
212 77 9 212 77 11 212 77 11 210 77 11 208 78 11 211 84 15 210 85 15
210 85 15 210 85 15 211 86 14 211 86 14 211 86 14 210 85 13 208 86 13
211 88 16 213 90 18 214 92 19 214 92 19 214 92 19 214 92 19 214 92 19
216 91 19 216 91 19 216 91 19 216 89 18 216 88 20 215 87 19 215 87 19
215 87 19 215 87 19 215 87 19 215 87 19 217 86 21 215 85 20 211 80 15
204 73 8 199 69 3 203 70 8 203 70 8 203 70 6 203 70 6 205 69 8
205 69 8 203 68 6 203 68 6 202 66 7 202 66 7 201 65 6 201 65 6
201 65 6 201 65 6 201 65 4 201 65 4 201 65 4 202 66 5 206 70 7
208 73 9 209 74 10 209 74 10 209 74 10 209 74 10 208 75 10 208 75 10
208 75 10 208 75 10 207 74 9 207 74 9 207 74 9 207 74 9 205 72 8
205 72 8 205 72 8 205 72 8 208 75 10 204 71 7 215 82 17 211 78 14
210 79 14 210 79 14 210 79 14 210 79 14 210 79 12 210 80 10 210 80 8
205 83 8 214 105 23 211 106 23 211 107 21 211 107 21 211 107 21
211 107 21 211 107 21 211 107 21 211 107 21 210 105 20 205 101 15
205 101 15 206 102 19 206 102 19 206 102 19 208 101 19 208 99 17
210 98 17 210 98 17 210 98 17 222 108 28 222 108 28 222 108 26
222 108 26 222 110 25 220 111 27 217 112 27 217 112 29 215 107 28
216 101 28 201 75 8 201 71 6 207 74 9 207 74 9 207 74 9 207 74 9
208 75 10 208 75 10 208 75 10 208 75 10 203 64 6 203 64 6 203 64 6
203 64 6 203 64 6 203 64 6 203 64 6 204 63 6 204 58 3 204 63 6
220 87 25 218 92 25 214 91 21 214 92 19 217 90 17 217 90 17 214 94 18
210 96 18 210 96 18 210 95 20 220 104 30 220 104 30 220 104 30
218 106 28 218 108 29 218 108 29 218 108 29 219 107 29 219 101 27
222 102 28 205 82 10 208 81 10 211 79 10 213 78 10 213 78 10
213 78 10 213 78 12 213 78 12 211 79 12 210 79 12 214 86 18 212 87 18
212 87 18 212 87 18 213 88 17 213 88 17 213 88 17 212 87 16 211 88 16
213 90 18 215 93 20 216 94 21 216 94 21 216 94 21 216 94 21 216 94 21
216 94 21 218 93 21 218 93 21 218 93 21 212 87 18 212 87 18 212 87 18
212 87 18 214 86 18 214 86 18 214 86 18 214 86 18 224 93 28 215 85 20
204 73 8 199 69 3 202 68 6 202 68 6 202 69 4 202 68 6 203 68 6
203 68 6 202 66 5 202 66 5 201 65 6 201 65 6 200 64 5 200 64 5
200 64 5 200 64 5 200 64 3 200 64 3 200 64 3 201 65 4 205 69 6
207 72 8 209 74 10 209 74 10 209 74 10 209 74 10 208 75 10 208 75 10
208 75 10 208 75 10 207 74 9 207 74 9 207 74 9 207 74 9 205 72 8
205 72 8 205 72 8 205 72 8 208 75 10 203 70 6 211 78 14 207 74 9
205 74 9 205 74 9 205 74 9 205 74 9 205 75 7 205 75 5 205 75 5
202 77 3 218 106 28 215 108 26 215 108 26 215 108 23 215 108 23
215 108 23 215 108 23 215 108 23 215 108 23 214 107 22 209 102 18
209 102 18 210 103 21 212 102 21 212 102 21 212 102 21 211 101 20
212 100 20 214 101 21 214 101 21 216 102 22 217 103 23 219 104 22
219 104 22 218 107 21 217 108 21 213 109 23 213 109 26 217 110 30
217 102 29 201 75 8 200 70 4 207 74 9 207 74 9 207 74 9 207 74 9
207 74 9 207 74 9 207 74 9 207 74 9 203 62 7 203 62 7 203 62 7
203 62 7 203 62 7 203 62 7 203 62 7 205 61 7 204 58 3 206 63 6
220 87 25 218 92 25 215 92 22 215 93 20 218 91 18 217 93 16 213 96 17
210 98 17 211 99 19 211 99 21 212 100 22 214 101 23 213 103 24
212 104 24 211 106 25 211 106 25 213 105 25 214 104 25 216 103 27
219 103 28 203 83 10 206 81 10 210 80 10 211 79 10 211 79 10
211 79 10 211 79 12 211 79 12 211 79 12 210 79 12 213 85 16 211 86 16
211 86 16 211 86 16 212 87 16 212 87 16 212 87 16 212 87 16 212 90 15
213 91 16 215 93 18 216 94 19 216 94 19 216 94 19 216 94 21 216 94 21
216 94 21 216 94 21 216 94 21 215 93 20 215 92 22 214 91 21 214 91 21
216 90 21 215 89 20 215 89 20 215 89 20 216 88 20 220 90 24 221 91 25
203 72 7 201 71 6 203 70 8 203 70 8 203 70 8 203 70 8 205 68 10
205 68 10 203 67 9 203 67 9 202 66 7 202 66 7 201 65 6 201 65 6
201 65 6 201 65 6 201 65 4 201 65 4 201 65 4 202 66 5 206 70 7
208 73 9 209 74 10 209 74 10 209 74 10 209 74 10 208 75 8 208 75 8
208 75 8 208 75 8 207 74 9 207 74 9 207 74 9 207 74 9 205 72 8
205 72 8 205 72 8 205 72 8 207 74 9 207 74 9 208 75 10 211 78 14
211 78 14 210 77 13 210 77 13 210 77 13 210 77 11 210 77 11 210 78 9
207 79 9 221 106 29 218 108 29 218 108 27 218 108 27 218 108 25
218 108 25 218 108 25 218 108 25 218 108 27 217 107 26 212 102 21
212 102 21 212 102 21 214 101 21 214 101 21 214 101 21 214 101 21
215 101 21 216 102 22 217 103 23 219 104 24 220 105 26 221 107 25
221 107 25 219 108 23 218 109 23 215 110 25 215 110 27 216 108 29
217 102 29 202 76 9 201 71 6 207 73 11 207 73 11 207 73 11 205 72 10
207 73 11 205 72 10 205 72 10 205 72 10 202 61 6 202 61 6 202 61 6
202 61 6 202 61 6 202 61 6 202 61 6 204 60 6 204 58 3 206 63 6
220 87 25 218 92 25 215 92 22 215 93 20 218 91 18 217 93 16 213 96 17
210 98 17 211 99 19 211 99 19 212 100 20 214 101 21 213 103 22
212 104 22 211 106 25 211 106 25 213 105 25 214 104 25 216 103 27
220 102 28 203 83 10 206 81 10 210 80 10 211 79 10 211 79 10
211 79 10 211 79 12 211 79 12 211 79 12 210 79 12 213 85 16 211 86 16
211 86 16 211 86 16 212 87 16 212 87 16 212 87 16 212 87 16 212 90 15
213 91 16 215 93 18 216 94 19 216 94 19 216 94 19 216 94 21 216 94 21
215 95 21 215 95 21 215 95 21 214 93 22 215 92 22 214 91 21 214 91 21
214 91 21 215 89 20 215 89 20 215 89 20 215 89 22 218 90 24 221 91 25
201 71 6 203 72 9 203 70 8 203 70 8 203 70 8 205 68 10 205 68 10
205 68 10 203 67 9 203 67 9 202 66 7 202 66 7 201 65 6 201 65 6
201 65 6 201 65 6 201 65 4 201 65 4 201 65 4 202 66 5 206 70 7
208 73 9 209 74 10 209 74 10 209 74 10 209 74 10 209 74 8 208 75 8
208 75 8 208 75 8 207 74 9 207 74 9 207 74 9 207 74 9 205 72 8
205 72 8 205 72 8 205 72 8 207 74 9 207 74 9 208 75 10 211 78 14
211 78 14 210 77 13 210 77 13 210 77 13 210 77 11 210 77 11 210 78 9
207 79 9 223 105 29 221 106 29 221 106 27 221 106 27 221 107 25
221 107 25 221 107 25 221 107 25 221 106 27 220 105 26 215 101 21
215 101 21 215 101 21 215 101 21 215 101 21 215 101 21 215 101 21
215 101 21 216 102 22 217 103 23 219 104 24 220 105 26 221 107 25
221 107 25 219 108 23 218 108 25 215 110 27 215 110 27 215 107 28
217 102 27 203 78 8 204 73 8 207 73 11 207 73 11 207 73 11 205 72 10
205 72 10 204 71 9 204 71 9 204 71 9 202 61 6 202 61 6 202 61 6
202 61 6 202 61 6 202 61 6 202 61 6 204 60 6 204 58 3 206 63 6
220 87 25 218 92 25 215 92 22 215 93 20 218 91 18 218 92 16 215 96 15
212 97 15 213 99 17 213 99 17 215 101 19 215 101 19 216 102 22
215 103 22 214 105 23 214 105 23 216 104 23 217 103 25 219 101 27
223 101 28 206 81 10 208 81 10 210 80 10 211 79 10 211 79 10
211 79 10 211 79 12 211 79 12 210 79 12 210 79 12 213 85 16 211 86 16
211 86 16 211 86 16 212 87 16 212 87 16 212 87 16 212 87 16 212 90 15
213 91 16 215 93 18 216 94 19 218 93 19 218 93 19 218 93 21 216 94 21
215 95 21 215 95 21 215 94 23 214 93 22 212 92 23 211 90 22 213 90 22
213 90 22 213 90 22 213 90 22 215 89 22 215 89 22 217 91 26 220 91 27
201 70 8 203 72 9 203 69 10 205 68 10 205 68 10 205 68 10 206 67 12
206 67 12 206 67 12 206 67 12 204 65 9 204 65 9 203 64 8 203 64 8
203 64 8 203 64 6 203 65 4 203 65 4 203 65 2 204 66 3 207 70 7
210 72 9 211 73 10 211 73 10 211 73 10 211 73 10 209 74 8 209 74 8
209 74 8 209 74 8 208 73 9 208 73 9 208 73 9 208 73 9 207 72 8
207 72 8 207 72 8 207 72 8 208 73 9 208 73 9 209 74 10 213 77 14
211 78 14 210 77 13 210 77 13 210 77 13 210 77 11 210 77 11 210 77 11
207 79 9 224 104 29 223 106 27 223 106 27 223 106 25 223 106 25
223 106 23 223 106 23 223 106 25 223 106 25 221 105 23 217 100 19
217 100 19 217 100 19 217 100 19 217 100 19 215 101 19 215 101 19
215 101 19 216 102 20 216 102 20 220 106 23 221 107 25 221 107 25
221 107 23 219 108 23 216 109 25 215 110 27 215 110 27 215 107 28
217 102 27 201 78 8 204 73 8 207 73 11 207 73 11 207 73 11 205 72 10
205 72 10 204 71 9 204 71 9 204 71 9 202 61 6 202 61 6 202 61 6
202 61 6 202 61 6 202 61 6 202 61 6 204 60 6 204 58 3 206 63 6
220 87 25 218 92 25 215 92 22 215 93 18 218 92 16 218 92 16 216 95 15
215 96 15 214 98 17 214 98 17 217 100 19 215 101 21 216 102 22
215 103 22 216 104 23 216 104 23 216 104 23 217 103 25 221 101 25
223 101 28 208 81 10 210 80 10 210 80 10 211 79 10 211 79 10
211 79 10 211 79 12 211 79 12 210 79 12 210 79 12 213 85 16 211 86 16
211 86 16 211 86 16 212 87 16 212 87 16 212 87 16 212 87 16 212 90 15
213 91 16 215 93 18 216 94 19 218 93 19 218 93 19 218 93 21 216 94 21
215 95 21 215 95 21 215 94 23 214 93 22 212 92 23 211 90 22 213 90 22
213 90 22 213 90 22 213 90 22 215 89 22 215 89 22 218 90 26 221 90 27
203 70 8 204 71 9 205 68 10 205 68 10 205 68 10 205 68 10 206 67 12
206 67 12 206 67 12 206 67 12 204 65 9 204 65 9 203 64 8 203 64 8
203 64 8 203 64 8 203 64 8 203 64 6 203 65 4 204 66 3 207 70 7
210 72 9 211 73 10 211 73 10 211 73 10 211 73 10 209 74 8 209 74 8
209 74 8 209 74 8 208 73 9 208 73 9 208 73 9 208 73 9 207 72 8
207 72 8 207 72 8 207 72 8 208 73 9 208 73 9 209 74 10 213 77 14
211 78 14 210 77 13 210 77 13 210 77 13 210 77 11 210 77 11 210 77 11
208 79 9 226 104 29 223 106 27 223 106 25 223 106 25 223 106 23
223 106 23 223 106 23 223 106 23 223 106 25 221 105 23 217 100 19
217 100 19 217 100 19 217 100 19 217 100 19 217 100 19 215 101 19
215 101 19 216 102 20 216 102 20 220 106 23 221 107 25 221 107 25
219 108 25 218 108 25 216 109 25 215 110 27 215 110 27 217 106 28
217 102 27 201 78 8 204 73 8 207 73 11 207 73 11 207 73 11 205 72 10
205 72 10 204 71 9 204 71 9 204 71 9 202 61 6 202 61 6 202 61 6
202 61 6 202 61 6 202 61 6 202 61 6 204 60 6 204 58 3 204 63 6
219 88 25 218 92 25 215 95 21 215 95 19 218 94 17 220 93 17 218 94 17
216 95 17 215 95 17 213 96 17 217 100 21 216 102 22 215 103 22
215 103 22 216 103 25 216 103 25 216 103 25 216 103 25 217 103 25
222 102 26 208 81 8 210 80 8 210 80 10 210 80 10 210 80 10 210 80 10
210 80 10 210 80 10 210 80 10 210 80 10 211 84 13 210 85 13 208 86 13
208 86 13 209 87 14 209 87 12 209 87 12 209 87 12 211 88 14 212 90 15
214 92 17 215 93 18 216 94 19 216 94 19 216 94 19 216 94 19 215 95 21
215 95 21 216 94 21 214 91 21 214 91 21 213 90 20 211 91 20 211 91 20
211 91 20 213 90 20 215 89 20 216 88 22 220 90 24 224 89 25 206 68 6
207 69 9 207 69 9 207 69 9 207 69 11 207 69 11 207 68 13 207 68 13
207 65 13 207 65 13 205 66 11 205 66 11 205 64 11 205 64 11 205 64 11
205 64 11 205 63 13 205 64 11 204 66 5 205 67 4 207 72 6 209 74 8
209 74 8 209 74 8 209 74 8 209 74 8 209 74 8 209 74 8 209 74 8
209 74 8 208 73 7 208 73 7 208 73 7 208 73 7 207 72 8 207 72 8
207 72 8 207 72 8 208 72 11 208 72 11 210 75 13 213 77 16 211 78 14
210 77 13 210 77 13 210 77 13 210 77 13 210 77 13 210 77 11 208 79 9
226 104 27 223 106 25 223 106 25 223 106 25 223 106 23 223 106 23
223 106 23 223 106 23 223 106 25 221 105 23 217 100 19 217 100 19
217 100 19 217 100 19 217 100 19 217 100 19 215 101 19 215 101 19
215 101 19 216 102 20 221 107 25 221 107 25 221 109 26 219 109 28
219 109 28 219 109 28 217 110 28 217 110 28 219 107 29 220 102 28
204 79 9 205 74 9 207 74 9 207 74 9 207 73 11 207 73 11 205 72 10
205 72 10 205 72 10 205 72 10 202 61 6 202 61 6 202 61 6 202 61 6
202 61 6 202 61 6 202 61 6 204 60 6 204 58 3 204 63 6 219 88 25
216 93 23 215 95 21 215 95 19 218 94 17 220 93 17 218 93 19 218 93 19
216 94 19 215 95 19 217 99 23 216 101 24 215 103 22 215 103 22
217 103 25 217 103 25 216 103 25 216 103 25 217 103 25 222 102 26
208 81 8 210 80 8 210 80 10 210 80 10 210 80 10 210 80 10 210 80 10
210 80 10 210 80 10 208 81 10 210 85 13 210 85 13 208 86 13 208 86 13
209 87 12 209 87 12 209 87 12 209 87 12 211 88 14 212 90 15 214 92 17
215 93 18 216 94 19 216 94 19 216 94 19 215 95 19 215 95 19 215 95 21
215 95 21 214 92 19 214 92 19 211 91 20 211 91 20 211 91 20 211 91 20
213 90 20 215 89 20 216 88 20 222 89 22 226 88 25 206 68 6 207 70 7
207 70 7 206 70 9 206 70 9 206 70 11 206 70 11 207 68 13 205 66 11
205 66 11 205 66 11 205 66 11 204 65 9 205 64 11 205 64 11 205 64 11
205 63 13 204 65 11 204 66 5 203 68 4 207 72 6 209 74 8 209 74 8
209 74 8 209 74 8 209 74 8 209 74 8 209 74 8 209 74 8 209 74 8
208 73 7 208 73 7 208 73 7 208 73 7 207 72 8 207 72 8 207 72 8
207 72 8 208 72 11 208 72 11 210 75 13 211 78 16 211 78 14 210 77 13
210 77 13 210 77 13 210 77 13 210 77 13 210 77 11 207 79 9 224 105 27
223 106 25 223 106 25 223 106 25 223 106 25 223 106 25 223 106 25
223 106 25 223 106 25 221 104 26 217 100 21 217 100 21 217 100 21
217 100 19 217 100 19 215 101 19 215 101 19 215 101 19 215 101 19
216 102 20 221 107 25 219 108 25 219 109 28 219 109 28 219 109 28
219 109 28 219 109 28 221 108 28 223 105 29 223 101 28 206 78 9
205 75 7 207 74 9 207 74 9 207 73 11 207 73 11 205 72 10 205 72 10
205 72 10 205 72 10 203 62 7 203 62 7 203 62 7 203 62 7 203 62 7
203 62 7 203 62 7 205 61 7 205 59 4 204 63 6 219 88 25 216 93 23
215 95 21 215 95 19 218 94 17 220 93 17 218 93 19 218 93 19 216 94 19
215 95 19 218 101 24 216 101 24 215 102 24 215 102 24 217 103 25
217 103 25 216 103 25 216 103 25 217 103 25 222 102 26 208 81 8
210 80 8 210 80 10 210 80 10 210 80 10 210 80 10 210 80 10 210 80 10
208 81 10 208 81 10 210 85 13 210 85 13 208 86 13 208 86 13 208 88 12
208 88 12 208 88 12 208 88 12 210 90 15 210 90 15 212 93 17 214 94 18
215 95 19 215 95 19 215 95 17 213 96 17 213 96 17 213 96 19 213 96 19
212 93 17 211 92 16 209 91 17 209 91 17 209 91 17 211 91 18 213 90 18
215 90 18 218 88 18 223 89 20 226 89 23 206 69 4 207 70 5 206 71 5
204 71 7 204 71 7 204 71 7 204 71 9 206 70 11 205 68 10 205 68 10
203 67 9 203 67 9 202 66 7 204 65 9 204 65 9 204 65 9 204 65 9
202 66 7 202 66 5 202 69 4 205 73 6 208 75 8 208 75 8 208 75 8
208 75 8 208 75 8 208 75 8 208 75 8 208 75 8 208 75 8 207 74 7
207 74 7 207 74 7 207 74 7 205 72 8 205 72 8 205 72 8 205 72 8
207 73 11 207 73 11 209 75 13 211 78 16 211 78 14 210 77 13 210 77 13
210 77 13 210 77 13 210 77 13 210 77 11 207 79 9 223 105 29
221 106 27 221 106 27 221 106 27 221 106 27 221 106 27 221 106 27
221 106 27 221 106 27 220 105 28 215 100 23 215 100 23 215 100 23
215 101 21 215 101 21 214 101 21 214 101 21 214 101 21 214 102 19
214 102 19 221 108 28 219 109 28 219 109 28 219 109 28 219 109 30
219 109 30 221 108 28 222 107 30 224 104 31 225 100 30 207 77 9
207 74 7 207 74 9 207 74 9 207 74 9 207 74 9 205 72 10 205 72 10
205 72 10 205 72 10 203 62 7 203 62 7 203 62 7 203 62 7 203 62 7
203 62 7 203 62 7 205 61 7 205 59 4 204 63 6 218 87 24 216 90 21
214 94 20 214 94 18 217 93 16 218 92 16 218 93 19 218 93 19 216 94 19
215 95 19 218 101 24 216 101 24 215 102 24 215 102 24 217 103 25
217 103 25 216 103 25 216 103 25 216 101 24 222 102 26 208 81 8
210 80 8 210 80 10 210 80 10 210 80 10 210 80 10 210 80 10 210 80 10
208 81 10 208 81 10 210 85 13 210 85 13 208 86 13 208 86 13 208 88 12
208 88 12 208 88 12 208 88 12 211 92 16 209 91 15 211 94 17 212 95 18
213 96 19 212 97 17 212 97 17 212 97 17 212 97 17 212 97 17 212 97 17
209 95 15 208 94 14 207 92 13 207 92 13 207 92 13 207 94 14 207 94 14
208 94 14 211 92 16 217 92 18 220 93 19 201 72 0 203 73 3 203 73 3
203 73 3 201 74 3 203 72 5 203 72 7 203 72 7 201 71 6 203 70 8
202 68 6 202 68 6 201 67 5 202 66 7 202 66 7 202 66 7 202 66 5
201 67 5 201 68 3 200 70 4 204 74 6 204 77 8 204 77 8 204 77 8
204 77 8 204 77 8 204 77 8 206 76 8 206 76 8 206 76 8 205 75 7
205 75 7 205 75 7 205 75 7 204 73 8 204 73 8 204 73 8 204 73 8
205 74 11 205 74 11 206 75 12 208 77 15 210 77 13 209 76 11 209 76 11
209 76 11 210 77 13 210 77 13 210 77 11 207 77 7 226 103 31
223 105 29 223 105 29 223 105 29 223 105 29 224 104 29 224 104 29
224 104 29 224 104 31 223 103 30 218 98 25 218 98 25 218 98 25
218 98 25 218 99 23 217 99 23 217 99 23 217 99 23 217 100 21
217 100 21 224 107 28 222 107 30 222 107 30 222 107 30 221 108 30
222 107 30 224 106 30 225 106 30 227 102 31 228 98 30 209 76 9
207 74 7 207 74 9 207 74 9 207 74 9 207 74 9 205 72 10 205 72 10
205 72 10 205 72 10 206 62 10 206 62 10 206 62 10 206 62 10 205 61 9
205 61 9 205 61 9 205 61 7 206 61 5 205 64 7 219 86 24 215 89 20
215 93 20 215 93 18 216 92 15 217 91 15 216 91 17 216 91 17 213 91 16
211 92 16 217 99 23 215 100 23 214 101 23 214 101 23 216 101 24
216 101 24 215 102 24 215 102 24 216 101 24 222 102 26 211 85 11
214 85 12 211 84 13 211 84 13 211 84 13 211 84 13 211 84 13 211 84 13
211 84 13 211 84 13 216 91 19 216 91 19 214 92 19 212 92 19 214 94 18
214 94 18 212 95 18 212 95 18 211 94 15 208 94 14 227 112 32
223 109 29 224 110 30 223 111 28 223 111 28 223 111 28 223 111 28
223 111 28 223 111 28 223 111 28 234 123 40 234 123 40 234 123 40
231 124 40 226 129 41 223 130 41 224 130 41 228 128 41 230 125 42
234 124 43 216 104 23 219 104 24 220 98 23 222 97 23 222 97 23
222 97 23 223 96 25 223 95 27 223 95 27 223 95 27 212 81 16 212 81 16
212 81 16 212 81 16 213 80 18 213 80 18 212 81 16 213 83 17 213 84 18
215 87 19 217 92 22 219 94 25 219 94 25 219 94 25 219 94 25 219 94 25
219 94 23 221 93 23 221 93 23 218 91 20 217 90 21 216 88 20 216 88 20
216 88 20 215 87 21 215 87 21 215 87 21 215 87 21 216 88 24 218 90 26
204 76 12 208 77 15 208 78 13 207 77 11 207 77 11 209 76 11 209 76 11
210 75 11 210 75 11 209 76 9 205 75 7 204 74 4 204 74 4 204 74 4
204 74 4 205 73 4 205 73 4 205 73 6 208 75 8 209 76 9 208 75 8
210 77 11 210 77 11 210 77 11 210 77 11 208 79 9 208 79 9 208 79 9
210 80 10 210 80 8 211 81 9 209 82 11 209 84 12 207 85 12 206 85 12
206 85 12 207 85 12 210 85 13 213 83 15 212 80 13 209 74 8 207 72 6
207 72 8 208 73 9 207 74 9 207 74 9 207 73 11 207 73 11 207 73 11
207 73 11 206 62 10 206 62 10 206 62 10 206 62 10 205 61 9 205 61 9
205 61 9 205 61 9 206 60 7 205 64 7 218 85 23 213 88 21 214 91 21
214 92 17 216 92 15 217 91 15 215 90 16 215 90 16 213 91 16 211 92 16
217 99 23 215 100 23 214 101 23 214 101 23 216 101 24 216 101 24
215 102 24 215 102 24 215 100 23 222 102 26 211 85 11 214 85 12
211 84 13 211 84 13 211 84 13 211 84 13 211 84 13 211 84 13 211 84 13
211 84 13 216 91 19 216 91 19 214 92 19 212 92 19 214 94 18 214 94 18
214 94 18 212 95 18 210 96 16 207 94 14 225 113 32 222 110 29
223 111 28 221 112 28 221 112 28 220 113 28 220 113 26 220 113 26
220 113 26 220 113 26 231 125 38 231 125 38 231 125 38 228 126 38
221 132 39 218 133 39 220 132 39 221 132 39 223 129 38 228 128 41
211 107 21 215 106 22 217 100 19 218 99 21 218 99 21 218 99 21
220 98 23 220 97 25 220 97 25 220 97 25 209 84 12 209 83 14 209 83 14
209 83 14 210 82 16 210 82 16 209 83 14 210 85 15 211 86 16 212 89 19
215 92 22 216 95 25 216 95 25 218 95 25 218 95 25 218 95 23 218 95 23
219 94 23 219 94 23 217 92 20 216 90 21 215 89 20 215 89 20 215 89 20
213 88 21 213 88 21 213 88 21 213 88 21 216 88 24 218 90 26 203 75 11
206 77 13 207 77 11 206 76 10 206 76 10 206 76 10 209 76 11 210 75 11
210 75 11 209 74 10 208 73 7 207 72 6 207 72 6 207 72 6 207 72 6
207 72 8 207 72 8 207 72 8 209 74 10 210 75 11 209 74 10 212 76 13
212 76 13 212 76 13 212 76 13 212 77 11 212 77 11 210 77 11 211 79 12
211 79 10 212 80 11 212 80 11 212 82 12 210 83 12 209 84 12 209 84 12
209 84 12 211 84 13 215 82 15 214 79 13 211 73 8 209 71 6 207 72 8
208 73 9 207 74 9 207 74 9 207 73 11 207 73 11 207 73 11 207 73 11
207 62 13 207 62 13 207 62 13 207 62 13 206 61 12 206 61 12 206 62 10
206 62 10 208 61 8 205 64 7 218 85 23 213 88 21 214 91 21 214 92 17
216 92 15 217 91 15 215 90 16 215 90 16 213 91 16 211 92 16 217 99 23
215 100 23 214 101 23 214 101 23 216 101 24 216 101 24 215 102 24
215 102 24 215 100 23 222 102 26 211 85 11 214 85 12 211 84 13
211 84 13 211 84 13 211 84 13 211 84 13 211 84 13 210 85 13 210 85 13
216 91 19 216 91 19 214 92 19 214 92 19 215 93 18 215 93 18 215 93 18
212 95 18 210 98 17 205 95 14 224 114 32 220 110 29 221 112 28
220 113 28 220 113 26 218 114 26 218 114 26 218 114 24 216 115 24
216 115 24 230 126 36 228 127 36 228 127 36 225 128 36 223 131 37
220 133 37 221 132 37 223 131 37 225 128 36 229 128 39 211 107 19
215 106 20 214 102 17 215 101 19 217 100 19 217 100 19 217 100 21
217 99 23 218 99 23 218 99 23 206 85 12 206 85 12 207 85 12 207 84 14
207 84 14 207 84 14 207 85 12 208 86 13 208 88 14 210 90 17 212 94 20
214 97 23 214 97 23 216 96 23 216 96 23 216 96 23 216 96 23 218 95 23
218 95 23 215 93 20 214 91 21 213 90 20 213 90 20 213 90 20 212 89 19
212 89 19 213 88 19 213 88 21 215 89 22 217 91 24 204 76 10 206 78 11
206 78 11 204 76 10 206 76 10 206 76 10 207 77 11 209 76 11 209 76 11
208 75 10 207 74 9 207 74 9 207 74 9 207 74 9 205 72 8 205 72 10
205 72 10 205 72 10 208 74 12 209 75 13 208 74 12 210 77 15 210 77 15
210 77 15 210 77 13 210 77 13 208 78 13 208 78 13 210 79 12 210 79 12
211 81 13 209 81 13 210 83 14 209 83 14 209 84 12 209 84 12 210 83 12
213 83 13 216 81 15 216 78 13 211 73 8 209 71 6 209 71 6 208 73 7
207 74 7 207 74 9 207 74 9 207 74 9 207 74 9 207 74 9 207 62 13
207 62 13 207 62 13 207 62 13 206 61 12 204 62 12 204 63 10 204 63 8
206 63 6 204 65 7 217 86 23 215 87 21 216 90 21 216 91 19 217 90 17
217 90 17 215 90 16 213 91 16 211 92 16 211 92 16 217 99 23
215 100 23 214 101 23 214 101 23 216 101 24 216 101 24 215 102 24
215 102 24 215 100 23 222 102 26 210 85 11 213 86 12 211 84 13
211 84 13 211 84 13 211 84 13 211 84 13 211 84 13 210 85 13 210 85 13
216 91 19 216 91 19 214 92 19 214 92 19 215 93 18 215 93 18 215 93 18
212 95 18 210 98 17 203 96 14 222 115 32 219 111 29 220 113 28
220 113 28 220 113 26 218 114 26 216 115 24 216 115 24 215 116 24
213 117 24 225 128 36 225 128 36 223 129 36 222 130 36 221 132 37
220 133 37 220 133 37 223 131 37 225 128 36 228 129 37 211 107 17
214 108 18 212 103 17 214 102 17 214 102 17 214 102 17 214 102 19
214 101 21 215 101 21 217 100 21 206 85 12 207 85 12 207 85 12
209 84 12 209 83 14 209 83 14 209 84 12 208 86 13 208 88 12 209 91 15
212 95 18 214 97 21 214 97 21 214 97 21 214 97 21 214 97 21 216 96 23
216 96 23 216 96 23 214 94 20 214 91 21 213 90 20 213 90 20 213 90 20
212 89 19 212 89 19 213 88 19 213 88 19 215 89 22 215 89 22 204 76 10
206 78 11 206 78 11 204 76 10 206 76 10 206 76 10 207 77 11 207 77 11
209 76 11 208 75 10 205 74 9 205 74 9 205 74 9 205 74 9 204 73 10
204 73 10 204 73 10 204 73 10 206 75 12 207 76 13 206 75 12 208 77 15
208 77 15 208 77 15 208 78 13 208 78 13 207 79 13 207 79 13 208 80 12
208 80 12 209 81 13 209 81 13 209 83 14 209 83 14 209 84 12 209 84 12
210 83 12 213 83 13 216 81 15 214 79 13 209 74 8 207 72 6 207 72 6
208 73 7 207 74 7 207 74 7 207 74 9 207 74 9 207 74 9 207 74 9
205 64 11 205 64 11 205 64 11 205 64 11 205 64 11 204 65 11 204 65 11
204 65 9 202 66 7 202 68 9 218 87 24 216 88 22 216 90 21 216 90 21
217 90 21 217 90 21 216 91 17 214 92 15 212 93 15 212 93 15 218 99 21
217 100 21 217 100 21 217 100 21 218 101 22 218 101 22 218 101 22
218 101 22 218 99 23 223 101 26 208 86 11 211 86 12 210 85 11
210 85 11 210 85 11 210 85 11 211 84 13 211 84 13 210 85 13 210 85 13
216 91 19 216 91 19 214 92 19 212 92 19 214 94 18 214 94 18 214 94 18
212 95 18 210 98 17 205 95 14 224 114 32 220 110 29 221 112 28
221 112 28 220 113 26 218 114 26 216 115 26 215 116 26 213 116 26
212 117 26 220 130 38 219 131 38 217 132 38 215 133 38 217 134 39
217 134 39 218 133 39 221 132 39 223 129 38 226 129 39 209 108 19
212 108 20 210 104 17 212 103 17 212 103 17 212 103 17 212 103 17
212 103 19 212 103 19 215 101 21 209 84 12 212 82 14 212 82 14
213 81 14 213 81 14 213 81 14 213 81 16 211 84 15 209 87 12 210 91 13
214 94 16 216 97 19 216 96 21 216 96 21 216 96 21 216 96 21 216 96 21
216 96 21 216 96 21 214 94 20 214 92 19 213 90 18 213 90 18 213 90 18
213 90 20 213 90 20 213 90 20 215 89 20 215 89 20 215 87 19 206 78 9
206 78 9 207 77 11 206 76 10 206 76 10 206 76 10 207 77 11 207 77 11
209 76 11 209 76 11 206 76 10 205 74 9 205 74 9 205 74 9 205 74 9
205 74 9 205 74 9 205 74 9 207 76 13 208 77 15 207 76 13 210 79 16
210 79 16 210 79 16 210 79 14 210 79 14 208 80 14 208 80 14 209 81 13
209 81 13 210 83 14 210 83 14 211 84 15 211 84 15 210 85 13 210 85 13
211 84 13 214 84 14 214 84 14 213 81 12 209 77 7 207 74 5 207 74 7
207 74 7 207 74 7 207 74 7 208 73 7 208 73 7 208 73 7 208 73 7
205 64 11 205 64 11 205 64 11 205 64 11 205 64 11 205 64 9 204 65 9
202 66 9 201 67 7 200 69 9 216 88 24 216 88 24 216 90 23 217 89 23
217 89 25 217 89 23 214 92 17 212 93 15 212 93 15 212 93 15 218 99 21
218 99 21 218 99 21 218 99 21 219 100 22 219 100 22 219 100 22
219 100 22 218 99 21 222 102 26 207 87 11 209 87 12 210 85 11
210 85 11 210 85 11 210 85 11 211 84 13 211 84 13 210 85 13 210 85 13
216 91 19 216 91 19 214 92 19 212 92 19 214 94 18 214 94 18 212 95 18
212 95 18 212 97 17 207 94 14 225 113 32 222 110 29 223 111 28
221 112 28 221 112 26 220 113 26 218 114 26 216 115 26 213 116 26
212 117 26 220 130 38 217 132 38 214 134 38 214 134 38 217 134 39
217 134 39 218 133 39 221 132 39 223 129 38 228 128 39 209 108 19
212 108 20 210 104 17 210 104 17 210 104 17 210 103 19 210 103 19
210 103 19 210 103 19 215 101 21 210 83 12 213 81 14 213 81 14
213 81 14 213 81 14 213 81 14 213 81 16 213 83 15 209 87 12 210 91 13
214 94 16 216 97 19 216 96 21 216 96 21 216 96 21 216 96 21 216 96 21
216 96 21 216 96 21 214 94 18 214 92 19 213 90 18 213 90 18 213 90 18
213 90 20 213 90 20 213 90 20 215 89 20 216 88 20 214 86 18 207 79 11
206 78 9 207 77 11 206 76 10 206 76 10 206 76 10 207 77 11 207 77 11
209 76 11 209 76 11 206 76 10 205 74 9 205 74 9 205 74 9 205 74 9
205 74 9 205 74 9 205 74 9 207 76 13 208 77 15 207 76 13 210 79 16
210 79 16 210 79 16 210 79 14 210 79 14 208 80 14 208 80 14 209 81 13
209 81 13 210 83 14 210 83 14 211 84 15 211 84 15 210 85 13 210 85 13
211 84 13 213 85 14 213 85 14 212 82 12 207 77 7 207 74 5 207 74 7
208 73 7 208 73 7 208 73 7 210 72 7 210 72 7 210 72 7 210 72 7
207 63 9 207 63 9 207 63 9 207 63 9 207 63 9 207 64 7 207 64 7
205 64 7 201 67 7 200 69 6 216 88 24 216 88 24 217 89 23 217 89 23
219 88 25 217 90 21 212 93 15 211 94 13 211 94 13 211 94 13
217 100 19 217 100 19 217 100 19 217 100 19 218 101 20 218 101 20
218 101 20 218 101 20 217 100 19 220 103 24 205 88 9 208 88 10
210 86 9 211 85 9 211 85 11 211 85 11 211 85 11 211 85 11 210 85 13
210 85 13 216 91 19 216 91 19 214 92 19 212 92 19 214 94 18 214 94 18
212 95 18 212 95 18 213 96 17 209 95 15 227 112 32 223 109 29
224 110 28 223 111 28 223 111 28 221 112 28 218 114 28 216 114 28
215 115 28 213 116 28 222 129 40 219 131 40 217 132 40 217 132 40
218 133 41 220 132 41 221 131 41 223 130 41 225 128 40 229 127 41
213 106 21 214 107 22 212 103 19 212 103 19 212 103 19 212 102 21
212 102 21 212 102 21 212 102 21 215 100 23 209 84 10 212 82 12
212 82 12 212 82 12 212 82 12 210 83 12 210 83 14 210 85 13 209 87 12
210 91 13 212 96 14 214 97 19 216 97 19 216 97 19 216 97 19 216 97 19
214 97 19 214 97 19 216 96 21 214 94 18 214 92 19 215 90 18 215 90 18
215 90 18 215 90 18 215 90 18 215 90 18 215 90 18 216 88 20 215 85 18
210 79 12 207 77 9 207 77 9 206 76 8 206 76 8 206 76 8 209 76 11
209 76 11 209 76 11 209 76 11 206 76 10 206 76 10 206 76 10 206 76 10
205 74 9 205 74 9 205 74 9 205 74 9 207 76 13 208 77 15 207 76 13
210 79 16 210 79 16 210 79 16 210 79 14 210 79 14 208 80 14 208 80 14
209 81 13 209 81 13 210 83 14 210 83 14 211 84 15 211 84 15 210 85 13
210 85 13 210 85 13 211 86 14 211 86 14 210 83 12 206 78 7 205 75 5
210 73 5 213 71 5 213 71 5 213 71 5 213 71 5 213 71 5 213 71 5
213 71 5 207 64 7 207 64 7 207 64 7 207 64 7 207 64 7 207 64 7
207 64 7 205 65 5 201 67 5 200 69 6 216 88 24 216 88 24 217 89 23
217 89 23 217 89 25 216 90 21 212 93 15 211 94 13 211 94 13 211 94 13
217 100 19 217 100 19 217 100 19 217 100 19 218 101 20 218 101 20
218 101 20 218 101 20 217 100 19 220 103 24 205 88 9 208 88 10
210 86 9 211 85 9 211 85 11 211 85 11 211 85 11 211 85 11 211 84 13
210 85 13 216 91 19 216 91 19 214 92 19 212 92 19 214 94 18 214 94 18
212 95 18 212 95 18 213 96 17 211 94 15 227 112 32 224 110 30
224 110 28 224 110 28 223 111 28 223 111 28 220 113 28 218 114 28
216 114 28 215 115 28 223 128 40 220 130 40 219 131 40 219 131 40
221 131 41 221 131 41 223 130 41 226 129 41 228 126 40 231 126 41
214 105 21 215 106 22 212 103 19 212 103 19 212 102 21 212 102 21
212 102 21 212 102 21 212 102 21 215 100 23 207 85 10 210 83 10
210 83 10 210 83 12 210 83 12 210 83 12 209 84 12 208 86 11 209 88 10
210 91 13 214 95 14 216 97 17 216 97 19 218 96 19 218 96 19 216 97 19
216 97 19 216 97 19 216 96 21 215 93 18 217 92 20 215 90 18 215 90 18
215 90 18 215 90 18 215 90 18 215 90 18 216 89 18 218 88 20 215 85 18
210 79 12 207 77 9 207 77 9 206 76 8 206 76 8 206 76 8 209 76 11
209 76 11 209 76 11 209 76 11 206 76 10 206 76 10 206 76 10 206 76 10
205 74 9 205 74 9 205 74 9 205 74 9 207 76 13 208 77 15 207 76 13
210 79 16 210 79 16 210 79 16 210 79 14 210 79 14 210 79 14 208 80 14
209 81 15 209 81 13 210 83 14 210 83 14 211 84 15 211 84 15 210 85 13
210 85 13 210 85 13 211 86 14 211 86 14 209 84 12 204 79 7 205 75 5
210 73 5 213 71 5 213 71 5 213 71 5 213 71 5 213 71 5 213 71 5
213 71 5 203 63 3 203 63 3 203 63 3 203 63 3 203 63 3 203 63 3
202 63 3 200 64 3 204 71 9 200 69 6 218 90 26 215 86 23 216 88 24
216 88 24 216 88 24 215 89 22 213 91 16 213 91 14 211 92 14 211 92 14
219 100 22 219 100 22 219 100 22 219 100 22 218 99 21 218 99 21
218 99 21 218 99 21 218 99 21 221 101 25 206 86 10 209 87 12
210 85 11 210 85 11 210 85 11 211 85 11 211 84 13 213 83 13 211 84 13
211 84 13 216 91 19 216 91 19 214 92 19 212 92 19 214 94 18 214 94 18
214 94 18 214 94 18 213 96 17 211 94 15 217 103 23 224 110 30
224 110 28 224 110 28 224 110 28 223 111 28 222 110 27 220 111 27
219 112 27 215 113 27 227 127 40 223 128 40 222 129 40 222 129 40
223 130 41 224 130 41 226 129 41 228 128 41 230 125 40 238 128 44
217 105 22 222 110 27 212 103 19 212 103 19 210 103 19 210 103 19
210 103 19 210 103 19 210 103 19 214 101 21 211 89 12 214 87 12
214 87 12 214 87 14 214 87 14 214 87 14 214 87 14 212 88 12 211 87 10
211 89 10 216 95 15 219 97 18 219 97 20 220 96 20 220 96 20 219 97 20
217 98 20 217 98 20 219 97 20 218 95 21 217 92 20 216 89 18 215 90 18
215 90 18 215 90 18 215 90 18 215 90 18 216 89 18 218 88 20 215 85 18
210 79 12 207 77 9 207 77 9 206 76 8 206 76 10 206 76 10 209 76 11
209 76 11 209 75 13 209 75 13 208 74 12 208 74 12 208 74 12 208 74 12
207 73 11 205 72 10 205 72 10 205 72 10 207 73 11 209 75 13 210 77 15
210 77 15 211 78 16 211 78 16 211 78 16 211 78 16 210 79 16 210 79 16
211 80 15 211 80 15 210 83 14 210 83 14 210 85 13 210 85 13 210 85 13
208 86 11 208 86 11 211 86 12 213 89 15 214 87 14 208 81 8 203 76 3
205 74 2 208 74 3 208 74 3 208 74 3 210 73 3 210 73 3 210 73 3
210 73 3 201 68 3 201 68 3 201 68 3 201 68 3 201 68 3 201 68 3
201 68 3 201 68 3 199 68 5 203 72 9 215 86 23 218 90 26 220 91 27
220 91 27 220 91 27 220 91 25 220 92 21 220 92 21 218 93 21 218 93 21
222 97 25 222 97 25 222 97 25 222 97 25 220 95 24 220 96 22 220 96 22
220 96 22 224 99 27 223 98 26 211 86 14 209 84 12 209 84 12 210 83 12
210 83 12 210 83 12 212 82 12 212 82 12 210 83 12 210 83 12 215 90 18
215 90 18 213 90 18 211 91 18 212 93 17 212 93 17 212 93 17 212 93 17
212 95 16 211 94 15 214 99 20 221 106 27 221 107 25 221 107 25
221 107 25 221 107 25 221 107 25 219 108 25 218 108 25 216 109 25
232 128 42 229 129 42 227 130 42 226 131 42 228 131 43 228 131 43
230 130 43 232 130 43 236 129 44 234 123 40 217 103 21 213 99 17
217 105 22 215 106 22 214 107 22 214 107 22 214 107 22 214 107 22
214 107 22 215 106 22 205 89 7 207 87 9 207 87 9 207 87 9 207 87 9
207 87 9 208 88 10 209 90 10 209 92 11 210 93 12 213 97 15 214 98 17
214 97 19 214 97 19 214 97 19 214 97 19 216 97 19 216 97 19 218 96 19
218 93 19 217 90 19 215 88 17 213 88 17 213 88 17 213 88 17 213 88 17
213 88 17 215 88 17 217 86 19 214 84 16 208 78 11 206 76 8 206 76 8
205 75 7 205 74 9 205 74 9 208 75 10 208 75 10 208 74 12 208 74 12
207 73 11 207 73 11 207 73 11 207 73 11 205 72 10 205 72 10 205 72 10
205 72 10 205 72 10 207 73 11 209 75 13 210 77 15 209 75 13 209 75 13
209 75 13 209 75 13 207 76 13 207 76 13 208 78 13 210 79 14 209 81 13
210 83 14 210 85 13 210 85 13 208 86 11 208 86 11 208 86 11 208 86 11
208 83 9 205 81 7 203 78 4 202 77 3 203 76 3 203 76 3 203 76 3
203 76 3 205 76 3 205 76 3 205 76 3 205 76 3 217 92 22 217 92 22
217 92 22 217 92 22 217 92 22 217 92 22 217 92 22 217 91 24 217 89 23
215 87 21 201 73 7 199 71 4 201 70 8 203 70 8 203 70 8 203 70 8
201 70 8 201 70 8 201 70 8 200 69 6 202 68 6 201 67 5 201 67 5
201 67 5 200 66 4 200 67 2 200 67 2 198 67 2 194 64 0 196 65 0
207 77 9 210 79 12 210 79 12 210 79 12 210 79 12 210 79 12 210 79 12
210 79 12 208 81 10 208 81 10 216 91 19 216 91 19 214 92 19 212 92 19
214 94 18 214 94 18 214 94 18 214 94 18 213 96 17 213 96 17 212 97 17
217 103 23 217 103 21 217 103 21 217 103 21 217 103 21 217 103 21
217 103 21 216 102 20 215 103 20 214 105 21 211 107 21 208 108 21
208 108 21 209 109 22 211 109 22 211 109 22 212 108 22 215 106 22
216 104 21 227 113 30 226 111 29 222 110 27 220 111 27 219 112 27
219 112 27 217 112 27 217 112 27 217 112 27 219 112 27 234 127 42
234 127 42 234 127 42 234 127 42 232 128 42 232 128 42 230 128 42
230 128 42 230 125 40 227 123 37 225 121 35 223 118 33 223 118 35
223 118 35 223 118 35 224 117 35 229 115 33 232 113 33 234 112 35
235 111 37 213 85 14 211 84 13 210 85 13 210 85 13 210 85 13
210 85 13 210 85 13 211 84 13 213 83 15 211 81 13 205 75 7 203 72 5
203 72 5 201 71 4 201 71 6 201 71 6 204 71 7 204 71 7 204 71 9
204 71 9 203 70 8 203 70 8 204 71 9 204 71 9 204 71 9 204 71 9
204 71 9 204 71 9 204 71 9 204 71 9 207 73 11 208 74 12 207 73 11
205 72 10 205 72 10 205 72 10 204 73 10 204 73 10 204 73 8 204 73 8
211 84 15 211 84 15 210 85 13 210 85 13 208 86 11 208 86 11 208 86 11
209 87 12 214 92 17 216 94 19 220 98 23 221 99 24 219 100 24
219 100 24 219 100 24 219 100 24 218 101 24 218 101 24 218 101 24
218 101 24 215 95 21 215 95 21 215 95 21 215 95 21 215 94 23
216 93 23 216 93 23 216 93 23 212 88 21 217 91 24 199 71 4 203 72 7
205 72 10 207 71 10 207 71 10 207 71 10 207 71 12 207 71 12 207 71 12
207 71 12 201 65 6 201 65 6 201 65 6 201 65 6 200 64 5 200 64 5
200 64 3 200 64 3 200 64 3 196 63 1 211 78 14 209 76 11 209 76 11
209 76 11 209 76 11 207 77 9 207 77 9 207 77 9 206 78 9 206 78 7
216 91 19 214 92 19 214 92 19 212 92 19 214 94 18 214 94 18 214 94 18
214 94 18 213 96 17 213 96 17 212 97 17 214 99 20 215 101 21
215 101 19 215 101 19 215 101 19 218 101 20 218 101 20 216 102 20
216 102 20 217 105 22 215 106 22 213 109 23 213 109 23 215 110 25
215 110 25 215 110 25 216 109 25 220 111 27 211 99 17 224 112 29
214 102 19 224 112 29 222 113 29 221 114 29 221 114 29 219 115 29
219 115 29 219 115 29 218 116 29 228 126 38 227 127 38 227 127 38
225 128 38 225 128 38 225 128 38 223 129 38 225 128 38 231 133 46
225 128 40 220 123 35 217 118 30 217 117 32 217 117 32 217 117 32
220 116 30 225 113 30 228 112 30 228 111 32 230 111 32 209 84 10
209 82 11 209 84 12 209 84 12 209 84 12 209 84 12 209 84 12 210 83 12
211 81 13 208 78 11 203 72 5 200 70 2 200 70 2 199 69 1 199 69 3
201 68 3 202 69 4 202 69 4 202 68 6 202 68 6 201 67 5 201 67 5
202 68 6 202 68 6 203 70 8 204 71 9 204 71 9 204 71 9 204 71 9
204 71 9 205 72 10 205 72 10 204 71 9 203 70 8 203 70 8 203 70 8
201 70 8 201 70 8 201 71 6 201 71 6 211 84 15 211 84 15 210 85 13
210 85 13 208 86 11 208 86 11 208 86 11 208 86 11 208 86 11 211 88 14
215 95 19 218 99 23 218 101 24 218 101 24 216 101 24 216 101 24
215 102 24 215 102 24 215 102 24 215 102 24 211 94 17 211 94 17
211 94 17 211 93 19 211 93 19 212 92 19 212 92 19 212 92 21 211 91 20
216 93 23 198 73 4 204 73 8 205 69 8 206 68 8 206 68 8 206 68 8
206 68 8 206 68 8 206 68 8 206 68 8 200 62 4 200 62 4 200 62 4
200 62 4 202 63 5 202 63 5 202 63 5 202 63 5 200 64 3 198 62 1
213 77 16 210 75 13 210 75 13 210 75 13 210 75 13 209 76 11 207 77 11
207 77 11 207 77 9 206 78 9 217 92 22 215 92 22 215 93 20 215 93 20
216 94 19 216 94 19 215 95 19 215 95 19 213 96 19 213 96 19 213 96 19
214 97 21 216 99 20 216 99 20 216 99 20 216 99 20 216 99 20 216 99 20
218 101 22 216 102 22 216 102 22 216 104 23 217 105 24 215 106 24
215 106 22 214 107 22 214 107 22 213 106 21 214 105 21 217 107 23
220 111 27 221 112 28 222 113 29 222 113 29 221 114 29 221 114 29
221 114 27 219 115 27 219 115 27 218 116 27 226 129 39 226 130 37
224 130 37 224 130 37 224 130 37 224 130 37 226 130 37 227 130 40
229 130 40 227 127 38 222 123 33 220 118 32 219 117 30 219 117 30
219 117 30 222 115 30 225 113 30 227 113 30 224 114 30 227 112 32
207 85 10 209 82 9 209 84 12 209 84 12 209 84 12 210 83 12 211 84 15
211 84 15 211 81 13 208 78 11 203 72 7 200 70 4 203 70 6 203 70 6
203 70 6 203 70 6 205 69 8 205 69 8 205 69 8 205 69 8 203 70 8
203 70 8 202 68 6 202 68 6 203 70 8 203 70 8 204 71 9 204 71 9
204 70 11 204 70 11 203 69 10 204 70 11 204 70 11 204 70 11 204 71 9
204 71 9 204 71 9 204 71 9 203 72 7 203 72 7 213 85 16 213 85 16
211 86 14 211 86 14 209 87 12 209 87 12 209 87 12 208 86 11 214 94 18
209 89 14 224 104 29 219 102 25 223 105 29 223 105 29 221 106 29
220 105 28 220 105 28 219 104 26 219 104 26 219 104 26 211 94 17
211 94 17 211 94 17 211 94 17 211 93 19 211 93 19 211 93 19 211 93 19
211 91 20 216 93 23 198 73 4 204 73 8 205 69 8 206 68 8 208 67 8
208 67 8 206 68 8 206 68 8 206 68 8 206 68 8 200 62 4 200 62 4
200 62 4 200 62 4 202 63 5 202 63 5 202 63 5 202 63 5 200 64 3
198 62 1 213 77 16 210 75 13 212 76 15 212 76 15 212 76 15 212 76 15
210 77 13 208 78 13 208 78 11 207 79 11 217 92 22 215 92 22 215 93 20
215 93 20 216 94 19 216 94 19 215 95 19 215 95 19 213 96 19 214 97 21
213 96 19 214 97 21 216 99 20 216 99 20 216 99 20 216 99 20 216 99 20
216 99 20 218 101 22 218 101 22 216 102 22 217 103 23 219 104 24
217 105 24 217 105 22 215 106 22 215 106 22 213 106 21 214 105 21
217 107 23 220 111 27 221 112 28 221 112 28 221 112 28 220 113 28
220 113 28 220 113 26 218 114 26 216 115 26 215 116 26 226 130 37
224 130 37 224 130 37 224 130 37 224 130 37 224 130 37 226 130 37
227 131 38 229 130 40 228 126 38 223 122 33 220 118 30 220 116 30
220 116 30 220 116 28 222 115 28 225 113 30 225 113 30 222 115 30
224 114 32 208 86 11 210 83 10 210 85 13 210 85 13 211 84 13
211 84 13 213 85 16 213 85 16 212 82 14 210 79 12 204 73 8 201 71 6
203 70 6 203 70 6 203 70 6 203 70 6 205 69 8 205 69 8 205 69 8
205 69 8 203 70 8 203 70 8 203 70 8 203 70 8 203 70 8 203 70 8
204 71 9 204 71 9 204 70 11 204 70 11 203 69 10 204 70 11 204 70 11
204 70 11 204 71 9 204 71 9 204 71 9 204 71 9 203 72 7 203 72 7
213 85 16 213 85 16 211 86 14 211 86 14 209 87 12 209 87 12 209 87 12
209 87 12 214 94 18 209 89 14 223 105 29 219 102 25 223 105 29
223 105 29 221 106 29 220 105 28 220 105 28 219 104 26 219 104 26
219 104 26 211 94 17 211 94 17 211 94 17 211 94 17 211 93 19
211 93 19 211 93 19 211 93 19 211 91 20 216 93 23 198 73 4 204 73 8
205 69 8 206 68 8 208 67 8 208 67 8 206 68 8 206 68 8 206 68 8
206 68 8 200 62 4 200 62 4 200 62 4 200 62 4 202 63 5 202 63 5
202 63 5 202 63 5 200 64 3 198 62 1 213 77 16 210 75 13 212 76 15
212 76 15 212 76 15 212 76 15 210 77 13 208 78 13 208 78 11 207 79 11
217 92 22 215 92 22 215 93 20 215 93 20 216 94 19 216 94 19 215 95 19
215 95 19 214 97 21 214 97 21 214 97 21 214 97 21 216 99 20 216 99 20
216 99 20 216 99 20 216 99 20 216 99 20 215 101 21 215 101 21
216 102 22 217 103 23 217 105 24 217 105 24 217 105 22 217 105 22
215 106 22 214 105 21 214 105 21 217 107 23 219 112 27 220 113 28
220 113 28 220 113 28 220 113 28 218 114 28 218 114 26 216 115 26
216 115 26 215 116 26 228 129 37 226 130 37 226 130 37 224 130 37
224 130 37 224 130 37 224 130 37 227 131 38 229 130 40 228 126 38
225 121 33 222 117 30 220 116 30 220 116 30 220 116 28 222 115 28
224 115 28 224 115 28 222 115 30 224 114 32 208 86 11 210 83 10
210 85 13 210 85 13 211 84 13 211 84 13 213 85 16 213 85 16 212 82 14
210 79 12 204 73 8 201 71 6 203 70 6 203 70 6 203 70 6 203 70 6
205 69 8 205 69 8 205 69 8 205 69 8 203 70 8 203 70 8 203 70 8
203 70 8 203 70 8 203 70 8 203 70 8 203 70 8 203 69 10 203 69 10
203 69 10 204 70 11 204 70 11 204 70 11 204 71 9 204 71 9 204 71 9
204 71 9 203 72 7 203 72 7 213 85 16 213 85 16 211 86 14 211 86 14
209 87 12 209 87 12 209 87 12 209 87 12 214 94 18 209 89 14
223 105 29 219 102 25 223 105 29 223 105 29 221 106 29 220 105 28
220 105 28 219 104 26 219 104 26 219 104 26 211 94 17 211 94 17
211 94 17 211 94 17 211 93 19 211 93 19 211 93 19 211 93 19 211 91 20
216 93 23 198 73 4 204 73 8 205 69 8 206 68 8 208 67 8 208 67 8
206 68 8 206 68 8 206 68 8 206 68 8 200 62 4 200 62 4 200 62 4
200 62 4 202 63 5 202 63 5 202 63 5 202 63 5 200 64 3 198 62 1
213 77 16 210 75 13 212 76 15 212 76 15 212 76 15 212 76 15 210 77 13
208 78 13 208 78 11 207 79 11 217 92 22 215 92 22 215 93 20 215 93 20
216 94 19 216 94 19 215 95 19 215 95 19 216 96 21 216 96 21 216 96 21
214 97 21 216 99 20 216 99 20 216 99 20 216 99 20 216 99 20 216 99 20
215 101 21 215 101 21 216 102 22 217 103 23 217 105 24 217 105 24
217 105 22 217 105 22 215 106 22 214 105 21 214 105 21 217 107 23
219 112 27 220 113 28 220 113 28 220 113 28 218 114 28 218 114 28
218 114 26 216 115 26 216 115 26 215 116 26 228 129 37 228 129 37
226 130 37 226 130 37 224 130 37 224 130 37 224 130 37 227 131 38
229 130 40 228 126 38 225 121 33 222 117 30 220 116 30 220 116 30
220 116 28 222 115 28 224 115 28 224 115 28 222 115 30 224 114 30
208 87 9 210 83 10 210 85 13 210 85 13 211 84 13 211 84 13 213 85 16
213 85 16 212 82 14 210 79 12 204 73 8 201 71 6 203 70 6 203 70 6
203 70 6 203 70 8 205 69 8 205 69 8 205 69 8 205 69 8 203 70 8
203 70 8 203 70 8 203 70 8 203 70 8 203 70 8 203 70 8 203 70 8
203 69 10 203 69 10 203 69 10 204 70 11 204 70 11 204 70 11 204 71 9
204 71 9 204 71 9 204 71 9 204 71 9 203 72 7 213 85 16 213 85 16
211 86 14 211 86 14 209 87 12 209 87 12 209 87 12 209 87 12 214 94 18
209 89 14 223 105 29 219 102 25 223 105 29 223 105 29 221 106 29
220 105 28 220 105 28 219 104 26 219 104 26 219 104 26 209 94 17
209 94 17 209 94 17 209 94 17 209 94 19 209 94 19 209 94 19 211 93 19
210 92 20 215 94 23 198 73 4 204 73 8 205 69 8 206 68 8 208 67 8
208 67 8 206 68 8 206 68 8 206 68 8 206 68 8 200 62 4 200 62 4
200 62 4 200 62 4 202 63 5 202 63 5 202 63 5 202 63 5 200 64 3
198 62 1 213 77 16 210 75 13 212 76 15 212 76 15 212 76 15 212 76 15
210 77 13 210 77 13 210 77 11 208 78 11 217 92 22 215 92 22 217 92 20
217 92 20 216 94 19 216 94 19 216 94 19 216 94 19 218 95 21 218 95 21
218 95 21 216 96 21 217 97 22 217 97 22 217 97 22 217 97 22 216 98 22
216 98 22 215 101 21 215 101 21 216 102 22 217 103 23 217 105 24
217 105 24 217 105 22 217 105 22 215 106 22 214 105 21 214 105 21
217 107 23 219 111 29 220 112 30 220 112 30 220 112 30 220 113 28
220 113 28 218 114 28 218 114 28 216 115 26 216 115 26 228 128 39
228 128 39 226 130 37 226 130 37 224 130 37 224 130 37 224 130 37
226 130 37 228 128 39 228 126 38 225 121 35 223 118 33 219 117 30
219 117 30 219 117 28 220 116 28 224 115 28 224 115 28 222 115 28
224 114 30 208 87 9 210 83 10 210 85 13 210 85 13 211 84 15 211 84 15
213 85 16 213 85 16 212 81 16 210 79 14 204 73 8 201 71 6 203 70 8
203 70 8 203 70 8 203 70 8 205 68 10 205 68 10 205 68 10 205 68 10
205 68 10 205 68 10 205 68 10 205 68 10 205 68 10 205 68 10 205 68 10
205 68 10 205 68 10 205 68 10 205 68 10 206 70 11 206 70 11 206 70 11
206 70 11 206 70 11 206 70 11 206 70 11 204 71 9 203 72 7 213 85 16
213 85 16 211 86 14 209 87 12 209 87 12 208 88 10 209 88 10 209 88 10
215 94 16 209 90 12 223 106 27 219 102 23 221 104 26 221 104 26
220 105 26 218 106 26 218 106 26 218 106 26 218 106 26 218 106 26
209 94 17 209 94 17 209 94 17 209 94 17 209 94 19 209 94 19 209 94 19
209 94 19 210 92 20 215 94 23 198 73 4 204 74 6 205 69 6 206 68 8
208 67 8 208 67 8 206 68 8 206 68 8 206 68 8 206 68 8 200 62 4
200 62 4 200 62 4 200 62 4 202 63 5 202 63 5 202 63 5 202 63 5
200 64 3 198 62 1 213 77 16 210 75 13 212 76 15 212 76 15 212 76 15
212 76 15 210 77 13 210 77 13 210 77 11 208 78 11 217 92 22 215 92 22
217 92 20 217 92 20 216 94 19 216 94 19 216 94 19 216 94 19 218 95 21
218 95 21 218 95 21 218 95 21 217 97 22 217 97 22 217 97 22 217 97 22
216 98 22 216 98 22 215 101 21 215 101 21 216 102 22 217 103 23
217 105 24 217 105 24 217 105 22 217 105 22 215 106 22 214 105 21
214 105 21 217 107 23 219 111 29 220 112 30 220 112 30 220 112 30
220 113 28 220 113 28 220 113 28 220 113 28 218 114 26 216 115 26
228 128 39 226 129 39 226 130 37 224 130 37 224 130 37 224 130 37
224 130 37 226 130 37 228 128 39 228 126 38 223 121 35 221 119 33
219 117 30 219 117 30 219 117 28 220 116 28 224 115 28 224 115 28
220 116 28 224 114 30 208 87 9 212 83 10 211 84 13 210 85 13
211 84 15 211 84 15 213 85 16 213 85 16 212 81 16 210 79 14 204 73 8
201 71 6 203 70 8 203 70 8 203 70 8 203 70 8 205 68 10 205 68 10
205 68 10 205 68 10 205 68 10 205 68 10 205 68 10 205 68 10 205 68 10
205 68 10 205 68 10 205 68 10 205 68 10 205 68 10 205 68 10 206 70 11
206 70 11 206 70 11 206 70 11 206 70 11 206 70 11 206 70 11 204 71 9
204 71 9 214 84 18 213 85 16 211 86 14 209 87 12 208 88 10 208 88 10
209 88 10 209 88 10 215 94 16 211 89 12 224 105 27 219 102 23
221 104 26 220 105 26 218 106 26 218 106 26 218 106 26 218 106 26
218 106 26 218 106 26 208 96 15 208 96 15 208 96 15 208 95 17
208 95 17 208 95 17 208 95 17 209 94 19 208 93 18 213 96 21 198 73 2
205 75 7 205 69 6 206 68 6 206 68 6 206 68 6 206 68 8 206 68 8
206 68 8 206 68 8 200 62 4 200 62 4 200 62 4 200 62 4 202 63 5
202 63 5 202 63 5 202 63 5 200 64 3 198 62 1 213 77 16 210 75 13
210 77 15 210 77 15 210 77 15 210 77 15 210 77 13 210 77 13 210 77 11
208 78 11 217 92 22 215 92 22 217 92 20 217 92 20 216 94 19 216 94 19
216 94 19 216 94 19 218 95 21 218 95 21 218 95 21 218 95 21 219 97 22
219 97 22 219 97 22 217 97 22 216 98 24 216 98 22 215 101 21
215 101 21 216 102 22 217 103 23 217 105 24 217 105 24 217 105 22
217 105 22 215 106 22 214 105 21 214 105 21 217 107 23 219 111 29
220 112 30 220 112 30 220 112 30 221 112 28 221 112 28 221 112 28
221 112 28 221 112 26 218 114 26 227 130 40 226 131 40 226 132 38
226 132 38 226 132 38 226 132 38 226 132 38 226 132 38 227 131 38
228 128 39 223 124 34 221 121 32 218 119 30 218 119 30 218 119 30
220 119 28 222 116 26 222 116 26 222 117 30 225 115 32 208 87 9
212 83 10 211 84 13 210 85 13 211 84 15 211 84 15 213 85 16 213 85 16
212 81 16 210 79 14 204 73 8 201 71 6 204 71 9 204 71 9 204 71 9
204 71 9 206 70 11 206 70 11 206 70 11 205 68 10 205 68 10 205 68 10
205 68 10 205 68 10 205 68 10 205 68 10 205 68 10 205 68 10 205 68 10
205 68 10 205 68 10 206 70 11 206 70 11 206 70 11 206 70 11 206 70 11
206 70 11 206 70 11 204 71 9 204 71 9 214 84 18 213 85 16 211 86 14
209 87 12 208 88 10 208 88 10 209 88 10 211 87 10 215 94 16 211 89 12
224 105 27 219 102 23 221 104 26 220 105 26 218 106 26 217 107 26
217 107 26 217 107 26 217 107 26 217 107 26 208 96 15 208 96 15
208 96 15 208 96 15 208 95 17 208 95 17 208 95 17 208 95 17 207 94 18
213 96 21 198 73 2 206 76 6 205 70 4 206 68 6 206 68 6 205 69 6
205 69 6 205 69 6 205 69 6 205 69 6 199 63 2 199 63 2 199 63 2
199 63 2 200 64 3 200 64 3 200 64 3 200 64 3 200 64 3 198 62 1
213 77 16 209 75 13 210 77 15 210 77 15 210 77 15 210 77 15 210 77 13
210 77 13 210 77 11 208 78 11 218 91 22 217 92 22 217 92 20 217 92 20
216 94 19 216 94 19 216 94 19 216 94 19 218 95 21 218 95 21 218 95 21
218 95 21 219 97 22 219 97 22 219 97 22 219 96 24 219 96 24 217 97 24
218 98 25 218 98 25 219 99 26 221 101 27 222 102 28 222 102 28
222 102 28 222 102 26 220 103 26 219 102 25 219 102 25 220 105 26
222 110 29 223 111 30 223 111 30 223 111 30 223 111 28 223 111 28
223 111 28 223 111 28 223 112 26 220 113 26 227 130 40 224 132 40
224 132 38 224 132 38 226 132 38 226 132 38 226 132 38 226 132 38
227 131 38 226 130 37 221 125 34 221 121 32 218 119 30 220 120 31
218 119 28 220 119 28 222 118 28 222 118 28 221 119 31 226 117 33
207 85 8 211 81 9 210 83 12 209 83 14 210 83 14 210 83 14 211 84 15
211 84 15 212 81 16 210 79 14 204 73 8 201 71 6 204 71 9 204 71 9
204 71 9 204 71 9 206 70 11 206 70 11 206 70 11 205 68 10 205 68 10
205 68 10 205 68 10 205 68 10 205 68 10 205 68 10 205 68 10 205 68 10
205 68 10 205 68 10 205 68 10 206 70 11 206 70 11 206 70 11 206 70 11
206 70 11 206 70 11 206 70 11 204 71 9 204 71 9 214 84 18 213 85 16
211 86 14 209 87 12 208 88 10 209 88 10 211 87 10 211 87 10 215 94 16
209 90 12 221 106 27 216 104 23 218 106 26 218 106 26 217 107 26
217 107 26 217 107 26 217 107 26 217 107 26 217 107 26 222 113 31
222 113 31 222 113 31 222 113 31 222 112 33 222 112 33 222 112 33
222 112 33 224 113 35 227 112 35 209 84 10 210 78 9 217 83 14
219 82 16 217 82 16 216 84 14 214 84 14 214 84 14 214 84 14 214 84 14
214 84 16 214 84 16 214 84 16 214 84 16 214 84 16 214 84 16 214 84 16
214 84 16 211 81 13 215 82 17 205 72 8 208 75 10 207 74 9 207 74 9
207 74 9 207 74 9 207 74 9 207 74 9 205 75 7 205 75 7 212 82 14
210 83 14 209 84 12 209 84 12 210 85 13 210 85 13 210 85 13 210 85 13
210 85 13 208 83 11 204 79 7 202 77 5 201 76 4 202 77 5 202 77 5
202 77 5 203 76 7 203 76 7 203 75 9 203 75 11 198 67 4 198 67 4
198 67 6 200 66 6 201 65 6 201 65 6 201 65 4 200 66 4 199 69 3
196 69 0 211 86 12 208 86 11 208 88 10 206 89 10 205 91 8 205 91 8
205 91 8 205 91 8 205 91 6 201 93 6 228 132 41 225 133 41 225 134 39
225 134 39 224 132 38 224 132 38 226 132 36 226 132 36 226 132 38
224 130 37 220 126 32 219 123 30 218 121 29 219 123 30 220 124 31
222 123 29 224 121 28 224 120 30 222 121 32 227 118 34 209 85 8
211 81 9 209 82 11 209 81 13 210 82 16 210 82 16 210 82 16 210 82 16
212 81 16 210 79 14 204 73 8 201 71 6 204 71 7 204 71 7 204 71 7
204 71 9 206 70 9 206 70 9 206 70 9 206 70 9 206 70 9 205 69 8
205 69 8 205 69 8 205 68 10 205 68 10 205 68 10 205 68 10 205 68 10
205 68 10 205 68 10 206 70 11 206 70 11 206 70 11 206 70 11 206 70 11
206 70 11 206 70 11 204 71 9 204 71 9 214 84 18 213 85 16 211 86 14
209 87 12 209 88 10 209 88 10 211 87 10 211 87 10 207 85 8 206 89 10
226 116 35 225 120 37 227 122 39 227 122 39 227 122 39 229 122 39
229 122 39 229 122 39 229 122 39 229 122 39 222 113 31 222 113 31
222 113 31 222 113 31 222 112 33 222 112 33 222 112 33 222 112 33
224 113 35 227 112 35 209 84 10 211 79 8 217 83 14 217 83 14
216 84 14 214 84 14 213 86 12 213 86 12 213 86 12 213 86 12 213 85 14
213 85 14 213 85 14 213 85 14 213 85 14 213 85 14 213 85 14 213 85 14
211 81 13 213 83 15 204 74 6 206 76 8 207 74 9 207 74 9 207 74 9
207 74 9 207 74 9 207 74 9 205 75 7 205 75 7 212 82 14 212 82 14
210 83 12 209 84 12 210 85 13 210 85 13 210 85 13 210 85 13 210 85 13
208 83 11 204 79 7 202 77 5 201 76 4 203 76 5 203 76 5 203 76 7
205 75 7 207 74 9 207 73 11 207 73 13 201 65 8 201 65 8 203 63 10
204 63 10 206 61 12 206 61 12 206 62 10 204 63 8 204 65 7 200 67 2
214 84 14 211 85 11 211 86 12 208 88 10 206 89 10 205 91 8 205 91 8
205 91 8 205 91 8 201 93 6 228 132 41 225 133 41 225 134 39
225 134 39 224 132 38 224 132 38 226 132 36 226 132 36 226 132 38
224 130 37 220 126 32 218 123 30 219 123 30 220 124 31 220 124 29
222 123 29 225 124 30 226 122 32 223 122 33 228 119 35 208 83 7
211 79 10 210 79 12 208 80 12 209 81 15 209 81 15 209 81 15 209 81 15
212 81 16 210 79 14 204 73 8 201 71 6 204 71 7 204 71 7 204 71 7
204 71 7 206 70 9 206 70 9 206 70 9 206 70 9 206 70 9 205 69 8
205 69 8 205 69 8 205 68 10 205 68 10 205 68 10 205 68 10 205 68 10
205 68 10 205 68 10 206 70 11 206 70 11 206 70 11 206 70 11 206 70 11
206 70 11 206 70 11 204 71 9 204 71 9 214 84 18 213 85 16 211 86 14
209 87 12 209 88 10 211 87 10 213 86 10 213 86 10 209 85 8 206 89 10
223 118 35 222 122 37 224 124 39 224 124 39 226 123 39 227 122 39
227 122 39 227 122 39 227 122 39 227 122 39 222 113 29 222 113 29
222 113 29 222 113 31 222 113 31 222 113 31 222 113 31 222 113 31
224 114 32 227 112 32 207 85 8 211 81 9 217 83 12 217 83 12 216 84 12
214 85 12 213 86 12 213 86 12 213 86 12 213 86 12 213 86 12 213 86 12
213 86 12 213 86 12 213 86 12 213 86 12 213 85 14 213 85 14 211 81 11
213 83 13 204 74 4 206 76 8 205 74 9 205 74 9 205 74 9 205 74 9
207 74 9 207 74 9 205 75 7 205 75 7 212 82 14 212 82 14 210 83 12
209 84 12 210 85 13 210 85 13 210 85 13 210 85 13 211 84 15 209 81 13
206 78 9 203 76 7 202 74 6 205 75 7 205 75 7 205 75 7 207 74 9
207 74 9 207 73 11 207 73 13 201 65 8 201 65 8 203 63 10 204 63 10
206 61 12 206 61 12 206 62 10 204 63 8 204 65 7 200 67 2 214 84 16
211 84 13 211 86 12 208 88 12 206 89 10 206 89 10 206 89 10 206 89 10
206 90 8 201 92 8 230 133 42 226 134 42 226 135 40 226 135 40
225 134 39 225 134 39 225 134 37 225 134 37 225 134 37 224 133 36
219 128 31 219 125 29 219 125 31 220 126 32 220 126 32 221 125 32
225 124 30 225 123 32 225 123 34 228 121 36 208 83 7 211 79 10
210 79 12 208 80 12 209 81 15 209 81 15 209 81 15 209 81 15 212 81 16
210 79 14 204 73 8 201 71 6 205 72 8 205 72 8 205 72 8 205 72 8
207 71 10 207 71 10 207 71 10 206 70 9 206 70 9 205 69 8 205 69 8
205 69 8 205 68 10 205 68 10 205 68 10 205 68 10 205 68 10 205 68 10
205 68 10 206 70 11 206 70 11 206 70 11 206 70 11 206 70 11 206 70 11
206 70 11 204 71 9 204 71 9 214 84 18 213 85 16 211 86 14 211 86 12
209 88 10 211 87 10 213 86 10 213 86 10 209 85 8 206 89 10 223 118 35
222 122 37 224 124 39 224 124 39 226 123 39 226 123 39 226 123 39
226 123 39 226 123 39 226 123 39 222 113 29 222 113 29 222 113 29
222 113 29 222 113 31 222 113 31 222 113 31 222 113 31 224 114 32
227 112 32 207 85 8 211 81 9 216 84 12 216 84 12 214 85 12 213 86 12
213 86 12 213 86 12 213 86 12 213 86 12 213 86 12 213 86 12 213 86 12
213 86 12 213 86 12 213 86 12 213 85 14 213 85 14 211 81 11 213 83 13
204 74 4 206 76 6 205 75 7 205 74 9 205 74 9 205 74 9 207 74 9
207 74 9 205 75 7 205 75 7 212 82 14 212 82 14 210 83 12 210 83 12
211 84 13 211 84 13 211 84 13 211 84 13 211 84 15 209 81 13 206 78 9
205 75 7 204 74 6 205 75 7 205 75 7 207 74 9 207 74 9 207 73 11
207 73 13 208 72 13 201 65 8 201 65 8 203 63 10 203 63 10 204 62 12
206 62 10 206 62 8 204 63 8 204 65 7 200 66 4 214 84 18 211 84 15
211 86 14 209 87 12 208 88 12 206 89 10 206 89 10 206 89 10 206 89 10
203 91 8 231 132 42 226 134 42 226 135 40 226 135 40 225 134 39
225 134 39 225 134 37 225 134 37 225 134 37 224 133 36 219 128 31
217 126 29 219 125 31 220 126 32 220 126 32 221 125 32 223 125 30
225 123 32 223 124 34 228 121 36 208 83 7 211 79 10 210 79 12
208 80 12 209 81 15 209 81 15 209 81 15 209 81 15 212 81 16 210 79 14
204 73 8 201 71 6 205 72 8 205 72 8 205 72 8 205 72 8 207 71 10
207 71 10 207 71 10 206 70 9 206 70 9 205 69 8 205 69 8 205 69 8
205 68 10 205 68 10 205 68 10 205 68 10 205 68 10 205 68 10 205 68 10
206 70 11 206 70 11 206 70 11 206 70 11 206 70 11 206 70 11 206 70 11
204 71 9 204 71 9 214 84 18 213 85 16 211 86 14 211 86 14 209 87 12
211 87 10 213 86 10 214 85 10 209 85 8 206 89 10 223 118 35
222 122 37 224 124 39 224 124 39 226 123 39 226 123 39 226 123 39
226 123 39 226 123 39 226 123 39 221 114 27 221 114 27 221 114 27
221 114 29 221 114 29 221 114 29 221 114 31 221 114 31 224 114 32
227 112 32 207 85 10 211 81 9 216 84 14 216 84 14 213 85 14 213 85 14
213 85 14 213 85 14 213 86 12 213 86 12 213 86 12 213 86 12 213 86 10
213 86 10 213 86 12 213 86 12 213 86 12 213 86 12 211 81 11 213 83 13
204 74 4 206 76 6 203 76 7 203 76 7 203 76 7 205 75 7 205 75 7
205 75 7 205 75 7 205 75 7 212 82 14 212 82 14 212 82 14 212 82 14
213 83 15 213 83 15 213 83 15 213 83 15 213 83 15 211 81 13 207 77 9
205 75 7 205 72 8 207 74 9 207 74 9 207 73 11 208 72 11 208 72 11
208 72 13 208 72 13 203 64 6 203 64 8 203 64 8 203 63 10 204 63 10
204 63 10 204 63 8 204 63 8 204 65 7 200 66 4 214 84 18 211 84 15
211 86 14 209 87 14 208 88 12 208 88 12 208 88 12 208 88 12 208 88 12
203 91 10 231 131 44 226 134 42 226 135 40 225 134 39 225 134 39
225 134 39 225 134 37 225 134 37 225 134 37 224 133 36 219 128 33
217 125 31 217 125 31 218 127 32 218 127 32 220 126 32 223 125 30
225 123 32 223 124 34 228 121 36 208 83 7 211 79 10 210 79 12
210 79 12 211 80 15 211 80 17 211 80 17 211 80 17 212 81 18 210 79 16
204 73 10 201 70 8 205 72 8 205 72 8 205 72 8 205 72 8 207 71 10
207 71 10 207 71 10 206 70 9 206 70 9 205 69 8 205 69 8 205 69 8
205 68 10 205 68 10 205 68 10 205 68 10 205 68 10 205 68 10 205 68 10
206 70 11 206 70 11 206 70 11 206 70 11 206 70 11 206 70 11 206 70 11
204 71 9 204 71 9 214 84 18 213 85 16 211 86 14 211 86 14 209 87 12
211 87 10 214 85 10 214 85 10 210 83 10 206 89 12 223 118 35
222 122 37 223 123 38 223 123 38 223 123 38 223 123 38 224 124 39
224 124 39 224 124 39 224 124 39 221 114 27 221 114 27 221 114 27
221 114 27 221 114 29 221 114 29 221 114 31 222 113 31 224 114 32
227 112 32 207 85 10 209 82 9 214 84 14 214 84 14 213 85 14 211 86 14
213 85 14 213 85 14 213 86 12 213 86 12 213 86 12 213 86 12 213 86 10
213 86 10 213 86 12 213 86 12 213 86 12 213 86 12 211 81 11 213 83 13
204 74 4 206 76 6 203 76 7 203 76 7 203 76 7 203 76 7 205 75 7
205 75 7 205 75 7 205 75 7 212 82 14 212 82 14 212 82 14 212 82 14
213 83 15 213 83 15 213 83 15 213 83 15 213 83 15 211 81 13 207 77 9
207 74 9 205 72 8 207 74 9 207 73 11 207 73 11 208 72 11 208 72 11
208 72 13 208 72 13 203 64 6 203 64 6 203 64 8 203 64 8 204 63 10
204 63 10 204 63 8 204 63 8 204 65 7 200 66 6 214 83 20 211 83 17
211 86 16 209 87 14 208 88 14 208 88 12 208 88 12 208 88 12 208 88 12
203 91 10 231 131 44 226 134 42 225 134 39 225 134 39 225 134 39
225 134 39 225 134 37 225 134 37 225 134 37 224 133 36 219 128 33
217 125 31 217 125 31 218 127 32 218 127 32 220 126 32 223 124 32
225 123 32 223 124 34 228 121 38 206 84 9 210 80 10 210 79 12
210 79 14 211 80 17 211 80 17 211 80 17 211 80 17 212 81 18 210 79 16
204 73 10 201 70 8 205 72 8 205 72 8 205 72 8 205 72 8 207 71 10
207 71 10 207 71 10 206 70 9 206 70 9 205 69 8 205 69 8 205 69 8
205 68 10 205 68 10 205 68 10 205 68 10 205 68 10 205 68 10 205 68 10
206 70 11 206 70 11 206 70 11 206 70 11 206 70 11 206 70 11 206 70 11
204 71 9 204 71 9 214 84 18 214 84 18 213 85 16 211 86 14 211 86 12
211 87 10 214 85 10 214 85 10 210 83 10 208 88 12 224 117 35
222 122 37 223 123 38 223 123 38 223 123 38 223 123 38 224 124 39
224 124 39 224 124 39 224 124 39 222 113 27 222 113 27 222 113 27
222 113 27 222 113 29 222 113 29 222 113 31 222 113 31 225 113 32
227 112 32 207 85 10 209 82 9 214 84 14 214 84 14 213 85 14 211 86 14
213 85 14 213 85 14 213 86 12 213 86 12 213 86 10 213 86 10 213 86 10
213 86 10 213 86 10 213 86 10 213 86 12 213 86 12 211 81 9 213 84 11
204 74 2 206 76 6 203 76 7 203 76 7 203 76 7 203 76 7 205 75 7
205 75 7 205 75 7 205 75 7 212 82 14 212 82 14 212 82 14 212 82 14
213 83 15 213 83 15 213 83 15 213 83 15 215 82 17 212 79 15 209 76 11
207 74 9 207 71 10 208 72 11 208 72 11 208 72 11 208 72 11 208 72 11
208 72 13 208 72 13 203 64 6 203 64 6 203 64 8 203 64 8 204 63 10
204 63 10 204 63 8 204 63 8 203 64 6 200 66 6 214 83 20 211 83 17
211 86 16 209 87 16 208 88 14 208 88 14 208 88 14 208 88 14 208 88 14
203 91 12 231 132 42 225 134 39 225 134 39 225 134 37 225 134 39
225 134 39 225 134 37 225 134 37 225 134 37 224 133 36 219 128 33
217 125 31 217 125 33 218 126 34 218 126 34 220 125 34 221 125 32
223 124 32 223 124 34 228 121 38 206 84 9 207 79 9 207 79 11
207 79 13 211 80 17 211 80 17 211 80 17 211 80 17 211 80 17 210 79 16
204 73 10 201 70 8 205 72 8 205 72 8 205 72 8 205 72 8 207 71 10
207 71 10 207 71 10 206 70 9 206 70 9 205 69 8 205 69 8 205 69 8
205 68 10 205 68 10 205 68 10 205 68 10 205 68 10 205 68 10 205 68 10
206 70 11 206 70 11 206 70 11 206 70 11 206 70 11 206 70 11 206 70 11
204 71 9 204 71 9 214 84 18 214 84 18 213 85 16 213 85 14 211 86 12
213 86 10 214 85 10 214 85 10 210 83 10 208 88 12 226 116 35
223 121 37 223 123 38 223 123 38 223 123 38 223 123 38 224 124 39
224 124 39 224 124 39 224 124 39 224 115 28 224 115 28 224 115 28
224 115 28 224 114 30 224 114 30 224 114 32 224 114 32 225 113 32
227 112 32 208 86 11 209 82 9 214 84 14 214 84 14 213 85 14 211 86 14
211 86 14 213 85 14 214 85 12 214 85 12 213 86 10 213 86 10 214 86 8
214 86 8 213 86 10 211 87 10 211 86 12 211 86 12 209 82 9 213 84 11
205 74 2 208 76 4 205 75 5 203 76 7 203 76 7 203 76 7 205 75 7
205 75 7 205 75 7 205 75 7 212 82 14 212 82 14 212 82 14 212 82 14
213 83 15 215 82 17 215 82 17 215 82 17 215 82 17 212 79 15 209 76 11
207 74 9 207 71 10 208 72 11 208 72 11 208 72 11 208 72 11 208 72 11
208 72 13 208 72 13 204 65 7 204 65 7 203 64 8 203 64 8 204 63 10
204 63 10 204 63 8 203 64 8 201 65 6 201 67 7 214 83 20 211 83 19
211 85 18 209 87 16 209 87 16 209 87 14 209 87 14 209 87 14 209 87 14
205 90 12 230 131 41 225 134 39 225 134 37 225 134 37 225 134 39
227 133 39 227 133 37 227 133 37 227 133 37 226 132 38 221 127 33
219 124 33 219 124 33 220 125 34 220 125 34 221 125 34 223 124 34
223 124 34 225 123 36 228 121 38 203 83 8 207 79 9 207 79 11
207 79 11 211 80 15 211 80 17 211 80 17 211 80 17 211 80 17 210 79 16
204 73 10 203 70 8 205 72 8 205 72 8 205 72 8 205 72 8 207 71 10
207 71 10 207 71 10 206 70 9 206 70 9 205 69 8 205 69 8 205 69 8
205 68 10 205 68 10 205 68 10 205 68 10 205 68 10 205 68 10 205 68 10
206 70 11 206 70 11 206 70 11 206 70 11 206 70 11 206 70 11 206 70 11
204 71 9 204 71 9 214 84 18 214 84 18 214 84 16 213 85 14 213 86 12
213 86 12 216 84 12 214 85 12 210 83 10 208 88 12 228 115 35
225 120 37 223 123 38 223 123 38 223 123 38 223 123 38 224 124 39
224 124 39 224 124 39 224 124 39 222 113 27 224 115 28 224 115 28
224 115 28 225 113 30 225 113 30 225 113 30 225 113 32 229 117 36
230 115 38 208 86 11 210 83 10 213 83 13 214 84 14 213 85 16
211 86 16 211 86 14 213 85 14 217 83 12 217 83 12 210 86 9 210 86 7
215 84 7 215 84 7 211 85 9 208 87 9 205 88 9 203 86 7 203 83 8
209 82 9 209 72 2 212 75 5 206 76 6 204 77 6 204 77 6 204 77 6
206 76 8 206 76 8 204 77 6 206 78 7 210 79 12 214 84 16 214 84 18
213 83 17 213 81 16 214 78 17 214 78 17 213 80 18 215 82 17 213 81 16
210 77 15 208 74 12 207 71 10 208 72 11 208 72 13 208 72 13 210 71 13
210 71 13 209 70 10 207 69 11 205 66 9 204 65 9 204 65 9 204 65 9
205 64 11 205 64 11 204 65 9 204 65 9 201 65 8 203 69 10 212 81 18
216 88 24 213 84 18 211 85 18 211 86 16 211 86 16 211 86 16 211 86 14
211 86 14 206 89 10 234 132 44 229 135 42 229 135 40 229 135 40
229 135 42 231 134 42 231 134 42 231 134 42 231 134 42 230 133 42
225 128 38 223 125 37 222 122 35 222 122 35 222 122 35 222 122 35
223 121 35 223 121 35 225 121 35 228 119 37 202 82 7 204 79 7
206 78 9 207 79 11 210 79 14 210 79 14 210 79 16 210 79 16 212 79 17
210 77 15 207 73 11 204 71 9 207 71 10 207 71 10 207 71 10 207 71 10
207 71 10 207 71 10 207 71 10 206 70 9 206 70 9 205 69 8 205 69 8
205 69 8 205 69 8 205 69 8 205 69 8 205 69 8 204 71 9 204 71 9
204 71 9 204 71 9 205 72 10 205 72 10 205 72 10 205 72 10 205 72 10
205 72 10 205 72 10 205 72 10 212 81 16 212 81 16 212 82 14 212 82 14
212 82 12 213 81 12 213 81 12 213 82 10 209 82 9 209 87 12 230 115 38
229 121 41 220 119 35 218 120 35 218 121 33 218 121 33 219 122 34
219 122 34 219 122 34 219 122 34 220 111 25 221 112 26 221 112 26
223 112 26 223 111 28 223 111 28 223 111 28 223 111 30 222 109 31
224 110 32 207 85 10 209 84 10 211 84 13 213 85 14 211 86 16
209 87 16 208 88 14 209 87 14 216 84 12 213 84 9 206 87 6 203 86 5
209 83 5 209 83 5 204 85 7 200 87 7 196 89 7 196 89 7 203 91 12
209 89 14 205 74 2 208 74 3 204 74 4 202 75 4 202 75 4 202 75 4
204 74 6 204 74 6 202 75 4 202 75 4 206 76 8 210 79 12 212 81 16
213 81 16 216 80 19 217 82 20 219 82 24 217 81 22 213 80 18 211 78 16
208 74 12 207 71 10 206 70 9 206 70 9 206 70 11 206 70 11 207 69 11
207 69 11 207 69 9 206 68 10 205 66 11 204 65 9 204 65 9 204 65 9
205 64 11 205 64 11 204 65 9 204 65 9 201 65 8 205 68 12 209 75 15
212 81 18 214 83 20 213 84 18 213 84 18 213 85 16 213 85 16 211 86 16
211 86 14 208 88 10 238 132 45 235 134 43 235 134 43 235 134 43
235 134 43 237 133 45 237 133 45 237 133 45 237 133 45 237 131 44
232 126 41 230 123 39 223 116 32 223 116 32 223 116 34 223 116 34
222 117 34 222 117 34 223 116 34 226 114 34 200 80 4 204 79 7
206 78 9 208 78 11 210 79 14 210 79 14 210 79 16 210 79 16 212 79 17
210 77 15 207 73 11 204 71 9 207 71 10 207 71 10 207 71 10 207 71 10
207 71 10 207 71 10 207 71 10 206 70 9 206 70 9 205 69 8 205 69 8
205 69 8 205 69 8 205 69 8 205 69 8 205 69 8 204 71 9 204 71 9
204 71 9 204 71 9 205 72 10 205 72 10 205 72 10 205 72 10 205 72 10
205 72 10 207 73 11 208 74 12 207 77 11 208 78 13 211 79 12 211 79 12
211 79 10 213 78 10 213 78 10 211 79 10 216 89 16 214 92 17
233 116 39 229 119 40 225 120 37 222 122 37 222 122 35 223 121 35
225 123 36 225 123 36 225 123 36 225 123 36 217 106 20 218 107 21
218 107 21 218 107 21 220 106 23 220 106 23 220 106 23 220 105 26
213 98 21 219 102 25 203 83 8 210 85 11 211 84 13 213 85 14 211 86 16
209 87 16 205 89 14 205 89 14 209 87 12 208 88 10 238 133 48
236 135 46 243 131 46 243 131 48 239 133 48 235 135 48 231 136 50
231 136 50 229 129 44 230 123 41 222 102 24 223 96 23 222 95 24
222 95 24 222 95 24 222 95 24 224 93 26 224 93 26 222 95 24 222 95 24
199 69 1 203 72 5 205 74 9 205 72 8 206 70 9 205 69 8 203 67 9
205 68 10 207 71 10 207 71 10 203 67 9 201 65 6 203 64 6 204 65 7
204 65 7 204 65 7 204 65 7 204 65 7 204 66 5 204 65 7 204 65 9
204 65 9 204 65 9 204 65 9 205 64 11 205 64 11 204 65 9 204 65 9
202 66 9 203 67 11 205 68 10 204 70 11 197 64 2 196 65 2 196 65 0
196 65 0 196 65 0 194 66 0 194 67 0 192 68 0 208 89 8 206 90 6
205 91 6 205 91 6 205 91 6 206 90 8 206 90 8 206 90 8 206 90 8
207 88 7 202 83 1 200 81 0 209 90 10 209 90 12 207 90 12 206 91 12
204 92 12 203 93 12 203 91 10 202 87 10 205 82 10 204 79 9 208 78 11
208 78 11 208 78 13 208 78 13 210 79 14 210 79 14 211 78 16 210 77 15
207 73 11 205 72 10 207 71 10 207 71 10 207 71 10 207 71 10 207 71 10
207 71 10 207 71 10 206 70 9 206 70 9 205 69 8 205 69 8 205 69 8
205 69 8 205 69 8 205 69 8 205 69 8 204 71 9 204 71 9 204 71 9
204 71 9 205 72 10 205 72 10 205 72 10 205 72 10 205 72 10 205 72 10
207 73 11 207 73 11 205 74 9 205 75 7 208 75 8 208 75 8 209 74 8
209 74 8 209 74 8 208 76 6 203 76 3 197 74 0 212 93 17 209 91 15
209 97 16 209 97 16 209 97 14 210 96 14 212 97 15 212 97 15 212 97 15
212 97 15 215 103 18 216 105 19 216 105 19 216 105 19 217 103 21
217 103 21 217 103 21 217 103 23 206 91 14 216 98 22 203 83 8
211 88 16 210 85 13 213 85 16 211 86 16 208 87 16 203 90 16 201 91 14
206 89 12 203 91 10 231 133 46 228 135 44 231 134 44 232 133 44
231 133 46 228 135 46 223 137 48 223 137 48 229 139 51 230 130 45
217 105 24 216 97 19 218 93 19 220 92 21 220 92 21 220 92 21
221 91 23 221 91 23 220 92 21 220 92 21 201 71 4 199 69 1 203 72 7
205 72 8 208 72 11 208 72 11 208 72 13 208 72 13 208 72 11 206 70 9
202 66 7 200 64 5 203 64 6 203 64 6 203 64 6 203 64 6 203 64 6
203 64 6 203 65 4 203 64 6 204 65 9 204 65 9 204 65 9 204 65 9
205 64 11 205 64 11 204 65 9 204 65 9 202 66 9 202 66 9 201 65 6
200 64 5 200 64 3 198 65 3 198 65 1 198 65 1 198 65 1 198 66 0
197 67 0 197 67 0 215 88 15 215 88 13 213 90 11 213 90 11 213 89 13
213 89 13 213 89 13 213 89 13 215 88 13 214 88 10 211 82 5 210 81 4
212 83 8 211 85 9 210 86 9 208 87 9 205 88 11 203 89 11 204 87 8
204 85 9 205 80 9 207 77 9 210 77 11 209 76 9 209 76 11 207 77 11
207 77 11 207 77 11 210 77 15 209 75 13 207 73 11 205 72 10 207 71 10
207 71 10 207 71 10 207 71 10 207 71 10 207 71 10 207 71 10 206 70 9
206 70 9 205 69 8 205 69 8 205 69 8 205 69 8 205 69 8 205 69 8
205 69 8 204 71 9 204 71 9 204 71 9 204 71 9 205 72 10 205 72 10
205 72 10 205 72 10 205 72 10 205 72 10 205 72 10 205 72 10 204 73 8
204 74 6 205 73 6 207 72 6 210 72 7 210 72 7 208 73 7 207 74 5
210 83 12 204 79 5 216 94 19 210 90 15 217 97 22 217 98 20 219 97 20
219 97 18 220 99 19 220 99 19 220 99 19 220 99 19 215 104 16
216 105 17 216 105 17 216 105 19 217 104 19 217 104 19 217 103 21
217 103 23 219 102 25 216 98 22 212 92 19 211 88 16 211 86 16
211 86 16 211 85 18 208 87 18 203 90 16 203 90 14 205 90 12 201 92 10
226 136 46 221 139 44 224 137 42 226 136 44 226 136 46 224 137 46
220 139 46 220 139 46 220 135 45 229 134 48 205 97 15 212 97 17
215 93 18 217 92 18 217 92 18 218 91 20 218 91 20 218 91 20 218 91 20
218 91 20 200 70 2 198 68 0 203 70 6 203 70 6 205 69 8 205 66 9
205 66 9 205 66 9 203 67 9 203 67 9 203 67 9 203 67 9 203 64 8
203 64 8 203 64 8 203 64 8 205 64 7 205 64 7 205 64 7 205 64 7
204 65 9 204 65 9 204 65 9 204 65 9 204 65 9 204 65 9 204 65 9
204 65 9 204 65 11 204 65 9 204 65 7 204 65 7 203 65 4 201 65 4
201 66 2 201 66 2 201 66 0 201 66 0 201 66 0 200 67 0 216 84 14
214 84 14 214 84 14 213 85 14 214 87 14 214 87 14 214 87 14 215 86 14
214 85 12 216 84 10 216 84 10 216 84 10 216 84 10 216 84 10 214 85 10
211 87 10 209 87 12 208 88 12 208 86 11 209 84 10 210 80 10 212 77 11
212 75 9 212 75 9 210 75 11 208 75 10 208 75 10 208 75 10 209 75 13
209 75 13 208 74 12 207 73 11 207 71 10 207 71 10 207 71 10 207 71 10
207 71 10 207 71 10 207 71 10 206 70 9 206 70 9 205 69 8 205 69 8
205 69 8 205 69 8 205 69 8 206 70 9 206 70 9 204 71 9 204 71 9
205 72 10 205 72 10 207 73 11 207 73 11 207 73 11 207 73 11 207 73 11
207 73 11 207 73 11 207 73 11 205 72 10 205 72 8 205 72 8 207 72 6
209 71 6 209 72 4 207 72 4 205 73 4 205 75 5 201 76 4 218 95 23
216 94 21 218 95 21 219 95 21 221 94 19 220 93 17 220 93 17 218 92 16
218 92 16 218 92 16 215 104 16 216 105 17 216 105 17 216 105 17
217 104 19 217 104 19 217 103 21 217 103 21 219 102 23 216 98 22
212 92 19 211 88 16 211 86 16 211 86 16 209 86 18 208 87 18 205 89 16
205 89 16 208 88 14 201 92 10 226 136 46 220 140 44 221 139 42
224 137 42 226 136 44 224 137 46 220 139 46 220 139 46 220 135 45
229 134 48 205 97 15 212 97 17 215 93 18 217 92 18 217 92 18
217 92 18 218 91 20 218 91 20 218 91 20 218 91 20 200 70 2 198 68 0
203 70 6 205 69 8 206 68 10 205 66 9 205 66 9 205 66 9 203 67 9
203 67 9 203 67 9 205 66 9 204 65 9 204 65 9 204 65 9 204 65 9
205 64 7 205 64 7 205 64 7 205 64 7 204 65 9 204 65 9 204 65 9
204 65 9 204 65 9 204 65 9 204 65 9 204 65 9 204 65 11 204 65 9
204 65 7 204 65 7 203 65 4 203 65 4 203 65 4 203 65 2 203 65 2
203 65 2 203 65 2 201 66 0 214 84 16 213 85 16 213 85 16 213 85 16
214 86 18 214 86 16 214 86 16 214 87 14 214 85 12 214 85 12 214 85 12
216 84 10 216 84 10 214 85 10 214 85 10 213 86 12 211 86 12 211 86 12
210 85 11 210 83 12 211 79 12 213 76 11 214 74 9 212 73 8 211 73 10
208 73 9 207 74 9 207 74 9 208 74 12 208 74 12 208 74 12 207 73 11
207 71 10 207 71 10 207 71 10 207 71 10 207 71 10 207 71 10 207 71 10
206 70 9 206 70 9 205 69 8 205 69 8 205 69 8 205 69 8 205 69 8
206 70 9 206 70 9 204 71 9 204 71 9 205 72 10 205 72 10 207 73 11
207 73 11 207 73 11 207 73 11 207 73 11 207 73 11 207 73 11 207 73 11
205 72 10 205 72 8 205 72 8 207 72 6 207 72 6 209 72 4 207 72 4
205 73 4 205 75 7 201 75 6 218 95 23 216 94 21 218 95 21 219 95 21
219 95 19 220 93 17 220 93 17 218 92 16 218 92 16 218 92 16
215 104 16 216 105 17 216 105 17 216 105 17 217 104 19 217 104 19
217 103 21 217 103 21 219 102 23 216 98 22 212 93 17 211 88 16
209 87 14 209 87 16 209 87 16 209 87 16 209 87 16 209 87 16 213 85 14
206 89 10 229 135 44 221 139 42 223 138 42 224 137 42 228 136 42
228 135 44 224 137 44 224 137 46 225 133 43 232 133 46 208 96 13
215 95 17 215 94 16 217 93 16 217 93 16 217 92 18 218 91 18 218 91 18
218 91 20 218 91 20 200 70 2 198 68 0 203 70 6 205 69 8 206 68 10
205 66 9 205 66 9 205 66 9 205 66 9 205 66 9 205 66 9 205 66 9
205 64 9 205 64 9 205 64 9 205 64 9 205 64 7 205 64 7 205 64 7
205 64 7 204 65 9 204 65 9 204 65 9 204 65 9 204 65 9 204 65 9
204 65 9 204 65 9 204 65 9 204 65 9 204 65 7 204 65 7 204 63 6
204 63 6 204 64 4 204 64 4 204 64 4 204 64 4 204 64 4 201 66 2
211 85 18 208 87 18 208 87 18 208 87 18 209 88 18 209 88 18 209 88 18
211 88 16 209 87 14 209 87 14 209 87 12 211 86 12 211 86 12 211 86 12
211 86 12 211 86 12 211 86 14 211 86 14 211 84 13 212 82 12 213 78 12
213 76 11 214 74 9 212 73 8 211 73 10 208 73 9 207 74 9 207 74 9
208 74 12 208 74 12 207 73 11 207 73 11 208 72 11 208 72 11 207 71 10
207 71 10 207 71 10 207 71 10 207 71 10 206 70 9 206 70 11 205 68 10
205 68 10 205 68 10 205 68 10 205 68 10 206 70 11 206 70 11 204 71 9
204 71 9 205 72 10 205 72 10 207 73 11 207 73 11 207 74 9 207 74 9
207 74 9 207 74 9 207 74 9 207 74 9 205 72 8 205 73 6 207 72 6
207 72 6 207 72 6 207 72 6 207 72 6 205 73 6 205 75 7 201 75 6
218 95 23 215 95 21 216 96 21 216 96 21 216 97 19 215 95 17 215 95 17
214 94 16 214 94 16 214 94 16 215 104 16 216 105 17 216 105 17
216 105 19 217 104 19 217 104 19 217 103 21 217 103 21 219 102 23
216 99 20 212 93 17 209 89 14 209 87 14 209 87 14 209 87 16 209 87 16
211 86 16 213 85 16 214 84 14 208 88 10 228 133 42 222 137 40
222 138 38 223 137 38 228 136 42 228 136 42 224 137 44 224 137 44
225 133 43 232 133 46 208 96 13 215 96 15 215 94 16 217 93 16
217 93 16 217 93 16 218 91 18 218 91 18 218 91 20 218 91 20 200 70 2
198 67 2 203 70 6 205 69 8 206 68 8 205 66 9 205 66 9 205 66 9
205 66 9 205 66 9 204 65 7 204 65 7 205 64 9 205 64 9 205 64 9
205 64 9 205 64 7 205 64 7 205 64 7 205 64 7 204 65 9 204 65 9
204 65 9 204 65 9 204 65 9 204 65 9 204 65 9 204 65 9 204 65 9
204 65 9 204 65 7 204 65 7 204 63 6 204 63 6 204 64 4 204 64 4
206 63 4 206 63 4 206 63 4 201 65 4 211 85 18 208 87 18 208 87 18
208 87 18 209 88 18 209 88 18 209 88 18 209 88 18 209 87 14 209 87 14
209 87 14 209 87 12 209 87 12 210 85 11 210 85 11 210 85 11 211 86 14
213 85 14 213 83 13 213 81 12 213 78 12 213 76 11 212 75 9 211 73 8
209 74 10 208 73 9 207 74 9 207 74 9 208 74 12 208 74 12 207 73 11
207 73 11 208 72 11 208 72 11 207 71 10 207 71 10 207 71 10 207 71 10
207 71 10 206 70 9 206 70 11 205 68 10 205 68 10 205 68 10 205 68 10
205 68 10 206 70 11 206 70 11 204 71 9 204 71 9 205 72 10 205 72 10
207 73 11 207 73 11 207 74 9 207 74 9 207 74 9 207 74 9 207 74 9
207 74 9 205 73 6 205 73 6 207 72 6 207 72 6 207 72 6 207 72 6
205 73 6 205 73 6 205 75 7 201 75 6 218 95 25 215 95 21 216 96 23
216 96 21 216 96 21 215 95 17 215 95 17 214 94 16 214 94 16 214 94 16
215 103 18 216 105 19 216 105 19 216 105 19 217 103 21 217 103 21
219 103 21 219 103 21 219 102 23 216 99 20 212 93 15 209 89 14
211 88 14 211 88 16 211 88 16 211 88 16 212 87 18 214 86 18 214 86 16
206 91 12 228 133 42 220 138 40 222 138 38 223 137 38 225 136 38
223 136 40 218 138 42 218 138 42 219 134 40 228 133 42 203 96 12
210 96 14 212 94 13 214 93 13 214 92 15 216 92 15 216 91 17 216 91 17
216 91 19 217 90 19 199 69 1 197 66 1 202 68 6 205 69 8 206 68 8
206 68 8 205 67 6 205 67 6 204 65 7 204 65 7 204 65 7 204 65 7
205 64 9 205 64 9 205 64 7 205 64 7 205 64 9 205 64 9 205 64 7
205 64 7 204 65 7 204 65 7 204 65 7 204 65 7 204 65 7 204 65 7
204 65 7 204 65 7 204 65 7 204 65 7 204 65 7 204 65 7 205 65 5
205 65 5 204 66 5 205 65 5 205 65 3 205 65 3 205 65 3 204 66 3
217 84 20 215 85 20 214 86 20 214 86 20 214 86 18 214 86 18 214 86 18
214 86 18 214 86 18 214 86 18 214 86 18 213 85 14 211 84 13 211 84 13
211 84 13 211 84 13 211 84 13 211 84 13 212 82 12 211 81 11 211 79 12
212 77 11 210 75 9 210 75 9 208 75 10 208 75 10 208 75 10 206 76 10
208 74 12 208 74 12 207 73 11 207 73 11 208 72 11 208 72 11 207 71 10
207 71 10 207 71 10 207 71 10 207 71 10 206 70 9 206 70 11 205 68 12
205 68 10 205 68 10 205 68 10 205 68 10 206 70 9 206 70 9 204 71 9
204 71 9 205 72 8 205 72 8 207 74 9 207 74 9 207 74 9 207 74 9
207 74 9 207 74 9 207 74 9 207 74 9 205 72 8 205 72 8 205 72 8
205 72 8 205 72 8 205 72 8 205 72 8 205 72 8 205 74 9 202 74 8
219 94 25 216 93 23 218 95 23 218 95 23 218 95 21 218 95 21 216 94 19
216 94 19 216 94 19 216 94 19 216 102 20 217 103 21 217 103 21
217 103 21 217 103 21 219 102 23 219 102 23 219 102 23 219 102 23
217 98 20 212 93 15 209 90 12 211 88 14 211 88 14 211 88 16 211 88 16
212 87 18 212 87 18 212 87 16 206 91 12 225 133 41 219 137 39
220 136 37 220 137 35 223 137 38 222 138 38 217 140 40 217 139 42
218 135 40 226 134 42 202 97 12 209 97 14 211 94 13 214 93 13
214 92 15 214 92 15 214 92 17 214 92 17 214 92 19 216 90 21 199 69 3
198 65 1 202 68 6 205 69 8 206 68 8 206 68 8 205 67 6 205 67 6
204 65 7 204 65 7 203 64 6 203 64 6 205 64 9 205 64 9 205 64 7
205 64 7 205 64 9 205 64 9 205 64 7 205 64 7 204 65 7 204 65 7
204 65 7 204 65 7 204 65 7 204 65 7 204 65 7 204 65 7 204 65 7
204 65 7 204 65 7 204 65 7 205 65 5 205 65 5 204 66 5 204 66 5
205 65 3 205 65 3 204 66 3 204 66 3 219 83 20 219 83 20 217 84 20
217 84 20 217 84 18 217 84 18 215 85 18 215 85 18 215 85 18 215 85 18
215 85 18 214 84 16 211 84 13 210 83 12 210 83 12 210 83 12 211 84 13
211 84 13 212 82 12 211 81 11 210 79 12 210 77 11 209 76 9 209 76 9
208 75 10 208 75 10 206 76 10 206 76 10 208 74 12 208 74 12 207 73 11
207 73 11 208 72 11 208 72 11 207 71 10 207 71 10 207 71 10 207 71 10
207 71 10 206 70 9 206 70 11 205 68 12 205 68 10 205 68 10 205 68 10
205 68 10 206 70 9 206 70 9 204 71 9 204 71 9 205 72 8 205 72 8
207 74 9 207 74 9 207 74 9 207 74 9 207 74 9 207 74 9 207 74 9
207 74 9 205 72 8 205 72 8 205 72 8 205 72 8 205 72 8 205 72 8
205 72 8 204 73 8 203 75 9 202 74 8 219 94 25 218 93 23 219 94 23
219 94 23 218 95 21 218 95 21 216 94 19 216 94 19 216 94 19 216 94 19
218 101 22 219 102 23 219 102 23 219 102 23 219 102 23 221 101 25
221 101 25 221 101 23 221 101 23 217 98 20 214 94 16 210 91 13
212 90 13 212 90 15 212 90 15 212 89 17 212 89 19 213 88 19 213 88 17
207 92 13 228 135 44 221 139 42 223 139 40 223 139 38 226 139 39
224 140 41 219 142 43 219 142 43 218 136 38 226 134 42 202 98 10
209 98 12 211 94 13 212 94 13 212 93 15 212 93 15 212 93 15 212 93 17
212 92 19 214 91 21 200 70 4 200 65 1 203 68 6 205 69 8 206 68 8
206 68 8 205 67 6 205 67 6 204 66 5 204 66 5 204 66 5 204 65 7
205 64 7 205 64 7 205 64 7 205 64 7 205 64 9 205 64 9 205 64 7
205 64 7 204 65 7 204 65 7 204 65 7 204 65 7 204 65 7 204 65 7
205 66 9 205 66 9 205 67 6 205 67 6 205 67 6 205 67 6 207 66 6
207 66 6 205 67 6 205 67 6 204 66 3 204 66 3 204 66 3 204 66 3
217 82 18 217 82 18 216 83 18 217 84 20 217 84 18 217 84 18 215 85 18
215 85 18 215 85 18 215 85 18 215 85 18 214 84 16 211 84 15 210 83 14
210 83 14 210 83 14 211 84 13 211 84 13 210 83 12 209 82 11 208 80 12
208 78 11 208 78 11 208 78 11 207 77 11 207 77 11 207 77 11 207 77 11
210 77 15 209 75 13 207 73 11 207 73 11 208 72 11 208 72 11 208 72 11
208 72 11 208 72 11 208 72 11 208 72 11 206 70 9 204 70 11 203 69 10
203 69 10 203 69 10 203 70 8 203 70 8 204 71 9 204 71 9 204 71 7
204 71 7 205 72 8 205 72 8 207 74 7 207 74 7 207 74 7 207 74 7
207 74 7 207 74 7 207 74 7 207 74 7 207 74 9 207 74 9 207 74 9
207 74 9 204 73 8 204 73 8 204 73 8 204 73 8 203 75 9 202 74 8
221 93 25 220 92 23 219 94 23 219 94 23 218 95 21 218 95 21 216 94 19
216 94 19 216 94 19 216 94 19 219 99 26 221 101 27 221 101 27
221 101 27 222 100 27 222 100 27 222 100 27 222 100 25 222 100 25
219 97 20 215 94 16 211 92 14 212 90 13 212 90 13 212 90 15 212 90 15
212 89 17 212 89 19 215 90 18 208 94 14 229 137 45 222 140 43
224 140 41 224 140 39 227 141 40 225 141 42 220 143 44 220 143 44
218 136 38 226 135 40 202 98 10 209 98 12 209 95 13 209 95 13
209 95 15 209 95 15 209 95 15 209 95 15 209 94 17 212 92 19 200 70 4
200 65 1 203 68 6 205 69 8 206 68 8 206 68 8 205 67 6 205 67 6
204 66 5 204 66 5 204 66 5 204 66 5 205 64 7 205 64 7 205 64 7
205 64 7 205 64 9 205 64 9 205 64 7 205 64 7 204 65 7 204 65 7
204 65 7 204 65 7 204 65 7 204 65 7 205 66 9 205 66 9 205 67 6
205 67 6 205 67 6 205 67 6 208 67 8 208 67 8 206 68 8 206 68 8
204 66 3 204 66 3 204 66 3 204 66 3 216 81 17 216 81 17 215 82 17
215 82 17 216 83 16 216 83 16 214 84 16 214 84 16 214 84 16 213 83 15
213 83 15 212 82 14 210 83 14 209 81 13 210 83 14 210 83 14 209 82 11
209 82 11 209 82 11 208 81 10 208 80 12 207 79 11 207 79 11 207 79 11
208 78 13 208 78 13 208 78 13 208 78 13 211 78 16 210 77 15 208 74 12
207 73 11 207 71 10 208 72 11 208 72 11 208 72 11 208 72 11 208 72 11
208 72 11 204 71 9 204 71 9 203 69 10 203 69 10 203 70 8 203 70 8
203 70 8 204 71 9 204 71 9 204 71 7 204 71 7 205 72 8 205 72 8
207 74 7 207 74 7 207 74 7 207 74 7 207 74 7 207 74 7 207 74 7
207 74 7 207 74 9 207 74 9 207 74 9 207 74 9 204 73 8 204 73 8
204 73 8 204 73 8 205 74 9 202 74 8 221 93 25 220 92 23 221 93 25
219 94 23 219 94 23 218 95 21 216 94 19 216 94 19 216 94 19 216 94 19
202 76 9 202 76 9 202 76 9 202 76 9 202 76 7 202 76 7 202 76 7
202 77 5 201 76 4 199 75 1 216 94 19 215 93 18 211 92 14 211 92 14
214 92 15 214 92 17 213 90 18 213 90 20 216 91 19 209 95 15
231 139 47 225 143 45 226 142 43 226 143 41 229 143 44 227 143 44
223 145 46 223 145 46 230 148 51 239 148 53 215 110 23 220 111 25
219 110 26 219 110 26 219 109 28 219 109 28 219 109 28 219 109 28
219 109 30 224 106 32 201 71 6 203 65 4 205 67 6 206 68 8 206 68 8
206 68 8 206 68 8 206 68 8 205 67 6 205 67 6 204 66 5 204 66 5
205 66 9 205 66 9 205 66 9 205 66 9 205 66 11 205 66 11 205 66 11
205 66 11 205 66 11 205 66 11 205 66 11 205 66 11 205 66 9 205 66 9
205 66 9 205 66 9 206 68 8 206 68 8 205 69 8 206 68 8 207 69 9
207 69 9 207 69 9 206 70 9 211 73 10 212 74 11 210 75 11 212 76 13
214 79 15 213 81 16 213 81 16 213 81 16 214 84 16 214 84 16 214 84 16
213 83 15 213 83 15 212 82 14 212 82 14 211 81 13 209 81 13 208 80 12
207 79 11 207 79 11 207 79 9 207 79 9 208 81 10 208 81 10 208 80 12
208 80 12 208 80 12 208 80 12 210 79 14 210 79 14 210 79 14 211 80 15
212 79 15 211 78 14 209 76 11 207 74 9 207 74 9 207 74 9 207 74 9
207 74 9 207 74 9 207 74 9 207 74 9 208 75 10 212 81 16 212 81 18
212 81 18 212 81 16 212 81 16 212 81 16 212 81 16 212 81 16 213 83 17
213 83 15 213 83 15 213 83 15 216 83 16 216 83 16 214 84 16 214 84 16
214 84 16 214 84 16 214 84 16 214 84 16 206 76 10 206 76 10 206 76 10
206 76 10 206 76 10 206 76 10 206 76 10 206 76 10 206 76 10 206 76 10
206 76 10 206 76 10 206 78 9 206 78 9 205 80 9 205 80 9 206 81 10
206 81 10 208 83 11 208 83 11 205 74 13 205 74 13 205 74 13 205 74 11
205 74 11 203 75 11 203 75 9 203 76 7 202 75 4 201 74 1 219 95 21
216 94 19 211 92 14 211 92 14 214 92 15 214 92 17 214 92 19 214 91 21
217 92 20 210 96 16 232 140 48 226 144 46 227 143 44 227 144 42
230 144 45 229 145 45 224 147 47 224 147 47 230 148 51 239 148 53
215 110 23 220 111 25 217 110 26 216 111 26 216 111 28 216 111 28
216 111 28 216 111 28 216 110 30 221 108 32 203 72 7 203 65 4
205 67 6 206 68 8 206 68 8 206 68 8 206 68 8 206 68 8 205 67 6
205 67 6 204 66 5 204 66 5 205 66 9 205 66 9 205 66 9 205 66 9
205 66 11 205 66 11 205 66 11 205 66 11 205 66 11 205 66 11 205 66 11
205 66 11 205 66 9 205 66 9 205 66 9 205 66 9 206 68 8 206 68 8
206 70 9 206 70 9 209 70 10 209 70 10 207 71 10 207 71 10 211 73 10
212 74 11 210 75 11 212 76 13 212 79 15 212 79 15 212 79 15 212 79 15
213 83 15 213 83 15 213 83 15 212 82 14 212 82 14 211 81 13 211 81 13
210 79 12 208 80 12 207 79 11 207 79 11 207 79 11 206 78 7 206 78 7
207 79 9 207 79 9 208 80 12 208 80 12 208 80 12 208 80 12 211 80 15
211 80 15 211 80 15 212 81 16 213 81 16 212 79 15 209 76 11 205 72 8
208 75 10 208 75 10 207 74 9 207 74 9 207 74 9 207 74 9 207 74 9
206 76 10 210 82 16 210 82 16 210 82 16 210 82 16 212 81 16 212 81 16
212 81 16 212 82 14 213 83 15 213 83 15 213 83 15 213 83 15 216 83 16
216 83 16 214 84 16 214 84 16 214 84 16 214 84 16 214 84 16 214 84 16
206 76 10 206 76 10 206 76 10 206 76 10 207 77 11 207 77 11 207 77 11
207 77 11 209 76 11 209 76 11 207 77 11 207 77 11 207 79 11 207 79 11
206 81 10 206 81 10 206 81 10 206 81 10 208 83 11 208 83 11 207 72 15
207 72 15 207 72 15 207 73 13 207 73 13 205 74 13 205 74 13 205 74 11
204 74 4 201 74 1 220 96 22 218 95 21 212 93 15 212 93 15 215 94 16
215 93 18 215 93 20 215 92 22 218 93 21 212 97 17 236 144 52
229 147 50 231 147 48 231 147 46 233 146 48 231 147 48 226 149 50
226 149 50 229 147 50 238 146 52 213 109 21 217 111 24 215 110 25
213 111 25 213 110 27 213 110 27 214 112 28 214 112 28 214 111 30
219 108 32 202 74 8 203 65 4 205 67 6 206 68 8 206 68 8 206 68 8
206 68 8 206 68 8 205 67 6 205 67 6 205 67 6 205 67 6 205 66 9
205 66 9 205 66 9 205 66 9 205 66 11 205 66 11 205 66 11 205 66 11
205 66 11 205 66 11 205 66 11 205 66 11 205 66 9 205 66 9 206 68 10
206 68 10 207 69 9 207 69 9 207 71 10 207 71 10 210 72 11 210 72 11
208 72 11 208 72 11 209 74 10 209 74 10 209 74 10 210 75 11 211 78 14
212 79 15 211 80 15 212 81 16 213 83 15 213 83 15 213 83 15 212 82 14
212 82 14 211 81 13 211 81 13 208 78 11 207 79 11 207 79 11 207 79 11
207 79 11 206 78 7 206 78 7 207 79 9 207 79 9 209 81 13 209 81 13
209 81 13 209 81 13 212 81 16 212 81 16 212 81 16 213 83 17 216 83 18
213 81 16 209 76 11 205 72 8 208 75 10 208 75 10 208 75 10 208 75 10
208 75 10 208 75 10 208 75 10 207 77 11 209 81 13 209 83 14 210 83 14
210 83 14 210 83 14 210 83 14 212 82 14 212 82 14 211 84 15 211 84 15
213 83 15 213 83 15 214 84 16 214 84 16 214 84 16 214 84 16 214 84 16
214 84 16 214 84 16 214 84 16 207 77 11 207 77 11 207 77 11 207 77 11
207 77 11 207 77 11 207 77 11 207 77 11 209 76 11 209 76 11 207 77 11
207 77 11 207 79 11 207 79 11 206 81 10 206 81 10 206 81 10 206 81 10
208 83 11 208 83 11 208 72 15 208 72 15 208 72 15 208 72 15 208 72 15
207 72 15 207 72 15 205 74 11 204 74 6 201 74 1 220 96 22 218 95 21
212 93 17 212 93 15 215 94 16 215 93 18 215 93 20 217 92 20 218 93 19
212 97 17 237 143 52 231 147 48 231 147 46 233 146 46 233 146 48
231 147 48 228 148 50 226 149 50 229 147 50 238 146 52 213 109 21
219 110 24 215 110 25 213 111 25 213 110 27 213 110 27 214 112 28
214 112 28 214 111 30 221 108 32 204 73 8 203 65 4 205 67 6 206 68 8
206 68 8 206 68 8 206 68 8 206 68 8 205 67 6 205 67 6 205 67 6
205 67 6 205 66 9 205 66 9 205 66 9 205 66 9 205 66 11 205 66 11
205 66 11 205 66 11 205 66 11 205 66 11 205 66 11 205 66 9 205 66 9
205 66 9 206 68 10 206 68 10 207 69 9 207 69 9 207 71 10 207 71 10
210 72 11 210 72 11 208 72 11 208 72 11 209 74 10 209 74 10 209 74 10
209 76 11 212 79 15 212 79 15 211 80 15 212 81 16 213 83 15 213 83 15
213 83 15 212 82 14 212 82 14 211 81 13 211 81 13 208 78 11 207 79 11
207 79 11 207 79 11 207 79 11 206 78 9 206 78 7 207 79 9 207 79 9
209 81 13 209 81 13 209 81 13 209 81 13 212 81 16 212 81 16 212 81 16
213 83 17 216 83 18 213 81 16 209 76 11 205 72 8 208 75 10 208 75 10
208 75 10 208 75 10 208 75 10 208 75 10 208 75 10 207 77 11 209 81 13
210 83 12 210 83 12 210 83 12 210 83 12 210 83 12 212 82 12 212 82 12
211 84 15 211 84 15 213 83 15 213 83 15 214 84 16 214 84 16 214 84 16
214 84 16 214 84 16 214 84 16 214 84 16 214 84 16 207 77 11 207 77 11
207 77 11 207 77 11 207 77 11 207 77 11 207 77 11 207 77 11 209 76 11
209 76 11 207 77 11 207 77 11 207 79 11 207 79 11 206 81 10 206 81 10
206 81 10 206 81 10 208 83 11 208 83 11 209 70 12 209 70 12 209 70 12
209 70 12 209 70 12 207 71 12 207 71 12 205 72 10 204 73 8 201 73 5
219 96 24 216 96 23 214 94 18 214 94 18 214 94 18 215 93 18 216 94 21
218 93 21 220 93 19 213 97 15 238 144 51 232 148 49 234 148 47
234 148 47 235 146 49 234 147 49 229 149 51 229 149 53 231 146 52
238 146 54 213 109 21 221 109 24 218 108 25 218 108 25 218 108 25
218 108 25 218 108 25 218 108 27 218 108 27 223 105 29 201 71 6
204 66 5 206 68 10 206 68 10 206 68 10 206 68 10 206 68 10 206 68 10
206 68 10 206 68 10 206 68 10 206 68 10 206 68 10 206 68 10 206 68 10
206 68 10 206 68 10 206 68 10 206 68 10 206 68 10 205 68 10 205 68 10
205 68 10 205 69 8 205 69 8 205 69 8 205 69 8 205 69 8 206 70 9
206 70 7 206 70 7 206 70 7 207 72 8 207 72 8 207 72 8 205 72 8
208 73 9 209 74 8 208 75 8 206 76 8 211 81 13 212 82 14 212 82 14
210 83 14 213 83 15 213 83 15 211 84 15 211 84 15 211 84 15 210 83 14
208 80 12 207 79 11 208 78 13 208 78 13 208 78 13 208 78 13 208 78 11
208 78 11 208 78 11 208 78 11 211 81 13 211 81 13 212 82 14 212 82 14
212 82 14 212 82 14 212 82 14 212 82 14 214 84 18 212 81 16 207 77 11
205 74 9 207 74 9 208 75 10 208 75 10 208 75 10 208 75 10 208 75 10
209 76 11 207 77 11 209 81 13 209 82 11 212 82 12 212 82 12 210 83 12
210 83 12 210 83 12 210 83 12 211 84 15 211 84 15 211 84 15 211 84 15
213 85 16 213 85 16 213 85 16 213 85 16 213 85 16 213 85 16 213 85 16
213 85 16 207 77 9 207 77 9 207 77 9 207 77 9 209 76 9 209 76 9
209 76 9 209 76 9 209 76 11 209 76 11 207 77 9 207 77 9 207 79 11
207 79 11 205 80 11 205 80 11 206 81 12 206 81 12 206 81 12 206 81 12
209 70 10 209 70 10 209 70 10 209 70 10 209 70 10 209 70 10 207 71 10
207 71 10 205 72 10 201 73 7 219 96 26 216 96 23 212 95 18 212 95 18
214 94 18 214 94 18 216 94 21 216 94 21 218 93 19 212 97 15
237 145 51 230 149 49 232 148 47 232 148 47 234 147 49 232 148 51
227 150 53 227 150 53 229 147 52 238 146 54 213 109 21 219 110 24
218 108 25 218 108 25 218 108 25 218 108 25 218 108 25 218 108 25
218 108 27 223 105 29 200 70 4 205 67 6 206 68 10 206 68 10 206 68 10
206 68 10 206 68 10 206 68 10 206 68 10 206 68 10 206 68 10 206 68 10
206 68 10 206 68 10 206 68 10 206 68 10 206 68 10 206 68 10 206 68 10
206 68 10 205 69 8 205 69 8 205 69 8 205 69 8 205 69 8 205 69 8
205 69 8 205 69 8 206 70 7 206 70 7 206 70 7 206 70 7 207 72 8
207 72 8 205 72 8 205 72 8 207 74 7 208 75 8 206 76 8 206 76 8
212 82 14 212 82 14 210 83 14 210 83 14 213 83 15 213 83 15 211 84 15
211 84 15 211 84 15 210 83 14 208 80 12 207 79 11 208 78 13 208 78 13
208 78 13 208 78 13 208 78 11 208 78 11 208 78 11 208 78 11 211 81 13
211 81 13 212 82 14 212 82 14 212 82 14 212 82 14 212 82 14 212 82 14
214 84 18 212 81 16 207 77 11 205 74 9 207 74 9 208 75 10 208 75 10
208 75 10 208 75 10 208 75 10 209 76 11 209 76 11 211 81 13 209 82 11
212 82 12 212 82 12 210 83 12 210 83 12 210 83 12 210 83 12 211 84 15
211 84 15 211 84 15 211 84 15 211 86 16 211 86 16 213 85 16 213 85 16
213 85 16 213 85 16 213 85 16 213 85 16 207 77 9 207 77 9 207 77 9
207 77 9 209 76 9 209 76 9 209 76 9 209 76 9 209 76 11 209 76 11
207 77 9 207 77 9 207 79 11 207 79 11 205 80 11 205 80 11 206 81 12
206 81 12 206 81 12 206 81 12 209 70 10 209 70 10 209 70 10 209 70 10
209 70 10 209 70 10 209 70 10 207 71 10 205 72 10 203 72 7 219 96 26
216 96 23 212 95 18 212 95 18 214 94 18 214 94 18 213 96 21 213 96 21
215 95 19 208 99 15 235 148 52 228 152 50 230 151 48 230 151 48
230 149 49 229 149 51 224 151 53 224 151 53 225 147 51 234 146 53
209 110 20 215 110 23 213 109 23 213 109 23 213 109 23 213 109 23
215 110 25 215 110 25 215 110 27 219 107 29 199 69 3 206 68 8
206 68 10 206 68 10 206 68 10 206 68 10 206 68 10 206 68 10 206 68 10
206 68 10 206 68 10 206 68 10 206 68 10 206 68 10 206 68 10 206 68 10
206 68 10 206 68 10 206 68 10 206 68 10 205 69 8 205 69 8 205 69 8
205 69 8 205 69 8 205 69 8 205 69 8 205 69 8 206 70 7 206 70 7
206 70 7 206 70 7 207 72 8 207 72 8 205 72 8 205 72 8 207 74 7
205 75 7 205 75 7 205 75 7 212 82 14 213 83 15 211 84 15 211 84 15
213 83 15 213 83 15 211 84 15 211 84 15 211 84 15 210 83 14 208 80 12
206 78 9 207 77 11 208 78 13 208 78 13 208 78 13 208 78 11 208 78 11
208 78 11 208 78 11 212 82 14 212 82 14 212 82 14 212 82 14 212 82 14
212 82 14 212 82 14 212 82 14 214 84 18 212 81 16 207 77 11 205 74 9
207 74 9 208 75 10 208 75 10 208 75 10 208 75 10 208 75 10 209 76 11
210 77 13 210 79 12 209 81 13 210 83 14 210 83 14 210 83 14 210 83 14
210 83 14 210 83 14 210 85 15 210 85 15 210 85 15 210 85 15 211 86 16
211 86 16 213 85 16 213 85 16 213 85 16 213 85 16 213 85 16 213 85 16
207 77 9 207 77 9 207 77 9 207 77 9 209 76 9 209 76 9 209 76 9
209 76 9 209 76 11 209 76 11 207 77 9 207 77 9 207 79 11 207 79 11
205 80 11 205 80 11 206 81 12 206 81 12 206 81 12 206 81 12 209 70 10
209 70 10 209 70 10 209 70 10 209 70 10 209 70 10 209 70 10 209 70 10
207 71 10 204 73 10 219 95 28 216 95 25 212 94 20 212 95 18 214 94 18
214 94 18 213 96 21 213 96 19 215 95 17 208 99 15 235 148 52
228 152 50 230 151 50 230 151 50 230 149 49 229 149 51 224 151 53
224 151 53 225 147 51 232 147 53 207 111 20 215 110 25 213 109 23
213 109 23 213 109 23 213 109 23 215 110 25 215 110 25 215 110 27
219 107 29 200 70 4 206 68 8 206 68 10 206 68 10 206 68 10 206 68 10
206 68 10 206 68 10 206 68 10 205 66 9 206 68 10 206 68 10 206 68 10
206 68 10 206 68 10 206 68 10 206 68 10 206 68 10 206 68 10 206 68 10
205 69 8 205 69 8 205 69 8 205 69 8 205 69 8 205 69 8 205 69 8
205 69 8 206 70 7 206 70 7 206 70 7 206 70 7 207 72 8 207 72 8
205 72 8 205 72 8 205 75 7 205 75 7 205 75 7 205 75 7 213 83 15
211 84 15 211 84 15 211 84 15 213 83 15 213 83 15 211 84 15 211 84 15
211 84 15 210 83 14 208 80 12 206 78 9 207 77 11 208 78 13 208 78 13
208 78 13 208 78 11 208 78 11 208 78 11 208 78 11 213 83 15 213 83 15
213 83 15 213 83 15 213 83 15 213 83 15 213 83 15 213 83 15 214 84 18
212 81 16 207 77 11 205 74 9 205 72 8 207 74 9 207 74 9 207 74 9
207 74 9 207 74 9 206 76 10 207 77 11 208 80 12 208 82 13 209 83 14
209 83 14 209 83 14 210 83 14 210 83 14 209 83 14 210 85 15 210 85 15
210 85 15 210 85 15 211 86 16 211 86 16 213 85 16 213 85 16 213 85 16
213 85 16 213 85 16 213 85 16 207 77 9 207 77 9 207 77 9 207 77 9
209 76 9 209 76 9 209 76 9 209 76 9 209 76 11 208 75 10 207 77 9
207 77 9 207 79 11 207 79 11 207 79 11 205 80 11 206 81 12 206 81 12
206 81 12 206 81 12 209 70 12 209 70 12 209 70 12 209 70 12 209 70 12
209 70 12 209 70 12 209 70 12 203 68 6 204 73 10 214 91 23 217 97 26
214 97 23 214 97 21 215 95 19 215 95 19 215 95 19 216 94 19 215 94 16
209 97 14 236 144 52 229 147 50 229 148 48 231 147 48 230 145 49
228 146 51 225 147 51 223 148 53 231 151 57 232 142 51 216 114 28
214 107 22 217 110 28 217 110 28 217 110 28 216 109 27 216 109 27
215 108 26 215 108 26 220 105 28 203 70 6 208 67 10 208 67 10
208 67 10 206 68 10 206 68 10 206 68 10 205 66 9 204 65 7 203 64 6
202 63 5 202 63 5 201 65 6 202 66 7 202 66 7 202 66 7 202 66 7
202 66 7 202 66 5 202 66 5 202 66 5 202 66 5 203 68 6 203 68 6
205 69 6 205 69 6 206 70 7 206 70 7 205 69 6 205 69 6 204 71 7
204 71 7 204 71 7 204 71 7 205 72 8 204 73 8 207 74 7 207 74 7
205 75 7 205 75 7 211 84 15 210 85 15 210 85 15 211 84 15 211 84 15
211 84 15 211 84 15 211 84 15 211 84 15 210 83 14 208 80 12 206 78 9
207 77 11 208 78 13 208 78 13 208 78 13 208 78 11 208 78 11 208 78 11
208 78 11 213 83 15 213 83 15 213 83 15 213 83 15 213 83 15 213 83 15
213 83 15 213 83 15 211 81 13 211 81 13 207 77 9 205 75 7 204 74 6
205 75 7 205 75 7 205 75 7 205 75 7 205 75 7 204 77 8 203 78 8
211 86 16 209 87 16 209 87 16 209 87 16 209 87 16 211 86 16 211 86 16
209 87 16 208 85 15 208 85 15 208 85 15 208 85 15 211 86 16 211 86 16
211 86 16 211 86 16 211 86 16 211 86 16 213 85 16 213 85 16 207 77 9
207 77 9 207 77 9 207 77 9 209 76 9 209 76 9 209 76 9 209 76 9
212 77 11 204 72 5 210 79 12 203 72 5 206 76 8 206 76 8 204 77 8
204 77 8 206 78 9 206 78 9 206 78 9 206 78 9 209 70 12 209 70 12
209 70 12 209 70 12 209 70 12 209 70 12 209 70 12 207 71 12 203 68 6
204 73 10 212 88 21 212 92 21 214 97 23 214 97 21 215 95 19 216 94 19
220 93 19 221 92 19 220 91 16 214 95 14 242 142 53 235 146 51
235 146 49 237 145 51 236 144 52 234 144 52 231 146 54 231 146 54
234 144 54 235 138 50 225 115 32 223 109 27 221 106 27 221 106 27
221 106 27 220 105 26 220 105 26 219 104 24 219 104 24 223 101 28
203 70 8 208 67 10 208 67 10 208 67 10 206 68 10 206 68 10 206 68 10
205 66 9 203 64 6 204 65 7 205 66 9 205 66 9 203 67 9 202 66 7
202 66 7 202 66 7 202 66 7 202 66 7 202 66 5 202 66 5 202 66 5
202 66 5 202 66 5 202 66 5 203 68 4 203 68 4 203 68 4 203 68 4
208 73 9 208 73 9 207 74 9 207 74 9 208 75 10 208 75 10 206 76 10
206 76 10 206 76 8 206 76 8 206 76 8 204 77 8 211 84 15 210 85 15
210 85 15 210 85 15 211 84 15 211 84 15 211 84 15 211 84 15 211 84 15
210 83 14 208 80 12 206 78 9 207 77 11 208 78 13 208 78 13 208 78 13
208 78 11 208 78 11 208 78 11 208 78 11 212 82 14 212 82 14 212 82 14
212 82 14 212 82 14 212 82 14 212 82 14 212 82 14 211 81 13 211 81 13
210 79 12 207 77 9 206 76 8 207 77 9 207 77 9 207 77 9 207 77 9
207 77 9 207 79 11 206 81 12 206 83 13 206 85 14 207 86 15 207 86 15
207 86 15 208 85 15 208 85 15 208 85 15 209 87 16 208 85 15 208 85 15
208 85 15 211 86 16 211 86 16 211 86 16 211 86 16 211 86 16 211 86 16
213 85 16 213 85 16 207 77 9 207 77 9 207 77 9 207 77 9 209 76 9
209 76 9 209 76 9 209 76 9 210 77 11 204 72 5 214 84 16 210 79 12
210 79 12 208 80 12 208 80 12 208 80 12 209 81 13 209 81 13 209 81 13
209 81 13 207 71 12 207 71 12 207 71 12 207 71 12 207 71 12 207 71 12
207 71 12 207 71 12 205 69 8 203 72 9 207 84 16 206 85 14 202 84 10
202 84 8 202 82 7 205 81 7 212 77 7 216 75 7 215 74 3 209 78 1
217 106 20 211 109 18 211 109 18 212 109 18 211 107 19 209 108 19
206 109 21 206 109 21 205 103 17 208 99 15 202 81 1 204 78 0 210 86 9
210 86 9 210 86 9 209 85 8 210 84 8 209 83 7 209 82 9 211 81 11
205 69 8 206 68 10 206 68 10 206 68 10 206 68 10 206 68 10 206 68 10
206 68 10 202 63 5 205 66 9 211 72 14 216 77 19 219 83 22 217 84 22
217 83 24 217 83 24 217 83 24 217 83 24 217 84 22 217 84 20 217 84 20
217 84 20 217 84 20 217 84 20 217 82 18 217 82 16 217 82 16 217 82 16
213 77 14 213 77 14 211 78 14 210 79 14 210 79 14 210 79 14 210 79 14
210 79 14 210 79 12 208 80 12 209 81 13 209 81 13 210 83 14 210 83 14
211 84 15 211 84 15 211 84 15 211 84 15 211 84 15 211 84 15 211 84 15
210 83 14 208 80 12 206 78 9 207 77 9 208 78 11 208 78 11 208 78 11
208 78 11 208 78 11 208 78 11 208 78 11 210 79 12 210 79 12 210 79 12
210 79 12 210 79 12 210 79 12 210 79 12 210 79 12 211 81 13 211 81 13
211 81 13 208 78 11 207 77 9 208 78 11 208 78 11 208 78 11 208 78 11
208 78 11 208 78 11 205 80 11 221 100 29 219 101 29 219 101 27
219 101 27 219 101 27 221 101 27 221 101 27 219 99 26 215 95 21
210 90 17 208 88 14 208 86 13 211 88 18 211 88 18 212 87 18 212 87 18
211 86 16 211 86 16 213 85 16 213 85 16 207 77 9 207 77 9 207 77 9
207 77 9 209 76 9 209 76 9 209 76 9 209 76 9 209 76 9 205 75 7
220 90 22 216 88 20 216 88 20 215 89 20 215 90 18 215 90 18 216 91 19
216 91 19 216 91 19 216 91 19 206 70 11 206 70 11 206 70 11 206 70 11
206 70 11 206 70 11 206 70 11 206 70 11 206 70 9 203 70 6 205 79 13
202 80 9 204 84 11 204 84 11 205 82 10 208 81 8 214 78 8 219 75 8
218 75 5 212 78 3 223 106 23 218 109 21 218 109 21 218 109 23
217 108 21 215 108 23 213 109 23 213 109 23 207 98 14 214 98 17
209 83 5 215 83 9 213 84 9 213 84 9 213 84 9 212 83 8 213 82 8
212 81 9 212 81 9 212 80 11 203 68 6 203 67 9 205 66 9 205 66 9
204 65 7 204 65 7 204 65 7 204 65 7 200 62 4 205 66 9 216 77 19
221 83 23 217 82 18 216 83 18 214 84 18 214 83 20 214 83 20 214 84 18
216 83 18 216 83 18 216 83 18 216 83 18 215 82 17 215 82 17 213 81 14
213 81 14 212 80 13 212 80 13 213 81 16 213 81 16 212 81 16 212 81 16
211 80 15 211 80 15 211 80 15 211 80 15 209 81 13 209 81 13 210 83 14
210 83 14 210 83 14 210 83 14 211 84 15 211 84 15 211 84 15 211 84 15
211 84 15 211 84 15 211 84 15 210 83 14 208 80 12 206 78 9 207 77 9
208 78 11 208 78 11 208 78 11 208 78 11 208 78 11 208 78 11 208 78 11
207 77 9 207 77 9 207 77 9 207 77 9 207 77 9 207 77 9 207 77 9
207 77 9 210 79 12 211 81 13 211 81 13 210 79 12 211 81 13 211 81 13
211 81 13 211 81 13 211 81 13 211 81 13 211 81 13 208 82 13
218 100 28 216 101 28 216 101 26 218 100 26 218 100 26 218 100 26
218 100 26 221 101 27 219 99 26 217 97 24 214 94 20 210 90 17
211 88 18 211 88 18 212 87 18 212 87 18 211 86 16 211 86 16 213 85 16
213 85 16 206 76 8 206 76 8 206 76 8 208 75 8 208 75 8 208 75 8
208 75 8 208 75 8 206 76 8 205 75 7 222 94 26 222 94 26 219 94 25
219 94 25 219 94 23 219 94 23 220 95 24 220 95 24 220 95 24 220 95 24
206 70 11 206 70 11 206 70 11 206 70 11 206 70 11 206 70 11 206 70 11
206 70 11 204 71 9 204 71 7 211 80 15 210 79 14 208 80 12 208 80 12
210 79 12 210 80 10 213 78 10 213 79 8 213 79 6 208 82 4 220 104 20
217 106 20 215 106 20 214 107 22 213 106 21 213 106 21 211 106 23
213 105 23 216 104 23 218 101 22 206 82 6 207 80 7 210 83 10
210 83 10 210 83 10 212 83 10 212 83 10 212 83 10 213 81 12 213 81 14
202 66 5 202 66 7 204 65 7 204 65 7 204 63 6 204 63 6 204 63 6
204 63 6 203 62 5 204 63 6 218 80 19 217 78 18 216 81 17 215 82 15
213 83 13 211 84 13 211 84 13 213 83 13 213 83 15 213 83 15 213 83 15
213 83 15 213 83 15 213 83 15 212 82 14 212 82 14 212 82 14 212 82 14
212 82 14 212 82 14 212 82 14 211 81 13 211 81 13 211 81 13 209 81 13
209 81 13 209 81 13 209 81 13 210 83 14 210 83 14 211 84 15 211 84 15
213 85 16 213 85 16 213 85 14 213 85 14 213 85 14 213 85 14 213 85 14
211 84 13 209 82 11 207 79 9 208 78 11 210 79 12 210 79 12 210 79 12
210 79 12 210 79 12 210 79 12 210 79 12 207 77 9 207 77 9 207 77 9
207 77 9 207 77 9 207 77 9 207 77 9 207 77 9 208 78 11 211 81 13
211 81 13 211 81 13 211 81 13 211 81 13 211 81 13 211 81 13 211 81 13
211 81 13 211 81 11 208 83 11 218 100 26 215 102 26 215 102 26
216 101 26 216 101 26 216 101 26 216 101 26 218 100 26 217 99 25
220 102 28 209 89 16 212 92 19 211 88 16 211 88 16 212 87 16
212 87 16 214 86 16 214 86 16 214 86 16 214 86 16 206 76 8 206 76 8
208 75 8 208 75 8 209 74 8 208 75 8 208 75 8 206 76 8 204 74 6
203 76 7 220 92 21 218 93 21 217 92 20 215 93 20 217 92 20 217 92 20
218 93 21 218 93 21 218 93 21 218 93 21 205 68 10 205 68 10 205 68 10
205 68 10 205 68 10 205 68 10 205 68 10 205 68 10 204 71 9 204 71 7
212 79 15 211 78 14 211 78 14 211 78 14 211 79 12 211 79 12 211 79 10
211 79 10 210 80 8 206 82 6 220 104 22 217 105 22 215 106 22
214 107 22 211 107 21 211 107 21 213 105 23 214 105 23 217 103 23
219 100 22 205 83 8 205 81 7 210 83 10 210 83 10 210 83 10 210 83 10
212 83 10 212 82 12 213 81 12 213 81 14 201 65 4 201 65 6 203 64 6
203 64 6 203 62 5 203 62 5 203 62 5 203 62 5 203 62 5 203 62 5
218 80 19 215 80 16 215 82 15 213 83 13 211 85 11 211 85 9 211 85 9
211 85 11 213 83 13 213 83 15 211 84 15 211 84 15 211 84 15 211 84 15
210 83 14 210 83 14 210 83 14 210 83 14 210 83 14 210 83 14 211 81 13
211 81 13 211 81 13 211 81 13 209 81 13 209 81 13 209 81 13 209 81 13
210 83 14 210 83 14 211 84 15 211 84 15 213 85 16 213 85 16 213 85 14
213 85 14 213 85 14 213 85 14 213 85 14 211 84 13 209 82 11 207 79 9
208 78 11 210 79 12 210 79 12 210 79 12 210 79 12 210 79 12 210 79 12
210 79 12 208 78 11 208 78 11 208 78 11 208 78 11 208 78 11 208 78 11
208 78 11 208 78 11 208 78 11 210 79 12 211 81 13 211 81 13 211 81 13
211 81 13 211 81 13 211 81 13 211 81 13 211 81 13 211 81 11 208 83 11
218 100 26 215 102 26 215 102 26 215 102 26 216 101 26 216 101 26
216 101 26 216 101 26 217 99 25 220 102 28 209 89 16 212 92 19
211 88 16 211 88 16 212 87 16 212 87 16 214 86 16 214 86 16 214 86 16
214 86 16 205 75 7 205 75 7 207 74 7 207 74 7 208 73 7 208 73 7
207 74 7 205 75 7 202 74 6 202 74 6 218 93 21 218 93 21 215 93 20
215 93 20 217 92 20 217 92 20 218 93 21 218 93 21 218 93 21 218 93 21
203 69 10 203 69 10 203 69 10 203 69 10 203 69 10 203 69 10 203 69 10
203 69 10 204 71 9 204 71 7 212 79 15 211 78 14 211 78 14 211 78 14
211 79 12 211 79 12 211 79 10 211 79 10 210 80 8 206 82 6 220 104 22
217 105 22 215 106 24 214 107 24 211 107 21 211 107 21 213 105 23
214 105 23 217 103 23 219 100 22 205 83 8 205 81 7 210 83 10
210 83 10 210 83 12 210 83 12 212 82 12 212 82 12 213 81 14 213 81 16
201 65 4 201 65 6 203 64 6 203 64 6 203 62 5 203 62 5 203 62 5
203 62 5 203 62 5 203 62 5 218 80 19 215 80 16 215 82 15 213 83 13
211 85 11 210 86 9 210 86 9 211 85 11 211 84 13 211 84 13 211 84 13
211 84 13 211 84 13 211 84 13 209 84 12 209 84 12 209 84 12 209 84 12
210 83 14 209 81 13 209 81 13 209 81 13 209 81 13 209 81 13 209 81 13
209 81 13 209 81 13 209 81 13 210 83 14 210 83 14 211 84 15 211 84 15
213 85 16 213 85 16 213 85 14 213 85 14 213 85 14 213 85 14 213 85 14
211 84 13 209 82 11 207 79 9 208 79 9 210 80 10 210 80 10 210 80 10
210 79 12 210 79 12 210 79 12 210 79 12 208 78 11 208 78 11 208 78 11
208 78 11 208 78 11 208 78 11 208 78 11 208 78 11 208 78 11 208 78 11
211 81 13 211 81 13 211 81 13 211 81 13 211 81 13 211 81 13 211 81 13
211 81 13 211 81 11 208 83 11 218 100 26 215 102 26 215 102 24
215 102 24 216 101 24 216 101 24 216 101 24 216 101 24 217 99 23
220 103 26 207 90 14 212 93 17 212 89 17 212 89 17 213 88 17
213 88 17 214 86 16 214 86 16 214 86 16 214 86 16 205 75 7 205 75 7
207 74 7 207 74 7 208 73 7 208 73 7 207 74 7 205 75 7 202 74 6
201 75 6 218 93 21 216 94 21 215 93 20 215 93 20 215 93 18 215 93 18
216 94 19 216 94 19 216 94 19 216 94 19 203 69 10 203 69 10 203 69 10
203 69 10 203 69 10 203 69 10 203 69 10 203 69 10 204 71 9 204 71 7
212 79 15 211 78 14 211 78 14 211 78 14 211 79 12 211 79 12 211 79 10
211 79 10 210 80 8 206 82 6 220 104 22 217 105 24 215 106 24
214 107 24 211 106 23 211 106 23 213 105 23 214 105 23 217 103 23
219 100 24 205 83 8 205 81 7 210 83 10 210 83 12 210 83 12 210 83 12
212 82 12 212 82 14 213 81 14 213 81 16 201 65 4 201 65 6 203 64 6
203 64 6 203 62 5 203 62 5 203 62 5 203 62 5 203 62 5 203 62 5
218 80 19 215 80 16 215 82 15 213 83 13 211 85 11 210 86 9 210 86 9
210 86 9 211 85 11 211 84 13 211 84 13 211 84 13 211 84 13 211 84 13
209 84 12 209 84 12 209 84 12 209 84 12 209 81 13 209 81 13 209 81 13
209 81 13 209 81 13 209 81 13 209 81 13 209 81 13 209 81 13 209 81 13
210 83 14 210 83 14 211 84 15 211 84 15 213 85 16 213 85 16 213 85 14
213 85 14 213 85 14 213 85 14 213 85 14 211 84 13 209 82 11 207 79 9
208 79 9 210 80 10 210 80 10 210 80 10 210 79 12 210 79 12 210 79 12
210 79 12 208 78 11 208 78 11 208 78 11 208 78 11 208 78 11 208 78 11
208 78 11 208 78 11 208 78 11 208 78 11 210 79 12 211 81 13 211 81 13
211 81 13 211 81 13 211 81 13 211 81 13 211 81 13 211 81 11 208 83 11
218 100 26 215 102 26 215 102 24 215 102 24 216 101 24 216 101 24
216 101 24 216 101 24 217 99 23 220 103 26 207 90 14 212 93 17
212 89 17 212 89 17 213 88 17 213 88 17 214 86 16 214 86 16 214 86 16
215 86 16 205 75 7 207 74 7 207 74 7 207 74 7 208 73 7 208 73 7
207 74 7 205 75 7 202 74 6 201 75 6 216 94 21 216 94 21 214 94 20
214 94 20 215 93 18 215 93 18 216 94 19 216 94 19 216 94 19 216 94 19
203 69 12 203 69 12 203 69 12 203 69 12 203 69 12 203 69 12 203 69 12
203 69 10 204 71 9 204 71 7 212 79 15 211 78 14 211 78 14 211 78 14
211 79 12 211 79 12 211 79 10 211 79 10 210 80 8 206 82 6 220 103 24
217 105 24 215 105 26 214 106 26 211 106 23 211 106 23 213 105 25
214 104 25 217 103 25 219 100 24 205 82 10 205 80 9 210 83 12
210 83 12 210 83 14 210 83 14 212 82 14 212 82 14 213 81 16 213 81 16
201 65 4 201 65 6 203 64 6 203 64 6 203 62 5 203 62 5 203 62 5
203 62 5 203 62 5 203 62 5 218 80 19 215 80 16 215 82 15 213 83 13
211 85 11 210 86 9 210 86 9 210 86 9 211 85 11 211 85 11 211 85 11
211 85 11 211 85 11 211 85 11 210 85 13 210 85 13 210 85 13 210 85 13
210 83 14 209 81 13 209 81 13 209 81 13 209 81 13 209 81 13 209 81 13
209 81 13 209 81 13 209 81 13 210 83 14 210 83 14 211 84 15 211 84 15
213 85 16 213 85 16 213 85 14 213 85 14 213 85 14 213 85 14 213 85 14
211 84 13 209 82 11 207 79 9 208 79 9 210 80 10 210 80 10 210 80 10
210 79 12 210 79 12 210 79 12 210 79 12 210 79 12 210 79 12 210 79 12
210 79 12 210 79 12 210 79 12 210 79 12 210 79 12 210 79 12 210 79 12
211 81 13 212 82 14 212 82 14 212 82 14 212 82 14 212 82 14 212 82 14
212 82 14 212 82 12 209 84 12 219 101 27 216 103 27 216 103 25
216 103 25 217 103 25 217 103 25 217 103 25 217 103 25 218 101 24
221 104 28 209 91 15 214 94 18 211 88 16 211 88 16 212 87 16
212 87 16 214 86 16 214 86 16 215 86 16 215 86 16 207 74 7 207 74 7
208 73 7 208 73 7 208 73 7 208 73 7 207 74 7 205 75 7 202 74 6
201 75 6 216 94 21 215 95 21 215 95 21 215 95 21 216 94 19 216 94 19
216 94 19 216 94 19 216 94 19 216 94 19 203 69 12 203 69 12 203 69 12
203 69 12 203 69 12 203 69 12 203 69 12 203 69 10 204 71 9 204 71 7
212 79 15 211 78 14 211 78 14 211 78 14 211 79 12 211 79 12 211 79 10
211 79 10 210 80 8 206 82 6 220 103 24 217 105 24 215 105 26
214 106 26 211 106 23 211 106 23 213 105 25 214 104 25 217 103 25
219 100 24 205 82 10 205 80 9 210 83 12 210 83 12 210 83 14 210 83 14
212 82 14 212 82 14 213 81 16 213 80 18 201 65 6 201 65 6 203 64 6
202 63 5 203 62 5 203 62 5 203 62 5 203 62 5 203 62 5 203 62 5
218 80 19 215 80 16 215 82 15 213 83 13 211 85 11 210 86 9 210 86 9
210 86 9 211 85 11 211 85 11 211 85 11 211 85 11 211 85 11 211 85 11
210 85 13 210 85 13 210 85 13 210 85 13 210 83 14 209 81 13 209 81 13
209 81 13 209 81 13 209 81 13 209 81 13 209 81 13 209 81 13 209 81 13
210 83 14 210 83 14 211 84 15 211 84 15 213 85 16 213 85 16 213 85 14
213 85 14 213 85 14 213 85 14 213 85 14 211 84 13 209 82 11 207 79 9
208 79 9 210 80 10 210 80 10 210 80 10 210 79 12 210 79 12 210 79 12
210 79 12 210 79 12 210 79 12 210 79 12 210 79 12 210 79 12 210 79 12
210 79 12 210 79 12 210 79 12 210 79 12 211 81 13 212 82 14 212 82 14
212 82 14 212 82 14 212 82 14 212 82 14 212 82 14 212 82 12 209 84 12
219 101 27 216 103 27 216 103 25 216 103 25 217 103 25 217 103 25
217 103 25 217 103 25 218 101 24 221 104 28 209 91 15 214 94 18
211 88 16 211 88 16 212 87 16 212 87 16 214 86 16 214 86 16 215 86 16
215 86 16 207 74 7 207 74 7 208 73 7 208 73 7 208 73 7 208 73 7
207 74 7 205 75 7 202 74 6 201 75 6 216 94 21 215 95 21 215 95 21
215 95 21 216 94 19 216 94 19 216 94 19 216 94 19 216 94 19 216 94 19
203 69 12 203 69 12 203 69 12 203 69 12 203 69 12 203 69 12 203 69 12
203 69 10 204 71 9 204 71 7 212 79 15 211 78 14 211 78 14 211 78 14
211 79 12 211 79 12 211 79 10 211 79 10 210 80 8 206 82 6 220 103 24
217 105 24 215 105 26 214 106 26 211 106 23 211 106 23 213 105 25
214 104 25 217 103 25 219 100 24 205 82 10 205 80 9 210 83 12
210 83 12 210 83 14 210 83 14 212 82 14 212 82 14 213 81 16 213 80 18
201 65 6 201 65 6 203 64 6 202 63 5 203 62 5 203 62 5 203 62 5
203 62 5 203 62 5 203 62 5 218 80 19 215 80 16 215 82 15 213 83 13
211 85 11 210 86 9 210 86 9 210 86 9 211 85 11 211 85 11 211 85 11
211 85 11 211 85 11 211 85 11 210 85 13 210 85 13 210 85 13 210 85 13
211 84 15 210 83 14 209 81 13 209 81 13 209 81 13 209 81 13 209 81 13
209 81 13 209 81 13 209 81 13 210 83 14 210 83 14 211 84 15 211 84 15
213 85 16 213 85 16 213 85 14 213 85 14 213 85 14 213 85 14 213 85 14
211 84 13 209 82 11 207 79 9 208 79 9 210 80 10 210 80 10 210 80 10
210 79 12 210 79 12 210 79 12 210 79 12 210 79 12 210 79 12 210 79 12
210 79 12 210 79 12 210 79 12 210 79 12 210 79 12 210 79 12 210 79 12
211 81 13 212 82 14 212 82 14 212 82 14 212 82 14 212 82 14 212 82 14
212 82 14 212 82 12 209 84 12 219 101 27 216 103 27 216 103 25
216 103 25 217 103 25 217 103 25 217 103 25 217 103 25 218 101 24
221 104 28 209 91 15 214 94 18 211 88 16 211 88 16 212 87 16
212 87 16 214 86 16 214 86 16 215 86 16 215 86 16 207 74 7 207 74 7
208 73 7 208 73 7 208 73 7 208 73 7 207 74 7 205 75 7 202 74 6
201 75 6 216 94 21 215 95 21 215 95 21 215 95 21 216 94 19 216 94 19
216 94 19 216 94 19 216 94 19 216 94 19 203 69 12 203 69 12 203 69 12
203 69 12 203 69 12 203 69 12 203 69 12 203 69 10 204 71 9 204 71 7
212 79 15 211 78 14 211 78 14 211 78 14 211 79 12 211 79 12 211 79 10
211 79 10 210 80 8 206 82 6 220 103 24 217 105 24 215 105 26
214 106 26 211 106 23 211 106 23 213 105 25 214 104 25 217 103 25
219 100 24 205 82 10 205 80 9 210 83 12 210 83 12 210 83 14 210 83 14
212 82 14 212 82 14 213 81 16 213 80 18 201 65 6 201 65 6 202 63 5
202 63 5 203 62 5 203 62 5 203 62 5 203 62 5 203 62 5 203 62 5
218 80 19 215 80 16 215 82 15 213 83 13 211 85 11 210 86 9 210 86 9
210 86 9 211 85 11 211 85 11 211 85 11 211 85 11 211 85 11 211 85 11
210 85 13 210 85 13 210 85 13 210 85 13 211 84 15 210 83 14 209 81 13
209 81 13 209 81 13 209 81 13 209 81 13 209 81 13 209 81 13 209 81 13
210 83 14 210 83 14 211 84 15 211 84 15 213 85 16 213 85 16 213 85 14
213 85 14 213 85 14 213 85 14 213 85 14 211 84 13 209 82 11 207 79 9
208 79 9 210 80 10 210 80 10 210 80 10 210 79 12 210 79 12 210 79 12
210 79 12 210 79 12 210 79 12 210 79 12 210 79 12 210 79 12 210 79 12
210 79 12 210 79 12 210 79 12 210 79 12 211 81 13 212 82 14 212 82 14
212 82 14 212 82 14 212 82 14 212 82 14 212 82 14 212 82 12 209 84 12
219 101 27 216 103 27 216 103 25 216 103 25 217 103 25 217 103 25
217 103 25 217 103 25 218 101 24 221 104 28 209 91 15 214 94 18
211 88 16 211 88 16 212 87 16 212 87 16 214 86 16 214 86 16 215 86 16
215 86 16 207 74 7 207 74 7 208 73 7 208 73 7 208 73 7 208 73 7
207 74 7 205 75 7 202 74 6 201 75 6 216 94 21 215 95 21 215 95 21
215 95 21 216 94 19 216 94 19 216 94 19 216 94 19 216 94 19 216 94 19
