P3
160 160
255
205 72 12 205 72 12 205 72 12 205 72 12 207 71 12 207 71 12 207 71 12
208 72 13 210 71 13 207 69 11 203 64 6 200 62 4 203 62 5 204 63 6
204 63 6 204 63 6 204 63 6 204 63 6 204 63 6 204 63 6 204 63 6
204 63 6 204 63 6 204 63 6 204 63 6 204 63 6 204 63 6 203 62 5
202 63 5 204 65 7 207 69 11 211 72 14 209 73 12 209 73 12 209 73 12
209 73 12 208 74 12 208 74 12 208 75 10 208 75 10 208 75 10 208 75 10
208 75 8 208 75 8 208 76 6 208 76 6 208 76 6 208 76 6 205 73 4
204 72 3 222 93 23 220 92 21 218 93 19 216 94 19 215 95 19 213 96 19
213 96 19 213 96 19 216 96 21 216 96 21 216 98 22 216 98 22 217 99 23
217 99 23 216 98 22 216 98 22 216 98 22 217 99 23 218 101 24
217 99 23 213 96 19 211 94 17 212 93 17 214 94 18 214 94 18 214 94 18
215 93 18 215 93 18 215 93 18 215 93 18 214 94 16 214 94 16 214 94 16
214 94 16 214 94 16 214 94 16 212 95 16 212 95 16 211 94 15 213 96 17
215 101 21 216 102 22 217 103 23 217 103 23 216 104 23 216 104 23
215 106 24 215 106 24 217 105 24 219 104 24 213 96 17 215 95 17
216 95 17 216 95 17 214 94 16 214 94 16 215 94 16 215 94 16 214 95 14
212 97 15 223 116 32 223 118 33 220 118 32 220 118 32 220 118 32
220 118 32 220 116 30 220 116 30 220 116 30 219 115 29 218 114 28
217 112 27 217 112 27 219 112 27 220 110 29 220 110 29 220 110 29
219 109 28 219 107 27 217 105 24 217 105 24 217 105 24 219 104 24
219 104 24 217 105 24 217 105 24 215 106 24 215 106 24 215 108 26
215 108 26 216 109 27 216 109 27 216 111 28 216 111 28 215 110 27
216 109 27 218 108 27 219 107 27 221 106 29 224 106 30 209 89 14
210 90 15 212 92 19 212 92 19 212 92 19 212 92 19 212 92 21 212 92 21
212 92 21 212 92 21 205 72 12 205 72 12 205 72 12 205 72 12 207 71 12
207 71 12 207 71 12 208 72 13 210 71 13 207 69 11 203 64 6 200 62 4
203 62 5 204 63 6 204 63 6 204 63 6 204 63 6 204 63 6 204 63 6
204 63 6 204 63 6 204 63 6 204 63 6 204 63 6 204 63 6 204 63 6
204 63 6 203 62 5 202 63 5 204 65 7 207 69 11 211 72 14 209 73 12
209 73 12 209 73 12 209 73 12 208 74 12 208 74 12 208 75 10 208 75 10
208 75 10 208 75 10 208 75 8 208 75 8 208 76 6 208 76 6 208 76 6
208 76 6 205 73 4 204 72 3 222 93 23 220 92 21 218 93 19 216 94 19
215 95 19 213 96 19 213 96 19 213 96 19 216 96 21 216 96 21 216 98 22
216 98 22 217 99 23 217 99 23 216 98 22 216 98 22 216 98 22 217 99 23
218 101 24 217 99 23 213 96 19 211 94 17 212 93 17 214 94 18
214 94 18 214 94 18 215 93 18 215 93 18 215 93 18 215 93 18 214 94 16
214 94 16 214 94 16 214 94 16 214 94 16 214 94 16 212 95 16 212 95 16
211 94 15 213 96 17 215 101 21 216 102 22 217 103 23 217 103 23
216 104 23 216 104 23 215 106 24 215 106 24 217 105 24 219 104 24
213 96 17 215 95 17 216 95 17 216 95 17 214 94 16 214 94 16 215 94 16
215 94 16 214 95 14 212 97 15 223 116 32 223 118 33 220 118 32
220 118 32 220 118 32 220 118 32 220 116 30 220 116 30 220 116 30
219 115 29 218 114 28 217 112 27 217 112 27 219 112 27 220 110 29
220 110 29 220 110 29 220 110 29 221 108 28 218 106 26 217 105 24
217 105 24 219 104 24 219 104 24 217 105 24 217 105 24 215 106 24
215 106 24 215 108 26 215 108 26 216 109 27 216 109 27 216 111 28
216 111 28 215 110 27 216 109 27 218 108 27 219 107 27 221 106 29
224 106 30 209 89 14 210 90 15 212 92 19 212 92 19 212 92 19
212 92 19 212 92 21 212 92 21 212 92 21 212 92 21 205 72 12 205 72 12
205 72 12 205 72 12 207 71 12 207 71 12 207 71 12 208 72 13 210 71 13
207 69 11 203 64 6 200 62 4 203 62 5 204 63 6 204 63 6 204 63 6
204 63 6 204 63 6 204 63 6 204 63 6 204 63 6 204 63 6 204 63 6
204 63 6 204 63 6 204 63 6 204 63 6 203 62 5 202 63 5 204 65 7
207 69 11 211 72 14 209 73 12 209 73 12 209 73 12 209 73 12 208 74 12
208 74 12 208 75 10 208 75 10 208 75 10 208 75 10 208 75 8 208 75 8
208 76 6 208 76 6 208 76 6 208 76 6 205 73 4 204 72 3 222 93 23
220 92 21 218 93 19 216 94 19 215 95 19 213 96 19 213 96 19 213 96 19
216 96 21 216 96 21 216 98 22 216 98 22 217 99 23 217 99 23 216 98 22
216 98 22 216 98 22 217 99 23 218 101 24 217 99 23 213 96 19
211 94 17 212 93 17 214 94 18 214 94 18 214 94 18 215 93 18 215 93 18
215 93 18 215 93 18 214 94 16 214 94 16 214 94 16 214 94 16 214 94 16
214 94 16 212 95 16 212 95 16 211 94 15 213 96 17 215 101 21
216 102 22 217 103 23 217 103 23 216 104 23 216 104 23 215 106 24
215 106 24 217 105 24 219 104 24 213 96 17 215 95 17 216 95 17
216 95 17 214 94 16 214 94 16 215 94 16 215 94 16 214 95 14 212 97 15
223 116 32 223 118 33 220 118 32 220 118 32 220 118 32 220 118 32
220 116 30 220 116 30 220 116 30 219 115 29 218 114 28 217 112 27
217 112 27 219 112 27 220 110 29 220 110 29 220 110 29 220 110 29
222 110 29 221 108 28 218 106 26 217 105 24 219 104 24 219 104 24
217 105 24 217 105 24 215 106 24 215 106 24 215 108 26 215 108 26
216 109 27 216 109 27 216 111 28 216 111 28 215 110 27 216 109 27
218 108 27 219 107 27 221 106 29 224 106 30 209 89 14 210 90 15
212 92 19 212 92 19 212 92 19 212 92 19 212 92 21 212 92 21 212 92 21
212 92 21 205 72 12 205 72 12 205 72 12 207 71 12 207 71 12 207 71 12
207 71 12 208 72 13 210 71 13 207 69 11 203 64 6 200 62 4 203 62 5
204 63 6 204 63 6 204 63 6 204 63 6 204 63 6 204 63 6 204 63 6
204 63 6 204 63 6 204 63 6 204 63 6 204 63 6 204 63 6 204 63 6
203 62 5 202 63 5 204 65 7 207 69 11 211 72 14 209 73 12 209 73 12
209 73 12 209 73 12 208 74 12 208 74 12 208 75 10 208 75 10 208 75 10
208 75 10 208 75 8 208 75 8 208 76 6 208 76 6 208 76 6 208 76 6
205 73 4 204 72 3 222 93 23 220 92 21 218 93 21 216 94 19 215 95 19
213 96 19 213 96 19 213 96 19 216 96 21 216 96 21 216 98 22 216 98 22
217 99 23 217 99 23 216 98 22 216 98 22 216 98 22 217 99 23 217 99 23
216 98 22 212 95 18 211 94 17 212 93 17 214 94 18 214 94 18 214 94 18
215 93 18 215 93 18 215 93 18 215 93 18 214 94 16 214 94 16 214 94 16
214 94 16 214 94 16 214 94 16 212 95 16 212 95 16 211 94 15 213 96 17
215 101 21 216 102 22 217 103 23 217 103 23 216 104 23 216 104 23
215 106 24 215 106 24 217 105 24 219 104 24 213 96 17 215 95 17
216 95 17 216 95 17 214 94 16 214 94 16 215 94 16 215 94 16 214 95 14
212 97 15 223 116 32 223 118 33 222 117 32 220 118 32 220 118 32
220 118 32 220 116 30 220 116 30 220 116 30 219 115 29 218 114 28
217 112 27 217 112 27 219 112 27 220 110 29 220 110 29 220 110 29
220 110 29 222 110 29 222 110 29 221 108 28 218 106 26 219 104 24
219 104 24 217 105 24 217 105 24 215 106 24 215 106 24 215 108 26
215 108 26 216 109 27 216 109 27 216 111 28 216 111 28 215 110 27
216 109 27 218 108 27 219 107 27 221 106 29 224 106 30 209 89 14
210 90 17 212 92 19 212 92 19 212 92 19 212 92 21 212 92 21 212 92 21
212 92 21 212 92 21 207 71 12 207 71 12 207 71 12 207 71 12 209 70 12
209 70 12 207 71 12 208 72 13 210 71 13 207 69 11 203 64 6 200 62 4
203 62 5 204 63 6 204 63 6 204 63 6 204 63 8 204 63 8 204 63 6
204 63 6 204 63 6 204 63 6 204 63 6 204 63 6 204 63 6 204 63 6
204 63 6 203 62 5 202 63 5 204 65 7 207 69 11 211 72 14 209 73 12
209 73 12 209 73 12 209 73 12 208 74 12 208 74 12 208 75 10 208 75 10
208 75 10 208 75 10 208 75 8 208 75 8 208 75 8 208 75 8 208 75 8
208 75 8 205 73 6 204 72 5 222 92 25 220 92 23 218 93 21 216 94 21
215 95 21 215 95 21 215 95 19 215 95 19 216 96 21 216 96 21 214 97 21
214 97 21 216 98 22 216 98 22 216 98 22 216 98 22 216 98 22 216 98 22
217 99 23 216 98 22 212 95 18 210 92 16 211 92 16 212 93 17 212 93 17
212 93 17 214 92 17 214 92 17 214 92 17 214 92 17 214 94 16 214 94 16
214 94 16 214 94 16 214 94 16 214 94 16 212 95 16 212 95 16 211 94 15
213 96 17 215 101 21 216 102 22 217 103 23 217 103 23 216 104 23
216 104 23 215 106 24 215 106 24 217 105 24 219 104 24 212 95 16
214 94 16 215 94 16 215 94 16 214 94 16 214 94 16 215 94 16 215 94 16
214 95 14 212 97 15 225 115 32 224 117 33 223 118 33 223 118 33
223 118 33 223 118 33 222 117 32 222 117 32 220 116 30 219 115 29
218 114 28 217 112 27 216 111 26 217 110 26 220 110 29 220 110 29
220 110 29 220 110 29 222 109 31 222 109 31 219 107 29 218 106 28
219 104 26 219 104 26 217 105 24 217 105 24 215 106 24 215 106 24
215 108 26 215 108 26 215 108 26 215 108 26 215 110 27 215 110 27
215 110 27 216 109 27 218 108 27 219 107 27 221 106 29 224 106 32
209 89 16 210 90 17 211 91 20 211 91 20 211 91 20 211 91 20 211 90 22
211 90 22 211 90 22 211 90 22 207 71 12 207 71 12 207 71 12 207 71 12
209 70 12 209 70 12 207 71 12 208 72 13 210 71 13 207 69 11 203 64 6
200 62 4 203 62 5 204 63 6 204 63 6 204 63 6 204 63 8 204 63 8
204 63 6 204 63 6 204 63 6 204 63 6 204 63 6 204 63 6 204 63 6
204 63 6 204 63 6 203 62 5 202 63 5 204 65 7 207 69 11 211 72 14
209 73 12 209 73 12 209 73 12 209 73 12 208 74 12 208 74 12 208 75 10
208 75 10 208 75 10 208 75 10 208 75 8 208 75 8 208 75 8 208 75 8
208 75 8 208 75 8 205 73 6 204 72 5 222 92 25 220 92 23 218 93 21
216 94 21 215 95 21 215 95 21 215 95 19 215 95 19 216 96 21 216 96 21
214 97 21 214 97 21 216 98 22 216 98 22 216 98 22 216 98 22 216 98 22
216 98 22 216 98 22 214 97 21 211 94 17 210 92 16 211 92 16 212 93 17
212 93 17 212 93 17 214 92 17 214 92 17 214 92 17 214 92 17 214 94 16
214 94 16 214 94 16 214 94 16 214 94 16 214 94 16 212 95 16 212 95 16
211 94 15 213 96 17 215 101 21 216 102 22 217 103 23 217 103 23
216 104 23 216 104 23 215 106 24 215 106 24 217 105 24 219 104 24
212 95 16 214 94 16 215 94 16 215 94 16 214 94 16 214 94 16 215 94 16
214 94 16 212 96 14 212 97 15 225 115 32 224 117 33 223 118 33
223 118 33 223 118 33 223 118 33 222 117 32 222 117 32 220 116 30
219 115 29 218 114 28 217 112 27 216 111 26 217 110 26 220 110 29
220 110 29 220 110 29 220 110 29 222 109 31 221 108 30 218 106 28
217 105 26 219 104 26 219 104 26 217 105 24 217 105 24 215 106 24
215 106 24 215 108 26 215 108 26 215 108 26 215 108 26 215 110 27
215 110 27 215 110 27 216 109 27 218 108 27 219 107 29 221 106 31
224 106 32 209 89 16 210 90 17 211 91 20 211 91 20 211 91 20
211 91 20 211 90 22 211 90 22 211 90 22 211 90 22 207 71 12 207 71 12
207 71 12 207 71 12 209 70 12 209 70 12 207 71 12 208 72 13 210 71 13
207 69 11 202 66 7 202 63 5 203 64 6 203 64 6 203 64 6 204 63 6
204 63 8 206 62 8 206 63 6 206 63 6 204 63 6 204 63 6 204 64 4
204 64 4 204 63 6 204 63 6 204 63 6 203 62 5 202 63 5 204 65 7
207 69 11 211 72 14 209 73 12 209 73 12 209 73 12 209 73 12 208 74 12
208 74 12 208 75 10 208 75 10 208 75 10 208 75 10 208 75 8 208 75 8
208 75 8 208 75 8 208 75 8 208 75 8 204 74 6 203 72 5 222 92 25
220 92 23 218 93 21 216 94 21 215 95 21 215 95 21 215 95 19 215 95 19
216 96 21 216 96 21 214 97 21 214 97 21 214 99 22 214 99 22 214 99 22
214 99 22 214 99 22 214 99 22 216 99 20 214 97 19 211 94 15 210 93 14
211 92 14 212 93 15 212 93 15 212 93 15 214 92 15 214 92 15 214 92 15
214 92 15 214 94 16 214 94 16 214 94 16 214 94 16 214 94 16 214 94 16
212 95 16 212 95 16 211 94 15 213 96 17 215 101 21 216 102 22
217 103 23 217 103 23 216 104 23 216 104 23 215 106 24 215 106 24
217 105 24 219 104 24 212 95 16 214 94 16 215 94 16 215 94 16
214 94 16 214 94 16 214 94 16 214 94 16 212 96 14 210 98 15
225 115 32 224 117 33 223 118 33 223 118 33 224 117 33 224 117 33
223 116 32 223 116 32 220 116 30 219 115 29 218 114 28 217 112 27
216 111 26 217 110 26 220 110 29 220 110 29 220 110 29 220 110 29
222 109 31 219 107 29 218 106 28 217 105 26 219 104 26 219 104 26
217 105 24 217 105 24 215 106 24 215 106 24 215 108 23 215 108 23
215 108 23 215 108 23 215 110 25 215 110 25 215 110 27 216 109 27
218 108 27 219 107 29 221 106 31 224 106 32 209 89 16 210 90 17
211 91 20 211 91 20 211 91 20 211 91 20 211 90 22 211 90 22 211 90 22
211 90 22 208 72 13 208 72 13 208 72 13 208 72 13 210 71 13 210 71 13
207 71 12 208 72 13 210 71 13 207 69 11 202 66 7 200 64 5 203 64 6
203 64 6 203 64 6 204 63 6 206 62 8 206 62 8 206 63 6 206 63 6
204 63 6 204 63 6 204 64 4 204 64 4 204 63 6 204 63 6 204 63 6
203 62 5 202 63 5 204 65 7 207 69 11 211 72 14 209 73 12 209 73 12
209 73 12 209 73 12 208 74 12 208 74 12 208 75 10 208 75 10 208 75 10
208 75 10 208 75 8 208 75 8 208 75 8 208 75 8 208 75 8 208 75 8
205 75 7 204 74 6 222 92 25 218 91 22 218 93 21 216 94 21 216 94 21
215 95 21 215 95 19 215 95 19 216 96 21 216 96 21 214 97 21 214 97 21
214 99 22 214 99 22 214 99 22 214 99 22 214 99 22 214 99 22 216 99 20
214 97 19 211 94 15 210 93 14 211 92 14 212 93 15 212 93 15 212 93 15
214 92 15 214 92 15 214 92 15 214 92 15 214 94 16 214 94 16 214 94 16
214 94 16 214 94 16 214 94 16 212 95 16 212 95 16 211 94 15 213 96 17
215 101 21 216 102 22 217 103 23 217 103 23 216 104 23 216 104 23
215 106 24 215 106 24 217 105 24 219 104 24 212 95 16 214 94 16
215 94 16 215 94 16 214 94 16 214 94 16 214 94 16 214 94 16 212 96 14
210 98 15 225 115 32 224 117 33 224 117 33 224 117 33 224 117 33
224 117 33 223 116 32 223 116 32 222 115 30 219 115 29 218 114 28
217 112 27 216 111 26 216 111 28 219 111 29 220 110 29 220 110 29
220 110 29 221 108 30 218 106 28 217 105 26 217 105 26 219 104 26
219 104 26 217 105 26 217 105 24 215 106 24 215 106 24 217 107 23
217 107 23 217 107 23 215 108 23 216 109 25 216 109 27 216 109 27
216 109 27 218 108 27 219 107 29 221 106 31 224 106 32 207 90 16
210 90 17 211 91 20 211 91 20 211 91 20 211 91 20 211 90 22 211 90 22
211 90 22 211 90 22 210 71 13 210 71 13 210 71 13 210 71 13 210 71 13
210 71 13 209 70 12 209 70 12 206 70 11 205 68 10 202 66 7 201 65 6
201 65 6 204 65 7 204 65 9 205 64 9 207 63 9 207 63 9 207 63 9
206 63 6 204 63 6 202 63 3 202 63 3 202 63 3 203 62 5 203 62 5
203 62 5 203 62 5 204 64 4 200 59 0 214 76 16 211 73 12 212 74 13
212 74 11 210 75 11 210 75 11 209 76 11 209 76 11 209 76 11 209 76 11
208 75 10 208 75 10 208 75 10 208 75 10 206 76 10 206 76 10 206 76 10
206 76 10 207 77 9 204 74 6 218 91 22 216 88 20 217 92 22 217 92 22
215 93 20 215 93 20 215 93 20 215 93 20 216 94 19 215 95 19 214 97 19
214 97 19 214 99 20 212 100 20 212 100 20 212 100 20 214 99 20
215 101 21 219 102 23 217 100 21 212 95 16 210 93 14 211 92 14
212 93 15 212 93 15 212 93 15 214 92 15 214 92 15 212 93 15 212 93 15
214 94 16 214 94 16 212 95 16 212 95 16 212 95 16 212 95 16 212 95 16
210 96 16 210 96 16 214 99 20 216 102 22 217 103 23 217 103 23
217 103 23 216 104 23 216 104 23 215 106 24 215 106 24 217 105 24
219 104 24 212 95 16 214 94 16 215 94 16 215 94 16 214 94 16
214 94 16 214 94 16 214 94 16 212 95 16 210 98 17 226 116 35
228 119 37 223 116 34 223 116 34 225 115 34 225 115 34 224 114 32
224 114 32 224 114 32 221 114 31 220 112 30 219 111 29 217 112 29
216 111 28 217 110 30 216 108 29 216 108 29 218 108 29 225 115 36
227 117 38 211 101 22 217 105 26 214 101 25 214 101 25 214 101 23
214 101 23 214 101 21 214 101 21 215 103 20 215 103 20 215 103 22
213 103 22 215 106 24 215 106 24 217 106 28 217 106 28 219 107 29
219 107 29 224 109 34 219 103 28 210 95 20 205 87 13 211 93 21
211 93 21 211 93 21 211 93 21 212 92 23 212 92 23 212 92 23 212 92 23
207 69 11 207 69 11 207 69 11 207 69 11 207 69 11 207 69 11 207 69 11
206 68 10 205 68 10 203 67 9 202 66 7 202 66 7 201 65 6 202 66 7
204 65 9 205 64 9 205 64 9 207 63 9 207 63 9 205 64 7 203 65 4
201 65 4 201 65 4 201 65 4 201 65 4 201 65 6 201 65 6 203 64 6
203 65 4 200 64 3 206 70 9 205 69 8 210 75 11 210 75 11 210 75 11
209 76 11 209 76 11 209 76 11 209 76 11 209 76 11 205 72 8 205 72 8
205 72 8 205 72 8 204 73 8 204 73 8 204 73 8 204 73 8 207 77 9
203 72 5 216 88 20 213 85 16 215 89 20 215 89 20 213 90 18 213 90 18
213 90 18 213 90 18 214 92 17 214 94 18 213 96 17 213 98 19
212 100 20 212 100 20 212 100 20 212 100 20 214 99 20 214 99 20
213 96 17 212 95 16 208 94 14 208 94 14 210 93 14 211 94 15 211 94 15
211 94 15 211 94 15 211 94 15 212 95 16 212 95 16 213 96 17 213 96 17
214 97 19 214 97 19 214 97 19 213 98 19 213 98 19 213 98 19 212 97 17
215 101 21 216 102 22 217 103 23 217 103 23 217 103 23 216 104 23
216 104 23 215 106 24 215 106 24 217 105 24 219 104 24 212 95 16
214 94 16 215 94 16 215 94 16 214 94 16 214 94 16 214 94 16 212 95 16
210 96 16 210 98 17 224 114 32 224 114 32 221 114 31 222 113 31
222 113 31 224 112 31 223 111 30 223 111 30 223 111 30 223 111 30
222 113 31 222 113 31 222 113 31 221 112 30 221 111 32 222 109 31
222 109 31 222 109 31 227 112 35 229 114 37 213 98 21 217 103 25
216 98 24 216 98 24 216 98 22 216 98 22 216 98 22 216 99 20
217 100 21 217 100 21 217 100 21 217 100 21 219 102 23 219 102 25
220 103 26 220 103 26 221 104 28 221 104 28 222 102 28 218 98 25
214 94 20 211 91 18 214 91 21 215 92 22 215 92 22 215 92 22 217 91 24
217 91 24 217 91 24 217 91 24 203 64 6 203 64 6 203 64 6 203 64 6
203 64 6 203 64 6 204 65 7 204 65 7 202 66 7 202 66 7 202 68 9
202 68 9 202 68 9 203 67 9 203 67 11 205 66 11 207 65 11 207 65 11
207 66 9 207 66 9 222 86 25 220 88 23 219 88 23 219 88 23 217 89 23
217 89 25 217 89 25 219 88 25 219 88 25 220 90 24 213 83 17 217 86 21
207 77 11 207 77 11 207 77 11 207 77 11 207 77 11 207 77 11 209 76 11
209 76 11 203 70 6 203 70 6 203 70 6 203 70 6 201 71 6 201 71 6
201 71 6 201 71 6 203 76 7 199 71 2 214 86 18 210 83 14 212 87 18
212 87 18 212 87 16 212 87 16 212 87 16 212 87 16 211 88 14 209 89 14
216 99 20 214 99 20 212 100 20 212 100 20 212 100 20 212 100 20
214 99 20 214 99 20 220 106 23 221 107 25 222 110 27 223 111 28
224 114 30 224 114 30 224 114 30 224 114 30 224 114 30 225 113 30
225 113 30 225 113 30 214 101 21 214 101 21 214 101 21 215 101 21
215 101 21 215 101 21 215 101 21 214 99 20 214 99 20 216 102 22
217 103 23 217 103 23 217 103 23 217 103 23 216 104 23 216 104 23
215 106 24 215 106 24 217 105 24 219 104 24 212 95 16 214 94 16
215 94 16 215 94 16 214 94 16 214 94 16 212 95 16 212 95 16 213 98 19
209 97 16 219 109 28 217 107 26 219 109 28 219 109 28 221 108 28
221 108 28 221 106 27 221 106 27 221 106 27 221 106 27 211 94 15
211 94 15 211 94 15 210 93 14 211 92 16 210 90 15 210 90 15 212 90 15
212 90 15 214 92 17 198 76 1 204 79 5 201 76 4 201 76 4 201 76 4
201 76 4 201 76 4 201 76 2 202 77 3 202 77 3 202 77 3 202 77 3
204 79 5 204 79 5 205 80 9 205 80 9 206 81 10 207 79 9 204 77 6
202 75 4 200 72 2 201 72 2 201 71 4 201 71 4 201 71 4 203 70 4
203 70 6 203 70 6 203 70 6 203 70 6 200 62 4 200 62 4 200 62 4
200 62 4 200 62 4 200 62 4 202 63 5 202 63 5 201 65 6 202 66 7
202 68 9 202 68 9 202 68 9 202 68 9 203 67 11 203 67 11 205 66 11
205 66 11 205 66 9 205 66 9 222 88 26 220 90 24 218 90 24 217 91 24
215 92 24 215 92 24 215 92 24 215 92 24 215 92 24 219 95 28 204 78 11
210 84 17 206 78 11 207 77 11 207 77 11 207 77 11 207 77 11 207 77 11
209 76 11 209 76 11 202 69 4 202 69 4 202 69 4 202 69 4 199 69 3
199 69 3 199 69 3 199 69 3 201 73 7 196 69 0 211 84 15 208 80 12
211 84 15 210 85 15 210 85 15 210 85 13 210 85 13 210 85 13 208 86 13
207 87 11 216 99 20 214 99 20 212 100 20 212 100 20 212 100 20
212 100 20 214 99 20 213 98 19 214 100 18 216 102 20 219 108 25
221 112 28 222 115 30 220 116 30 220 116 30 220 116 30 220 116 30
220 116 30 222 115 30 222 115 30 214 105 23 216 104 23 215 103 22
215 103 22 215 103 22 215 103 22 216 102 22 216 102 22 216 102 22
216 102 22 217 103 23 217 103 23 217 103 23 217 103 23 216 104 23
216 104 23 215 106 24 215 106 24 217 105 24 219 104 24 212 95 16
214 94 16 215 94 16 215 94 16 214 94 16 214 94 16 212 95 16 212 95 16
213 98 19 208 96 15 215 106 24 212 102 21 217 107 26 218 106 26
218 106 26 220 105 26 219 104 24 220 103 24 220 103 24 220 103 24
214 94 16 215 94 16 215 94 16 214 92 15 216 91 17 216 89 16 216 89 16
216 89 16 214 85 12 217 87 15 200 71 0 205 75 5 203 71 2 203 70 4
203 70 4 203 70 4 203 70 4 203 71 2 204 72 3 204 72 3 204 72 3
204 72 3 207 74 5 207 74 5 208 76 6 208 75 8 209 76 9 209 76 9
202 67 1 202 67 1 205 70 4 205 70 4 205 68 2 204 66 3 204 66 3
204 66 3 205 65 3 205 65 5 205 65 5 205 65 5 203 62 5 203 62 5
203 62 5 203 62 5 202 61 4 202 61 4 202 63 5 202 63 5 201 65 6
201 65 6 202 68 9 202 68 9 202 68 9 202 68 9 205 68 12 205 68 12
203 66 13 203 67 11 203 67 9 202 68 9 220 89 26 217 91 24 215 92 22
214 93 22 214 93 22 214 93 22 214 93 22 214 93 22 216 95 25 211 91 20
202 82 11 204 81 11 207 79 11 210 77 11 210 77 11 210 77 11 210 77 13
210 77 13 210 77 13 210 77 13 202 69 4 202 69 4 202 69 4 202 69 4
199 68 5 199 68 5 199 68 5 199 68 5 203 72 7 198 67 2 213 83 17
210 79 14 210 82 16 210 82 16 210 82 16 210 83 14 211 84 15 210 85 15
208 86 13 207 87 11 216 99 20 214 99 20 212 101 18 212 101 18
212 100 20 212 100 20 214 99 20 214 99 20 215 101 21 214 99 20
230 116 34 227 118 34 223 118 33 221 119 33 221 119 33 221 119 33
220 118 32 220 118 32 220 118 32 222 117 32 213 103 22 216 102 22
216 102 22 216 102 22 216 102 22 216 102 22 216 102 22 216 102 22
216 102 22 216 102 22 216 102 22 216 102 22 217 103 23 217 103 23
216 104 23 216 104 23 215 105 26 215 105 26 217 105 26 219 104 26
212 95 18 214 94 18 215 93 18 215 93 18 215 93 18 214 94 18 212 95 18
212 95 18 209 94 17 207 94 16 218 106 28 217 105 26 218 106 26
218 106 26 220 105 26 220 105 26 219 104 24 219 104 24 219 104 24
220 103 24 215 90 14 216 90 14 216 90 14 216 90 14 218 88 16
218 88 16 218 88 16 219 88 16 222 89 20 220 88 19 200 67 0 203 69 0
205 70 4 205 69 6 205 69 6 205 69 6 205 69 6 205 70 4 206 71 5
206 71 5 206 70 7 206 70 7 208 73 9 208 73 9 208 73 9 208 73 9
209 74 10 210 72 9 210 72 9 209 71 8 209 71 8 209 69 7 209 69 7
208 67 8 208 67 8 209 66 8 209 66 8 209 66 10 209 66 10 209 66 10
204 63 6 204 63 6 204 63 6 204 63 6 203 62 5 203 62 5 203 64 6
203 64 6 201 65 6 201 65 6 203 67 9 202 68 9 202 68 9 202 68 11
205 68 12 205 68 12 203 66 13 203 67 11 202 68 9 200 69 6 218 90 24
215 92 22 214 93 22 214 94 20 214 94 20 214 94 20 214 94 20 214 94 20
216 96 23 211 91 18 202 82 9 204 81 9 208 78 11 210 77 11 210 77 11
210 77 11 210 77 13 210 77 13 210 77 13 210 77 13 203 70 6 203 70 6
203 70 6 203 70 6 200 69 6 200 69 6 200 69 6 200 69 6 204 73 8
199 69 3 214 84 18 211 80 15 210 82 16 210 82 16 210 82 16 210 82 16
211 84 15 210 85 15 208 86 13 207 87 13 216 98 22 214 99 20
212 101 18 212 101 18 212 100 20 212 100 20 214 99 20 214 99 20
215 101 21 212 100 20 229 117 34 227 118 34 223 118 33 221 119 33
221 119 33 221 119 33 220 118 32 220 118 32 220 118 32 222 117 32
213 103 22 216 102 22 216 102 22 216 102 22 216 102 22 216 102 22
216 102 22 216 102 22 216 102 22 216 102 22 216 102 22 216 102 22
217 103 23 217 103 23 216 104 23 216 104 23 215 105 26 215 105 26
217 105 26 217 105 26 210 96 18 212 95 18 214 94 18 215 93 18
215 93 18 214 94 18 212 95 18 210 96 18 208 95 17 207 94 16
218 106 28 217 105 26 218 106 26 218 106 26 220 105 26 220 105 26
220 105 26 220 105 26 220 105 26 221 104 26 215 90 14 216 90 14
216 90 14 216 90 14 218 88 16 218 88 16 218 88 16 219 88 16 222 89 20
220 88 19 200 67 0 203 68 2 205 69 6 205 69 6 205 69 8 205 69 8
205 69 6 205 69 6 206 70 7 206 70 9 206 70 9 206 70 9 208 72 11
208 72 11 208 72 11 208 73 9 209 74 10 210 72 9 210 72 11 209 70 10
209 70 10 209 68 9 209 68 9 208 67 8 208 67 8 209 66 8 209 66 10
209 66 10 209 66 10 209 66 10 204 63 6 204 63 6 204 63 6 204 63 6
203 62 5 203 62 5 203 64 6 203 64 6 203 64 8 203 64 8 203 67 11
203 67 11 205 68 12 205 68 12 206 69 15 206 69 15 205 68 12 205 68 12
203 69 10 201 70 8 217 91 24 215 92 22 214 94 20 214 94 18 214 94 18
215 93 18 215 93 18 215 93 18 219 95 21 215 90 16 205 81 7 207 79 9
208 79 9 208 79 9 208 78 11 208 78 11 210 77 13 210 77 13 210 77 13
210 77 13 203 70 6 203 70 6 203 70 6 203 70 6 200 69 6 200 69 6
200 69 6 200 69 6 204 73 8 199 69 3 214 84 18 211 80 15 210 82 16
210 82 16 210 82 16 210 82 16 210 85 15 210 85 15 208 86 13 207 87 13
214 99 22 212 100 20 212 101 18 211 101 18 211 101 20 212 100 20
212 100 20 212 100 20 214 101 21 211 101 20 227 118 34 227 118 34
224 117 33 224 117 33 223 118 33 223 118 33 223 116 32 223 116 32
222 117 32 222 117 32 213 103 22 215 103 22 215 103 22 215 103 22
216 102 22 216 102 22 216 102 22 216 102 22 216 102 22 216 102 22
216 102 22 216 102 22 217 103 23 217 103 23 216 104 23 216 104 23
215 105 26 215 105 26 215 105 26 217 105 26 210 96 18 212 95 18
214 94 18 214 94 18 214 94 18 214 94 18 212 95 18 210 96 18 208 95 17
205 95 16 217 106 28 215 105 26 218 106 26 218 106 26 220 105 26
220 105 26 221 104 26 221 104 26 221 104 26 221 104 26 211 92 14
213 91 14 213 91 14 213 91 14 215 90 14 216 90 14 216 90 14 216 89 16
220 90 20 219 89 19 198 68 0 200 70 2 203 70 6 203 70 6 203 70 8
203 70 8 203 70 8 203 70 8 204 71 9 204 70 11 204 70 11 204 70 11
207 73 13 207 73 13 207 73 11 207 73 11 208 75 10 207 74 9 208 72 11
207 71 10 207 71 10 206 70 9 207 69 9 206 68 8 206 68 8 206 68 8
208 67 10 208 67 10 208 67 10 208 67 10 204 63 6 204 63 6 204 63 6
204 63 6 203 62 5 203 62 5 203 64 6 203 64 6 203 64 8 203 64 8
203 67 11 203 67 11 205 68 12 205 68 12 206 69 15 206 69 15 205 68 12
205 68 10 203 70 8 201 71 6 217 92 22 215 93 20 215 93 18 215 93 18
215 94 16 217 93 16 217 93 16 218 92 16 221 94 21 216 89 16 207 80 7
207 80 7 208 79 9 208 79 9 208 78 11 208 78 11 210 77 13 210 77 13
210 77 13 210 77 13 203 70 6 203 70 6 203 70 6 203 70 6 200 69 6
200 69 6 200 69 6 200 69 6 204 73 8 199 69 3 214 84 18 211 80 15
210 82 16 210 82 16 210 82 16 210 82 16 211 84 15 210 85 15 208 85 15
205 87 13 214 99 22 212 100 20 211 101 20 211 101 18 211 101 20
211 101 20 212 100 20 212 100 20 212 102 21 209 102 20 225 119 34
225 119 34 224 117 33 224 117 33 223 118 33 223 118 33 223 116 32
223 116 32 222 117 32 223 116 32 213 103 22 215 103 22 215 103 22
215 103 22 216 102 22 216 102 22 216 102 22 216 102 22 216 102 22
216 102 22 216 102 22 216 102 22 217 103 23 217 103 23 216 104 23
216 104 23 215 105 26 214 106 26 215 105 26 217 105 26 210 96 18
212 95 18 214 94 18 214 94 18 214 94 18 214 94 18 212 95 18 210 96 18
208 95 17 205 95 16 217 106 28 215 105 26 218 106 26 218 106 26
220 105 26 220 105 26 221 104 26 221 104 26 221 104 26 221 104 26
211 92 14 211 92 14 211 92 14 211 92 14 213 91 14 215 90 16 215 90 16
215 90 16 218 91 20 219 89 19 198 68 0 200 70 2 203 70 6 203 70 6
203 70 8 203 70 8 203 70 8 203 69 10 204 70 11 204 70 11 204 70 11
203 71 11 205 74 13 205 74 13 205 74 11 205 74 11 206 76 10 205 74 9
207 73 11 205 72 10 205 72 10 204 71 9 206 70 9 206 68 8 206 68 8
206 68 8 206 68 10 206 68 10 206 68 10 206 68 10 203 64 6 203 64 6
203 64 6 203 64 6 203 64 8 203 64 8 203 64 8 203 64 8 204 65 9
204 65 9 204 65 9 206 67 12 207 68 15 207 68 15 207 68 13 207 68 13
206 69 13 206 70 11 204 71 9 203 72 7 220 92 23 218 93 21 216 94 19
216 95 17 218 94 17 218 94 17 220 93 17 220 93 19 224 94 22 219 90 17
210 80 10 210 80 10 210 80 10 210 80 10 210 80 10 210 79 12 211 79 12
211 79 12 211 78 14 211 78 14 202 68 6 202 68 6 202 68 6 202 68 6
202 68 6 202 68 6 202 68 6 202 68 6 204 73 10 199 68 5 214 83 20
211 80 17 212 81 18 212 81 18 212 81 16 212 81 16 211 83 17 210 84 17
208 85 15 205 87 13 214 99 22 212 100 22 211 101 20 211 101 20
212 100 20 212 100 20 211 101 22 211 101 22 212 102 21 209 102 20
224 119 36 222 120 36 221 119 33 220 120 33 221 119 31 221 119 31
221 119 33 221 119 33 223 118 33 224 117 33 214 105 21 216 104 21
216 104 21 216 104 21 217 103 23 217 103 23 217 103 23 217 103 23
217 103 23 217 103 23 217 103 23 217 103 23 217 103 25 217 103 25
216 103 25 216 103 25 215 105 26 214 106 26 215 105 26 217 105 26
210 95 20 212 94 20 214 94 20 214 94 20 214 94 20 214 94 20 212 94 20
210 95 20 208 95 17 207 94 16 218 106 28 217 105 26 218 106 28
218 106 28 218 106 28 220 105 28 221 104 26 221 104 26 221 104 26
221 104 26 210 93 14 210 93 14 210 92 16 211 92 16 211 92 16
213 90 18 213 90 18 215 90 18 222 89 22 222 87 21 201 66 0 203 68 4
205 69 6 205 69 8 205 69 8 205 69 8 205 68 10 205 68 10 206 70 11
206 70 11 206 70 11 204 70 11 205 72 10 205 72 10 207 73 11 207 73 11
205 74 11 205 74 11 204 73 8 204 73 8 204 73 8 204 71 7 206 68 8
208 67 10 208 67 10 208 67 10 208 67 10 208 67 10 208 67 10 208 67 10
203 64 6 203 64 6 203 64 6 203 64 6 203 64 8 203 64 8 203 64 8
203 64 8 204 65 9 204 65 9 205 66 11 206 67 12 207 68 15 207 68 15
207 68 13 207 69 11 206 70 11 206 70 9 204 71 7 203 72 5 220 92 21
218 93 19 216 95 17 216 95 17 216 95 15 218 94 15 218 94 17 220 93 19
222 95 22 219 90 17 210 80 10 210 80 10 210 80 10 210 80 10 210 80 10
210 80 10 211 79 12 211 79 12 211 78 14 211 78 14 202 68 6 202 68 6
202 68 6 202 68 6 202 68 6 202 68 6 202 68 6 202 68 6 204 73 10
199 68 5 214 83 20 211 80 17 212 81 18 212 81 18 212 81 16 212 81 16
213 83 17 211 83 17 208 85 15 207 86 15 214 99 24 212 100 22
212 100 20 212 100 20 212 100 20 212 100 20 212 100 22 211 101 22
212 102 21 209 102 20 224 119 36 222 120 36 220 120 33 220 120 33
221 119 31 221 119 31 221 119 33 223 118 33 224 117 33 226 117 33
216 104 21 216 104 21 216 104 21 216 104 21 217 103 23 217 103 23
217 103 23 217 103 23 217 103 23 217 103 23 217 103 23 217 103 23
217 103 25 217 103 25 216 103 25 216 103 25 215 105 26 215 105 26
215 105 26 217 105 26 210 95 20 212 94 20 214 94 20 215 93 20
215 93 20 214 94 20 212 94 20 210 95 20 209 94 17 207 94 16
218 106 28 217 105 26 218 106 28 218 106 28 218 106 28 218 106 28
220 105 28 220 105 28 220 105 28 221 104 28 210 92 16 211 92 16
211 92 16 211 91 18 213 90 18 213 90 20 213 90 20 215 89 20 222 89 22
224 86 23 203 65 2 205 67 4 206 68 8 206 68 8 206 68 8 206 68 10
206 67 12 206 67 12 206 70 11 206 70 11 206 70 11 206 70 11 205 72 10
205 72 10 207 73 11 207 73 11 207 73 11 205 74 11 204 73 10 204 73 8
204 73 8 204 71 7 206 68 8 208 67 10 208 67 10 208 67 10 208 67 10
208 67 10 208 67 10 208 67 10 204 65 7 204 65 7 204 65 7 204 65 7
204 65 7 204 65 7 204 65 7 204 65 7 202 66 9 202 66 9 205 68 12
206 69 13 206 69 13 206 69 13 206 69 13 206 70 11 206 70 9 206 70 7
204 71 7 203 72 5 218 93 21 216 94 19 216 95 17 215 96 15 215 96 15
216 95 15 218 94 17 218 94 17 222 97 23 217 90 17 208 81 8 208 81 8
210 80 8 210 80 8 211 79 8 211 79 10 211 79 12 211 79 12 213 78 12
213 77 14 202 69 4 202 69 4 202 69 4 202 69 4 202 68 6 202 68 6
202 68 6 202 68 6 204 73 10 200 69 6 214 83 20 211 80 17 212 81 18
212 81 18 213 81 16 213 81 16 215 82 17 213 83 17 210 85 15 208 85 15
216 98 24 214 99 22 214 99 20 214 99 20 214 99 20 214 99 20 214 99 22
212 100 22 212 102 21 209 102 20 224 119 36 224 119 36 221 119 33
223 118 33 223 119 31 223 119 31 224 117 33 224 117 33 226 117 33
226 117 33 216 104 21 216 104 21 216 104 21 216 104 21 217 103 23
217 103 23 217 103 23 217 103 23 217 103 23 217 103 23 217 103 23
217 103 23 217 103 25 217 103 25 216 103 25 216 103 25 217 105 26
217 105 26 217 105 26 219 104 26 212 94 20 214 94 20 215 93 20
217 92 20 217 92 20 215 93 20 214 94 20 212 94 20 209 94 19 208 93 18
218 105 30 217 104 28 217 106 30 217 106 30 217 106 30 217 106 30
218 105 30 218 105 30 218 105 30 220 104 30 211 91 18 213 90 18
215 90 18 215 89 20 215 89 20 215 89 20 216 88 22 218 87 22 222 89 24
222 87 23 202 66 5 203 68 6 205 69 8 205 69 8 206 68 8 206 68 10
206 67 12 206 67 12 207 68 13 207 68 13 206 70 11 206 70 11 207 71 12
207 71 12 208 72 13 208 72 13 208 72 13 207 73 13 205 72 10 205 72 10
204 71 9 203 70 8 206 68 10 208 67 10 208 67 10 208 67 10 208 67 10
208 67 10 208 67 10 208 67 10 204 65 7 204 65 7 204 65 7 204 65 7
204 65 7 204 65 7 204 65 7 202 66 7 202 66 7 202 68 11 203 69 12
204 70 13 204 70 13 204 70 11 204 70 11 204 71 9 204 71 7 204 71 7
203 72 5 201 73 5 216 94 21 215 95 19 215 95 17 213 97 15 213 97 15
215 96 15 215 95 17 216 95 17 220 98 23 214 92 17 205 83 8 205 83 8
206 82 8 206 82 8 206 82 8 208 81 8 208 81 10 208 81 10 208 81 10
210 79 12 202 69 4 202 69 4 202 69 4 202 69 4 202 68 6 202 68 6
202 68 6 202 68 6 204 73 10 201 70 8 214 83 20 211 80 17 212 81 18
213 80 18 213 81 16 213 81 16 215 82 17 215 82 17 213 83 17 210 85 15
219 96 24 217 97 22 216 99 20 216 99 20 217 98 20 217 98 20 216 98 22
214 99 22 214 101 21 211 101 20 225 118 36 225 118 36 224 117 33
224 117 33 226 117 33 226 117 31 226 117 33 228 116 33 228 116 33
228 116 33 216 104 21 216 104 21 216 104 21 216 104 21 217 103 23
217 103 23 217 103 23 217 103 23 217 103 23 217 103 23 215 101 21
217 103 23 217 103 25 217 103 25 216 103 25 216 103 25 217 105 26
219 104 26 219 104 26 220 102 28 214 94 20 215 93 20 217 92 20
218 91 20 218 91 20 217 92 20 215 93 20 214 94 20 211 93 19 210 92 20
220 104 32 219 103 30 220 104 32 220 104 32 220 104 32 220 104 32
220 104 32 220 104 32 220 104 32 221 103 32 215 89 20 216 88 20
216 88 20 218 87 22 218 87 22 218 87 22 218 87 22 219 86 22 222 89 24
220 87 25 202 66 5 203 68 6 203 68 6 203 68 6 205 67 6 205 66 9
204 65 9 204 65 9 205 66 11 205 66 11 203 67 9 203 67 9 206 70 11
206 70 11 207 71 12 207 71 12 208 72 13 208 72 13 207 71 12 207 71 12
206 70 11 205 68 10 206 68 10 208 67 10 208 67 10 208 67 10 208 67 10
208 67 10 208 67 10 208 67 10 205 66 9 205 66 9 205 66 9 205 66 9
204 65 7 204 65 7 202 66 7 201 67 7 201 67 7 199 68 7 217 85 25
217 85 25 217 85 25 217 86 23 217 86 23 217 86 23 217 86 21 215 87 21
215 87 19 213 88 19 223 103 30 221 104 28 220 105 26 220 106 23
220 106 23 220 106 23 220 105 26 219 104 24 216 102 22 220 105 26
224 110 30 226 111 31 224 110 30 223 109 29 223 109 29 223 109 29
223 109 29 222 110 29 222 110 29 225 108 31 206 78 11 209 75 13
209 75 13 209 75 13 209 75 13 209 75 13 208 74 12 208 74 12 207 73 11
204 71 9 205 72 10 204 71 9 204 71 9 203 70 8 205 69 8 205 69 8
206 70 9 206 70 9 204 71 9 203 72 7 210 85 13 208 86 11 208 87 9
208 87 9 208 87 9 208 87 9 208 86 11 207 87 11 203 85 9 200 85 8
215 103 22 213 103 22 212 102 21 214 101 21 214 102 19 214 102 19
214 102 19 215 101 19 215 101 19 215 101 19 216 102 22 216 102 22
216 102 22 216 102 22 216 102 22 216 102 22 216 102 22 217 103 23
217 103 23 216 102 22 214 99 20 210 96 16 210 96 18 210 96 18
210 96 18 210 96 18 212 96 21 213 96 21 215 95 21 216 94 21 206 81 12
208 80 12 210 79 12 210 79 12 210 79 12 210 79 12 208 80 12 206 81 12
204 81 11 202 81 13 202 81 13 204 80 13 204 78 11 204 78 11 206 78 11
206 78 11 206 78 11 206 78 11 206 78 11 204 76 10 205 74 9 205 72 8
205 72 8 205 72 10 205 72 10 205 72 10 205 72 10 207 71 10 206 70 9
206 70 11 203 67 9 203 67 9 205 66 9 204 65 7 204 65 7 204 65 7
203 64 8 203 64 8 204 65 9 204 65 9 204 65 9 204 65 9 204 65 9
204 65 9 204 65 9 204 65 9 203 64 8 203 64 8 203 64 8 203 64 8
203 64 8 203 64 6 204 63 6 204 63 6 204 63 6 204 63 6 204 63 6
204 63 6 204 63 6 204 63 6 205 66 9 205 66 9 205 66 9 205 66 9
204 65 7 204 65 7 202 66 7 201 67 7 199 68 5 197 69 5 215 86 23
215 86 23 215 86 23 215 86 23 215 86 23 215 87 21 215 87 21 213 88 21
213 88 19 212 89 17 221 104 28 220 105 26 218 106 23 218 106 23
218 106 23 218 106 23 218 106 26 217 105 24 216 104 23 218 106 26
221 112 30 222 113 31 221 112 28 220 111 27 219 112 27 219 112 27
219 112 27 219 112 27 217 112 27 222 110 29 204 79 9 209 75 13
209 75 13 209 75 13 209 75 13 209 75 13 208 74 12 208 74 12 207 73 11
205 72 10 205 72 10 204 71 9 204 71 9 203 70 8 205 69 8 205 69 8
207 69 11 207 69 11 206 70 9 204 71 7 213 83 15 210 85 13 210 85 11
210 86 9 210 86 9 210 86 9 210 85 11 208 86 11 204 85 9 202 84 8
216 102 22 216 102 22 215 101 21 215 101 21 215 101 19 215 101 19
215 101 19 215 101 19 215 101 19 215 101 19 216 102 22 216 102 22
216 102 22 216 102 22 216 102 22 216 102 22 216 102 22 217 103 23
217 103 23 216 102 22 213 98 19 210 96 16 210 96 18 210 96 18
210 96 18 210 96 18 213 96 21 215 95 21 216 94 21 218 93 21 208 80 12
210 79 12 211 79 12 211 79 12 211 79 12 211 79 12 210 79 12 207 79 11
204 78 11 201 78 10 201 78 10 203 77 12 203 75 11 205 74 11 205 74 11
207 73 11 207 73 11 207 73 11 207 73 11 205 72 10 206 70 9 205 69 8
203 70 8 205 69 8 205 69 8 205 69 8 205 69 8 205 69 8 205 68 10
205 68 10 203 67 9 203 67 9 204 65 7 203 64 6 203 64 6 203 64 6
202 63 7 202 63 7 203 64 8 203 64 8 203 64 8 203 64 8 204 65 9
204 65 9 203 64 8 203 64 8 203 64 8 204 63 8 204 63 8 204 63 10
204 63 10 204 63 8 204 63 8 204 63 6 204 63 6 204 63 6 204 63 6
204 63 6 204 63 6 204 63 6 206 67 12 206 67 12 206 67 12 206 67 12
205 66 11 205 66 11 205 66 9 203 68 6 200 70 4 197 71 4 213 88 21
213 88 21 213 88 21 213 88 21 213 88 21 213 88 19 213 88 19 212 89 19
212 89 19 210 90 17 220 105 28 218 106 26 217 107 23 217 107 23
217 107 23 217 107 23 217 107 26 215 106 24 215 106 22 217 107 23
221 112 28 222 113 29 220 113 28 219 112 25 219 112 25 219 112 25
219 112 25 219 112 25 219 112 25 222 110 27 204 79 9 209 75 13
209 75 13 209 75 13 209 75 13 209 75 13 208 74 12 208 74 12 207 73 11
207 73 11 205 72 10 204 71 9 204 71 9 203 70 8 205 69 8 205 69 8
207 69 11 207 69 11 207 69 9 206 70 7 215 82 15 213 83 13 211 85 11
211 85 9 211 85 9 211 85 9 211 85 11 210 85 11 206 84 9 203 83 8
218 101 22 218 101 22 217 100 21 217 100 21 217 100 19 217 100 19
217 100 19 217 100 19 217 100 19 217 100 19 218 101 20 218 101 20
218 101 20 218 101 20 216 102 20 216 102 20 216 102 20 217 103 21
217 103 23 216 102 22 213 98 19 210 96 16 209 96 18 209 96 18
210 96 18 210 96 18 213 96 21 215 95 21 216 94 21 218 93 21 208 80 12
210 79 12 211 79 12 213 78 12 213 78 12 211 79 12 211 79 12 208 78 11
206 78 11 203 77 12 203 77 12 203 77 12 203 74 13 203 74 13 203 74 13
205 74 13 205 74 13 205 74 13 205 74 13 205 72 12 206 70 11 205 68 10
205 68 10 205 68 10 206 68 10 206 68 10 206 68 10 206 68 10 206 68 10
206 68 10 206 68 10 205 66 9 204 65 7 203 64 6 203 64 6 203 64 6
202 63 7 202 63 7 203 64 8 203 64 8 204 63 10 204 63 10 205 64 11
205 64 11 204 63 10 204 63 10 204 63 10 206 62 10 206 62 10 206 61 12
206 61 12 206 62 10 206 62 8 206 62 8 204 63 8 204 63 8 204 63 8
204 63 8 204 63 8 204 63 8 206 67 12 206 67 12 206 67 12 206 67 12
205 66 11 203 67 11 203 67 11 202 68 9 199 71 4 197 72 2 212 89 19
212 89 19 212 89 19 212 89 19 212 89 19 211 88 18 211 88 18 212 89 19
210 90 17 209 91 17 220 105 28 218 106 26 217 107 23 215 108 23
215 108 23 215 108 23 217 107 26 215 106 24 215 106 22 217 107 23
221 112 28 222 113 29 220 113 26 219 112 25 219 112 25 219 112 25
219 112 23 219 112 23 219 112 23 222 110 27 204 79 9 209 75 13
209 75 13 209 75 13 209 75 13 209 75 13 208 74 12 208 74 12 207 73 11
207 73 11 205 72 10 204 71 9 204 71 9 203 70 8 205 69 8 205 68 10
207 69 11 207 69 11 207 69 11 206 70 7 215 82 15 215 82 13 213 84 11
211 85 9 211 85 9 211 85 9 211 85 11 211 85 11 208 83 9 205 83 8
219 100 22 218 101 22 217 100 21 217 100 21 218 99 19 218 99 19
217 100 19 217 100 19 217 100 19 217 100 19 218 101 20 218 101 20
218 101 20 218 101 20 218 101 20 216 102 20 216 102 20 217 103 21
217 103 23 216 102 22 213 98 19 210 96 16 209 96 18 209 96 18
210 96 18 210 96 18 213 96 21 215 95 21 216 94 21 220 92 21 210 79 12
211 79 12 213 78 12 213 78 12 213 78 12 213 78 12 211 79 12 210 77 13
207 77 11 204 76 12 204 76 12 204 76 12 205 74 13 205 74 13 205 74 13
205 74 13 207 73 13 207 73 13 207 73 13 205 72 12 206 70 11 205 68 10
205 68 10 205 68 10 206 68 10 206 68 10 206 68 10 206 68 10 206 68 10
206 68 10 206 68 10 205 66 9 204 65 7 203 64 6 203 64 6 203 64 6
202 63 7 202 63 7 203 64 8 203 64 8 204 63 10 204 63 10 205 64 11
205 64 11 204 63 10 204 63 10 206 62 10 206 62 10 206 61 12 206 61 12
206 61 12 206 61 12 206 62 10 206 62 8 204 63 8 204 63 8 204 63 8
204 63 8 204 63 8 204 63 8 205 68 14 205 68 14 205 68 14 205 68 14
205 68 14 203 68 14 203 68 14 201 70 10 200 72 6 198 73 2 213 90 18
213 90 18 212 89 17 212 89 17 213 88 17 211 86 14 211 88 18 211 88 18
209 89 16 207 90 16 219 104 26 217 105 24 215 106 22 214 107 22
215 108 23 215 108 23 217 107 26 215 106 24 214 107 22 215 108 23
220 113 28 221 114 29 220 113 28 219 112 27 219 112 27 219 112 25
217 113 23 217 113 23 217 113 23 222 110 27 204 79 9 209 75 13
209 75 13 209 75 13 209 75 13 208 74 12 208 74 12 207 73 11 207 73 11
205 72 10 205 72 10 204 71 9 204 71 9 204 71 9 204 70 11 206 70 11
206 69 13 206 69 13 206 70 11 206 70 9 215 82 15 215 82 13 213 84 11
213 84 9 213 84 9 213 84 9 211 85 11 211 85 11 209 82 9 206 82 8
221 99 24 219 100 24 218 99 21 218 99 21 217 100 21 217 100 21
217 100 19 217 100 19 217 100 19 217 100 19 219 101 20 219 101 20
219 101 20 219 101 20 219 101 20 218 101 20 218 101 20 219 103 21
217 103 21 216 102 20 211 99 17 209 97 16 209 96 18 209 96 18
209 96 18 210 96 18 213 96 21 215 95 21 216 94 21 220 92 21 210 79 12
211 78 14 213 77 14 213 77 14 213 77 14 213 77 14 211 78 14 210 77 13
209 76 11 208 75 10 208 75 10 209 73 12 208 72 11 208 72 11 208 72 11
208 72 11 208 72 13 208 72 13 208 72 13 207 71 12 206 70 11 205 68 10
206 68 10 206 68 10 206 68 10 206 68 10 206 68 10 206 68 10 206 68 10
206 68 10 206 68 10 204 65 7 203 64 6 202 63 5 202 63 5 202 63 5
202 63 7 202 63 7 203 62 7 203 62 7 204 63 10 204 63 10 206 62 10
206 62 10 206 62 10 206 62 10 206 62 10 206 62 10 208 61 12 208 61 12
208 61 12 208 61 12 206 62 10 206 62 10 204 63 10 204 63 10 204 63 10
204 63 10 204 63 10 204 63 10 205 68 14 205 68 14 205 68 14 205 68 14
205 68 14 205 68 14 203 68 14 201 70 10 200 72 4 198 73 2 213 91 16
213 91 16 212 90 15 212 90 15 213 88 17 211 86 14 209 87 16 211 88 18
211 88 16 209 89 16 219 104 26 217 105 24 215 106 22 215 106 22
217 107 23 217 107 23 217 107 26 215 106 24 214 107 22 215 108 23
220 113 28 221 114 29 220 113 28 219 112 27 219 112 27 217 112 27
217 113 25 215 114 23 215 114 23 220 111 27 204 79 9 209 75 13
209 75 13 209 75 13 209 75 13 208 74 12 208 74 12 207 73 11 207 73 11
205 72 10 205 72 10 204 71 9 204 71 9 204 71 9 204 70 11 204 70 11
206 69 13 206 69 13 206 70 11 206 70 9 215 82 15 215 82 13 213 84 11
213 84 9 213 84 9 213 84 9 211 85 11 211 85 11 209 82 9 208 81 8
223 98 24 221 99 24 218 99 21 217 100 21 215 101 21 215 101 21
215 101 19 215 101 19 215 101 19 215 101 19 218 101 20 218 101 20
218 101 20 218 101 20 218 101 20 218 101 20 218 101 20 217 103 21
217 103 21 216 102 20 211 99 17 209 97 16 209 96 18 210 96 18
210 96 18 210 96 18 213 96 21 215 95 21 216 94 21 220 92 23 210 79 14
210 79 14 211 78 14 213 77 14 213 77 14 213 77 14 211 78 14 210 77 13
209 76 11 209 74 10 211 73 10 211 73 10 210 72 11 210 72 11 210 72 11
210 72 11 210 71 13 210 71 13 210 71 13 209 70 12 206 70 11 205 68 10
206 68 10 206 68 10 206 68 10 206 68 10 206 68 10 206 68 10 206 68 10
206 68 10 206 68 10 204 65 7 203 64 6 202 63 5 202 63 5 202 63 5
202 63 7 202 63 7 203 62 7 203 62 7 204 63 10 204 63 10 206 62 10
206 62 10 206 62 10 206 62 10 206 62 10 206 62 10 208 61 10 208 61 12
208 61 12 206 62 10 206 62 10 206 62 10 204 63 10 204 63 10 204 63 10
204 63 10 204 63 10 204 63 10 208 66 12 208 66 12 208 66 12 208 66 12
208 66 12 208 66 12 208 66 12 205 68 10 200 72 4 198 74 0 215 90 16
215 90 16 213 89 15 213 89 15 213 88 17 211 86 14 211 86 16 212 87 18
211 88 16 209 89 16 220 103 26 217 105 24 217 105 22 217 105 22
218 106 23 217 107 23 217 107 26 215 106 24 214 107 22 215 108 23
218 114 28 219 115 29 218 114 28 217 112 27 217 112 27 215 113 27
215 114 25 214 114 25 214 114 25 219 111 29 204 79 9 209 75 13
209 75 13 209 75 13 209 75 13 208 74 12 208 74 12 207 73 11 207 73 11
207 73 11 205 72 10 204 71 9 204 71 9 204 71 9 204 70 11 204 70 11
204 70 13 204 70 13 204 70 11 204 71 9 215 82 17 213 83 13 213 84 11
213 84 9 213 84 11 213 84 11 213 84 11 213 84 11 209 82 9 208 81 8
224 97 24 221 99 24 215 101 21 214 101 21 214 101 21 214 101 21
214 101 21 214 101 21 214 101 21 214 101 21 215 103 20 215 103 20
215 103 20 215 103 20 216 102 20 216 102 20 216 102 20 217 103 21
217 103 23 216 102 22 213 98 19 210 96 18 210 96 18 212 95 18
212 95 18 212 95 18 215 95 21 216 94 21 218 93 21 220 92 23 210 79 14
210 79 14 211 78 14 211 78 14 211 78 14 211 78 14 211 78 14 210 77 13
210 75 11 209 74 10 211 73 10 211 73 10 210 72 11 210 72 11 210 72 11
210 72 11 210 72 11 210 72 11 210 72 11 209 70 10 206 70 9 205 69 8
206 68 8 206 68 8 206 68 8 206 68 8 206 68 8 206 68 8 206 68 10
206 68 10 206 68 10 204 65 7 203 64 6 202 63 5 202 63 5 202 63 5
202 63 5 202 63 5 202 63 5 202 63 7 204 63 8 204 63 8 204 63 8
204 63 8 204 63 8 204 63 8 204 63 8 206 62 8 206 62 8 206 62 10
206 62 10 204 63 8 204 63 8 204 63 8 204 63 8 203 64 8 203 64 8
203 64 8 203 64 8 203 64 8 208 66 12 208 66 12 208 66 12 208 66 12
208 66 12 208 67 10 208 67 10 205 69 8 201 72 2 198 74 0 215 90 16
215 90 16 212 88 14 212 88 14 212 87 16 211 86 14 211 86 16 212 87 18
211 88 16 209 89 16 221 104 28 220 105 26 218 106 26 218 106 23
219 108 25 219 107 27 218 108 27 217 107 26 215 106 24 215 108 23
220 113 28 219 115 29 218 114 28 217 112 27 217 112 27 215 113 27
215 114 25 214 114 25 214 114 25 219 111 29 203 78 8 208 74 12
208 74 12 208 74 12 208 74 12 208 74 12 207 73 11 207 73 11 207 73 11
207 73 11 204 71 9 204 71 9 203 70 8 203 70 8 203 69 10 203 69 10
203 69 12 203 69 12 204 70 13 204 70 11 215 82 17 213 83 15 213 84 11
213 84 11 213 84 11 213 84 11 213 84 11 213 84 11 209 82 9 208 81 8
224 97 24 221 99 24 215 100 23 214 101 23 214 101 23 214 101 21
214 101 21 214 101 21 214 101 21 214 101 21 215 103 22 215 103 22
215 103 22 215 103 22 216 102 22 216 102 22 216 102 22 217 103 23
219 102 23 218 101 24 214 97 21 212 95 18 214 94 18 214 94 18
214 94 18 214 94 20 216 94 21 218 93 21 218 93 21 220 92 23 211 80 15
211 80 15 212 79 15 212 79 15 212 79 15 212 79 15 212 79 15 211 78 14
212 76 13 210 75 11 211 73 10 211 73 10 211 73 12 211 73 12 211 73 12
211 73 12 211 73 12 211 73 12 210 72 11 209 70 10 206 70 9 205 69 8
206 68 8 206 68 8 206 68 8 206 68 8 206 68 8 206 68 8 206 68 10
205 66 9 206 68 10 204 65 7 203 64 6 202 63 5 202 63 5 202 63 5
202 63 5 202 63 5 202 63 5 202 63 5 203 64 6 204 63 8 204 63 8
204 63 8 204 63 8 204 63 8 204 63 8 204 63 8 204 63 8 204 63 8
204 63 8 204 63 8 204 63 8 203 64 8 203 64 8 203 64 8 203 64 8
203 64 8 203 64 8 203 64 8 207 69 11 207 69 11 207 69 11 207 69 11
207 69 11 206 70 9 206 70 7 204 72 5 204 77 6 199 71 0 212 88 14
206 82 8 212 88 14 212 88 14 212 87 16 211 86 14 212 87 18 212 87 18
211 88 16 209 89 16 221 104 28 220 105 28 218 106 26 218 106 26
219 107 27 219 107 27 221 108 30 221 108 30 221 112 30 221 112 30
221 112 30 220 112 30 219 112 27 219 112 27 217 110 26 216 111 26
216 111 26 214 112 26 214 112 26 219 109 28 202 76 7 207 74 9
205 74 9 205 74 9 205 74 9 205 74 9 205 74 9 207 77 11 208 78 13
208 75 10 205 72 10 205 69 8 202 68 6 202 68 6 205 68 10 205 68 10
205 68 12 205 68 14 205 68 12 205 68 10 215 81 19 215 82 15 215 82 13
215 83 11 213 83 13 213 83 13 213 83 13 213 83 13 211 84 13 214 86 16
217 92 20 216 94 21 215 95 21 213 96 21 212 96 21 212 97 19 212 97 19
212 97 19 212 97 19 212 97 19 213 98 21 213 98 21 213 98 21 214 97 21
214 97 21 214 97 21 214 97 21 217 97 22 217 97 22 216 96 21 212 93 17
213 91 16 214 92 19 215 93 20 215 93 20 215 93 20 216 93 23 218 93 23
220 92 23 220 92 23 210 79 14 211 78 14 211 78 14 211 78 14 211 78 14
211 78 14 211 78 14 210 77 13 210 75 13 209 73 12 211 73 12 211 73 12
211 73 12 211 73 12 210 72 11 210 72 11 210 72 11 210 72 11 210 72 11
209 70 10 207 69 9 206 68 8 205 67 6 205 67 6 205 67 6 205 67 6
205 67 6 206 68 8 205 69 8 203 68 6 198 62 1 195 60 0 198 62 1
199 63 2 199 63 2 199 63 2 199 63 4 199 63 4 199 63 4 199 63 4
200 64 5 202 63 5 202 63 5 202 63 5 202 63 5 202 63 5 202 63 5
202 63 5 203 64 6 203 64 6 203 64 6 203 64 6 203 64 6 201 65 6
201 65 6 201 65 6 201 65 6 201 65 6 201 65 6 201 65 6 203 72 7
203 72 7 203 72 7 203 72 7 203 72 7 203 72 7 201 73 5 201 73 5
202 75 4 202 77 5 213 89 15 216 91 17 211 86 12 211 86 12 211 86 14
211 86 14 212 87 18 212 87 18 211 88 16 211 88 16 221 101 25
219 102 25 217 103 23 216 104 23 217 105 24 217 105 24 218 106 28
218 106 28 218 106 26 219 107 27 221 108 28 222 110 29 220 111 27
221 112 28 221 112 28 222 113 29 222 113 29 222 113 29 222 113 29
226 111 31 206 78 9 209 76 11 207 77 11 207 77 11 207 77 11 207 77 11
207 77 11 208 78 13 211 80 15 209 76 11 207 71 10 205 69 8 201 67 5
201 67 5 203 67 9 203 67 11 203 66 13 203 66 13 205 68 12 205 68 10
211 78 16 211 79 12 211 79 10 211 79 8 210 80 10 210 80 10 210 80 10
211 81 11 211 84 13 216 89 18 218 93 21 219 94 23 218 95 23 218 95 23
218 95 23 218 95 23 218 95 21 218 95 21 218 95 21 218 95 23 219 96 24
219 96 24 219 96 24 219 96 24 220 95 24 220 95 24 220 95 24 222 97 23
222 97 25 220 95 24 217 92 18 216 91 17 217 92 20 218 93 21 218 93 21
218 93 21 219 94 25 219 94 25 221 93 25 222 92 25 209 76 11 209 76 11
209 76 11 209 76 11 209 76 11 209 76 11 209 76 11 208 75 10 208 72 11
207 71 10 209 70 10 209 70 10 207 69 9 207 69 9 207 69 9 207 69 9
207 69 9 207 69 9 207 69 9 206 68 8 206 68 8 205 67 6 205 67 6
205 67 6 205 67 6 205 67 6 205 67 6 205 67 6 205 69 8 203 68 6
202 66 5 201 65 4 201 65 4 201 65 4 201 65 4 201 65 4 201 65 6
201 65 6 201 65 6 201 65 6 202 66 5 202 66 5 202 66 5 202 66 5
204 65 7 204 65 7 204 65 7 204 65 7 203 65 4 203 65 4 201 65 4
201 65 4 201 65 4 201 65 4 200 66 4 200 66 4 200 66 4 200 66 4
200 66 4 200 66 4 214 91 21 214 91 21 214 91 21 214 91 21 214 91 21
214 91 21 214 91 21 214 92 19 218 95 23 215 93 20 204 81 7 202 80 5
210 85 11 210 85 11 210 85 13 210 85 13 211 86 16 211 86 16 211 88 16
211 88 16 217 97 22 216 98 22 214 99 20 214 99 20 215 101 21
215 101 21 215 100 23 215 100 23 214 99 20 214 99 20 213 98 19
213 98 19 212 97 15 212 97 15 212 96 14 212 96 14 212 96 14 212 96 14
214 95 14 215 94 16 209 81 13 211 80 15 211 80 15 211 80 15 211 80 15
211 80 15 211 80 15 212 81 16 211 80 15 211 78 14 207 71 10 203 68 6
201 67 5 201 67 5 202 66 7 202 66 9 202 65 11 202 65 11 206 69 13
206 70 11 205 72 10 205 72 8 207 74 5 207 75 3 205 75 5 205 75 7
205 75 5 205 75 5 198 68 0 201 72 2 203 76 5 204 77 6 206 76 6
206 76 6 206 76 6 206 76 6 206 76 6 206 76 6 206 76 6 206 76 6
209 76 9 209 76 9 209 76 9 209 76 9 209 76 9 209 76 9 209 77 7
208 79 9 208 79 9 207 77 7 202 75 4 201 74 3 202 75 4 203 76 5
203 76 5 203 76 5 204 77 8 204 77 8 204 77 8 205 75 7 207 74 9
205 72 8 205 72 8 205 72 8 205 72 8 205 72 8 205 72 8 204 71 7
205 69 8 203 68 6 205 67 6 205 67 6 204 66 5 204 66 5 204 66 5
204 66 5 204 66 5 204 66 5 204 66 5 204 66 5 205 67 6 205 67 6
205 67 6 205 67 6 205 67 6 205 67 6 205 67 6 205 67 6 205 69 8
206 70 9 208 72 11 209 73 12 209 73 12 209 73 12 209 73 12 209 73 12
209 73 12 209 73 12 209 73 12 209 73 12 210 75 13 210 75 13 210 75 13
210 75 13 210 75 13 210 75 13 210 75 13 210 75 13 214 78 17 214 79 15
214 79 15 212 79 15 212 79 15 212 79 15 212 79 15 211 80 15 211 80 15
211 80 15 211 80 15 211 80 15 211 91 18 211 91 18 211 91 18 211 91 18
211 91 18 211 91 18 211 91 18 211 91 18 214 92 19 220 97 25 205 83 8
212 90 15 210 85 11 210 85 11 210 85 13 210 85 13 211 86 16 211 86 16
212 87 16 213 90 18 212 93 17 212 95 18 212 97 17 212 97 17 213 98 19
213 98 19 214 97 21 213 96 19 212 95 16 211 94 15 212 95 16 212 95 16
213 96 17 213 97 15 216 97 17 216 97 17 216 97 17 216 97 17 218 96 17
219 95 19 211 84 15 213 83 17 213 83 17 213 83 17 213 83 17 213 83 17
213 83 17 213 83 17 212 81 16 210 79 14 207 71 10 203 68 6 202 66 5
202 66 7 202 66 7 202 66 9 202 66 9 202 65 11 203 67 11 203 67 11
204 70 11 204 71 7 204 72 5 204 72 3 204 72 5 203 72 5 203 73 3
201 72 2 200 70 0 203 73 3 206 76 6 207 77 7 209 77 7 209 77 7
209 77 7 209 77 7 210 76 7 210 75 9 210 75 9 210 75 9 212 77 11
213 76 11 213 76 11 213 76 11 213 75 13 212 76 13 212 77 11 213 78 10
211 79 10 210 78 9 205 75 5 204 74 4 205 75 5 206 76 6 206 76 6
204 77 6 206 78 9 206 78 9 204 77 8 205 75 7 204 71 7 204 71 7
203 70 6 203 70 6 203 70 6 203 70 6 203 70 6 203 68 6 202 66 5
201 65 4 203 65 4 203 65 4 202 63 3 202 63 3 202 63 3 202 63 3
202 63 3 202 63 3 203 65 4 203 65 4 204 66 5 204 66 5 205 67 6
205 67 6 205 67 6 205 67 6 205 67 6 205 67 6 203 68 6 207 71 10
212 76 15 214 78 17 215 79 18 214 78 17 214 78 17 214 78 17 214 78 17
214 78 17 214 78 17 214 78 17 215 79 18 215 79 18 215 79 18 215 79 18
215 79 18 215 79 18 215 79 18 214 79 15 214 79 15 211 78 14 211 78 14
211 78 14 211 78 14 211 78 14 210 79 14 210 79 14 210 79 14 210 79 14
210 79 14 210 79 14 214 92 17 214 92 17 214 92 17 214 92 17 214 92 17
214 92 17 214 92 17 214 92 17 214 92 17 214 92 17 206 84 9 208 86 11
208 86 13 208 86 13 210 85 13 210 85 13 211 84 13 211 84 13 210 85 13
207 85 12 215 95 19 213 96 19 212 97 19 212 97 19 213 98 21 213 98 21
214 97 21 216 96 21 215 95 19 215 95 19 215 95 19 215 95 19 214 94 16
214 94 16 212 95 16 212 95 16 212 96 14 212 96 14 214 95 14 215 94 16
208 82 13 209 81 15 211 80 15 211 80 15 211 80 15 211 80 15 211 81 13
211 81 13 211 83 17 211 80 15 201 66 2 204 66 5 204 64 4 204 63 6
204 65 9 204 65 9 202 66 9 202 66 9 202 66 9 202 66 9 207 71 12
207 71 10 207 71 10 207 72 8 205 73 6 205 73 6 205 73 6 205 73 6
205 73 6 207 74 7 207 74 7 208 75 8 208 75 8 208 75 8 208 75 8
208 75 8 208 75 8 208 75 10 208 75 10 208 75 10 209 76 11 210 75 11
210 75 11 210 75 11 212 76 13 210 77 13 210 77 13 210 77 11 211 79 12
210 77 11 207 74 5 205 73 4 207 74 7 207 74 7 207 74 7 205 75 7
204 77 8 204 77 8 206 76 8 206 76 8 203 70 6 202 68 6 203 68 6
203 68 6 203 68 6 203 68 6 203 68 6 202 66 5 204 65 7 203 64 6
203 64 6 203 64 6 203 64 6 203 64 6 203 64 6 203 64 6 203 64 6
203 64 6 204 65 7 204 65 7 204 65 7 204 65 7 205 66 9 205 66 9
203 68 6 203 68 6 203 68 6 203 68 6 205 69 8 207 71 10 212 76 15
214 78 17 212 79 15 212 79 15 212 79 15 212 79 15 212 79 17 212 79 17
212 79 17 211 78 16 211 78 14 210 77 13 210 77 13 210 77 13 210 77 13
210 77 13 210 77 13 210 77 11 211 79 12 210 79 12 210 79 12 210 79 12
210 79 12 210 79 12 210 79 12 210 79 12 210 79 12 210 79 12 210 79 12
210 79 12 214 92 15 214 92 15 214 92 15 214 92 15 214 92 17 214 92 17
214 92 17 214 92 17 214 92 17 214 92 17 206 84 9 208 86 11 208 86 13
208 86 13 210 85 13 210 85 13 211 84 13 211 84 13 209 84 12 207 85 12
215 95 19 213 96 19 212 97 19 212 97 19 213 98 21 214 97 21 216 96 21
216 96 21 215 95 19 215 95 19 215 95 19 215 95 19 214 94 16 214 94 16
212 95 16 212 95 16 212 96 14 212 96 14 212 96 14 214 94 16 208 82 13
209 81 15 211 80 15 211 80 15 211 80 15 211 80 15 211 81 13 211 81 13
211 83 17 211 80 15 201 66 2 205 65 5 206 63 6 206 63 6 205 64 9
204 65 9 202 66 9 202 66 9 201 65 8 201 65 8 207 71 12 207 71 10
207 71 12 207 71 10 205 72 8 205 73 6 205 73 6 205 73 6 205 73 6
207 74 7 207 74 7 208 75 8 208 75 8 208 75 8 208 75 8 208 75 8
208 75 10 208 75 10 208 75 10 208 75 10 209 76 11 209 76 11 209 76 11
209 76 11 210 77 13 210 77 13 210 77 13 210 77 13 211 79 12 210 77 11
207 74 5 205 73 4 207 74 7 207 74 7 207 74 7 207 74 7 206 76 8
204 77 8 206 76 8 206 76 10 202 68 6 202 68 6 203 68 6 203 68 6
203 68 6 203 68 6 203 68 6 202 66 5 204 65 7 203 64 6 203 64 6
203 64 6 203 64 6 203 64 6 203 64 6 203 64 6 203 64 6 203 64 6
204 65 7 204 65 7 204 65 7 204 65 7 205 66 9 205 66 9 203 68 6
203 68 6 203 68 6 203 68 6 205 69 8 207 71 10 212 76 15 214 78 17
212 79 15 212 79 15 212 79 15 212 79 15 212 79 17 212 79 17 212 79 17
211 78 16 211 78 14 210 77 13 210 77 13 210 77 13 208 78 11 208 78 11
208 78 11 208 78 11 210 79 12 210 79 12 210 79 12 210 79 12 210 79 12
210 79 12 210 79 12 210 79 12 210 79 12 210 79 12 210 79 12 210 79 12
214 92 15 214 92 15 214 92 15 214 92 15 214 92 17 214 92 17 214 92 17
214 92 17 214 92 17 214 92 17 206 84 9 208 86 11 207 85 12 207 85 12
209 84 12 209 84 12 210 83 12 210 83 12 209 84 12 207 85 12 215 95 19
213 96 19 213 96 19 213 96 19 214 97 21 214 97 21 216 96 21 218 95 21
215 95 19 215 95 19 215 95 19 215 95 19 214 94 16 214 94 16 214 94 16
214 94 16 212 96 14 212 96 14 212 96 14 214 94 16 208 82 13 209 81 15
211 80 15 211 80 15 211 80 15 211 80 15 211 81 13 211 81 13 211 83 17
212 81 16 201 66 2 204 64 4 206 63 6 206 63 6 204 63 8 203 64 8
201 65 8 201 65 8 201 65 8 201 65 8 207 71 12 207 71 12 207 71 12
207 71 10 205 72 8 205 72 8 205 73 6 205 73 6 205 73 6 207 74 7
207 74 7 208 75 8 208 75 8 208 75 8 208 75 8 208 75 8 208 75 10
208 75 10 208 75 10 208 75 10 209 76 11 209 76 11 209 76 11 209 76 11
210 77 13 210 77 13 210 77 13 210 77 13 211 79 12 210 77 11 207 74 7
205 73 6 207 74 7 207 74 7 207 74 7 207 74 7 206 76 8 206 76 8
206 76 8 206 76 10 202 68 6 202 68 6 203 68 6 203 68 6 203 68 6
203 68 6 203 68 6 202 66 5 204 65 7 203 64 6 203 64 6 203 64 6
203 64 6 203 64 6 203 64 6 203 64 6 203 64 6 203 64 6 204 65 7
204 65 7 204 65 7 204 65 7 205 66 9 205 66 9 203 68 6 203 68 6
203 68 6 203 68 6 205 69 8 207 71 10 212 76 15 214 78 17 212 79 15
212 79 15 212 79 15 212 79 15 212 79 15 212 79 15 212 79 15 211 78 14
211 78 14 210 77 13 210 77 13 210 77 13 208 78 11 208 78 11 208 78 11
208 78 11 210 79 12 210 79 12 210 79 12 210 79 12 210 79 12 210 79 12
210 79 12 210 79 12 210 79 12 210 79 12 210 79 12 210 79 12 214 92 15
214 92 15 214 92 15 214 92 15 214 92 17 214 92 17 214 92 17 214 92 17
214 92 17 214 92 17 206 84 9 208 86 11 207 85 12 207 85 12 209 84 12
209 84 12 210 83 12 210 83 12 209 84 12 207 85 12 215 95 19 213 96 19
213 96 19 213 96 19 214 97 21 216 96 21 218 95 21 218 95 21 215 95 19
215 95 19 215 95 19 215 95 19 214 94 16 214 94 16 214 94 16 214 94 16
212 95 16 212 95 16 212 95 16 214 94 18 208 82 13 209 81 15 211 80 15
211 80 15 211 80 15 211 80 15 211 81 13 211 81 13 211 83 17 212 81 16
201 66 2 204 64 4 206 63 6 206 63 6 204 63 8 203 64 8 203 64 8
201 65 8 201 65 8 201 65 8 207 71 12 207 71 12 207 71 12 207 71 12
205 72 10 205 72 8 205 73 6 205 73 6 205 73 6 207 74 7 207 74 7
208 75 8 208 75 8 208 75 8 208 75 8 208 75 8 208 75 10 208 75 10
208 75 10 208 75 10 209 76 11 209 76 11 209 76 11 209 76 11 210 77 13
210 77 13 210 77 13 210 77 13 211 79 12 210 77 11 207 74 7 205 73 6
207 74 7 207 74 7 207 74 7 207 74 7 206 76 8 206 76 8 206 76 8
208 75 10 202 68 6 203 68 6 203 68 6 203 68 6 203 68 6 203 68 6
203 68 6 202 66 5 204 65 7 203 64 6 203 64 6 203 64 6 203 64 6
203 64 6 203 64 6 203 64 6 203 64 6 203 64 6 204 65 7 204 65 7
204 65 7 204 65 7 205 66 9 205 66 9 203 68 6 203 68 6 203 68 6
203 68 6 205 69 8 207 71 10 212 76 15 214 78 17 212 79 15 212 79 15
212 79 15 212 79 15 212 79 15 212 79 15 212 79 15 211 78 14 211 78 14
210 77 13 210 77 13 210 77 13 208 78 11 208 78 11 208 78 11 208 78 11
210 79 12 210 79 12 210 79 12 210 79 12 210 79 12 210 79 12 210 79 12
210 79 12 210 79 12 210 79 12 210 79 12 210 79 12 214 92 15 214 92 15
214 92 15 214 92 15 214 92 17 214 92 17 214 92 17 214 92 17 214 92 17
214 92 17 206 84 9 208 86 11 207 85 12 207 85 12 209 84 12 209 84 12
210 83 12 210 83 12 209 84 12 209 84 12 216 94 21 215 95 21 213 96 21
213 96 21 214 97 23 216 96 23 218 95 23 218 95 23 216 96 21 216 96 21
216 96 21 216 96 21 215 95 19 215 95 19 215 95 19 215 95 19 213 96 19
213 96 19 213 96 19 215 95 19 209 83 14 210 82 16 210 82 16 210 82 16
212 81 16 212 81 16 212 82 14 212 82 14 211 84 15 212 81 16 201 66 2
204 64 4 206 63 6 206 63 6 204 63 8 204 63 8 203 64 8 203 64 8
203 64 8 203 64 8 207 71 12 207 71 12 207 71 12 207 71 12 207 71 10
207 72 8 207 72 8 207 72 8 205 72 8 207 74 9 207 74 9 208 75 10
208 75 10 208 75 10 208 75 10 208 75 10 208 75 10 208 75 10 208 75 10
208 75 10 209 76 11 209 76 11 209 76 11 209 76 11 210 77 13 210 77 13
210 77 13 210 77 13 211 78 14 210 77 13 208 75 8 207 74 7 207 74 9
207 74 9 207 74 9 207 74 9 206 76 10 206 76 10 208 75 10 208 75 10
203 68 6 205 66 9 205 66 9 205 66 9 205 66 9 205 66 9 205 66 9
204 65 7 204 65 7 203 64 6 203 64 6 203 64 6 204 63 6 204 63 6
204 63 6 204 63 6 204 63 6 204 63 6 205 64 7 205 64 7 204 65 7
204 65 7 205 66 9 205 66 9 203 68 6 203 68 6 203 68 6 203 68 6
205 69 6 207 72 8 210 77 13 212 79 15 212 79 15 211 81 13 211 81 13
211 81 13 211 80 15 211 80 15 211 80 15 211 80 15 210 79 12 210 79 12
210 79 12 210 79 12 210 79 12 210 79 12 210 79 12 210 79 12 210 79 12
210 79 12 210 79 12 210 79 12 210 79 12 210 79 12 210 79 12 210 79 12
210 79 12 210 79 12 210 79 12 210 79 12 214 92 15 214 92 15 214 92 15
214 92 15 214 92 17 214 92 17 214 92 17 214 92 17 214 92 17 214 92 17
206 84 9 208 86 11 207 85 12 207 85 12 209 84 12 209 84 12 210 83 12
210 83 12 209 84 12 209 84 12 216 94 21 216 94 21 215 95 21 213 96 21
214 97 23 216 96 23 218 95 23 218 95 23 216 96 21 216 96 21 216 96 21
216 96 21 215 95 19 215 95 19 215 95 19 215 95 19 213 96 19 213 96 19
213 96 19 215 95 21 209 83 14 210 82 16 210 82 16 210 82 16 212 81 16
212 81 16 212 82 14 212 82 14 211 84 15 210 82 16 201 65 4 204 64 4
206 63 6 206 63 6 204 63 8 204 63 8 203 64 8 203 64 8 203 64 8
203 64 8 207 71 12 207 71 12 207 71 12 207 71 10 207 71 10 207 72 8
207 72 8 207 72 8 205 72 8 207 74 9 207 74 9 208 75 10 208 75 10
208 75 10 208 75 10 208 75 10 208 75 10 208 75 10 208 75 10 208 75 10
209 76 11 209 76 11 209 76 11 209 76 11 210 77 13 210 77 13 210 77 13
210 77 13 211 78 14 210 77 13 208 75 8 207 74 7 207 74 9 207 74 9
207 74 9 207 74 9 206 76 10 206 76 10 208 75 10 209 73 12 205 66 9
205 66 9 205 66 9 205 66 9 205 66 9 205 66 9 205 66 9 204 65 7
204 65 7 203 64 6 203 64 6 203 64 6 204 63 6 204 63 6 204 63 6
204 63 6 204 63 6 204 63 6 205 64 7 205 64 7 204 65 7 204 65 7
205 66 9 205 66 9 203 68 6 203 68 6 203 68 6 203 68 6 205 69 6
207 72 8 210 77 13 212 79 15 211 81 13 211 81 13 209 81 13 209 81 13
211 81 13 211 80 15 211 80 15 211 81 13 210 79 12 210 79 12 210 79 12
210 79 12 210 79 12 210 79 12 210 79 12 210 79 12 210 79 12 210 79 12
210 79 12 210 79 12 210 79 12 210 79 12 210 79 12 210 79 12 210 79 12
210 79 12 210 79 12 210 79 12 212 93 15 212 93 15 212 93 15 212 93 15
212 93 17 212 93 17 214 92 17 214 92 17 214 92 17 214 92 17 206 84 9
208 86 11 208 86 13 208 86 13 210 85 13 210 85 13 210 83 12 210 83 12
209 84 12 209 84 12 216 94 21 216 94 21 215 95 21 215 95 21 216 96 23
216 96 23 218 95 23 218 95 23 216 96 21 216 96 21 216 96 21 216 96 21
215 95 19 215 95 19 215 95 19 215 95 19 213 96 19 213 96 19 213 96 19
215 95 21 209 83 14 210 82 16 210 82 16 210 82 16 212 81 16 212 81 16
212 82 14 212 82 14 211 84 15 210 82 16 201 65 4 205 65 5 206 63 6
206 63 6 204 63 8 203 64 8 203 64 8 203 64 8 201 65 6 201 65 6
207 71 12 207 71 10 207 71 10 207 71 10 207 73 11 207 73 11 207 73 11
207 73 11 205 72 8 207 74 9 207 74 9 208 75 10 208 75 10 208 75 10
206 76 8 206 76 8 206 76 8 206 76 8 206 76 8 206 76 8 209 76 9
209 76 9 209 76 9 209 76 9 210 77 11 210 77 11 210 77 13 210 77 13
211 78 14 210 77 13 208 75 10 207 74 9 207 74 9 207 74 9 207 74 9
207 74 9 208 75 10 208 75 10 208 75 10 209 73 12 205 66 9 205 66 9
205 66 9 205 66 9 205 66 9 205 66 9 205 66 9 204 65 7 204 65 7
203 64 6 203 64 6 203 64 6 204 63 6 204 63 6 204 63 6 204 63 6
204 63 6 204 63 6 205 64 7 205 64 7 204 65 7 202 66 7 203 68 6
203 68 6 203 68 6 202 69 4 202 69 4 202 69 4 206 70 7 207 72 8
210 77 11 212 80 13 211 81 13 211 81 13 209 81 13 209 81 13 211 81 13
211 81 13 211 81 13 211 81 11 210 80 10 210 80 10 210 80 10 210 80 10
210 80 10 210 80 10 210 80 10 210 80 10 210 80 10 210 80 10 210 80 10
210 80 10 210 80 10 210 80 10 210 80 10 210 80 10 210 80 10 210 80 10
210 80 10 210 80 10 212 93 15 212 93 15 212 93 15 212 93 15 212 93 17
212 93 17 212 93 17 212 93 17 212 93 17 212 93 17 206 84 9 208 86 11
208 86 13 210 85 13 210 85 13 210 85 13 210 83 12 210 83 12 209 84 12
209 84 12 216 94 21 216 94 21 216 94 21 216 94 21 218 95 23 218 95 23
218 95 23 218 95 23 218 95 21 218 95 21 218 95 21 218 95 21 216 94 19
216 94 19 216 94 19 216 94 19 215 95 19 215 95 19 215 95 19 216 94 21
210 83 14 210 82 16 210 82 16 212 81 16 212 81 16 212 81 16 212 81 16
212 81 16 211 83 17 212 81 16 201 65 4 205 65 5 206 63 6 206 63 6
204 63 8 203 64 8 203 64 8 203 64 8 201 65 6 201 65 6 207 71 10
207 71 10 207 71 10 207 71 10 207 73 11 207 73 11 207 73 11 207 73 11
205 72 8 207 74 9 207 74 9 208 75 10 208 75 10 208 75 10 206 76 8
206 76 8 206 76 8 206 76 8 206 76 8 206 76 8 207 77 9 207 77 9
207 77 9 207 77 9 208 78 11 208 78 11 208 78 11 208 78 11 210 79 12
208 78 11 208 75 10 207 74 9 208 73 9 208 73 9 207 73 11 207 73 11
209 73 12 209 73 12 209 73 12 209 73 12 205 66 9 205 66 9 205 66 9
205 66 9 205 66 9 205 66 9 205 66 9 203 64 6 203 64 6 203 64 6
203 64 6 203 64 6 204 63 6 204 63 6 204 63 6 204 63 6 204 63 6
204 63 6 205 64 7 205 64 7 204 65 7 202 66 7 203 68 6 203 68 6
202 69 4 202 69 4 202 69 4 202 69 4 206 70 7 205 72 8 208 78 11
209 81 13 208 82 13 208 82 13 208 82 13 208 83 11 208 83 11 208 83 11
208 83 11 208 83 11 206 81 10 206 81 10 206 81 10 206 82 8 206 82 8
206 82 8 206 82 8 206 82 8 206 82 8 206 82 8 206 82 8 206 82 8
206 82 8 206 82 8 206 82 8 206 82 8 206 82 8 206 82 8 206 82 8
206 82 8 217 98 20 217 98 20 217 98 20 217 98 20 217 97 22 217 97 22
216 98 22 216 98 22 216 98 22 214 97 21 206 86 10 207 85 10 208 86 13
210 85 13 211 84 13 211 84 13 211 84 13 211 84 13 210 85 13 210 85 13
213 90 18 213 90 18 213 90 18 215 90 18 215 90 18 215 90 18 215 90 18
215 90 18 215 90 18 213 88 17 211 86 14 209 84 12 209 84 12 209 84 12
209 84 12 209 84 12 210 83 10 210 83 10 210 83 10 210 83 12 203 72 5
203 72 7 203 72 7 203 72 7 204 71 9 204 71 9 204 71 9 204 71 9
205 72 10 206 70 9 206 68 8 204 66 5 208 67 10 208 66 12 206 68 10
206 68 10 205 68 10 205 68 10 205 68 10 205 68 10 208 72 11 208 72 11
208 72 11 208 72 11 207 73 11 207 73 11 207 73 11 207 73 11 204 71 7
208 75 10 210 79 12 212 82 14 212 82 14 212 82 14 212 82 14 212 82 14
210 83 14 210 83 14 210 83 14 210 83 14 211 84 15 211 84 15 211 84 15
211 84 15 211 86 16 211 86 16 211 86 14 211 86 14 211 88 16 212 87 16
201 68 1 202 67 3 205 67 4 205 67 6 203 67 9 203 67 9 205 66 9
205 66 9 205 66 9 205 66 9 202 63 5 202 63 5 202 63 5 202 63 5
202 63 5 202 63 5 202 63 5 203 64 6 204 63 8 203 62 7 203 62 7
203 62 7 204 63 6 204 63 6 204 63 6 204 63 6 204 63 6 204 63 6
204 64 4 204 64 4 210 72 11 208 72 11 208 72 11 208 73 9 208 73 9
208 73 9 208 73 7 208 73 7 206 71 5 205 75 7 225 102 32 223 104 33
221 106 31 221 106 31 224 104 31 226 104 29 223 105 29 223 105 29
223 105 29 220 103 26 219 102 25 218 101 24 218 101 24 218 101 22
218 101 22 218 101 22 218 101 22 218 101 22 218 101 22 218 101 22
219 102 23 219 102 23 220 103 24 220 103 24 221 104 26 221 104 26
221 104 26 221 104 26 221 104 26 221 104 26 217 98 20 217 98 20
217 98 20 217 98 20 217 97 22 216 98 22 214 99 22 214 99 22 214 99 22
214 97 21 206 86 10 207 85 10 210 85 13 210 85 13 211 84 13 211 84 13
211 84 13 211 84 13 210 85 13 210 85 13 213 90 18 213 90 18 215 90 18
215 90 18 215 90 18 215 90 18 215 90 18 215 90 18 215 90 18 213 88 17
211 86 14 209 84 12 210 83 12 210 83 12 210 83 12 210 83 12 212 83 10
212 83 10 212 83 10 212 82 12 203 72 5 203 72 7 203 72 7 203 72 7
204 71 9 204 71 9 204 71 9 204 71 9 207 71 12 206 70 11 206 68 8
204 65 7 206 67 12 206 67 12 206 68 10 206 68 10 205 68 10 205 68 10
205 68 10 205 68 10 208 72 11 208 72 11 208 72 11 208 72 11 207 73 11
207 73 11 207 73 11 207 73 11 204 71 7 208 75 10 210 79 12 212 82 14
212 82 14 212 82 14 212 82 14 212 82 14 210 83 14 210 83 14 210 83 14
210 83 14 210 85 15 210 85 15 210 85 15 210 85 15 209 87 16 209 87 14
209 87 12 209 87 12 209 89 14 212 87 16 201 68 1 204 66 3 207 66 6
207 66 9 205 66 11 205 66 11 207 65 11 207 65 11 207 65 11 207 65 11
202 63 5 202 63 5 202 63 5 202 63 5 202 63 5 202 63 5 202 63 5
202 63 5 203 62 7 203 62 7 203 62 7 203 62 7 204 63 6 204 63 6
204 63 6 204 63 6 204 63 6 204 63 6 204 64 4 203 65 4 208 72 11
208 72 11 208 73 9 208 73 9 208 73 9 208 73 9 208 73 7 208 73 7
206 71 5 205 75 7 223 102 32 219 106 33 218 107 31 218 107 31
223 105 29 224 104 29 221 106 27 219 107 27 219 107 27 217 105 24
216 104 23 215 103 22 215 103 22 215 103 22 215 103 22 215 103 22
215 103 22 215 103 22 215 103 22 215 103 22 216 104 23 216 104 23
217 105 24 217 105 24 218 106 26 218 106 26 218 106 26 218 106 26
218 106 26 218 106 26 216 99 20 216 99 20 216 99 20 216 99 20
216 98 22 216 98 22 214 99 22 214 99 22 216 98 22 214 97 21 206 86 10
207 85 10 211 86 14 211 86 14 213 85 14 213 85 14 211 84 13 211 84 13
211 86 14 211 86 14 215 90 18 215 90 18 215 90 18 215 90 18 215 90 18
215 90 18 215 90 18 215 90 18 215 90 18 213 88 17 211 86 14 209 84 12
210 83 12 210 83 12 210 83 12 210 83 12 212 83 10 212 83 10 212 83 10
212 82 12 203 72 5 203 72 7 203 72 7 203 72 7 204 71 9 204 71 9
204 71 9 204 71 9 207 71 12 206 70 11 205 69 8 203 67 9 206 67 12
206 67 12 205 68 10 205 68 10 205 68 10 205 68 10 203 70 8 203 70 8
207 73 11 207 73 11 207 73 11 207 73 11 208 75 10 208 75 10 208 75 10
208 75 10 204 71 7 208 75 10 210 79 12 212 82 14 212 82 14 212 82 14
210 83 12 210 83 12 210 83 12 209 84 12 209 84 12 209 84 12 210 85 13
210 85 13 210 85 13 210 85 13 209 87 14 209 87 14 209 87 12 209 87 12
209 89 14 212 87 16 201 68 1 204 66 3 207 66 6 207 66 9 205 66 11
205 66 11 207 65 11 207 65 11 207 65 11 207 65 11 202 63 5 202 63 5
202 63 5 202 63 5 202 63 5 202 63 5 202 63 5 202 63 5 203 62 7
203 62 7 203 62 7 203 62 7 204 63 6 204 63 6 204 63 6 204 63 6
204 63 6 204 63 6 204 64 4 203 65 4 208 72 11 207 73 11 207 74 9
207 74 9 207 74 7 207 74 7 207 74 7 207 74 7 207 72 4 205 75 5
223 103 30 219 106 31 218 107 31 218 108 29 223 105 29 223 106 27
221 106 27 219 107 27 219 107 27 217 105 24 216 104 23 215 103 22
215 103 22 215 103 22 215 103 20 215 103 20 215 103 20 215 103 20
215 103 20 215 103 20 216 104 21 216 104 21 217 105 22 217 105 22
218 106 23 218 106 23 218 106 23 218 106 23 218 106 23 218 106 23
216 99 20 216 99 20 216 99 20 216 99 20 216 98 22 216 98 22 216 98 22
214 99 22 216 98 22 214 97 21 206 86 10 207 85 12 211 86 14 211 86 14
213 85 14 213 85 14 211 84 13 211 84 13 213 85 14 211 86 14 213 88 17
213 88 17 215 90 18 215 90 18 215 90 18 215 90 18 215 90 18 215 90 18
215 90 18 213 88 17 211 86 14 209 84 12 210 83 12 210 83 12 210 83 12
210 83 12 212 83 10 212 83 10 212 83 10 212 82 12 203 72 7 203 72 7
203 72 7 203 72 7 204 71 9 204 71 9 204 71 9 204 71 9 207 71 12
206 70 11 205 69 8 203 67 9 206 68 10 206 67 12 205 68 10 205 68 10
205 68 10 205 68 10 203 70 8 203 70 8 207 73 11 207 73 11 207 73 11
207 73 11 208 75 10 208 75 10 208 75 10 208 75 10 204 71 7 208 75 10
210 79 12 212 82 14 212 82 14 212 82 14 210 83 12 210 83 12 209 84 12
209 84 12 209 84 12 209 84 12 210 85 13 210 85 13 210 85 13 210 85 13
209 87 14 209 87 14 209 87 14 209 87 12 211 88 14 212 87 16 201 68 1
204 66 3 207 66 6 207 66 9 205 66 11 205 66 11 207 65 11 207 65 11
207 65 11 207 65 11 202 63 5 202 63 5 202 63 5 202 63 5 202 63 5
202 63 5 202 63 5 202 63 5 203 62 7 203 62 7 203 62 7 203 62 7
204 63 6 204 63 6 204 63 6 204 63 6 204 63 6 204 63 6 204 64 4
203 65 4 208 72 11 207 73 11 207 74 9 207 74 9 207 74 7 207 74 7
207 74 7 207 74 7 207 72 4 205 75 5 223 103 30 219 106 31 218 108 29
218 108 29 223 105 29 223 106 27 221 106 27 219 107 27 219 107 27
217 105 24 216 104 23 215 103 22 215 103 22 215 103 22 215 103 20
215 103 20 215 103 20 215 103 20 215 103 20 215 103 20 216 104 21
216 104 21 217 105 22 217 105 22 218 106 23 218 106 23 218 106 23
218 106 23 218 106 23 218 106 23 216 99 20 216 99 20 216 99 20
216 99 20 217 97 22 217 97 22 216 98 22 216 98 22 216 98 24 214 97 23
206 85 12 207 85 12 211 86 16 211 86 16 213 85 16 213 85 16 214 84 14
214 84 14 213 85 14 213 85 14 215 88 17 215 88 17 215 88 17 215 88 17
216 89 18 216 89 18 215 90 18 215 90 18 215 90 18 213 88 17 211 86 14
209 84 12 210 83 12 210 83 12 210 83 12 210 83 12 212 82 12 212 82 12
212 82 12 212 82 14 203 72 7 203 72 9 203 72 7 203 72 7 204 71 9
206 70 9 206 70 9 206 70 9 207 71 12 206 70 11 205 68 10 203 67 9
205 68 10 205 68 10 205 68 10 205 68 10 205 68 10 205 68 10 203 70 8
203 70 8 207 73 11 207 73 11 205 74 9 205 74 9 206 76 10 206 76 10
206 76 10 206 76 10 203 72 5 206 76 8 210 79 12 212 82 12 212 82 12
212 82 12 210 83 12 210 83 10 209 84 10 209 84 10 209 84 10 209 84 10
210 85 13 210 85 13 210 85 15 210 85 15 209 87 16 209 87 16 211 86 14
211 86 14 211 88 14 212 87 16 201 68 1 204 66 3 207 66 6 207 66 9
205 66 11 205 66 11 207 65 11 207 65 11 207 65 11 207 65 11 203 62 7
203 62 7 203 62 7 203 62 7 203 62 7 203 62 7 203 62 7 203 62 7
203 62 7 203 62 7 203 62 7 203 62 7 206 63 6 206 63 6 206 63 6
206 63 6 206 63 6 206 63 6 204 64 4 203 65 4 208 72 11 208 72 11
207 74 9 207 74 9 207 74 9 207 74 9 207 74 9 207 74 7 207 72 4
207 74 5 223 103 30 219 106 31 218 107 31 218 107 31 221 106 29
223 105 29 221 106 29 219 107 29 219 107 27 217 105 24 216 104 23
215 103 22 215 103 22 215 103 22 215 103 22 215 103 22 215 103 22
215 103 22 215 103 22 215 103 22 216 104 21 216 104 21 217 105 22
217 105 22 218 106 23 218 106 23 218 106 23 218 106 23 218 106 23
218 106 23 216 99 20 216 99 20 216 99 20 216 99 20 217 97 22
217 97 22 216 98 22 216 98 22 216 98 24 216 96 23 207 85 12 207 85 12
211 86 16 211 86 16 213 85 16 213 85 16 214 84 14 214 84 14 213 85 14
213 85 14 214 86 16 214 86 16 215 88 17 215 88 17 216 89 18 216 89 18
215 90 18 215 90 18 215 90 18 213 88 17 211 86 14 209 84 12 210 83 12
210 83 12 210 83 12 210 83 12 212 82 12 212 82 12 212 82 12 212 82 14
203 72 7 203 72 9 203 72 7 204 71 7 206 70 9 206 70 9 206 70 9
206 70 9 207 71 12 206 70 11 205 68 10 203 67 9 205 68 10 205 68 10
205 68 10 205 68 10 205 68 10 205 68 10 203 70 8 203 70 8 207 73 11
207 73 11 205 74 9 205 74 9 206 76 10 206 76 10 206 76 10 206 76 10
203 72 5 206 76 8 210 80 10 212 82 12 212 82 12 212 82 12 210 83 10
210 83 10 209 84 10 209 84 10 209 84 10 209 84 10 210 85 13 210 85 13
210 85 15 210 85 15 209 87 16 209 87 16 211 86 14 211 86 14 211 88 14
214 86 16 202 67 1 205 65 3 208 65 6 208 65 9 207 65 11 205 66 11
207 65 11 207 65 11 207 65 11 207 65 11 203 62 7 203 62 7 203 62 7
203 62 7 203 62 7 203 62 7 203 62 7 203 62 7 203 62 7 203 62 7
203 62 7 203 62 7 206 63 6 206 63 6 206 63 6 206 63 6 206 63 6
206 63 6 204 64 4 204 64 4 210 72 11 208 72 11 207 74 9 207 74 9
207 74 9 207 74 9 207 74 9 208 73 9 209 71 6 207 74 5 223 103 30
219 106 31 218 107 31 218 107 31 221 106 29 221 106 29 219 107 29
219 107 29 219 107 27 217 105 24 216 104 23 215 103 22 215 103 22
215 103 22 215 103 22 215 103 22 215 103 22 215 103 22 215 103 22
215 103 22 216 104 21 216 104 21 217 105 22 217 105 22 218 106 23
218 106 23 218 106 23 218 106 23 218 106 23 218 106 23 216 99 20
216 99 20 216 99 20 216 99 20 217 97 22 217 97 22 216 98 22 216 98 22
217 97 24 216 96 23 207 85 12 207 85 12 211 86 16 211 86 16 213 85 16
213 85 16 214 84 14 214 84 14 214 86 16 214 86 16 215 86 16 215 86 16
215 88 17 215 88 17 216 89 18 216 89 18 215 90 18 215 90 18 215 90 18
212 87 16 211 86 14 209 84 12 210 83 14 210 83 14 210 83 14 210 83 14
212 82 14 212 82 14 212 82 14 212 82 14 203 72 7 203 72 9 203 72 7
204 71 7 206 70 9 206 70 9 206 70 9 206 70 9 207 71 12 206 70 11
205 68 10 203 67 9 205 68 10 205 68 10 205 68 10 205 68 10 205 68 10
205 68 10 203 70 8 203 70 8 207 73 11 207 73 11 205 74 9 205 74 9
206 76 10 206 76 10 206 76 10 206 76 10 203 72 5 206 76 8 210 80 10
212 82 12 212 82 12 212 82 12 210 83 10 210 83 10 210 83 10 210 83 10
210 83 10 210 83 10 210 85 13 210 85 13 210 85 15 210 85 15 211 86 16
211 86 16 211 86 14 211 86 14 211 88 14 214 86 16 202 67 1 205 65 3
207 64 5 207 64 7 205 64 9 204 65 9 207 65 11 207 65 11 207 65 11
207 65 11 203 62 7 203 62 7 203 62 7 203 62 7 203 62 7 203 62 7
203 62 7 203 62 7 203 62 7 203 62 7 203 62 7 203 62 7 206 63 6
206 63 6 206 63 6 206 63 6 206 63 6 206 63 6 204 64 4 204 64 4
210 72 11 208 72 11 207 74 9 207 74 9 207 74 9 207 74 9 207 74 9
208 73 9 209 71 6 207 74 5 223 103 30 219 106 31 218 107 31
218 107 31 219 107 29 221 106 29 219 107 29 219 107 29 219 107 29
217 105 26 216 103 25 215 102 24 215 102 24 215 102 24 215 103 22
215 103 22 215 103 22 215 103 22 215 103 22 215 103 22 216 104 21
216 104 21 217 105 22 217 105 22 218 106 23 218 106 23 218 106 23
218 106 23 218 106 23 218 106 23 216 99 20 216 99 20 216 99 20
216 98 22 217 97 22 217 97 22 216 98 22 216 98 22 217 97 24 216 96 23
207 85 12 207 85 12 211 86 16 213 85 16 213 85 16 213 85 16 214 84 14
214 84 14 214 86 16 214 86 16 215 86 16 215 86 16 215 88 17 215 88 17
216 89 18 216 89 18 215 90 18 215 90 18 215 90 18 212 87 18 211 86 16
209 83 14 210 83 14 210 83 14 210 83 14 210 83 14 210 83 14 212 82 14
212 82 14 212 82 14 203 72 7 203 72 9 203 72 7 204 71 7 204 71 9
206 70 9 206 70 9 206 70 9 207 71 12 206 70 11 205 68 10 203 67 9
205 68 10 205 68 10 205 68 10 205 68 10 205 68 10 205 68 10 205 68 10
203 70 8 207 73 11 207 74 9 205 74 9 205 74 9 206 76 10 206 76 10
206 76 10 206 76 10 203 72 5 206 76 8 210 80 10 212 82 12 212 82 12
212 82 12 210 83 10 210 83 10 210 83 10 210 83 10 210 83 10 210 83 12
211 86 14 211 86 14 211 86 16 211 86 16 212 87 18 212 87 18 212 87 16
212 87 16 212 87 16 214 86 16 203 68 2 208 68 6 207 64 5 207 64 7
205 64 9 204 65 9 207 65 11 207 65 11 207 65 11 207 65 11 203 62 7
203 62 7 203 62 7 203 62 7 203 62 7 203 62 7 203 62 7 203 62 7
203 62 7 203 62 7 203 62 7 203 62 7 206 63 6 206 63 6 206 63 6
206 63 6 206 63 6 206 63 6 204 63 6 204 64 4 210 72 11 208 72 11
207 73 11 207 74 9 207 74 9 207 74 9 207 74 9 207 74 9 205 73 6
203 76 5 221 104 30 219 106 31 218 107 31 218 107 31 219 107 29
221 106 29 219 107 29 219 107 29 219 107 29 217 105 26 216 103 25
215 102 24 215 102 24 216 101 24 216 102 22 216 102 22 216 102 22
215 103 22 215 103 22 215 103 22 216 104 21 216 104 21 217 105 22
217 105 22 218 106 23 218 106 23 218 106 23 218 106 23 218 106 23
218 106 23 217 97 22 217 97 22 217 97 22 217 97 22 217 97 24
217 97 24 217 97 24 217 97 24 217 97 24 216 96 23 207 85 12 209 84 12
213 85 16 214 84 16 215 85 18 215 85 18 215 85 18 215 85 18 215 85 18
215 85 18 215 85 18 215 85 18 217 86 19 217 86 19 215 87 19 215 87 19
215 87 19 215 87 19 214 86 18 214 86 20 213 84 18 211 84 15 209 83 14
209 83 14 209 83 14 209 83 14 209 83 16 210 82 16 210 83 14 210 83 14
204 73 8 205 72 8 205 72 8 205 72 8 205 72 8 205 72 8 205 72 8
205 72 10 205 72 10 204 71 9 203 70 8 203 70 8 205 68 10 205 68 10
205 68 10 205 68 10 206 67 12 206 67 12 205 68 10 204 71 9 207 74 9
205 75 7 205 75 7 205 75 7 206 76 8 206 76 8 206 76 8 206 76 8
205 75 7 208 78 11 210 83 12 213 85 14 211 84 13 210 83 12 210 83 12
210 83 12 210 83 12 210 83 12 211 84 13 211 84 15 211 84 15 211 84 15
213 85 16 213 85 16 214 86 18 214 86 18 214 86 18 214 86 18 209 84 12
214 86 16 206 71 5 211 71 9 207 64 5 207 64 7 205 64 9 205 64 9
205 64 9 205 64 9 205 64 9 205 64 9 204 63 8 204 63 8 204 63 8
204 63 8 204 63 8 204 63 8 204 63 8 204 63 8 204 63 8 204 63 8
204 63 8 204 63 8 204 63 8 204 63 8 204 63 8 204 63 8 204 63 8
204 63 8 204 63 6 204 63 6 209 70 12 207 71 12 207 71 10 207 71 10
207 72 8 207 72 8 207 72 8 204 73 8 199 74 5 199 78 7 221 105 33
223 108 35 219 106 31 219 106 31 221 106 31 221 106 31 221 106 31
221 106 31 221 106 29 221 106 29 221 106 29 221 106 29 220 105 28
221 104 28 222 102 24 222 102 24 219 102 23 217 103 23 219 104 24
213 98 19 218 106 26 212 100 20 219 104 24 219 104 24 219 104 22
219 104 22 219 104 22 219 104 22 219 104 22 219 104 22 216 96 21
216 96 21 216 96 21 216 96 21 216 96 23 216 96 23 216 96 23 216 96 23
216 96 23 215 95 21 206 83 11 208 83 11 211 84 15 213 83 15 213 83 15
213 83 15 214 84 16 214 84 16 214 84 16 214 84 16 214 84 16 214 84 16
214 84 16 214 84 16 213 85 16 213 85 16 213 85 16 211 84 15 211 83 17
214 86 20 214 86 20 215 87 21 208 82 13 208 82 13 208 82 13 208 82 13
208 82 15 208 82 15 208 82 13 208 82 13 206 76 10 208 75 10 208 75 10
208 75 10 208 75 10 208 75 10 208 75 10 208 75 10 205 72 10 204 71 9
203 70 8 203 70 8 205 68 10 205 68 10 205 68 10 205 68 10 206 67 12
206 67 12 205 68 10 206 70 9 209 76 11 207 77 9 207 77 9 207 77 9
208 78 11 208 78 11 208 78 11 208 78 11 208 78 11 212 82 14 214 86 16
214 86 16 210 83 12 208 81 10 208 81 10 208 81 10 208 81 10 208 81 10
209 81 13 209 81 13 209 81 13 209 81 13 210 83 14 210 83 14 211 84 15
211 84 15 211 84 15 211 84 15 205 80 9 212 82 12 205 68 2 212 69 8
209 63 5 209 63 7 207 63 9 205 64 9 205 64 9 205 64 9 205 64 9
205 64 9 204 63 8 204 63 8 204 63 8 204 63 8 204 63 8 204 63 8
204 63 8 204 63 8 204 63 8 204 63 8 204 63 8 204 63 8 204 63 8
204 63 8 204 63 8 204 63 8 204 63 8 204 63 8 204 63 6 204 63 6
209 70 12 207 71 12 207 71 10 207 71 10 207 72 8 205 72 8 205 72 8
204 73 8 199 76 6 196 78 6 218 100 28 218 100 28 224 106 32
224 106 32 224 106 32 224 106 32 224 106 32 224 106 32 223 105 29
221 104 28 220 103 26 219 102 25 219 102 25 221 101 25 222 100 23
222 100 23 222 102 24 220 103 24 221 104 26 215 101 21 223 109 29
218 106 26 219 104 24 219 104 24 219 104 22 219 104 22 219 104 22
219 104 22 219 104 22 219 104 22 212 93 17 212 93 17 212 93 17
212 93 17 212 92 19 212 92 19 212 92 19 212 92 19 214 92 19 213 90 18
202 80 7 204 79 7 208 80 12 210 79 12 210 79 12 210 79 12 211 81 13
211 81 13 211 81 13 211 81 13 212 80 13 212 80 13 211 81 13 211 81 13
209 81 13 209 81 13 209 81 13 209 81 13 205 80 11 209 83 14 215 89 20
219 94 25 220 95 26 219 96 26 219 96 26 219 96 26 219 96 26 219 96 26
219 96 26 220 95 26 208 78 11 210 77 11 210 77 13 210 77 13 210 77 13
210 77 13 210 77 13 209 76 11 207 73 11 204 71 9 203 70 8 203 70 8
205 68 10 205 68 10 205 68 10 205 68 10 206 67 12 206 67 12 205 68 10
206 70 9 212 79 15 211 81 13 211 81 13 211 81 13 212 82 14 212 82 14
212 82 14 212 82 14 212 82 14 215 85 18 217 90 19 220 95 24 224 99 27
226 101 30 226 101 30 226 101 30 226 101 30 226 101 30 226 101 32
226 101 32 204 79 9 204 79 9 206 78 9 206 78 9 207 79 11 207 79 11
207 79 11 207 79 11 201 76 4 207 77 7 200 63 0 207 64 3 208 62 4
208 62 6 206 62 8 204 63 8 205 64 9 205 64 9 205 64 9 205 64 9
204 63 8 204 63 8 204 63 8 204 63 8 204 63 8 204 63 8 204 63 8
204 63 8 204 63 8 204 63 8 204 63 8 204 63 8 204 63 8 204 63 8
204 63 8 204 63 8 204 63 8 204 63 8 204 63 6 204 63 6 209 70 12
207 71 12 205 72 10 205 72 10 205 72 8 204 73 8 204 73 8 202 74 8
202 76 7 198 73 4 214 91 21 211 88 18 203 83 10 203 83 10 203 83 10
203 83 10 203 83 10 203 83 10 204 84 11 206 85 12 207 87 13 208 88 14
208 88 14 209 87 12 209 88 10 211 87 10 208 87 9 208 87 9 207 87 9
204 87 8 214 99 20 212 97 17 217 103 23 217 103 23 217 103 21
217 103 21 217 103 21 217 103 21 217 103 21 217 103 21 210 90 15
210 90 15 210 90 15 210 90 17 210 90 17 210 90 17 210 90 17 210 90 17
213 90 18 212 89 17 201 79 6 203 78 8 207 77 9 207 77 9 207 77 9
207 77 9 208 78 11 208 78 11 208 78 11 208 78 11 210 77 11 210 77 11
208 78 11 208 78 11 208 78 11 207 79 11 207 79 11 207 79 11 203 78 8
206 81 12 218 93 23 223 97 28 218 95 25 216 95 25 216 95 25 216 95 25
216 95 25 216 95 25 216 95 25 218 95 25 210 79 12 211 79 12 211 79 12
211 78 14 211 78 14 211 78 14 211 78 14 211 78 14 205 72 10 204 71 9
203 70 8 203 70 8 205 68 10 205 68 10 205 68 10 205 68 10 206 67 12
206 67 12 205 68 10 206 70 9 213 81 16 212 82 14 212 82 14 212 82 14
213 83 15 213 83 15 213 83 15 213 83 15 213 83 15 214 86 18 219 94 23
220 97 25 220 97 25 219 99 26 219 99 26 219 99 26 219 99 26 219 99 26
219 99 28 221 98 28 202 76 7 203 76 7 203 76 7 203 76 7 204 77 8
204 77 8 204 77 8 204 77 8 201 74 3 206 76 6 199 62 0 206 63 2
208 62 4 208 62 6 206 62 8 204 63 8 205 64 9 205 64 9 205 64 9
205 64 9 204 63 8 204 63 8 204 63 8 204 63 8 204 63 8 204 63 8
204 63 8 204 63 8 204 63 8 204 63 8 204 63 8 204 63 8 204 63 8
204 63 8 204 63 8 204 63 8 204 63 8 204 63 8 204 63 6 203 64 6
209 70 12 207 71 12 207 71 10 205 72 10 205 72 8 204 73 8 204 73 8
204 73 8 205 75 7 200 72 4 213 85 16 207 79 11 208 82 13 208 83 11
206 83 11 206 83 11 206 83 11 206 83 11 206 83 11 206 83 11 206 83 11
206 83 11 209 84 12 209 84 12 210 83 10 210 84 8 211 85 9 210 86 9
207 85 8 206 86 8 218 101 22 218 101 22 217 103 23 217 103 23
217 103 21 217 103 21 217 103 21 217 103 21 217 103 21 217 103 21
210 90 17 210 90 17 210 90 17 210 90 17 212 89 19 212 89 19 212 89 19
212 89 19 214 91 21 213 90 20 204 79 9 206 78 9 207 77 11 209 76 11
209 76 11 209 76 11 210 77 13 210 77 13 210 77 13 210 77 13 210 77 13
210 77 13 210 77 11 210 77 11 208 78 11 208 78 11 207 79 11 207 79 11
206 78 7 207 79 9 222 95 24 220 95 24 218 98 25 217 99 25 217 99 25
217 99 25 216 98 24 216 98 24 216 98 24 217 97 24 208 81 10 211 79 10
211 79 10 211 79 12 211 78 14 211 78 14 211 78 14 211 78 14 209 75 13
205 72 10 204 71 9 203 70 8 203 70 8 203 70 8 205 68 10 205 68 10
206 67 12 206 67 12 205 68 10 205 69 8 212 79 15 211 80 15 209 81 13
209 81 13 210 83 12 210 83 12 212 82 12 212 82 12 210 83 12 209 84 12
222 102 28 219 100 24 221 101 25 219 102 25 217 103 25 217 103 25
216 103 25 216 103 27 216 103 27 219 101 27 202 76 7 205 75 7
205 74 9 205 74 9 206 76 10 206 76 10 206 76 10 206 76 8 202 75 4
207 77 7 200 63 0 207 64 3 209 63 5 209 63 7 207 63 9 207 63 9
205 64 9 205 64 9 205 64 9 204 63 8 204 63 10 203 61 9 203 62 7
203 62 7 204 63 8 204 63 8 204 63 8 204 63 8 204 63 8 204 63 8
204 63 8 204 63 8 204 63 8 204 63 8 204 63 8 204 63 8 204 63 8
204 63 8 203 64 6 203 64 6 209 70 12 209 70 12 207 71 10 207 71 10
205 72 8 205 72 8 205 72 8 205 72 8 207 74 9 204 73 8 210 79 14
210 79 14 208 78 11 206 78 9 207 79 11 207 79 11 207 79 11 207 79 11
208 81 10 208 81 10 209 82 11 209 82 11 211 81 11 211 81 11 212 83 10
212 83 10 212 83 10 210 83 10 208 83 9 206 84 9 220 98 21 218 99 21
218 101 22 216 102 22 216 102 20 216 102 20 216 102 20 216 102 20
216 102 20 216 102 20 210 90 17 210 90 17 210 90 17 210 90 17
212 89 19 212 89 19 212 89 19 212 89 19 215 92 22 216 90 21 205 80 11
207 79 11 208 78 13 210 77 13 210 77 13 210 77 13 210 77 13 210 77 13
210 77 13 210 77 13 210 77 13 210 77 13 210 77 11 210 77 11 208 78 11
208 78 11 207 79 11 207 79 11 207 79 9 206 78 7 223 96 25 220 95 24
216 98 24 214 99 24 214 99 24 214 99 24 214 99 24 214 99 24 214 99 24
217 97 24 208 81 10 211 79 10 211 79 10 211 79 12 211 78 14 211 78 14
211 78 14 211 78 14 210 77 15 207 73 11 204 71 9 203 70 8 203 70 8
203 70 8 205 68 10 205 68 10 206 67 12 206 67 12 205 68 10 205 69 8
212 79 15 211 80 15 209 81 13 209 81 13 210 83 12 210 83 12 212 82 12
212 82 12 210 83 12 206 83 11 223 105 29 219 102 25 219 102 25
217 103 25 216 103 25 216 103 25 214 104 25 214 104 25 214 104 27
217 102 27 203 78 8 206 76 8 206 76 10 206 76 10 206 76 10 206 76 10
206 76 10 206 76 10 203 76 7 210 77 11 203 63 0 210 65 4 210 62 5
210 62 7 209 62 9 207 63 9 205 64 9 205 64 9 205 64 9 204 63 8
204 63 10 203 61 9 203 62 7 203 62 7 204 63 8 204 63 8 204 63 8
204 63 8 204 63 8 204 63 8 204 63 8 204 63 8 204 63 8 204 63 8
204 63 8 204 63 8 204 63 8 204 63 8 203 64 6 203 64 6 209 70 12
209 70 12 207 71 10 207 71 10 205 72 8 205 72 8 205 72 8 205 72 8
205 72 8 207 74 9 211 78 14 211 78 14 210 77 11 207 77 9 208 78 11
208 78 11 208 78 11 208 78 11 210 80 10 210 80 10 211 81 11 212 80 11
212 80 11 212 80 11 213 82 10 213 82 10 213 82 10 212 83 10 209 82 9
208 83 9 222 97 21 218 99 21 218 101 22 216 102 22 216 102 20
216 102 20 216 102 20 216 102 20 216 102 20 216 102 20 209 91 17
209 91 17 209 91 17 210 90 17 210 90 19 210 90 19 210 90 19 212 89 19
217 92 22 217 90 21 207 79 11 207 79 11 208 78 13 210 77 13 210 77 13
210 77 13 210 77 13 210 77 13 210 77 13 210 77 13 212 76 13 212 76 13
210 77 11 210 77 11 208 78 11 207 79 11 207 79 9 205 80 9 205 80 9
204 79 5 222 97 23 219 97 22 216 98 22 212 100 22 212 100 22
212 100 22 212 100 22 212 100 22 212 100 22 216 98 22 208 81 10
211 79 12 211 79 12 211 79 12 211 78 14 211 78 14 211 78 14 211 78 14
211 78 16 209 75 13 205 72 10 204 71 9 203 70 8 203 70 8 205 68 10
205 68 10 206 68 10 206 68 10 205 68 10 205 69 8 212 79 15 211 81 13
209 81 13 209 82 11 209 84 12 210 83 10 212 83 10 212 83 10 210 83 10
206 84 9 223 105 29 219 104 24 217 103 23 217 103 23 216 104 23
214 105 23 214 104 25 213 105 25 213 105 27 216 103 27 203 78 8
206 76 8 206 76 10 206 76 10 206 76 10 206 76 10 206 76 10 206 76 10
203 76 7 210 77 11 203 63 1 210 65 4 210 62 5 210 62 7 209 62 9
207 63 9 205 64 9 205 64 9 205 64 9 204 63 8 204 63 10 203 61 9
203 62 7 203 62 7 204 63 8 204 63 8 204 63 8 204 63 8 204 63 8
204 63 8 204 63 8 204 63 8 204 63 8 204 63 8 204 63 8 204 63 8
204 63 8 204 63 8 203 64 6 203 64 6 209 70 12 209 70 12 207 71 10
205 72 10 205 72 8 205 72 8 205 72 8 205 72 8 207 72 8 208 73 9
213 77 14 213 77 14 210 77 11 209 76 9 210 77 11 210 77 11 210 77 11
210 77 11 211 79 12 211 79 12 212 80 11 212 80 11 214 79 11 214 79 11
215 80 12 215 80 12 215 80 12 213 81 12 209 82 9 209 82 9 222 97 21
220 98 21 216 102 20 215 103 20 215 103 20 215 103 18 215 103 18
215 103 18 215 103 18 215 103 18 209 91 17 209 91 17 209 91 17
209 91 17 210 90 19 210 90 19 210 90 19 212 89 19 217 92 22 217 90 21
207 79 11 208 78 13 210 77 13 210 77 13 210 77 13 210 77 13 210 77 13
210 77 13 210 77 13 210 77 13 212 76 13 212 76 13 210 77 13 208 78 11
207 79 11 207 79 11 205 80 9 205 80 9 205 81 7 204 79 5 222 97 23
219 97 22 216 98 22 214 99 22 214 99 22 214 99 22 214 99 20 214 99 20
214 99 20 216 98 22 208 80 12 211 78 14 211 78 14 211 78 14 211 78 14
211 78 14 211 78 14 211 78 14 211 78 16 210 77 15 207 73 11 204 71 9
203 70 8 203 70 8 205 68 10 205 68 10 206 68 10 206 68 10 205 69 8
205 69 8 212 79 15 211 81 13 209 82 11 209 82 11 209 84 10 210 83 10
212 83 10 212 83 10 210 83 10 206 84 9 221 106 27 217 105 24
216 104 23 216 104 23 214 105 23 214 105 23 213 105 25 213 105 25
213 105 27 216 103 27 202 76 7 205 75 7 205 74 9 205 74 9 206 76 10
206 76 10 206 76 10 206 76 10 203 75 9 210 77 13 203 63 1 210 64 6
210 62 7 210 62 9 209 62 9 207 63 11 205 64 11 205 64 11 205 64 11
204 63 10 204 63 10 203 61 9 203 62 7 203 62 7 204 63 8 204 63 8
204 63 8 204 63 8 204 63 8 204 63 8 204 63 8 204 63 8 204 63 8
204 63 8 204 63 8 204 63 8 204 63 8 204 63 8 203 64 6 203 64 6
209 70 12 207 71 12 205 72 10 205 72 10 205 72 8 205 72 8 205 72 8
205 72 8 207 72 8 208 73 9 213 77 14 213 77 14 210 77 11 209 76 9
210 77 11 210 77 11 210 77 11 210 77 11 211 79 12 211 79 12 212 80 11
212 80 11 212 80 11 212 80 11 213 81 12 213 81 12 213 81 12 213 81 12
211 81 9 209 82 9 222 97 21 220 98 21 216 102 20 215 103 20
215 103 18 215 103 18 215 103 18 215 103 18 215 103 18 215 103 18
209 90 19 209 90 19 209 90 19 209 90 19 210 90 19 210 90 19 210 90 19
212 89 19 218 90 24 219 88 23 208 78 13 208 78 13 210 77 15 210 77 15
210 77 15 210 77 15 210 77 13 210 77 13 210 77 13 210 77 13 212 76 15
212 76 15 210 77 13 208 78 13 207 79 11 207 79 11 205 80 9 205 80 9
204 81 7 202 80 5 220 98 23 219 97 22 217 98 20 216 99 20 216 99 20
216 99 20 216 99 20 216 99 18 216 99 18 217 97 22 208 80 12 211 78 16
211 78 16 211 78 14 211 78 14 211 78 14 211 78 14 211 78 14 211 78 16
210 77 15 207 73 11 204 71 9 203 70 8 203 70 8 205 69 8 205 69 8
206 68 10 206 68 10 205 69 8 205 69 8 212 79 15 211 81 13 209 82 11
209 82 11 209 84 10 210 83 10 212 83 10 212 83 10 210 83 10 204 85 9
219 107 27 215 106 24 215 106 24 215 106 24 215 106 24 215 106 24
215 105 26 215 105 26 215 105 28 219 103 28 202 77 5 205 75 7
205 75 7 205 75 7 205 74 9 205 74 9 205 74 9 205 74 9 202 74 8
209 75 13 202 61 2 209 63 7 210 62 9 210 61 11 209 62 13 207 62 13
207 62 13 207 62 13 207 62 13 207 62 13 204 63 10 204 63 10 204 63 10
204 63 10 204 63 10 204 63 10 204 63 8 204 63 8 204 63 8 204 63 8
204 63 8 204 63 8 204 63 8 204 63 8 204 63 8 204 63 8 204 63 8
204 63 8 204 63 6 203 64 6 207 71 12 205 72 12 205 72 10 205 72 10
205 72 8 205 72 8 205 72 8 205 72 8 205 72 8 208 75 10 210 77 13
211 78 14 210 77 11 210 77 11 210 77 11 210 77 11 211 79 12 211 79 12
211 79 12 211 79 12 211 81 11 211 81 11 211 81 11 211 81 11 212 82 12
212 82 12 212 82 12 212 82 12 209 82 9 209 82 9 222 97 23 220 98 21
216 102 20 215 103 20 215 103 18 215 103 18 215 103 18 215 103 18
215 103 18 215 103 18 210 90 19 210 90 19 210 90 19 210 90 19
210 90 19 212 89 19 212 89 19 212 89 19 218 90 24 219 88 23 208 78 13
208 78 13 210 77 15 210 77 15 210 77 15 210 77 15 210 77 13 210 77 13
210 77 13 210 77 13 212 76 15 212 76 15 210 77 13 208 78 13 208 78 13
207 79 11 207 79 11 205 80 9 205 80 9 204 79 7 222 97 25 219 97 22
217 97 22 217 97 22 217 97 22 216 99 20 216 99 20 216 99 20 216 99 20
217 97 22 208 80 14 211 78 16 211 78 16 211 78 16 211 78 14 211 78 14
211 78 14 211 78 14 211 78 16 210 77 15 207 73 11 204 71 9 203 70 8
203 70 8 205 69 8 205 69 8 206 68 10 206 68 10 205 69 8 205 69 6
212 80 13 211 81 13 209 82 11 209 82 11 209 84 10 210 83 10 212 83 10
212 83 10 210 83 10 204 85 9 218 108 27 214 107 24 214 107 24
215 106 24 215 106 24 215 106 24 215 105 26 215 105 26 215 105 28
219 103 28 201 76 4 204 74 4 204 74 6 204 74 6 205 74 9 205 74 9
205 74 9 205 74 9 202 74 10 207 76 13 200 62 4 207 64 7 209 62 9
209 62 11 207 62 13 207 62 15 205 63 15 205 63 13 205 63 13 205 63 13
204 63 10 204 63 10 204 63 10 204 63 10 204 63 10 204 63 10 204 63 8
204 63 8 204 63 8 204 63 8 204 63 8 204 63 8 204 63 8 204 63 8
204 63 8 204 63 8 204 63 8 204 63 8 204 63 6 203 64 6 205 72 12
204 72 12 205 72 10 205 72 10 205 72 8 205 72 8 205 72 8 205 72 8
205 72 8 208 75 10 210 77 13 211 78 14 210 77 11 210 77 11 210 77 11
210 77 11 211 79 12 211 79 12 211 79 12 211 79 12 211 81 11 211 81 11
211 81 11 211 81 11 210 83 12 210 83 12 210 83 12 210 83 12 209 82 9
209 82 9 222 97 23 220 98 23 218 101 22 216 102 20 216 102 20
216 102 20 216 102 20 216 102 20 216 102 20 216 102 20 212 89 19
212 89 19 212 89 19 212 89 19 212 89 19 213 88 19 213 88 19 213 88 19
218 90 24 217 89 23 208 78 13 208 78 13 210 77 15 210 77 15 210 77 15
210 77 15 210 77 13 210 77 13 210 77 13 210 77 13 212 76 15 212 76 15
210 77 15 210 77 15 210 77 15 208 78 13 208 78 13 207 79 11 207 79 11
206 78 9 223 95 27 220 95 24 217 97 24 216 98 24 216 98 24 214 99 22
214 99 22 214 99 22 214 99 22 217 97 24 208 80 14 211 78 16 211 78 16
211 78 16 211 78 14 211 78 14 211 78 14 211 78 14 211 78 16 210 77 15
207 73 11 205 72 10 203 70 8 203 70 8 205 69 8 205 69 8 206 68 8
206 68 8 205 69 8 205 69 6 213 81 14 212 82 12 210 83 12 210 83 10
209 84 10 209 85 8 212 83 8 212 83 8 211 85 9 206 86 8 220 110 29
212 108 22 212 108 22 214 107 22 214 107 22 214 107 24 214 107 24
214 106 26 214 106 26 217 105 26 199 77 2 202 75 4 202 75 4 202 74 6
203 76 7 203 76 7 203 76 7 203 75 9 202 74 8 207 76 13 200 62 2
207 64 7 209 62 9 209 62 11 207 63 11 205 63 13 204 64 13 204 65 11
204 65 11 204 65 11 204 63 10 204 63 10 204 63 10 204 63 10 204 63 10
204 63 10 204 63 8 204 63 8 204 63 8 204 63 8 204 63 8 204 63 8
204 63 8 204 63 8 205 64 9 205 64 9 205 64 9 205 64 9 205 64 7
204 65 7 207 73 13 205 74 13 205 74 11 205 74 11 205 74 9 205 74 9
205 74 9 204 73 8 207 74 9 208 75 10 210 77 13 211 78 14 210 77 11
210 77 11 210 77 11 210 77 11 210 77 11 210 77 11 210 77 11 210 77 11
212 82 12 212 82 12 212 82 12 212 82 12 210 83 12 210 83 12 211 84 13
211 84 13 208 83 9 208 83 9 222 97 23 220 98 23 218 101 22 218 101 22
218 101 22 218 101 22 218 101 22 218 101 22 218 101 22 218 101 22
213 88 19 213 88 19 213 88 19 213 88 19 213 88 19 215 87 19 215 87 19
215 87 19 218 90 24 219 88 23 208 78 13 210 77 13 210 77 15 210 77 15
210 77 15 210 77 15 210 77 15 212 76 15 212 76 15 212 76 15 212 76 15
212 76 15 210 77 15 210 77 15 210 77 15 210 77 15 210 77 15 210 77 13
210 77 13 209 76 11 226 93 29 224 93 26 220 95 26 219 96 26 219 96 26
219 96 24 219 96 24 219 96 24 219 96 24 220 95 26 210 79 14 211 78 16
211 78 16 211 78 16 211 78 14 211 78 14 211 78 14 211 78 14 211 78 16
210 77 15 207 73 11 205 72 10 203 70 8 203 70 8 205 69 8 205 69 8
206 68 8 206 68 8 205 69 6 203 70 6 212 82 14 212 82 12 210 83 10
210 83 10 209 85 8 209 85 8 212 83 8 212 83 8 211 85 9 207 87 9
220 113 28 211 109 22 211 109 22 211 109 22 211 109 22 211 109 22
211 108 24 211 108 24 211 108 24 214 106 26 197 78 2 201 76 2
201 76 2 201 76 4 202 77 5 202 77 5 202 77 5 202 77 5 199 76 6
206 78 9 199 63 0 205 65 5 207 64 7 207 64 7 205 64 9 202 66 9
201 67 9 201 67 7 201 67 7 202 66 9 203 63 10 204 63 10 204 63 10
204 63 10 204 63 10 204 63 10 204 63 8 204 63 8 204 63 8 204 63 8
204 63 8 204 63 8 204 63 8 204 63 8 205 64 9 205 64 9 205 64 9
205 64 9 205 64 7 204 65 7 207 73 13 205 74 13 205 74 11 205 74 11
205 74 9 205 74 9 205 74 9 204 73 8 207 74 9 208 75 10 209 76 11
209 76 11 209 76 9 208 75 8 208 75 8 208 75 8 209 76 9 209 76 9
209 76 9 209 76 9 212 82 12 212 82 12 212 82 12 212 82 12 210 83 12
210 83 12 211 84 13 211 84 13 208 83 9 208 83 9 222 97 23 220 98 23
219 100 24 219 100 24 219 100 24 219 100 24 219 100 24 219 100 24
219 100 24 219 100 24 206 78 11 206 78 11 206 78 11 206 78 11
206 78 11 207 77 11 207 77 11 207 77 11 209 76 11 208 75 10 197 64 0
199 63 0 199 63 2 199 63 2 199 63 2 199 63 2 200 64 3 202 63 5
202 63 5 200 64 5 200 64 5 200 64 5 200 64 5 200 64 5 200 64 5
200 64 5 200 64 5 199 63 2 199 63 2 200 64 3 205 69 8 207 72 8
207 72 8 207 72 8 207 72 8 207 72 6 207 72 6 207 72 6 207 72 6
205 72 8 205 72 8 205 72 8 205 72 10 205 72 10 205 72 10 205 72 10
205 72 10 205 72 10 207 73 11 207 73 11 207 73 11 205 72 10 208 74 12
208 74 12 209 73 12 209 73 12 209 73 12 209 73 12 209 74 10 208 75 10
212 82 14 212 82 12 210 83 12 210 83 10 210 86 9 211 85 9 213 84 9
213 84 9 211 85 9 208 88 10 222 117 32 223 123 36 227 127 40
227 127 40 227 127 38 227 127 40 227 127 40 227 127 40 227 127 40
230 125 42 215 101 21 218 99 21 218 99 21 218 99 21 218 99 23
218 99 23 218 99 21 218 99 21 212 95 16 219 97 22 212 82 12 219 84 18
217 79 16 217 79 16 215 79 18 212 81 18 210 82 16 210 82 16 210 82 16
213 80 20 201 65 8 204 63 10 204 62 12 206 61 12 204 63 10 204 63 8
204 63 8 204 63 8 204 63 8 204 63 8 205 64 9 205 64 9 205 64 9
205 64 9 205 64 9 205 64 9 205 64 9 205 64 9 205 64 7 204 65 7
207 73 13 205 74 13 205 74 11 205 74 11 205 74 9 205 74 9 205 74 9
205 74 9 207 74 9 208 75 10 209 76 11 208 75 10 208 75 8 207 74 7
207 74 7 207 74 7 208 75 8 208 75 8 206 76 8 206 76 8 213 83 13
213 83 13 213 83 13 213 83 13 211 84 13 211 84 13 211 84 13 211 84 13
211 86 14 211 86 14 212 87 16 212 87 16 212 89 17 212 89 17 212 89 17
212 89 17 212 89 17 212 89 17 212 89 17 212 89 17 209 76 11 209 76 11
209 76 11 209 76 11 209 76 11 209 76 11 209 76 11 209 76 11 210 75 11
209 74 10 199 63 0 199 63 0 199 63 2 199 63 2 199 63 2 199 63 2
202 63 5 202 63 5 202 63 5 202 63 5 200 64 5 200 64 5 200 64 5
202 63 7 202 63 7 202 63 7 202 63 7 200 62 4 200 62 4 202 63 5
206 68 10 209 70 12 210 69 12 210 70 10 210 70 10 210 70 10 210 70 10
210 70 8 210 70 8 209 71 8 207 72 8 205 72 8 205 72 10 205 72 10
205 72 10 205 72 10 205 72 10 205 72 10 207 73 11 207 73 11 207 73 11
205 72 10 208 74 12 208 74 12 209 73 12 209 73 12 209 73 12 209 73 12
208 75 10 208 75 10 212 82 14 212 82 12 210 83 12 210 83 12 210 85 11
211 85 9 213 84 9 213 84 9 213 84 9 209 90 12 223 118 33 221 124 36
223 128 40 223 128 40 223 129 38 223 129 38 223 128 40 223 128 40
223 128 40 227 127 40 214 102 19 217 100 19 217 100 19 217 100 19
217 100 21 217 100 21 217 100 19 217 100 19 210 96 14 216 99 18
209 85 8 215 86 14 213 81 12 213 81 14 212 81 16 210 82 16 207 85 12
207 85 12 209 83 14 212 81 18 201 65 8 204 63 10 206 61 12 206 61 12
206 62 10 204 63 8 204 63 8 204 63 8 204 63 8 204 63 8 205 64 9
205 64 9 205 64 9 205 64 9 205 64 9 205 64 9 205 64 9 205 64 9
205 64 7 204 65 7 207 73 13 205 74 13 205 74 11 205 74 11 205 74 9
205 74 9 205 74 9 205 74 9 207 74 9 208 75 10 208 75 10 207 74 9
207 74 7 205 73 6 205 73 6 205 73 6 207 74 7 207 74 7 205 75 7
205 75 7 213 83 13 213 83 13 213 83 13 213 83 13 211 84 13 211 84 13
211 84 13 211 84 13 211 86 14 211 86 14 212 87 16 212 87 16 213 88 17
213 88 17 213 88 17 213 88 17 213 88 17 213 88 17 213 88 17 213 88 17
210 75 11 210 75 11 210 75 11 210 75 11 210 75 11 210 75 11 210 75 11
210 75 11 210 75 11 209 74 10 199 63 0 199 63 0 200 64 3 200 64 3
200 64 3 200 64 3 202 63 5 202 63 5 202 63 5 202 63 5 202 63 7
202 63 7 202 63 7 202 63 7 203 61 9 203 61 9 203 62 7 203 62 7
202 61 6 203 62 7 208 66 12 210 69 14 210 69 14 210 69 12 210 69 12
210 69 12 209 70 12 209 70 10 209 70 10 207 71 10 207 71 10 207 71 10
205 72 10 205 72 10 205 72 10 205 72 10 205 72 10 205 72 10 207 73 11
207 73 11 207 73 11 207 73 11 208 74 12 208 74 12 209 73 12 209 73 12
209 73 12 209 73 12 208 75 10 208 75 10 213 83 15 213 83 13 211 84 13
211 84 13 210 85 11 211 85 9 213 84 9 213 84 9 214 85 10 212 90 13
225 121 35 220 125 36 222 129 40 222 129 40 222 130 38 222 130 38
222 130 38 222 130 38 222 130 38 225 128 38 212 103 17 217 101 17
217 101 17 217 100 19 217 100 19 217 100 19 217 100 19 217 101 17
210 97 12 216 99 18 207 85 8 214 87 14 212 83 10 212 82 12 210 83 14
209 83 14 206 86 10 204 87 8 207 85 12 210 82 16 201 65 6 204 63 10
206 61 12 208 61 12 206 62 10 206 62 10 206 62 10 206 62 10 206 62 10
206 62 10 207 63 11 207 63 11 205 64 9 205 64 9 207 65 11 207 65 11
207 65 11 207 65 11 207 66 9 205 66 9 207 73 13 205 74 13 205 74 11
205 74 11 205 74 9 205 74 9 205 74 9 205 74 9 208 75 10 208 75 10
208 75 10 207 74 9 207 74 7 205 73 6 205 73 6 205 73 6 205 73 6
205 73 6 204 74 6 204 74 6 214 84 14 214 84 14 214 84 14 214 84 14
211 84 13 211 84 13 213 85 14 213 85 14 211 86 14 211 86 14 212 87 16
212 87 16 213 88 19 215 87 19 215 87 19 215 87 19 215 87 19 215 87 19
215 87 19 215 87 19 210 75 11 210 75 11 210 75 11 210 75 11 210 75 11
210 75 11 210 75 11 210 75 11 210 75 11 209 74 10 199 63 0 199 63 2
200 64 3 200 64 3 200 64 3 200 64 3 202 63 5 202 63 5 202 63 5
202 63 5 202 63 7 202 63 7 202 63 7 202 63 7 203 61 9 203 61 9
203 62 7 203 62 7 202 61 6 203 62 7 208 66 12 210 69 14 210 69 14
210 69 14 210 69 12 210 69 12 209 70 12 209 70 12 207 71 10 207 71 10
207 71 10 207 71 10 205 72 10 205 72 10 205 72 10 205 72 10 205 72 10
205 72 10 207 73 11 207 73 11 207 73 11 207 73 11 208 74 12 208 74 12
209 73 12 209 73 12 209 73 12 209 73 12 208 75 10 208 75 8 213 83 15
213 83 13 211 84 13 211 84 13 210 85 11 211 85 9 213 84 9 213 84 9
214 85 10 212 90 13 225 121 35 220 125 36 222 129 40 222 129 40
222 130 38 222 130 38 222 130 38 222 130 38 222 130 38 225 128 38
214 102 17 218 100 17 218 100 17 218 100 17 218 99 19 218 99 19
218 100 17 217 101 17 212 96 12 216 99 18 207 85 8 212 88 12
210 83 10 210 83 10 209 84 12 207 85 12 206 86 8 206 86 8 207 85 10
210 83 14 201 65 4 204 63 8 206 61 12 208 61 12 206 62 10 206 62 10
206 62 10 206 62 10 206 62 10 206 62 10 207 63 11 207 63 11 205 64 9
204 65 9 205 66 11 205 66 11 205 66 11 205 66 9 205 66 9 205 66 9
207 73 13 205 74 13 205 74 11 205 74 11 205 74 9 205 74 9 205 74 9
205 74 9 208 75 10 208 75 10 208 75 10 207 74 9 207 74 7 205 73 6
205 73 6 205 73 6 205 73 6 205 73 6 204 74 6 204 74 6 214 84 14
214 84 14 214 84 14 214 84 14 211 84 13 211 84 13 213 85 14 213 85 14
211 86 14 211 86 14 212 87 16 212 87 16 215 87 19 215 87 19 215 87 19
215 87 19 215 87 19 215 87 19 215 87 19 215 87 19 209 74 10 209 74 10
209 74 10 209 74 10 211 73 12 211 73 12 211 73 12 211 73 12 212 76 15
210 75 13 200 64 3 200 64 3 202 63 5 202 63 5 202 63 5 202 63 5
203 64 6 203 64 6 203 64 6 203 64 6 204 63 8 204 63 8 204 63 8
204 63 8 204 63 8 204 63 8 204 63 8 203 62 7 200 61 6 203 64 6
207 69 11 210 71 13 207 69 11 207 69 11 207 69 11 207 69 11 207 69 9
206 70 9 206 70 9 206 70 9 207 71 10 207 71 10 207 71 10 207 71 10
207 71 10 207 71 10 207 71 10 207 71 10 208 72 11 208 72 11 208 72 11
208 72 11 209 73 12 209 73 12 208 75 10 208 75 10 209 74 10 209 74 10
208 75 10 208 75 8 213 83 15 213 83 15 213 83 13 211 84 13 210 85 11
211 85 9 213 84 9 213 84 9 214 85 10 212 90 13 225 121 35 221 124 36
222 127 39 222 127 39 222 128 37 222 128 37 223 129 38 223 129 38
223 129 38 227 127 38 214 100 18 219 97 18 219 97 18 219 97 18
219 97 18 219 97 18 219 97 18 217 98 18 214 95 14 217 98 20 207 85 8
212 88 12 209 84 10 209 84 10 209 84 12 209 84 12 209 84 10 209 84 10
210 83 12 213 81 14 201 65 4 204 63 6 206 62 10 208 61 12 208 61 10
208 61 10 208 61 10 208 61 10 208 61 8 208 61 8 209 62 9 207 63 9
204 65 9 202 66 7 203 67 9 203 67 9 203 67 9 203 68 6 203 68 6
203 68 6 207 73 11 207 73 11 207 73 11 207 73 11 207 74 9 207 74 9
207 74 9 207 74 9 207 74 7 207 74 7 207 74 7 207 74 7 207 74 7
207 74 7 205 75 7 205 75 7 205 75 7 205 75 7 205 75 7 205 75 7
211 84 15 211 84 15 211 84 15 211 84 15 211 84 15 211 84 15 211 84 15
211 84 15 213 85 14 213 85 14 213 85 14 213 85 14 214 86 18 214 86 18
214 86 18 214 86 18 214 86 18 214 86 18 214 86 18 214 86 18 209 74 10
209 74 10 209 74 10 209 74 10 211 73 12 211 73 12 211 73 12 211 73 12
212 76 15 210 75 13 200 64 3 200 64 3 202 63 5 202 63 5 202 63 5
202 63 5 203 64 6 203 64 6 203 64 6 203 64 6 204 63 8 204 63 8
204 63 8 204 63 8 204 63 8 204 63 8 204 63 8 203 62 7 200 62 4
203 64 6 207 69 11 210 71 13 207 69 11 207 69 11 207 69 11 207 69 11
206 70 9 206 70 9 206 70 9 206 70 9 207 71 10 207 71 10 207 71 10
207 71 10 207 71 10 207 71 10 207 71 10 207 71 10 208 72 11 208 72 11
208 72 11 208 72 11 209 73 12 209 73 12 208 75 10 208 75 10 209 74 10
209 74 10 208 75 8 208 75 8 213 83 15 213 83 15 213 83 13 213 83 13
211 85 11 210 86 9 211 85 9 213 84 9 214 85 10 212 90 13 225 121 35
221 124 36 222 127 39 221 128 39 221 128 37 221 128 37 222 130 38
222 130 38 222 130 38 227 127 38 214 100 18 219 97 18 219 97 18
219 97 18 219 97 18 219 97 18 219 97 18 219 97 20 214 94 16 219 97 20
207 85 8 212 88 14 209 84 10 209 84 10 209 84 12 209 84 12 210 83 10
210 83 10 212 82 12 213 81 14 201 66 2 204 63 6 206 62 10 208 61 12
208 61 10 208 61 10 208 61 10 208 61 10 208 61 8 208 61 8 209 62 9
207 63 9 204 65 7 202 66 7 203 67 9 203 67 9 203 67 9 203 67 9
203 67 9 203 68 6 208 72 11 208 72 11 208 72 11 207 74 9 207 74 9
207 74 9 207 74 9 207 74 9 207 74 7 207 74 7 207 74 7 207 74 7
207 74 7 207 74 7 205 75 7 205 75 7 205 75 7 205 75 7 205 75 7
205 75 7 211 84 15 211 84 15 211 84 15 211 84 15 211 84 15 211 84 15
211 84 15 211 84 15 213 85 14 213 85 14 213 85 14 213 85 14 214 86 18
214 86 18 214 86 18 214 86 18 214 86 18 214 86 18 214 86 18 214 86 18
209 74 10 209 74 10 209 74 10 209 74 10 211 73 12 211 73 12 211 73 12
211 73 12 212 76 15 210 75 13 200 64 3 200 64 3 203 64 6 203 64 6
203 64 6 203 64 6 203 64 6 203 64 6 203 64 6 203 64 6 204 63 8
204 63 8 204 63 8 204 63 8 204 63 8 204 63 8 204 63 8 204 63 8
200 62 4 203 64 6 207 69 11 210 71 13 207 69 11 207 69 11 207 69 11
207 69 11 206 70 9 206 70 9 206 70 9 206 70 9 207 71 10 207 71 10
207 71 10 207 71 10 207 71 10 207 71 10 207 71 10 207 71 10 208 72 11
208 72 11 208 72 11 208 72 11 209 73 12 209 73 12 208 75 10 208 75 10
209 74 10 209 74 10 208 75 8 208 75 8 213 83 15 213 83 15 213 83 13
213 83 13 211 85 11 210 86 9 211 85 9 213 84 9 214 85 10 212 90 13
225 121 35 220 125 36 219 129 39 217 130 39 217 130 37 217 130 37
219 131 38 219 131 38 219 131 38 223 129 38 212 101 18 217 98 18
217 98 18 217 98 18 219 97 20 219 97 20 219 97 20 219 97 20 215 93 18
219 97 22 207 85 10 211 88 14 209 84 12 209 84 12 209 84 12 209 84 12
209 84 10 210 83 10 210 83 12 212 82 14 201 66 2 203 64 6 206 62 8
206 62 10 206 62 10 206 62 8 206 62 8 206 62 8 206 62 8 206 62 8
207 63 9 205 64 9 205 64 9 204 65 9 205 66 11 205 66 11 205 66 11
205 66 11 205 66 11 205 66 9 209 71 8 209 71 8 209 71 8 207 72 6
207 72 6 207 72 6 207 72 6 207 72 6 208 73 7 208 73 7 208 73 7
208 73 7 207 74 7 207 74 7 205 75 7 205 75 7 205 75 7 205 75 7
205 75 7 205 75 7 211 84 15 211 84 15 211 84 15 211 84 15 211 84 15
211 84 15 211 84 15 211 84 15 213 85 14 213 85 14 213 85 14 213 85 14
214 86 18 214 86 18 214 86 18 214 86 18 214 86 18 214 86 18 214 86 18
214 86 18 209 74 10 209 74 10 209 74 10 209 74 10 211 73 12 211 73 12
211 73 12 211 73 12 212 76 15 210 75 13 200 64 3 202 63 3 203 64 6
203 64 6 203 64 6 203 64 6 203 64 6 203 64 6 203 64 6 203 64 6
204 63 8 204 63 8 204 63 8 204 63 8 204 63 8 204 63 8 204 63 8
204 63 8 200 62 4 203 64 6 207 69 11 210 71 13 207 69 11 207 69 11
207 69 11 207 69 11 206 70 9 206 70 9 206 70 9 206 70 9 207 71 10
207 71 10 207 71 10 207 71 10 207 71 10 207 71 10 207 71 10 207 71 10
208 72 11 208 72 11 208 72 11 208 72 11 209 73 12 209 73 12 208 75 10
208 75 10 209 74 10 209 74 10 208 75 8 208 75 8 214 84 16 214 84 16
214 84 14 214 84 14 213 86 12 213 86 12 213 86 12 214 85 10 216 84 10
212 90 13 225 120 37 220 125 36 219 129 39 217 130 39 217 130 39
217 130 37 219 131 38 219 131 38 219 131 38 223 129 38 211 101 18
216 99 18 216 99 18 217 98 18 217 98 20 217 98 20 217 98 20 219 97 20
215 93 18 219 97 22 207 85 10 211 88 14 209 84 12 209 84 12 209 84 12
209 84 12 209 84 10 209 84 10 209 84 12 210 83 14 200 67 2 201 65 6
204 63 8 206 62 10 206 62 8 206 62 8 206 62 8 204 63 8 204 63 8
204 63 8 205 64 9 205 64 9 205 64 9 205 64 9 207 65 11 205 66 11
205 66 11 205 66 11 205 66 11 205 66 9 209 71 8 209 71 6 209 71 6
207 72 6 207 72 6 207 72 6 207 72 6 207 72 6 208 73 7 208 73 7
208 73 7 208 73 7 207 74 7 207 74 7 205 75 7 205 75 7 205 75 7
205 75 7 205 75 7 204 74 6 213 85 16 213 85 16 213 85 16 213 85 16
211 84 15 211 84 15 211 84 15 211 84 15 213 85 16 213 85 14 213 85 14
213 85 14 214 86 18 214 86 18 214 86 18 214 86 18 214 86 18 214 86 18
214 86 18 214 86 18 209 73 12 209 73 12 209 73 12 209 73 12 211 73 12
211 73 12 211 73 12 211 73 12 207 69 9 207 69 9 200 62 2 203 65 4
203 62 5 203 62 5 203 62 5 203 62 5 204 63 8 204 63 8 204 63 8
204 63 8 204 63 8 204 63 8 204 63 8 204 63 8 204 63 8 204 63 8
204 63 8 204 63 8 202 63 5 202 63 5 205 66 9 209 70 12 209 70 12
209 70 12 209 70 12 209 70 12 209 70 12 209 70 12 207 71 12 207 71 12
208 72 13 208 72 13 208 72 13 208 72 13 208 72 13 208 72 13 208 72 13
209 73 14 209 73 12 209 73 12 209 73 12 208 72 11 209 73 12 209 73 12
208 75 10 208 75 10 209 76 11 209 76 11 209 76 9 207 77 9 214 84 14
214 84 14 214 84 14 214 84 14 214 84 14 213 85 14 213 85 14 214 85 12
215 83 11 211 88 14 224 119 36 219 123 37 219 127 39 218 127 39
218 128 37 218 128 37 219 129 39 219 129 39 219 129 39 224 126 39
210 103 19 215 101 19 215 101 19 215 101 19 217 100 21 217 100 21
217 100 21 218 99 21 215 95 19 218 99 23 208 86 11 212 90 15
210 85 13 210 85 13 210 85 13 210 85 13 209 87 12 209 87 12 209 87 14
211 86 16 198 67 2 200 66 6 203 64 8 204 63 8 204 63 6 204 63 6
204 63 6 203 64 6 204 65 7 198 59 2 205 66 9 199 61 3 205 66 9
205 66 9 205 66 9 203 67 9 203 67 9 203 67 9 203 67 9 203 68 6
207 72 6 207 72 4 207 72 4 205 73 4 205 73 4 205 73 4 204 72 3
204 72 3 204 72 3 204 72 3 204 72 3 204 72 3 204 72 5 204 72 5
204 74 6 204 74 6 204 74 6 204 74 6 204 74 6 205 75 7 215 85 18
215 85 18 215 85 18 215 85 18 217 86 19 217 86 19 217 86 19 217 86 19
215 85 18 215 85 18 215 85 18 215 85 18 215 85 18 215 85 18 215 85 18
215 85 18 215 85 18 215 85 18 215 85 18 215 85 18 208 72 11 208 72 11
208 72 11 208 72 11 210 72 11 210 72 11 210 72 11 210 72 11 207 69 9
207 69 9 200 62 2 203 65 4 203 62 5 203 62 5 203 62 5 203 62 5
204 63 8 204 63 8 204 63 8 204 63 8 204 63 8 204 63 8 204 63 8
204 63 8 204 63 8 204 63 8 204 63 8 204 63 8 203 64 6 202 63 5
204 65 7 207 69 11 207 69 11 207 69 11 207 69 11 207 69 11 207 69 11
207 69 11 206 70 11 206 70 11 207 71 12 207 71 12 207 71 12 207 71 12
207 71 12 207 71 12 207 71 12 207 71 12 208 72 11 209 73 12 210 75 13
212 76 15 212 76 15 212 76 15 210 77 13 210 77 13 210 77 13 210 77 13
208 78 11 208 78 11 213 83 13 213 83 13 213 83 13 213 83 13 213 83 13
213 83 13 211 84 13 213 83 13 212 81 9 208 86 11 222 117 34
216 121 35 225 127 42 225 127 42 225 128 40 225 128 40 226 129 41
226 129 41 226 129 41 228 128 41 213 106 21 216 104 21 216 104 21
216 104 21 216 104 23 216 104 23 217 103 23 219 102 23 218 99 23
222 102 26 212 90 15 215 93 18 213 88 17 213 88 17 212 87 16
211 88 16 208 88 12 208 88 12 207 87 13 210 85 15 195 67 1 198 65 5
200 63 7 202 63 7 202 63 5 202 63 3 202 63 3 202 63 3 201 65 4
196 61 0 205 69 6 201 66 2 203 70 6 203 70 6 203 70 6 201 71 6
201 71 6 201 71 6 201 71 6 201 71 4 206 76 6 206 77 4 206 77 4
206 77 4 206 76 6 206 76 6 206 76 6 206 76 6 206 76 6 208 76 6
208 76 6 208 76 6 209 76 9 209 76 9 207 77 9 207 77 9 207 77 9
207 77 9 207 77 9 207 77 9 214 84 16 214 84 16 214 84 16 214 84 16
214 84 16 214 84 16 214 84 16 214 84 16 214 84 18 214 84 18 215 85 18
215 85 18 215 85 18 215 85 18 217 86 19 217 86 19 217 86 19 217 86 19
217 86 19 217 86 19 206 70 9 206 70 9 206 70 9 206 70 9 207 69 9
207 69 9 207 69 9 207 69 9 207 69 9 207 69 9 200 62 2 203 65 4
203 62 5 203 62 5 203 62 5 203 62 5 204 63 8 204 63 8 204 63 8
204 63 8 204 63 8 204 63 8 204 63 8 204 63 8 204 63 8 204 63 8
204 63 8 204 63 8 203 64 6 202 63 5 202 63 5 205 66 9 205 66 9
205 66 9 205 66 9 205 66 9 205 66 9 205 66 9 203 67 9 203 67 9
205 68 10 205 68 10 205 68 10 205 68 10 205 68 10 205 68 10 205 68 10
205 68 10 203 68 6 207 71 10 212 76 15 215 79 18 213 80 18 213 80 18
213 81 16 213 81 14 213 81 14 213 81 14 212 82 14 212 82 14 211 81 11
211 81 11 211 81 11 211 81 11 211 81 11 211 81 11 209 82 11 211 81 11
210 78 7 206 84 9 219 114 31 216 118 32 212 107 24 215 106 24
215 106 22 215 106 22 215 108 23 215 108 23 216 109 25 216 109 25
218 108 25 218 108 25 219 110 26 219 110 26 219 109 28 219 109 28
219 109 28 221 108 28 221 104 26 226 107 29 216 95 17 220 98 23
216 94 19 216 94 19 218 95 21 218 95 21 216 98 22 216 98 22 218 98 25
220 97 27 207 79 13 208 77 17 210 76 19 212 75 19 212 76 15 212 76 13
212 76 13 212 76 13 212 76 13 210 75 9 222 87 21 218 86 19 215 87 19
213 88 19 213 88 17 212 89 17 212 89 17 212 89 17 212 90 15 212 90 15
216 94 19 216 95 17 218 94 17 218 93 19 218 93 19 217 92 18 217 90 17
216 89 16 216 89 18 217 87 17 215 86 16 214 84 14 213 83 15 213 83 15
213 83 15 213 83 15 213 83 15 213 83 15 213 83 15 212 82 14 212 82 14
211 81 13 211 81 13 211 81 13 211 81 13 211 81 13 211 81 13 211 81 13
211 80 15 211 80 15 211 81 13 211 81 13 204 74 6 204 74 6 204 74 6
204 74 6 204 74 6 204 74 6 204 74 6 204 74 6 203 68 6 203 68 6
203 68 6 203 68 6 205 67 6 205 67 6 205 67 6 205 67 6 207 69 9
207 69 9 200 62 2 203 65 4 203 62 5 203 62 5 203 62 5 203 62 5
204 63 8 204 63 8 204 63 8 204 63 8 204 63 8 204 63 8 204 63 8
204 63 8 204 63 8 204 63 8 204 63 8 204 63 8 203 64 6 203 64 6
202 63 5 204 65 7 204 65 7 204 65 7 204 65 7 204 65 7 204 65 7
204 65 7 202 66 7 202 66 7 203 67 9 203 67 9 203 67 9 203 67 9
203 67 9 203 67 9 203 67 9 203 67 9 201 65 4 206 70 9 213 77 16
217 82 20 216 83 18 216 83 18 216 83 16 216 83 16 216 83 16 216 83 16
214 84 16 214 84 16 208 79 9 208 79 9 208 79 9 208 79 9 208 79 9
208 79 9 208 79 9 208 79 9 207 78 5 205 83 8 219 111 31 215 113 29
218 108 27 221 106 27 221 106 27 219 108 25 221 109 26 221 109 26
222 110 27 220 111 27 220 111 27 220 111 27 221 112 28 220 113 28
220 112 30 220 112 30 220 112 30 221 112 30 222 108 28 229 109 31
217 98 20 222 100 23 219 97 22 219 97 22 219 97 22 217 97 22
214 97 19 213 98 21 214 97 21 216 96 23 204 76 10 206 75 12 208 74 16
208 74 14 208 74 12 209 74 10 209 74 8 209 74 8 208 73 7 207 74 7
220 88 19 217 90 19 213 90 18 211 91 18 211 92 16 211 92 16 211 92 16
211 92 16 211 92 14 211 92 14 215 95 17 215 95 17 216 95 17 216 94 19
216 94 19 216 94 19 217 92 18 217 92 18 216 91 19 217 90 19 216 89 18
218 88 18 217 86 19 217 86 19 217 86 19 217 86 19 217 86 19 217 86 19
217 86 19 214 84 16 208 78 11 208 78 11 208 78 11 208 78 11 207 77 9
207 77 9 207 77 9 207 77 9 208 78 13 208 78 13 208 78 11 208 78 11
205 75 7 205 75 7 205 75 7 205 75 7 205 75 7 205 75 7 205 75 7
205 75 7 203 68 6 203 68 6 203 68 6 203 68 6 205 66 9 205 66 9
205 66 9 205 66 9 206 68 10 207 69 11 199 61 3 202 63 5 202 61 4
202 61 4 202 61 4 202 61 4 203 62 7 203 62 7 203 62 7 203 62 7
204 63 8 204 63 8 204 63 8 204 63 8 204 63 8 204 63 8 204 63 8
204 63 8 204 63 8 204 63 8 204 63 8 204 63 8 204 63 8 204 63 8
204 63 8 204 63 8 203 64 6 203 64 6 203 64 6 203 64 6 206 68 10
206 68 10 205 68 10 205 68 10 203 69 10 203 69 10 203 69 10 203 69 10
202 68 9 202 68 6 216 82 20 216 83 18 216 83 16 216 83 16 214 84 16
214 84 16 214 84 16 214 84 16 214 84 16 214 84 16 208 78 11 208 78 11
210 77 11 210 77 11 210 78 9 210 78 9 210 78 9 208 79 9 210 80 10
206 81 10 221 106 29 218 108 29 217 106 28 218 106 28 218 106 26
217 107 26 218 108 27 218 108 27 219 109 28 217 110 28 220 113 28
220 113 28 221 114 29 219 115 29 219 115 29 219 115 29 219 115 29
221 114 29 221 108 28 227 110 31 216 99 20 221 101 23 217 98 20
217 98 20 217 98 20 217 98 20 216 99 18 214 100 18 214 99 20
216 98 22 202 77 5 205 74 9 205 74 11 205 74 11 205 74 9 207 74 7
208 73 7 208 73 7 205 73 4 204 74 4 215 90 18 213 90 18 214 92 19
214 92 19 214 92 19 214 92 19 214 92 17 214 92 17 212 93 17 212 93 17
212 93 17 212 93 17 212 93 17 212 93 17 212 92 19 214 92 19 214 92 19
215 93 20 215 93 20 216 91 19 212 87 16 211 84 13 211 84 15 213 85 16
213 85 16 214 84 16 214 84 16 216 83 16 214 84 16 213 83 15 210 79 14
208 78 13 208 78 13 208 78 13 208 78 13 208 78 13 208 78 13 208 78 13
208 78 13 208 78 13 207 77 11 206 76 10 205 74 9 205 74 9 205 75 7
205 75 7 205 75 7 205 75 7 205 75 7 205 75 7 203 68 6 203 68 6
203 68 6 203 68 6 205 66 9 205 66 9 205 66 9 205 66 9 206 68 10
207 69 11 199 61 3 202 63 5 202 61 4 202 61 4 202 61 4 202 61 4
203 62 7 203 62 7 203 62 7 203 62 7 204 63 8 204 63 8 204 63 8
204 63 8 204 63 8 204 63 8 204 63 8 204 63 8 204 63 8 204 63 8
204 63 8 204 63 8 204 63 8 204 63 8 204 63 8 204 63 8 203 64 6
203 64 6 203 64 6 203 64 6 206 68 10 206 68 10 205 68 10 205 68 10
203 69 10 203 69 10 203 69 10 203 69 10 202 68 9 202 68 9 216 82 20
216 83 18 216 83 16 216 84 14 214 84 16 214 84 16 214 84 16 214 84 16
214 84 16 214 84 16 208 78 11 208 78 11 210 77 11 210 77 11 210 78 9
210 78 9 210 78 9 210 78 9 210 83 12 208 83 11 223 105 29 220 105 28
218 106 28 217 106 28 217 107 26 217 107 26 218 108 27 216 109 27
217 110 28 217 110 28 217 112 27 217 112 27 218 114 28 218 114 28
218 114 28 218 114 28 218 114 28 220 113 28 221 108 28 226 111 31
216 99 20 219 102 23 217 98 20 217 98 20 217 98 20 217 98 20
216 99 18 214 100 16 212 101 18 216 99 20 202 77 3 205 75 7 205 74 9
205 74 11 205 74 9 207 74 7 208 73 7 208 73 7 205 73 4 202 75 4
211 91 18 211 91 18 214 92 19 214 92 19 214 92 19 214 92 19 214 92 17
214 92 17 212 93 17 212 93 17 212 93 17 212 93 17 212 93 17 212 93 17
212 92 19 212 92 19 214 92 19 214 92 19 214 92 19 213 90 18 211 86 14
209 84 12 209 83 14 209 83 14 210 83 14 210 83 14 213 83 15 215 82 15
213 83 15 212 82 14 211 80 15 210 79 14 210 79 14 210 79 14 208 78 13
208 78 13 208 78 13 208 78 13 208 78 13 207 77 11 206 76 10 205 74 9
205 74 9 205 74 9 205 75 7 205 75 7 205 75 7 205 75 7 205 75 7
205 75 7 203 68 6 203 68 6 203 68 6 203 68 6 205 66 9 205 66 9
205 66 9 205 66 9 206 68 10 207 69 11 199 61 3 202 63 5 202 61 4
202 61 4 202 61 4 202 61 4 203 62 7 203 62 7 203 62 7 203 62 7
204 63 8 204 63 8 204 63 8 204 63 8 204 63 8 204 63 8 204 63 8
204 63 8 204 63 8 204 63 8 204 63 8 204 63 8 204 63 8 204 63 8
204 63 8 204 63 8 203 64 6 203 64 6 203 64 6 203 64 6 206 68 10
206 68 10 205 68 10 205 68 10 203 69 10 203 69 10 203 69 10 203 69 10
202 68 9 202 68 9 216 82 20 216 83 18 214 84 16 214 84 14 214 84 14
214 84 14 214 84 14 214 84 14 214 84 16 214 84 16 208 78 11 208 78 11
210 77 11 210 77 11 210 78 9 210 78 9 212 77 9 210 78 9 210 83 12
206 83 11 224 104 29 220 105 28 218 106 28 218 106 28 218 106 26
218 106 26 218 108 27 218 108 27 219 109 28 217 110 28 217 112 29
217 112 29 218 113 30 218 113 30 218 113 30 218 113 30 220 112 30
220 112 30 221 108 28 226 111 31 216 99 20 219 102 23 217 98 20
217 98 20 217 98 20 217 98 20 216 99 18 214 100 16 212 101 18
216 99 20 203 76 3 207 74 7 205 74 9 205 74 11 205 74 9 207 74 7
208 73 7 208 73 7 205 73 4 202 75 4 211 91 18 211 91 18 214 92 19
214 92 19 214 92 19 214 92 19 214 92 17 214 92 17 212 93 17 212 93 17
212 93 17 212 93 17 212 93 17 212 93 17 212 92 19 212 92 19 212 92 19
212 92 19 214 92 19 213 90 18 211 86 14 209 84 12 209 83 14 209 83 14
209 83 14 210 83 14 212 82 14 213 81 14 212 82 14 211 81 13 209 81 13
208 80 12 210 79 12 210 79 12 208 78 13 208 78 13 208 78 13 208 78 13
207 77 11 206 76 10 205 74 9 205 74 9 205 74 9 205 74 9 205 75 7
205 75 7 205 75 7 205 75 7 205 75 7 205 75 7 203 68 6 203 68 6
203 68 6 203 68 6 205 66 9 205 66 9 205 66 9 205 66 9 206 68 10
207 69 11 199 61 3 202 63 5 202 61 4 202 61 4 202 61 4 202 61 4
203 62 7 203 62 7 203 62 7 203 62 7 204 63 8 204 63 8 204 63 8
204 63 8 204 63 8 204 63 8 204 63 8 204 63 8 204 63 8 204 63 8
204 63 8 204 63 8 204 63 8 204 63 8 204 63 8 204 63 8 203 64 6
203 64 6 203 64 6 203 64 6 206 68 10 206 68 10 205 68 10 205 68 10
203 69 10 203 69 10 203 69 10 203 69 10 202 68 9 202 68 6 216 83 18
216 83 18 214 84 16 214 84 14 214 84 14 214 84 14 214 84 14 214 84 14
214 84 16 214 84 16 208 78 11 208 78 11 210 77 11 210 77 11 210 77 11
210 77 11 212 77 11 210 77 11 210 83 14 208 83 11 224 104 31
221 104 30 220 104 30 220 105 28 220 105 28 218 106 26 219 107 27
219 107 27 221 108 28 219 109 28 219 111 29 217 112 29 218 113 30
218 113 30 218 113 30 218 113 30 220 112 30 221 112 30 221 108 28
226 111 31 216 99 20 219 102 23 217 98 20 217 98 20 217 98 20
217 98 20 216 99 18 216 99 18 214 99 20 216 98 22 203 76 5 207 74 7
205 74 9 205 74 9 205 75 7 205 75 7 207 74 7 207 74 7 204 74 4
202 75 4 211 91 18 211 91 18 214 92 19 214 92 19 214 92 19 214 92 19
214 92 17 214 92 17 212 93 17 212 93 17 212 93 17 212 93 17 212 93 17
212 93 17 212 92 19 212 92 19 212 92 19 212 92 19 214 92 19 213 90 18
211 86 14 209 84 12 209 83 14 209 83 14 209 83 14 210 83 14 212 82 14
213 81 14 212 82 14 211 81 13 211 81 13 208 80 12 210 79 12 210 79 12
208 78 13 208 78 13 208 78 13 208 78 13 206 76 10 205 74 9 205 74 9
205 74 9 205 74 9 205 74 9 205 75 7 205 75 7 205 75 7 205 75 7
205 75 7 205 75 7 203 67 9 203 67 9 203 67 9 203 67 9 205 66 9
205 66 9 205 66 9 205 66 9 206 68 10 207 69 11 199 61 3 202 63 5
202 61 4 202 61 4 202 61 4 202 61 4 202 63 5 202 63 5 202 63 5
202 63 5 203 64 6 203 64 6 203 64 6 203 64 6 203 64 6 203 64 6
203 64 6 203 64 6 203 64 6 203 64 6 203 64 6 203 64 6 203 64 6
203 64 6 203 64 6 203 64 6 203 64 6 203 64 6 201 65 6 201 65 6
205 68 10 205 68 10 205 68 10 205 68 10 203 69 10 203 69 10 203 69 10
203 69 10 202 68 6 202 68 6 216 83 18 216 83 18 214 84 16 214 84 16
214 84 16 214 84 16 214 84 16 214 84 16 214 84 16 214 84 16 208 78 13
208 78 13 210 77 13 210 77 13 212 76 13 212 76 13 212 76 13 210 77 13
212 81 16 208 82 13 226 103 33 221 103 32 221 103 32 221 104 30
221 104 30 220 105 28 221 106 29 221 106 29 222 107 30 221 108 30
219 111 31 217 112 31 218 113 32 218 113 32 218 113 32 218 113 32
220 112 32 221 111 32 221 108 30 226 111 33 216 98 22 221 101 25
217 97 22 217 97 22 217 97 22 217 98 20 216 99 18 216 99 18 214 99 20
216 98 22 203 76 5 207 74 7 205 74 9 205 74 9 205 75 7 205 75 7
207 74 7 207 74 7 204 74 4 202 75 4 211 91 18 211 91 18 214 92 19
214 92 19 214 92 19 214 92 19 214 92 17 214 92 17 212 93 17 212 93 17
211 94 17 211 94 17 211 94 17 211 94 17 211 93 19 211 93 19 212 92 19
212 92 19 212 93 17 213 91 16 209 87 12 207 85 12 207 85 12 207 85 12
209 84 12 210 83 12 212 82 12 213 81 12 213 81 12 212 80 11 211 81 13
210 79 12 210 79 12 210 79 12 208 78 11 208 78 11 208 78 11 208 78 11
207 77 11 206 76 10 205 74 9 205 74 9 207 74 9 207 74 9 207 74 9
207 74 9 207 74 9 207 74 9 207 74 9 207 74 9 203 67 9 203 67 9
203 67 9 203 67 9 205 66 9 205 66 9 205 66 9 205 66 9 206 68 10
206 68 10 200 62 4 202 63 5 202 61 4 202 61 4 203 62 5 203 62 5
202 63 5 202 63 5 203 64 6 203 64 6 204 65 7 204 65 7 203 64 6
203 64 6 203 64 6 203 64 6 203 64 6 203 64 6 204 65 7 204 65 7
204 65 7 204 65 7 203 64 6 203 64 6 203 64 6 203 64 6 203 64 6
203 64 6 201 65 6 201 65 6 205 68 10 205 68 10 206 70 11 206 70 11
204 70 11 204 70 11 204 70 11 204 70 11 202 68 6 202 68 6 215 82 17
215 82 17 213 83 15 213 83 15 213 83 15 213 83 15 213 83 15 213 83 15
213 83 15 213 83 15 208 78 13 208 78 13 210 77 13 210 77 13 212 76 13
212 76 13 212 76 13 210 77 13 212 81 16 208 82 15 226 103 33
223 102 32 223 102 32 221 103 32 221 104 30 221 104 30 223 105 29
221 106 29 222 107 30 221 108 30 219 111 31 217 112 31 218 113 32
218 113 32 218 113 32 218 113 32 220 112 32 221 111 32 221 108 30
226 111 33 216 98 22 221 101 25 217 97 22 217 97 22 217 97 22
217 98 20 216 99 18 216 99 18 214 99 20 216 98 22 203 76 5 207 74 7
205 74 9 205 74 9 205 75 7 205 75 7 207 74 7 207 74 7 204 74 4
202 75 4 211 91 18 211 91 18 213 90 18 213 90 18 213 90 18 213 90 18
213 91 16 213 91 16 211 92 16 211 92 16 211 94 17 211 94 17 211 94 17
211 94 17 211 93 19 211 93 19 212 92 19 212 92 19 212 93 17 211 92 16
209 87 12 207 85 10 207 85 12 207 85 12 209 84 12 210 83 12 212 82 12
213 81 12 213 81 12 212 80 11 212 82 14 211 81 13 211 81 13 211 81 13
210 79 12 210 79 12 210 79 12 210 79 12 210 79 14 206 76 10 205 74 9
205 74 9 207 74 9 207 74 9 207 74 9 207 74 9 207 74 9 207 74 9
207 74 9 207 74 9 202 66 7 202 66 7 202 66 7 202 66 7 204 65 7
204 65 7 204 65 7 204 65 7 205 66 9 206 68 10 200 62 4 203 64 6
203 62 5 203 62 5 203 62 5 203 62 5 203 64 6 203 64 6 203 64 6
203 64 6 204 65 7 205 66 9 203 64 6 203 64 6 203 64 6 203 64 6
203 64 6 203 64 6 205 66 9 205 66 9 205 66 9 205 66 9 203 64 6
203 64 6 203 64 6 203 64 6 203 64 6 203 64 6 201 65 6 201 65 6
206 70 11 206 70 11 206 70 11 206 70 11 204 70 11 204 70 11 204 70 11
204 70 11 202 68 6 202 68 6 213 81 16 213 81 16 213 83 15 213 83 15
213 83 15 213 83 15 213 83 15 213 83 15 213 83 15 213 83 15 208 78 13
208 78 13 210 77 13 210 77 13 212 76 13 212 76 13 212 76 13 210 77 13
212 81 16 208 82 15 226 103 33 225 102 32 223 102 32 223 102 32
223 103 30 223 103 30 223 105 29 223 105 29 224 106 30 222 107 30
219 110 33 217 111 33 218 112 34 218 112 34 218 112 34 218 112 34
220 112 34 221 111 34 221 108 32 226 110 35 217 97 24 222 100 27
219 96 24 219 96 24 219 96 24 217 97 22 216 99 18 216 99 18 214 99 20
216 98 22 203 76 5 207 74 7 205 74 9 205 74 9 205 75 7 205 75 7
207 74 7 207 74 7 204 74 4 203 76 5 210 90 17 211 91 18 213 90 18
213 90 18 213 90 18 213 90 18 213 91 16 213 91 16 211 92 16 211 92 16
211 94 17 211 94 17 211 94 17 211 94 17 211 93 19 211 93 19 211 93 19
211 93 19 212 93 17 211 92 16 209 87 12 207 85 10 207 85 12 207 85 12
207 85 12 209 84 12 212 82 12 213 81 12 213 81 12 212 80 11 212 82 12
209 82 11 211 81 11 211 81 11 210 79 12 210 79 12 210 79 12 210 79 12
211 80 15 207 77 11 206 76 10 204 73 8 207 74 9 207 74 9 207 74 9
207 74 9 207 74 9 207 74 9 207 74 9 207 74 9 202 66 7 202 66 7
202 66 7 202 66 7 204 65 7 204 65 7 204 65 7 204 65 7 205 66 9
205 66 9 202 63 5 203 64 6 203 62 5 203 62 5 204 63 6 204 63 6
203 64 6 203 64 6 204 65 7 204 65 7 205 66 9 206 68 10 203 64 6
203 64 6 203 64 6 203 64 6 203 64 6 203 64 6 206 68 10 206 68 10
206 68 10 206 68 10 204 65 7 204 65 7 203 64 6 203 64 6 203 64 6
203 64 6 201 65 6 201 65 6 206 70 11 206 70 11 207 71 12 207 71 12
205 72 12 205 72 12 205 72 12 205 72 12 203 70 8 203 70 8 212 79 15
212 79 15 212 82 14 212 82 14 212 82 14 212 82 14 212 82 14 212 82 14
212 82 14 212 81 16 208 78 13 208 78 13 210 77 13 210 77 13 210 75 11
210 75 11 210 75 11 209 76 11 210 79 14 208 80 14 227 102 35
225 102 32 225 102 32 223 102 32 223 103 30 223 103 30 224 104 31
224 104 31 225 105 32 224 106 32 222 109 33 222 109 33 223 110 34
223 110 34 223 110 34 223 110 34 223 110 34 224 109 34 224 106 32
229 109 35 219 96 24 222 100 27 219 96 24 219 96 24 219 96 24
219 97 22 219 97 20 217 98 20 216 98 22 217 97 22 203 76 5 207 74 7
205 74 9 205 74 9 205 75 7 205 75 7 207 74 7 207 74 7 204 74 4
203 76 5 212 89 17 211 91 18 212 89 17 212 89 17 212 89 17 212 89 17
212 90 15 212 90 15 210 90 15 210 90 15 211 94 17 211 94 17 211 94 17
211 94 17 211 93 19 211 93 19 211 93 19 211 93 19 212 93 17 211 92 16
209 87 12 207 85 10 207 85 12 207 85 12 207 85 12 207 85 12 209 84 12
210 83 12 210 83 12 209 82 11 211 84 13 210 83 12 212 82 12 212 82 12
211 81 13 211 81 13 211 81 13 211 81 13 212 81 16 210 79 14 206 76 10
204 73 8 207 74 9 207 74 9 207 74 9 207 74 9 207 74 9 207 74 9
207 74 9 207 74 9 203 64 6 203 64 6 203 64 6 203 64 6 203 64 6
203 64 6 203 64 6 203 64 6 204 65 7 205 66 9 202 63 5 203 64 6
203 64 6 203 64 6 204 65 7 204 65 7 204 65 7 204 65 7 205 66 9
205 66 9 206 68 10 206 68 10 211 72 14 211 72 14 211 72 14 211 72 14
211 72 14 211 72 14 205 68 10 205 68 10 206 70 11 206 70 11 206 68 10
206 68 10 209 70 12 209 70 12 207 71 12 207 71 12 208 72 13 208 72 13
207 71 12 207 71 12 205 72 12 205 72 12 205 72 10 205 72 10 207 73 11
207 73 11 205 72 10 205 72 10 212 79 15 212 79 15 212 80 13 212 80 13
213 81 14 213 81 14 213 81 14 213 81 14 213 81 16 213 81 16 202 68 6
202 68 6 203 70 8 203 70 8 204 71 7 204 71 7 205 72 8 205 72 8
205 74 11 203 75 11 202 76 9 202 76 9 201 78 8 201 78 8 202 80 7
202 80 7 204 81 9 204 81 11 204 79 9 204 79 7 204 79 7 204 79 7
203 78 6 203 78 6 203 78 6 203 78 6 203 78 6 203 76 5 203 76 5
206 78 7 208 83 11 208 86 13 211 86 14 211 86 14 211 86 14 211 86 14
213 85 14 213 85 14 211 86 12 213 86 12 205 75 5 205 75 7 205 74 9
205 74 9 205 75 7 205 75 7 207 74 7 207 74 7 204 74 4 204 77 6
212 87 16 215 90 18 213 88 17 213 88 17 213 88 17 213 88 17 212 90 15
212 90 15 210 90 15 209 91 15 221 104 28 221 104 28 220 105 28
220 105 28 220 105 28 220 105 28 221 104 28 221 104 28 222 102 26
222 102 26 222 102 26 221 101 25 221 101 25 219 100 24 219 100 24
219 100 24 218 101 24 216 101 24 218 101 24 219 100 24 208 86 13
211 84 13 211 84 13 211 84 13 210 83 14 210 83 14 210 83 14 210 83 14
213 83 17 212 81 16 206 76 8 204 74 6 204 73 8 204 73 8 204 73 8
204 73 8 207 73 11 207 73 11 207 73 11 207 73 11 203 64 6 203 64 6
203 64 6 203 64 6 203 64 6 203 64 6 203 64 6 203 64 6 204 65 7
204 65 7 203 64 6 203 64 6 203 64 6 203 64 6 205 66 9 205 66 9
204 65 7 204 65 7 206 68 10 206 68 10 207 69 11 207 69 11 211 72 14
211 72 14 211 72 14 211 72 14 211 72 14 211 72 14 206 70 11 206 70 11
206 70 11 206 70 11 209 70 12 209 70 12 209 70 12 209 70 12 207 71 12
207 71 12 208 72 13 208 72 13 207 71 12 207 71 12 207 73 13 207 73 13
207 73 11 207 73 11 207 73 11 207 73 11 208 74 12 208 74 12 211 78 14
211 78 14 211 79 12 211 79 12 212 80 13 212 80 13 212 80 13 212 80 13
212 79 15 212 79 15 202 68 6 202 68 6 202 68 6 202 68 6 202 69 4
202 69 4 202 69 4 202 69 4 201 70 8 201 70 8 201 73 7 199 74 7
201 75 6 201 75 6 202 77 5 202 77 5 203 78 8 204 77 8 203 76 7
203 76 7 205 75 5 205 75 5 205 73 4 205 73 4 205 73 4 205 73 4
205 73 4 204 72 3 204 72 3 205 75 5 205 80 9 208 83 11 209 84 12
209 84 12 209 84 12 210 83 12 212 82 14 212 82 14 212 82 12 212 82 12
205 75 7 205 75 7 205 74 9 205 74 9 205 75 7 205 75 7 207 74 7
207 74 7 204 74 4 204 77 6 214 86 16 216 89 18 212 87 16 212 87 16
212 87 16 212 87 16 211 88 14 211 88 14 209 89 14 207 90 14
221 104 28 221 104 28 220 105 28 220 105 28 220 105 28 220 105 28
221 104 28 221 104 28 222 102 26 222 102 26 222 102 26 221 101 25
221 101 25 219 100 24 219 100 24 218 101 24 215 102 24 213 103 24
215 102 24 216 101 24 209 87 14 211 86 14 213 85 14 213 85 14
211 84 15 211 84 15 211 84 15 211 84 15 214 84 18 213 83 17 206 76 8
204 74 6 204 73 8 204 73 8 204 73 8 204 73 8 207 73 11 207 73 11
207 73 11 207 73 11 202 63 5 202 63 5 202 63 5 202 63 5 202 63 5
202 63 5 202 63 5 202 63 5 203 64 6 204 65 7 203 64 6 204 65 7
204 65 7 205 66 9 205 66 9 205 66 9 205 66 9 205 66 9 206 68 10
206 68 10 207 69 11 209 70 12 211 72 14 211 72 14 211 72 14 211 72 14
211 72 14 211 72 14 207 71 12 207 71 12 207 71 12 207 71 12 209 70 12
209 70 12 209 70 12 209 70 12 207 71 12 207 71 12 208 72 13 208 72 13
208 72 13 208 72 13 207 73 13 207 73 13 207 73 11 207 73 11 207 73 11
207 73 11 208 74 12 208 74 12 210 77 13 210 77 13 211 79 12 211 79 12
212 80 13 212 80 13 212 80 13 212 80 13 212 79 15 212 79 15 202 68 6
202 68 6 202 68 6 202 68 6 202 69 4 202 69 4 202 69 4 202 69 4
200 69 6 200 69 6 200 72 6 200 72 6 199 74 5 199 74 5 202 75 4
202 75 4 203 76 7 203 76 7 204 74 6 204 74 6 204 74 6 204 74 6
204 72 5 204 72 5 204 72 5 204 72 5 204 72 5 203 70 4 203 70 4
204 74 6 206 78 9 206 81 12 209 81 13 209 81 13 209 81 13 209 81 13
211 81 13 211 81 13 211 81 11 211 81 11 205 75 7 205 75 7 205 74 9
205 74 9 205 75 7 205 75 7 207 74 7 207 74 7 204 74 4 206 78 7
213 85 14 216 89 18 212 87 16 212 87 16 212 87 16 212 87 16 211 88 14
211 88 14 209 89 14 207 90 14 221 104 28 221 104 28 220 105 28
220 105 28 220 105 28 220 105 28 220 105 28 221 104 28 222 102 26
222 102 26 222 102 26 221 101 25 221 101 25 219 100 24 218 101 24
216 101 24 215 102 24 213 103 24 215 102 24 216 101 24 208 88 12
211 86 12 211 86 12 211 86 14 211 84 15 211 84 15 211 84 15 211 84 15
215 85 20 213 83 17 206 76 8 203 72 5 204 73 8 204 73 8 204 73 8
204 73 8 207 73 11 207 73 11 207 73 11 207 73 11 202 63 5 202 63 5
202 63 5 202 63 5 202 63 5 202 63 5 202 63 5 202 63 5 203 64 6
203 64 6 204 65 7 204 65 7 204 65 7 205 66 9 205 66 9 205 66 9
206 68 10 206 68 10 207 69 11 207 69 11 209 70 12 210 71 13 211 72 14
211 72 14 211 72 14 211 72 14 211 72 14 211 72 14 208 72 13 208 72 13
208 72 13 208 72 13 207 71 12 209 70 12 209 70 12 207 71 12 207 71 12
207 71 12 208 72 13 208 72 13 208 72 13 208 72 13 208 74 14 208 74 14
208 74 12 208 74 12 208 74 12 208 74 12 208 74 12 208 74 12 209 76 11
209 76 11 210 77 11 210 77 11 211 79 12 211 79 12 211 79 12 211 79 12
211 78 14 211 78 14 202 68 6 202 68 6 202 68 6 202 68 6 202 68 6
202 68 6 202 68 6 202 68 6 200 69 6 200 69 6 201 70 8 200 72 6
201 73 7 201 73 5 202 74 6 202 74 6 203 76 7 205 75 7 204 74 6
204 74 6 204 74 6 204 74 6 204 72 5 204 72 5 204 72 5 204 72 5
204 72 5 203 70 4 203 70 4 204 74 6 206 78 9 206 81 12 209 81 13
209 81 13 209 81 13 209 81 13 211 81 13 211 81 13 211 81 11 211 81 11
205 75 7 205 75 7 205 74 9 205 74 9 205 75 7 205 75 7 207 74 7
205 75 7 202 75 4 206 78 7 213 85 14 216 89 18 211 86 14 211 86 14
211 86 14 211 86 14 211 86 14 209 87 12 208 88 12 206 89 12
221 104 28 221 104 28 220 105 28 220 105 28 220 105 28 220 105 28
220 105 28 220 105 28 220 103 26 222 102 26 222 102 26 221 101 25
221 101 25 219 100 24 218 101 24 216 101 24 215 102 24 215 102 24
215 102 24 216 101 24 209 89 14 211 88 14 212 88 14 212 88 14
213 85 14 213 85 16 213 85 16 213 85 16 215 87 21 213 83 17 206 76 8
203 72 5 204 73 8 204 73 8 204 73 8 204 73 10 207 73 11 207 73 11
207 73 11 207 73 11 203 62 5 203 62 5 203 62 5 203 62 5 203 62 5
203 62 5 203 62 5 203 62 5 203 64 6 203 64 6 204 65 7 204 65 7
205 66 9 205 66 9 206 68 10 206 68 10 205 69 8 205 69 8 205 69 8
206 70 9 207 71 10 208 72 11 209 73 12 209 73 12 209 73 12 209 73 12
209 73 12 209 73 12 208 72 11 208 72 11 208 72 11 208 72 11 207 71 10
207 71 10 207 71 10 205 72 10 205 72 10 205 72 10 207 73 11 207 73 11
207 73 11 207 73 11 208 74 12 208 74 12 208 74 12 208 75 10 208 75 10
208 75 10 208 75 10 208 75 10 209 76 11 209 76 11 210 77 13 210 77 13
211 78 14 211 78 14 211 78 14 211 78 14 211 78 14 211 78 14 202 68 6
202 68 6 202 68 6 202 68 6 202 68 6 202 68 9 202 68 9 202 68 9
202 68 9 202 68 9 200 69 6 203 72 9 204 73 8 204 73 8 204 73 8
204 73 8 205 74 9 207 74 9 207 74 9 207 74 9 205 72 8 205 72 8
205 72 8 205 72 8 207 72 8 207 72 8 205 72 8 204 71 7 204 71 7
205 74 9 207 79 13 209 81 15 210 82 16 210 82 16 210 82 16 210 82 16
212 82 14 212 82 14 212 82 12 212 82 12 205 75 7 205 75 7 205 75 7
205 75 7 205 75 7 205 75 7 205 75 7 205 75 7 202 74 6 206 78 9
213 85 16 216 88 20 213 85 16 213 85 16 213 85 16 213 85 16 211 86 14
209 87 14 208 88 14 208 88 14 221 104 28 221 104 28 220 105 28
220 105 28 220 105 28 220 105 28 220 105 28 220 105 28 220 103 24
220 103 24 220 103 24 219 102 23 219 102 23 218 101 22 218 101 22
216 102 22 215 103 22 215 103 22 216 102 22 218 101 22 209 89 14
211 88 14 212 88 14 212 88 14 212 87 16 212 87 16 212 87 16 212 87 18
215 89 20 213 85 16 207 77 9 204 74 6 204 73 8 204 73 8 204 73 10
204 73 10 207 73 13 207 73 13 207 73 13 207 73 13 203 62 5 203 62 5
203 62 5 203 62 5 203 62 5 203 62 5 203 62 5 203 62 5 203 64 6
203 64 6 204 65 7 204 65 7 205 66 9 205 66 9 206 68 10 206 68 10
205 69 8 205 69 8 205 69 8 206 70 9 207 71 10 208 72 11 209 73 12
209 73 12 209 73 12 209 73 12 209 73 12 209 73 12 208 72 11 208 72 11
208 72 11 208 72 11 205 72 10 205 72 10 205 72 10 205 72 10 205 72 10
205 72 10 207 73 11 207 73 11 207 73 11 207 73 11 208 74 12 208 74 12
208 75 10 208 75 10 208 75 10 208 75 10 208 75 10 208 75 10 209 76 11
209 76 11 210 77 13 210 77 13 211 78 14 211 78 14 211 78 14 211 78 14
211 78 14 211 78 14 202 68 6 202 68 6 202 68 6 202 68 6 202 68 9
202 68 9 202 68 9 202 68 9 202 68 9 202 68 9 201 70 8 203 72 9
204 73 8 204 73 8 204 73 8 204 73 8 207 74 9 207 74 9 207 74 9
207 74 9 205 72 8 205 72 8 205 72 8 205 72 8 207 72 8 207 72 8
205 72 8 204 71 7 204 71 7 207 74 9 208 78 13 209 81 15 210 82 16
210 82 16 210 82 16 210 82 16 212 82 14 212 82 14 212 82 14 212 82 14
205 75 7 205 75 7 205 75 7 205 75 7 205 75 7 205 75 7 205 75 7
205 75 7 202 74 6 206 78 9 213 85 16 216 88 20 213 85 16 213 85 16
213 85 16 213 85 16 211 86 14 211 86 14 209 87 14 208 88 14
221 104 28 221 104 28 220 105 28 220 105 28 220 105 28 220 105 28
220 105 28 220 105 28 220 103 24 220 103 24 220 103 24 219 102 23
219 102 23 218 101 22 218 101 22 216 102 22 215 103 22 215 103 22
216 102 22 218 101 22 209 89 14 211 88 14 212 88 14 212 88 14
212 87 16 212 87 16 212 87 16 212 87 16 215 89 20 211 86 16 206 78 9
204 74 6 204 73 8 204 73 8 204 73 10 204 73 10 207 73 13 207 73 13
207 73 13 207 73 13 203 62 5 203 62 5 203 62 5 203 62 5 203 62 5
203 62 5 203 62 5 203 62 5 203 64 6 203 64 6 204 65 7 204 65 7
203 67 9 205 68 10 205 68 10 205 68 10 205 69 8 203 70 8 205 69 6
206 70 7 207 72 8 208 73 9 209 74 10 209 74 10 209 74 10 209 74 10
209 74 10 209 74 10 208 73 9 208 73 9 208 73 9 208 73 9 205 72 8
205 72 8 205 72 8 205 72 8 205 72 8 205 72 8 207 74 9 207 74 9
207 74 9 207 74 9 208 75 10 208 75 10 208 75 10 208 75 10 208 75 10
208 75 10 208 75 8 208 75 8 209 76 9 209 76 9 210 77 11 210 77 11
211 79 12 211 79 12 210 79 12 210 79 12 210 79 12 210 79 14 202 69 4
202 69 4 203 68 4 203 68 6 202 68 6 202 68 6 202 68 6 202 68 6
202 68 6 202 68 6 204 71 9 205 72 10 205 72 8 205 72 8 205 72 8
205 72 8 207 74 9 207 74 9 207 74 9 207 74 9 207 71 10 207 71 10
207 71 10 207 71 10 207 71 10 207 71 10 205 72 10 204 71 9 204 71 9
207 73 11 208 77 15 211 80 17 212 81 16 212 81 16 212 81 16 212 81 16
212 81 16 212 81 16 212 81 16 212 82 14 205 75 7 205 75 7 205 75 7
205 75 7 205 75 7 205 75 7 205 75 7 205 75 7 202 74 6 206 78 9
213 85 16 216 88 20 213 85 16 213 85 16 213 85 16 213 85 16 211 86 14
211 86 14 209 87 14 208 88 14 221 104 28 221 104 28 220 105 28
220 105 28 220 105 28 220 105 28 220 105 28 220 105 28 220 103 24
220 103 24 220 103 24 219 102 23 219 102 23 218 101 22 216 102 22
216 102 22 215 103 22 215 103 22 216 102 22 218 101 22 209 89 14
211 88 14 211 88 14 211 88 14 211 88 14 211 88 14 212 88 14 212 87 16
213 90 20 211 86 16 206 78 9 204 74 6 204 73 8 204 73 8 204 73 8
204 73 10 207 73 11 207 73 11 207 73 11 207 73 11 203 62 5 203 62 5
203 62 5 203 62 5 203 62 5 203 62 5 203 62 5 203 62 5 204 63 6
202 63 5 204 65 7 202 66 7 202 68 9 203 69 10 203 69 10 203 70 8
203 70 8 203 70 8 203 70 6 206 70 7 207 72 8 208 73 9 209 74 10
209 74 10 209 74 10 209 74 10 209 74 10 209 74 10 208 73 9 208 73 9
208 73 9 208 73 9 205 72 8 205 72 8 205 72 8 205 72 8 205 72 8
205 72 8 207 74 9 207 74 9 207 74 9 207 74 9 208 75 10 208 75 10
208 75 10 208 75 10 208 75 10 208 75 10 208 75 8 208 75 8 209 76 9
209 76 9 210 77 11 210 77 11 211 79 12 210 79 12 210 79 12 210 79 12
210 79 12 210 79 12 202 69 2 202 69 4 203 68 4 203 68 4 202 69 4
202 68 6 202 68 6 202 68 6 202 68 6 203 70 8 203 70 8 204 71 9
205 72 8 205 72 8 205 72 8 205 72 8 207 74 9 207 74 9 207 74 9
207 74 9 207 71 10 207 71 10 207 71 10 207 71 10 207 71 10 207 71 10
205 72 10 204 71 9 205 72 10 205 72 10 210 79 16 211 80 17 212 81 16
212 81 16 212 81 16 212 81 16 212 81 16 212 81 16 212 81 16 212 81 16
205 75 7 205 75 7 205 75 7 205 75 7 205 75 7 205 75 7 205 75 7
205 75 7 202 74 6 206 78 9 213 85 16 216 88 20 213 85 16 214 86 18
214 86 18 214 86 18 212 87 16 212 87 16 211 88 16 209 89 16
224 104 29 223 105 29 223 105 29 221 106 29 221 106 29 221 106 29
220 105 28 220 105 28 220 103 24 220 103 24 219 102 23 219 102 23
219 102 23 218 101 22 216 102 22 216 102 22 216 102 22 215 103 22
216 102 22 216 102 22 207 90 14 209 89 14 211 88 14 211 88 14
211 88 14 211 88 14 209 89 14 209 89 14 213 90 18 211 86 16 203 76 7
205 75 7 204 73 8 204 73 8 204 73 8 204 73 8 207 73 11 207 73 11
207 73 11 207 73 11 205 61 5 205 61 5 205 61 5 205 61 5 205 61 5
205 61 5 205 61 5 205 61 5 205 64 7 198 59 2 205 67 6 196 61 0
201 67 5 199 68 5 197 69 5 197 69 3 199 71 4 200 70 4 200 70 4
202 69 4 209 76 11 209 76 11 209 76 9 209 76 9 209 76 9 209 76 9
209 76 9 209 76 9 209 76 9 208 75 8 204 72 5 201 68 1 204 71 7
204 71 7 204 71 7 204 71 7 204 71 7 204 71 7 204 71 7 204 71 7
208 75 10 208 75 10 208 75 10 208 75 10 208 75 8 208 75 8 208 75 8
207 74 7 205 75 7 206 76 6 211 81 11 211 81 11 208 79 9 207 77 7
207 77 7 206 78 7 206 78 7 206 78 7 206 78 7 203 76 5 204 74 4
204 72 5 206 71 5 206 71 5 204 72 5 204 71 7 204 71 7 204 71 7
203 70 8 203 70 8 203 70 6 204 71 7 204 71 9 205 72 10 205 72 8
205 72 8 205 72 10 205 72 10 205 72 10 205 72 10 207 71 10 207 71 10
206 70 9 206 70 9 206 70 9 206 70 9 204 71 9 204 71 9 205 72 10
204 71 9 213 82 19 211 80 17 213 83 17 213 83 17 213 83 17 213 83 17
213 83 17 213 83 17 213 83 17 213 83 17 205 74 9 205 74 9 205 74 9
205 74 9 205 74 9 205 74 9 205 74 9 205 74 9 205 74 9 206 76 10
211 80 15 217 86 21 213 85 16 213 85 16 213 85 16 213 85 16 211 86 16
211 86 16 209 87 14 209 87 14 223 103 30 223 103 30 221 104 28
221 104 28 220 105 28 220 105 28 219 104 26 219 104 26 219 102 23
219 102 23 219 102 23 218 101 22 218 101 22 218 101 22 218 101 22
218 101 22 216 102 22 216 102 22 216 102 22 216 102 22 207 90 14
209 89 14 209 89 14 209 89 14 209 89 14 207 90 14 206 91 14 206 91 14
203 85 11 211 88 16 203 73 3 208 75 8 207 74 7 207 74 7 207 74 9
207 74 9 207 74 9 207 74 9 207 74 9 207 74 9 205 61 5 205 61 5
205 61 5 205 61 5 205 61 5 205 61 5 205 61 5 205 61 5 205 64 7
200 59 2 210 72 11 202 68 6 199 68 5 197 69 5 196 70 3 196 70 3
197 71 4 199 71 4 199 71 4 200 70 4 207 77 11 207 77 11 207 77 9
207 77 9 207 77 9 207 77 9 207 77 9 207 77 9 207 77 9 208 75 8
204 72 5 201 68 1 207 74 9 207 74 9 207 74 9 207 74 9 207 74 9
207 74 9 207 74 9 207 74 9 205 72 8 205 72 8 205 72 8 205 72 8
205 73 6 205 73 6 205 73 6 203 72 5 203 73 3 204 74 4 208 79 9
210 80 10 210 80 10 207 79 9 207 79 9 205 80 9 205 80 9 204 81 9
204 81 9 205 80 9 200 70 0 202 70 0 202 70 0 203 69 0 202 69 2
202 69 2 202 69 2 202 69 2 203 70 6 203 70 8 203 70 6 203 70 6
203 70 8 204 71 9 204 71 7 205 72 8 205 72 10 205 72 10 204 71 9
204 71 9 206 70 9 206 70 9 205 69 8 205 69 8 205 69 8 205 69 8
203 70 8 203 70 8 205 72 10 202 68 6 213 82 19 210 79 16 212 81 16
212 81 16 212 81 16 212 81 16 212 81 16 212 81 16 212 81 16 212 81 16
205 74 9 205 74 9 205 74 9 205 74 9 205 74 9 205 74 9 205 74 9
205 74 9 205 74 9 205 74 9 208 78 13 212 81 16 211 84 15 210 83 14
210 83 14 210 83 14 209 83 14 209 83 14 207 85 12 207 85 12
221 101 27 221 101 27 219 102 25 219 102 25 217 103 25 217 103 25
217 103 25 217 103 25 218 101 22 218 101 22 218 101 22 218 101 22
218 101 22 218 101 22 218 101 22 218 101 22 216 102 22 216 102 22
216 102 22 216 102 22 207 90 14 207 90 14 209 89 14 209 89 14
209 89 14 207 90 14 203 93 14 203 93 14 210 92 18 215 93 20 204 74 4
208 76 6 207 74 7 207 74 7 207 74 9 207 74 9 207 74 9 207 74 9
207 74 9 207 74 9 205 61 5 205 61 5 205 61 5 205 61 5 205 61 5
205 61 5 205 61 5 205 61 5 204 63 6 202 61 4 216 77 17 210 77 15
215 85 20 214 86 20 212 86 20 211 87 20 212 88 21 213 88 21 213 88 19
215 87 19 222 94 26 222 94 26 222 94 26 222 95 24 222 95 24 222 95 24
222 95 24 222 95 24 222 95 24 222 93 23 219 89 19 215 85 18 212 82 14
212 82 14 212 82 14 212 82 14 212 82 14 212 82 14 212 82 14 212 82 14
218 88 20 218 88 20 218 88 20 218 88 20 218 88 20 218 88 18 218 88 18
215 88 17 215 88 17 216 89 18 221 93 23 223 96 25 224 97 24 223 98 24
223 98 24 221 99 24 219 100 24 219 100 24 219 100 24 221 99 24
213 85 14 214 84 14 216 84 14 216 84 14 216 84 14 216 84 14 216 84 14
215 82 15 210 77 13 207 74 9 203 70 6 203 70 6 203 70 8 203 70 8
203 70 6 204 71 7 205 72 10 205 72 10 204 71 9 204 71 9 206 70 9
206 70 9 205 69 8 205 69 8 205 69 8 205 69 8 203 70 8 203 70 8
205 72 10 202 68 6 213 82 19 210 79 16 212 81 16 212 81 16 212 81 16
212 81 16 212 81 16 212 81 16 212 81 16 212 81 16 205 74 9 205 74 9
205 74 9 205 74 9 205 74 9 205 74 9 205 74 9 205 74 9 205 74 9
205 74 9 206 76 10 210 79 14 209 81 13 208 80 12 208 80 12 208 80 12
206 81 12 206 81 12 205 82 10 205 82 10 218 98 25 218 98 25 217 99 23
217 99 23 215 100 23 215 100 23 217 99 23 217 99 23 218 101 22
218 101 22 218 101 22 218 101 22 218 101 22 218 101 22 218 101 22
218 101 22 216 102 22 216 102 22 217 103 23 219 104 24 221 104 28
223 105 29 224 106 30 224 106 30 224 106 30 222 107 30 219 109 30
219 109 30 219 103 28 222 100 27 205 75 7 208 73 7 207 74 7 207 74 7
207 74 7 207 74 7 207 74 7 207 74 7 207 74 7 207 74 7 205 61 5
205 61 5 205 61 5 205 61 5 205 61 5 205 61 5 205 61 5 205 61 5
203 62 5 203 62 5 217 82 20 216 82 20 214 84 18 211 85 18 209 86 18
209 86 18 211 87 20 211 87 20 211 88 18 212 87 18 219 94 25 219 94 25
219 94 23 219 94 23 219 94 23 219 94 23 219 94 23 219 94 23 219 94 23
220 92 21 216 89 18 213 85 14 211 84 15 211 84 15 211 84 15 211 84 15
211 84 15 213 83 15 213 83 15 213 83 15 214 84 16 214 84 16 214 84 16
213 85 16 213 85 14 213 85 14 213 85 14 211 84 13 211 84 13 213 85 14
217 90 19 218 93 21 220 96 22 220 98 23 220 98 23 218 99 23 217 99 23
217 99 23 217 99 23 218 99 23 208 83 11 209 82 11 211 81 11 212 80 11
212 80 11 212 80 11 212 80 11 213 81 14 213 81 16 212 79 15 207 74 9
207 74 9 204 71 9 203 70 8 203 70 6 203 70 8 204 71 9 204 71 9
204 71 9 204 71 9 205 69 8 205 69 8 205 69 8 205 69 8 205 69 8
205 69 8 203 70 8 203 70 8 205 72 10 202 68 6 213 82 19 210 79 16
212 81 16 212 81 16 212 81 16 212 81 16 212 81 16 212 81 16 212 81 16
212 81 16 205 74 9 205 74 9 205 74 9 205 74 9 205 74 9 205 74 9
205 74 9 205 74 9 205 74 9 205 74 9 206 76 10 207 77 11 207 79 13
207 79 11 207 79 11 207 79 11 207 79 11 205 80 11 205 80 9 204 81 9
218 95 23 216 96 23 216 96 21 214 97 21 214 97 21 213 98 21 216 98 22
216 98 22 217 100 21 217 100 21 217 100 21 217 100 21 217 100 21
217 100 21 217 100 21 217 100 21 215 101 21 215 101 21 216 102 22
216 102 22 220 103 26 221 104 28 223 105 29 223 105 29 223 105 29
221 106 29 218 108 29 218 108 29 226 110 35 228 106 33 206 76 8
207 72 6 207 74 7 207 74 7 207 74 7 207 74 7 207 74 7 207 74 7
207 74 7 207 74 7 205 61 7 205 61 7 205 61 7 205 61 7 205 61 7
205 61 7 205 61 7 205 61 7 205 61 7 203 62 5 217 82 20 216 83 18
213 84 18 211 85 18 209 86 18 209 86 18 209 88 18 209 88 18 209 88 18
211 88 16 218 95 23 218 95 23 218 95 23 218 95 23 218 95 23 218 95 23
218 95 23 218 95 23 221 99 26 224 99 27 208 83 11 209 84 12 210 85 15
210 85 15 210 85 15 210 85 15 210 85 15 211 84 15 213 85 16 213 85 16
213 85 16 213 85 16 214 86 18 212 87 18 212 87 16 212 87 16 212 87 16
212 87 16 212 87 16 216 91 19 219 94 23 220 97 25 220 98 23 218 99 23
218 99 23 217 99 23 215 100 23 215 100 23 215 100 23 217 99 23
211 88 16 212 87 16 214 86 16 215 86 16 216 84 14 216 84 14 216 84 14
216 83 16 213 81 16 217 84 20 204 71 7 207 74 9 203 70 8 203 70 8
202 68 6 202 68 6 203 69 10 203 69 10 203 69 10 203 69 10 205 69 8
205 69 8 203 68 6 203 68 6 203 68 6 203 68 6 202 68 6 202 68 6
204 71 9 201 67 5 212 81 18 208 77 15 211 80 15 211 80 15 211 80 15
211 80 15 212 81 16 212 81 16 212 81 16 212 81 16 205 74 9 205 74 9
205 74 9 205 74 9 205 74 9 205 74 9 206 76 10 206 76 10 206 75 12
206 75 12 206 75 12 207 76 13 208 78 13 208 78 13 208 78 13 208 78 13
208 78 11 207 79 11 205 80 11 205 80 11 218 95 23 218 95 23 216 96 21
216 96 21 214 97 21 214 97 21 214 97 21 214 97 21 216 99 20 216 99 20
217 100 21 217 100 21 217 99 23 217 99 23 217 100 21 217 100 21
217 100 21 217 100 21 217 100 21 217 100 21 224 106 30 224 106 30
224 106 30 224 106 30 224 107 28 222 108 28 219 109 30 219 109 30
222 109 33 224 104 33 208 75 8 205 70 4 205 72 8 205 72 8 205 72 8
205 72 8 207 74 9 207 74 9 207 74 9 207 74 9 205 61 7 205 61 7
205 61 7 205 61 7 205 61 7 205 61 7 205 61 7 205 61 7 205 61 7
203 62 5 217 82 20 214 84 18 213 84 18 211 85 18 209 86 18 209 86 18
209 88 18 209 88 18 209 89 16 209 89 16 216 96 23 216 96 23 216 96 23
216 96 23 216 96 23 216 96 23 216 96 23 216 96 23 221 99 26
222 100 27 206 83 11 207 85 12 208 85 15 208 85 15 208 85 15
208 85 15 210 85 15 210 85 15 211 86 16 211 86 16 211 86 16 211 86 16
212 87 18 212 87 18 211 88 16 211 88 16 211 88 16 211 88 16 211 88 16
214 92 19 218 95 23 220 97 25 218 99 23 217 99 23 217 99 23
215 100 23 214 101 23 214 101 23 215 100 23 217 99 23 209 89 16
212 87 16 214 86 16 214 86 16 215 86 16 217 85 16 217 85 16 217 84 18
213 81 16 217 84 20 203 70 6 207 74 9 202 68 6 202 68 6 202 68 6
202 68 6 203 69 10 203 69 10 203 69 10 205 68 10 203 68 6 203 68 6
203 68 6 203 68 6 203 68 6 203 68 6 203 68 6 202 68 6 204 71 9
201 67 5 212 81 18 208 77 15 211 80 15 211 80 15 211 80 15 211 80 15
212 81 16 212 81 16 212 81 16 212 81 16 205 74 9 205 74 9 205 74 9
205 74 9 205 74 9 205 74 9 206 76 10 206 76 10 206 75 12 206 75 12
208 77 15 208 77 15 208 78 13 208 78 13 210 79 14 210 79 14 210 79 12
210 79 12 208 80 12 206 81 12 219 96 24 219 96 24 217 97 22 217 97 22
216 98 22 216 98 22 216 98 22 216 98 22 216 99 20 216 99 20 216 99 20
216 99 20 216 98 22 216 98 22 216 99 20 216 99 20 216 99 20 216 99 20
216 99 20 216 99 20 224 106 30 224 106 30 224 106 30 224 106 30
224 107 28 222 108 28 219 109 30 219 108 32 222 108 35 224 104 33
207 74 7 206 69 4 207 72 8 205 72 8 205 72 8 205 72 8 207 74 9
207 74 9 207 74 9 207 74 9 205 61 7 205 61 7 205 61 7 205 61 7
205 61 7 205 61 7 205 61 7 205 61 7 205 61 7 203 62 5 217 82 20
214 84 18 213 85 16 211 86 16 209 86 18 208 87 18 207 89 18 207 89 18
207 90 16 207 90 16 214 97 23 214 97 23 214 97 23 214 97 23 214 97 23
214 97 23 214 97 23 216 96 23 219 99 26 221 101 27 204 84 11
206 85 12 207 86 15 207 86 15 207 86 15 208 85 15 208 85 15 208 85 15
208 85 15 208 85 15 211 86 16 211 86 16 212 87 18 212 87 18 211 88 18
211 88 18 211 88 18 211 88 18 211 88 16 214 92 19 216 96 23 218 98 25
218 99 23 217 99 23 215 100 23 214 101 23 214 101 23 214 101 23
215 100 23 217 99 23 209 89 16 212 87 16 214 86 16 214 86 16
215 86 16 215 86 16 217 85 16 217 84 18 215 82 17 217 84 20 203 70 6
207 74 9 205 69 8 205 69 8 205 69 8 205 69 8 205 68 10 205 68 10
205 68 10 205 68 10 205 66 9 205 66 9 205 66 9 205 66 9 205 66 9
205 66 9 203 67 9 203 67 9 204 71 9 201 67 5 212 81 18 208 77 15
211 80 15 211 80 15 211 80 15 211 80 15 212 81 16 212 81 16 212 81 16
212 81 16 205 74 9 205 74 9 205 74 9 205 74 9 205 74 9 205 74 9
206 76 10 206 76 10 206 75 12 206 75 12 207 76 13 207 76 13 208 78 13
208 78 13 210 79 14 210 79 14 210 79 12 210 79 12 208 81 10 206 81 10
219 96 24 217 97 22 217 97 22 216 99 20 216 99 20 216 99 20 216 99 20
216 99 20 216 99 20 216 99 20 216 99 20 216 99 20 216 98 22 216 98 22
216 99 20 216 99 20 216 99 20 216 99 20 216 99 20 216 99 20
224 106 30 224 106 30 224 106 30 224 106 30 224 107 28 222 108 28
219 109 30 219 108 32 222 108 35 224 104 33 207 74 9 206 68 6
207 72 8 205 72 8 205 72 8 205 72 8 207 74 9 207 74 9 207 74 9
207 74 9 205 61 7 205 61 7 205 61 7 205 61 7 205 61 7 205 61 7
205 61 7 205 61 7 205 61 7 203 62 5 217 82 20 214 84 18 213 85 16
211 86 16 209 86 18 209 86 18 209 88 18 209 88 18 209 89 16 207 90 16
214 97 23 214 97 23 214 97 23 214 97 23 214 97 23 214 97 23 214 97 23
214 97 23 219 99 26 221 101 27 204 84 11 206 85 12 207 86 15
207 86 15 207 86 15 207 86 15 208 85 15 208 85 15 208 85 15 208 85 15
211 86 16 211 86 16 212 87 18 212 87 18 212 87 18 212 87 18 212 87 18
211 88 18 211 88 16 214 92 19 216 96 23 218 98 25 217 99 23
215 100 23 214 101 23 214 101 23 214 101 23 215 100 23 217 99 23
218 99 23 211 88 16 211 88 16 212 87 16 214 86 16 215 86 16 215 86 16
215 86 16 215 85 18 213 83 17 216 83 18 206 70 7 208 73 9 205 69 8
205 69 8 205 69 8 205 69 8 205 68 10 205 68 10 205 68 10 205 68 10
205 66 9 205 66 9 205 66 9 205 66 9 205 66 9 205 66 9 205 66 9
203 67 9 206 70 9 201 67 5 213 80 18 208 77 15 211 80 15 211 80 15
211 80 15 211 80 15 212 81 16 212 81 16 212 81 16 213 81 16 207 74 9
207 74 9 207 74 9 207 74 9 207 74 9 205 74 9 206 76 10 206 76 10
204 76 12 204 76 12 206 77 13 206 77 13 208 78 13 208 78 13 210 79 14
210 79 14 210 79 12 210 79 12 208 81 10 206 81 10 219 97 22 217 97 22
216 99 20 216 99 20 216 99 20 216 99 20 216 99 20 216 99 20 216 99 20
216 99 20 216 99 20 216 99 20 216 98 22 216 98 22 216 99 20 216 99 20
216 99 20 216 99 20 216 99 20 216 99 20 224 106 30 224 106 30
224 106 30 224 107 28 224 107 28 222 108 28 219 109 30 219 108 32
222 108 35 224 104 33 207 74 9 206 68 6 207 72 8 205 72 8 205 72 8
205 72 8 207 74 9 207 74 9 207 74 9 207 74 9 205 61 7 205 61 7
205 61 7 205 61 7 205 61 7 205 61 7 205 61 7 205 61 7 205 61 9
203 62 7 217 82 20 214 84 18 213 85 16 211 86 16 211 85 18 211 85 18
212 87 18 212 87 16 211 88 16 209 89 16 214 97 23 214 97 23 214 97 21
214 97 21 214 97 21 214 97 21 216 96 21 216 96 21 219 99 26
221 101 27 204 84 11 206 85 12 207 85 12 207 85 12 207 85 12
207 85 12 207 84 14 207 84 14 208 85 15 208 85 15 212 87 18 214 86 18
214 86 18 214 86 18 214 86 16 214 86 16 214 86 16 212 87 16 212 87 16
214 92 19 216 96 23 217 99 25 215 100 23 214 101 23 212 102 23
214 101 23 218 99 23 220 98 23 220 98 23 220 98 23 211 88 16
211 88 16 212 87 16 214 86 16 215 86 16 214 86 16 212 87 16 212 87 18
211 83 17 216 83 18 209 69 7 212 69 8 206 68 8 206 68 8 206 68 8
206 68 8 207 69 11 207 68 13 207 68 13 207 68 13 206 67 12 206 67 12
206 67 12 206 67 12 206 67 12 206 67 12 206 68 10 206 68 10 209 70 10
205 67 6 216 81 17 211 78 14 212 81 16 210 83 14 210 83 14 210 83 14
212 82 14 212 82 14 213 81 14 215 80 14 208 73 9 208 73 9 208 73 9
208 73 9 208 73 9 207 74 9 205 74 9 203 75 9 203 77 10 203 77 10
202 79 11 204 78 11 207 79 13 208 78 11 208 78 11 210 77 11 208 78 11
208 78 11 208 79 9 207 79 9 218 95 21 216 96 21 214 97 19 214 97 19
216 98 22 216 98 22 216 98 22 216 98 22 217 97 22 217 97 22 217 97 22
217 97 22 217 97 22 217 97 22 217 97 22 217 97 22 217 97 22 217 97 22
217 98 20 217 98 20 225 106 28 225 106 28 225 106 28 225 106 28
224 107 28 222 108 28 219 109 30 219 108 32 222 108 35 224 104 33
207 74 9 206 68 6 206 70 9 204 71 9 204 71 9 204 71 9 205 72 10
205 72 10 205 72 10 205 72 10 205 61 7 205 61 7 205 61 7 205 61 7
205 61 7 205 61 7 205 61 7 205 61 7 205 61 9 203 62 7 217 82 20
214 84 18 213 85 16 211 86 16 211 85 18 213 84 18 215 85 18 214 86 16
212 87 16 211 88 16 216 96 23 214 97 23 214 97 21 214 97 21 214 97 21
216 96 21 216 96 21 216 96 21 219 99 26 221 101 27 204 84 11
206 85 12 207 85 12 207 85 12 207 85 12 207 85 12 207 84 14 207 84 14
208 85 15 208 85 15 212 87 18 214 86 18 214 86 18 214 86 18 214 86 16
214 86 16 214 86 16 214 86 16 212 87 16 214 92 19 216 96 23 217 99 23
214 101 23 212 102 23 210 103 23 212 102 23 218 99 23 220 98 23
220 98 23 218 99 23 209 89 14 209 89 16 211 88 16 212 87 16 214 86 16
214 86 16 211 88 16 211 88 16 210 85 15 215 82 17 212 69 8 213 68 8
208 68 6 206 68 8 206 68 8 206 68 8 207 69 11 207 68 13 207 68 13
207 68 13 206 67 12 206 67 12 206 67 12 206 67 12 206 67 12 206 67 12
206 68 10 208 67 8 210 70 10 207 66 4 218 80 17 213 78 12 212 82 14
210 83 14 210 83 14 210 83 14 212 82 14 213 81 14 215 80 14 215 80 14
208 73 7 208 73 9 210 72 9 210 72 9 208 73 9 208 73 9 207 74 9
205 74 9 203 77 10 203 77 10 202 79 11 204 78 11 207 79 11 208 78 11
210 77 11 210 77 11 208 78 11 208 78 11 208 79 9 207 79 9 218 95 21
216 96 21 216 97 19 216 97 19 217 97 22 217 97 22 217 97 22 217 97 22
217 97 22 217 97 22 217 97 22 217 97 22 217 97 22 217 97 22 217 97 22
217 97 22 217 97 22 217 97 22 217 98 20 217 98 20 225 106 28
225 106 28 225 106 26 225 106 26 224 107 28 222 108 28 219 109 30
219 108 32 222 108 35 224 104 33 207 74 9 206 68 6 206 70 9 204 71 9
204 71 9 204 71 9 205 72 10 205 72 10 205 72 10 205 72 10 205 61 7
205 61 7 205 61 7 205 61 7 205 61 7 205 61 7 205 61 7 205 61 7
205 61 9 203 62 7 217 82 20 214 84 18 213 85 16 211 86 16 213 84 18
213 84 18 215 85 18 214 86 16 212 87 16 211 88 16 216 96 23 216 96 23
216 96 21 216 96 21 216 96 21 216 96 21 218 95 21 218 95 21 221 99 26
222 100 27 206 83 11 207 85 12 207 85 12 207 85 12 207 85 12
207 85 12 207 84 14 207 84 14 207 84 14 207 84 14 212 87 16 212 87 16
212 87 16 212 87 16 212 87 16 212 88 14 212 88 14 212 88 14 212 88 14
215 93 18 214 97 21 215 101 21 212 102 21 210 103 21 210 103 21
210 103 21 214 101 21 215 101 21 217 100 21 217 100 21 207 90 12
207 90 14 207 90 14 209 89 14 214 87 14 214 87 14 211 88 14 211 88 14
211 86 14 215 82 15 212 70 6 213 69 6 207 70 5 206 70 7 206 70 7
206 70 7 206 70 9 206 70 11 206 70 11 206 70 11 205 68 10 205 68 10
205 68 10 205 68 10 205 68 10 205 68 10 205 68 10 206 68 8 210 70 8
207 67 2 218 80 15 213 78 10 213 81 12 212 82 12 210 83 12 210 83 12
212 82 12 213 81 12 215 80 12 215 80 12 208 74 5 208 73 7 208 73 7
208 73 7 208 73 7 208 73 7 207 74 7 205 75 7 206 76 8 204 77 8
206 78 9 206 78 9 208 78 11 208 78 11 210 77 11 210 77 11 208 78 11
208 78 11 207 79 9 207 79 9 219 95 21 218 95 21 218 95 21 218 95 21
219 97 22 219 97 22 219 97 22 217 97 22 217 97 24 217 97 24 217 97 24
217 97 24 216 96 21 216 96 21 216 96 21 216 96 21 216 96 21 216 96 21
217 98 20 217 98 20 225 106 28 225 106 28 225 106 26 225 106 26
224 107 28 222 108 28 219 109 30 219 108 32 222 108 35 224 104 33
205 72 8 206 68 8 206 70 9 204 71 9 204 71 9 204 71 9 205 72 10
205 72 10 205 72 10 205 72 10 205 61 7 205 61 7 205 61 7 205 61 7
205 61 7 205 61 7 205 61 7 205 61 9 205 61 9 203 62 7 217 82 20
214 84 16 213 85 14 211 86 16 213 84 18 213 85 16 215 86 16 215 86 16
214 86 16 212 87 16 218 95 23 216 96 23 216 96 21 216 96 21 216 96 21
216 96 21 218 95 21 218 95 21 221 99 26 222 100 27 206 83 11
207 85 12 207 85 12 207 85 12 207 85 12 207 85 12 207 84 14 207 84 14
207 84 14 207 84 14 211 88 16 212 87 16 212 87 16 212 88 14 212 88 14
212 88 14 212 88 14 211 89 12 211 89 12 215 95 17 213 98 19
214 102 19 210 103 19 209 104 19 209 104 19 209 104 19 210 103 19
210 103 19 212 103 19 214 102 19 204 92 10 204 92 12 204 92 12
206 91 12 209 90 12 209 90 12 206 91 12 206 91 12 206 89 12 209 84 12
208 74 5 209 72 4 204 72 3 204 72 5 204 72 5 204 72 5 204 71 7
204 71 9 204 71 9 204 71 9 203 70 8 203 69 10 203 69 10 203 69 10
203 69 10 203 70 8 203 70 8 203 70 6 205 73 6 202 70 0 213 83 13
208 81 8 207 85 10 206 86 10 206 86 10 206 86 10 206 86 10 207 85 10
209 84 10 210 83 10 203 76 3 203 76 5 203 76 5 203 76 5 203 76 5
203 76 7 202 76 7 202 76 7 203 78 8 203 78 8 204 79 9 206 78 9
208 78 11 208 78 11 210 77 11 210 77 11 208 78 11 208 78 11 208 78 11
207 79 9 221 93 23 219 94 23 219 94 23 219 94 23 220 95 24 219 96 24
219 96 24 219 96 24 219 96 24 217 97 24 216 96 23 215 95 21 215 95 21
215 95 19 215 95 19 215 95 19 215 95 19 215 95 19 215 95 17 215 95 17
225 106 28 225 106 28 225 106 28 225 106 28 224 107 28 222 108 28
219 109 30 219 108 32 222 108 35 224 103 35 204 71 9 205 67 6
206 70 9 204 71 9 204 71 9 204 71 9 205 72 10 205 72 10 205 72 10
205 72 10 203 61 9 203 61 9 203 61 9 203 61 9 203 61 9 203 61 9
203 61 9 205 61 9 208 64 15 204 63 8 216 80 19 211 81 13 210 85 13
210 85 15 211 83 17 211 84 15 212 82 12 212 83 10 210 83 10 209 84 10
214 92 17 212 93 17 212 93 17 212 93 17 212 93 17 212 93 17 214 92 17
214 92 17 214 92 19 214 92 19 214 92 19 214 92 19 213 90 18 213 90 18
213 90 18 213 90 18 213 90 20 213 90 20 213 90 20 213 90 18 221 99 24
221 99 24 221 99 24 221 99 22 221 99 22 221 99 22 221 99 22
219 101 20 219 101 20 214 98 17 232 120 37 229 120 34 226 122 34
225 123 34 225 123 34 225 123 34 225 123 34 225 123 34 226 122 34
224 120 32 223 119 31 222 117 32 222 117 32 222 117 32 223 116 32
222 117 32 218 119 32 218 119 32 220 117 34 224 113 35 207 87 11
210 85 11 214 87 14 217 87 17 218 88 18 218 88 18 218 88 20 218 87 22
218 87 22 218 87 22 218 87 22 218 87 24 218 87 24 218 87 24 218 87 24
218 87 22 218 87 22 216 88 20 211 91 18 208 93 16 224 112 33
222 113 31 222 117 34 220 117 34 220 117 34 220 117 34 222 117 34
223 116 34 225 115 34 224 114 32 222 113 31 221 111 32 221 111 32
221 111 32 221 111 32 221 111 34 223 110 34 223 110 34 221 108 32
219 106 31 199 84 9 201 81 7 207 79 9 210 78 9 210 78 9 210 78 9
210 77 11 210 77 11 210 77 11 207 77 9 206 76 8 203 76 7 203 76 7
203 76 7 203 76 7 202 76 7 202 76 7 202 76 7 201 75 6 198 75 5
216 93 23 215 92 22 215 93 20 215 93 20 214 94 18 214 94 18 214 94 18
214 94 18 215 93 18 215 93 18 215 93 18 215 93 18 216 95 17 215 95 17
213 96 19 212 97 19 210 98 19 208 98 21 210 97 23 215 94 25 203 70 8
205 67 6 205 68 10 203 69 10 203 69 10 203 69 10 204 70 11 204 70 11
204 70 11 204 70 11 203 61 9 203 61 9 203 61 9 203 61 9 203 61 9
203 61 9 203 61 9 205 61 9 210 63 15 206 62 10 216 80 19 209 81 13
210 85 13 210 85 13 211 84 15 211 84 15 212 82 12 212 83 10 210 83 10
209 84 10 214 92 17 212 93 17 212 93 17 212 93 17 212 93 17 212 93 17
214 92 17 214 92 17 214 92 19 214 92 19 214 92 19 214 92 19 213 90 18
213 90 18 213 90 18 213 90 18 213 90 20 213 90 20 213 90 20 213 90 18
219 100 24 219 100 22 219 100 22 219 100 22 219 101 20 219 101 20
219 101 20 219 101 20 218 102 18 214 100 16 232 121 35 228 121 34
226 122 32 223 124 32 223 124 32 223 124 32 223 124 32 223 124 32
223 124 32 225 123 32 225 123 34 225 123 34 225 123 34 225 123 34
225 123 34 223 124 34 220 125 34 218 126 34 221 124 36 225 120 37
208 94 14 211 92 14 215 90 16 216 89 16 216 89 16 216 89 16 216 89 18
216 88 20 216 88 20 216 88 20 216 88 22 216 88 22 216 88 22 216 88 22
216 88 22 216 88 22 216 88 20 213 90 18 208 93 16 205 95 16
221 114 31 218 115 31 218 119 32 217 119 32 215 120 32 215 120 32
217 119 32 218 119 32 220 118 32 220 116 30 219 114 31 216 114 30
216 114 30 216 114 30 216 114 32 218 113 32 218 113 32 220 112 32
219 108 32 219 106 31 197 84 9 201 81 7 207 79 9 210 78 9 210 78 9
210 78 9 210 77 11 210 77 11 210 77 13 209 76 11 208 75 8 205 75 7
205 75 7 203 76 7 203 76 7 203 76 7 203 76 7 202 76 7 201 75 6
199 74 5 217 92 22 214 91 21 214 92 19 214 92 19 212 93 17 212 93 17
212 93 17 212 93 17 214 92 17 214 92 17 215 93 18 215 93 18 216 95 17
216 95 17 215 95 19 212 97 19 210 98 19 210 97 21 212 96 23 215 94 25
202 68 6 204 66 5 205 68 10 203 69 10 203 69 10 203 69 10 204 70 11
204 70 11 204 70 11 204 70 11 203 61 9 203 61 9 203 61 9 203 61 9
203 61 9 203 61 9 203 61 9 205 61 9 210 63 15 206 62 10 216 80 19
209 81 13 210 85 13 210 85 13 211 84 15 211 84 15 212 82 12 212 83 10
210 83 10 209 84 10 214 92 17 212 93 17 212 93 17 212 93 17 212 93 17
212 93 17 214 92 17 214 92 17 214 92 19 214 92 19 214 92 19 214 92 19
213 90 18 213 90 18 213 90 18 213 90 18 213 90 18 213 90 18 211 91 20
211 91 18 219 100 22 219 101 20 218 101 20 218 101 20 218 101 20
218 102 18 218 102 18 218 102 18 218 102 18 215 101 17 231 122 35
228 121 34 225 123 32 223 124 32 221 125 32 221 125 32 221 125 32
221 125 32 221 125 32 223 124 32 223 124 32 223 124 32 223 124 32
223 124 32 225 123 34 225 123 34 221 125 34 220 125 34 223 123 36
227 120 35 210 93 12 213 91 14 215 90 14 215 90 14 215 90 14
215 90 16 215 90 18 215 90 18 215 90 18 215 89 20 215 89 20 215 89 20
215 89 20 215 89 20 215 89 20 215 89 20 215 89 20 213 90 18 210 92 16
208 94 14 222 113 31 221 114 29 220 118 32 218 119 30 218 119 30
218 119 30 218 119 30 220 118 30 222 117 30 222 115 30 221 114 29
218 114 28 218 114 28 218 113 30 218 113 30 220 112 30 221 112 30
223 110 32 222 107 30 223 105 29 205 83 8 205 81 7 208 79 9 210 78 9
210 78 9 210 78 9 210 77 11 210 77 11 210 77 13 209 76 11 208 75 10
207 74 9 207 74 9 205 74 9 205 74 9 205 74 9 203 75 9 203 75 9
202 74 6 201 73 5 217 92 22 216 90 21 213 90 18 213 90 18 211 92 16
211 92 16 211 92 16 211 92 16 214 92 17 214 92 17 215 93 18 215 93 18
216 95 17 216 95 17 215 95 19 212 97 19 210 98 19 210 97 21 212 96 23
215 94 25 201 67 5 204 66 5 205 68 10 203 69 10 203 69 10 203 69 10
204 70 11 204 70 11 204 70 11 204 70 11 203 61 9 203 61 9 203 61 9
203 61 9 203 61 9 203 61 9 203 61 9 203 61 9 208 64 13 204 63 8
215 82 17 211 81 13 210 85 13 210 85 13 211 84 15 211 84 15 212 82 12
210 83 12 210 83 12 209 84 10 214 92 17 212 93 17 212 93 17 212 93 17
212 93 17 212 93 17 214 92 17 214 92 17 214 92 19 214 92 19 214 92 19
214 92 19 213 90 18 213 90 18 213 90 18 213 90 18 213 90 18 213 90 18
211 91 18 211 91 18 219 100 22 218 101 20 218 101 20 218 101 20
218 102 18 218 102 18 218 102 18 216 103 18 216 103 18 214 102 17
231 122 35 228 121 34 225 123 32 223 124 32 221 125 32 220 126 32
220 126 32 220 126 32 221 125 32 221 125 32 220 124 31 220 124 31
220 124 31 222 123 33 223 122 33 223 122 33 220 123 33 220 123 35
225 123 36 227 120 35 210 93 12 213 91 14 213 91 14 215 90 14
215 90 14 215 90 16 215 90 18 215 90 18 215 90 18 215 90 18 215 89 20
215 89 20 215 89 20 215 89 20 215 89 20 215 89 20 213 90 18 213 91 16
211 92 14 208 94 14 224 112 29 221 114 29 222 117 30 220 118 30
218 119 30 218 119 30 218 119 30 220 118 30 222 117 30 220 116 28
221 114 29 220 113 28 220 113 28 220 113 28 220 112 30 220 112 30
220 112 30 221 112 30 222 107 30 224 104 29 206 82 8 207 80 7
208 79 9 210 78 9 210 78 9 210 77 11 210 77 11 210 77 11 210 77 13
209 76 11 209 74 10 208 73 9 207 73 11 207 73 11 207 74 9 207 74 9
205 74 9 205 74 9 204 74 6 201 73 5 218 91 22 216 90 21 213 90 18
213 90 18 211 92 16 211 92 16 211 92 16 211 92 16 214 92 17 214 92 17
215 93 18 215 93 18 216 95 17 216 95 17 215 95 19 213 96 19 210 98 19
210 97 21 212 96 23 215 94 25 199 68 5 201 67 5 203 70 8 203 69 10
203 69 10 203 69 10 204 70 11 204 70 11 204 70 11 204 70 11 202 63 7
202 63 7 202 63 7 202 63 7 202 63 7 202 63 7 202 63 7 202 63 7
205 66 9 201 65 4 215 82 17 211 81 13 210 83 14 210 83 14 210 83 14
210 83 14 210 83 14 210 83 14 210 83 14 209 84 12 216 91 19 214 92 19
214 92 19 214 92 19 214 92 19 214 92 19 212 92 19 212 92 19 212 92 19
212 92 19 212 92 19 212 92 19 213 91 16 213 91 16 213 91 16 213 91 16
213 90 18 213 90 18 213 91 16 211 92 16 218 101 22 216 102 22
216 102 20 216 102 20 216 102 20 216 102 20 216 102 20 215 103 20
215 103 18 214 102 17 231 122 35 228 121 34 226 122 34 223 124 34
221 125 34 220 125 34 221 125 34 221 125 34 221 125 34 220 123 33
220 123 33 219 122 32 219 122 32 221 121 32 222 120 34 222 120 34
221 121 34 221 121 34 225 122 38 228 119 37 210 93 14 213 91 14
213 91 16 213 91 16 213 91 16 213 91 16 213 90 18 213 90 18 213 90 18
213 90 18 213 90 18 213 90 18 213 90 18 213 90 18 213 90 18 213 90 18
213 90 18 213 91 16 211 92 14 208 94 14 224 112 29 221 114 29
222 117 32 220 118 32 218 119 32 217 119 32 217 119 32 217 119 32
218 119 32 219 117 30 219 115 29 220 113 28 221 112 28 221 112 28
220 113 28 218 114 28 216 114 30 216 114 30 217 110 30 219 107 29
203 83 10 205 80 9 208 79 9 210 78 9 210 77 11 210 77 11 212 76 13
212 76 13 212 76 13 209 74 10 208 72 11 207 71 10 207 71 10 207 71 10
208 73 9 208 73 9 208 73 9 208 73 9 205 73 6 203 72 5 218 91 22
216 90 21 214 92 19 214 92 19 212 92 19 212 92 19 214 92 19 214 92 19
214 92 17 214 92 17 215 93 18 215 93 18 215 93 18 215 93 18 214 94 18
212 95 18 210 95 20 209 96 20 210 95 22 214 93 24 195 69 2 196 68 2
202 69 4 203 68 6 203 68 6 203 68 6 205 68 10 205 68 10 205 68 10
205 68 10 203 61 9 203 61 9 203 61 9 203 61 9 203 61 9 202 62 9
202 62 9 202 63 7 203 68 6 201 66 2 215 82 17 211 80 15 210 83 14
210 83 14 210 83 14 210 83 14 210 83 14 210 83 14 210 83 14 209 84 12
216 91 19 216 91 19 214 92 19 214 92 19 212 92 19 212 92 19 212 92 19
212 92 19 212 92 19 212 92 19 212 92 19 212 93 17 213 91 16 213 91 16
213 91 16 213 91 16 213 90 18 213 91 16 213 91 14 211 92 14
216 102 22 215 103 22 215 103 20 215 103 20 215 103 20 215 103 20
215 103 20 215 103 20 215 103 18 214 102 17 231 122 35 228 121 34
226 122 34 223 124 34 221 125 34 221 125 34 221 125 34 221 125 34
221 125 34 222 123 33 221 121 32 220 120 31 220 120 31 220 120 31
221 119 33 221 119 33 220 120 33 220 120 33 225 122 38 228 119 37
210 93 14 213 91 14 211 92 16 211 92 16 211 92 16 211 92 16 211 91 18
211 91 18 211 91 18 213 90 18 213 90 18 215 90 18 215 90 18 215 90 18
215 90 18 215 90 18 215 90 16 213 91 16 211 92 14 208 94 14
224 112 29 221 114 29 222 117 32 220 118 32 218 119 32 217 119 32
215 120 32 217 119 32 218 119 32 219 117 30 219 115 29 221 112 28
223 111 28 221 112 28 220 113 28 218 114 28 215 115 30 215 115 30
216 110 30 218 108 29 203 83 10 205 80 9 208 79 9 210 78 9 210 77 11
210 77 11 212 76 13 212 76 13 212 76 13 209 74 10 208 72 11 207 71 10
207 71 10 207 71 10 210 72 9 210 72 9 210 72 9 210 72 9 207 72 6
204 72 5 220 90 22 217 90 21 216 91 19 214 92 19 212 92 19 212 92 19
214 92 19 214 92 19 214 92 17 214 92 17 215 93 18 215 93 18 215 93 18
215 93 18 214 94 18 212 95 18 210 95 20 210 95 20 212 94 22 214 93 22
193 70 2 195 69 2 202 69 4 205 67 4 205 67 4 205 67 6 206 68 8
206 68 10 206 68 10 206 68 10 205 60 11 205 60 11 205 60 11 205 60 11
205 60 11 203 61 11 203 61 11 203 62 7 203 68 6 200 67 2 215 82 15
211 81 13 210 83 14 210 83 14 209 84 12 209 84 12 209 84 12 209 84 12
209 84 12 207 85 10 214 92 17 214 92 17 214 92 17 212 93 17 211 94 17
211 94 17 211 94 17 211 94 17 211 94 17 211 94 17 211 94 17 212 93 17
213 91 16 213 91 16 213 90 18 213 90 18 215 90 16 215 90 16 215 90 14
213 91 14 216 102 22 215 103 22 215 103 20 215 103 20 215 103 20
215 103 20 215 103 20 215 103 20 215 103 20 214 102 19 231 121 37
228 121 36 226 122 36 225 123 36 223 123 36 223 123 36 223 123 36
223 123 36 223 123 36 223 121 35 222 120 34 221 119 33 221 119 33
221 119 33 223 118 33 221 119 33 220 120 33 220 120 33 225 122 38
228 119 37 210 93 14 211 92 14 211 92 16 211 92 16 213 91 16
213 91 16 213 90 18 213 90 18 213 90 18 215 90 18 215 90 18 216 89 18
216 89 16 216 89 16 216 89 16 216 89 16 218 88 16 216 89 16 211 92 14
208 94 14 224 112 29 221 114 29 222 117 32 220 118 32 218 119 32
217 119 32 217 119 32 217 119 32 218 119 32 219 117 30 221 114 29
221 112 28 223 111 28 223 111 28 221 112 28 220 113 28 216 114 30
216 114 30 217 110 30 219 107 29 205 82 10 207 79 9 208 79 9 210 78 9
210 77 11 210 77 11 212 76 13 212 76 13 212 76 13 209 74 10 208 72 11
207 71 10 207 71 10 207 71 10 210 72 9 210 72 9 210 72 9 210 72 9
207 72 6 204 72 5 220 90 22 217 90 21 216 91 19 214 92 19 212 92 19
212 92 19 214 92 19 214 92 19 214 92 17 214 92 17 215 93 18 215 93 18
215 93 18 215 93 18 214 94 18 212 95 18 210 95 20 210 95 20 212 94 22
214 93 22 193 70 0 196 69 0 203 68 2 207 67 2 207 67 2 207 66 4
208 68 6 208 67 8 208 67 8 208 67 8 205 60 11 205 60 11 205 60 11
205 60 11 205 60 11 203 61 11 203 61 11 203 62 7 203 68 6 200 67 2
215 82 15 211 81 13 210 83 14 210 83 14 209 84 12 209 84 12 209 84 12
209 84 12 209 84 12 207 85 10 214 92 17 214 92 17 214 92 17 212 93 17
211 94 17 211 94 17 211 94 17 211 94 17 211 94 17 211 94 17 211 94 17
212 93 17 213 91 16 213 91 16 213 90 18 213 90 18 215 90 16 215 90 16
215 90 16 213 91 14 216 102 22 215 103 22 215 103 22 215 103 20
215 103 20 215 103 20 215 103 20 215 103 20 215 103 20 214 102 19
231 121 37 230 123 39 227 123 37 226 124 37 224 124 37 224 124 37
224 124 37 224 124 37 226 124 37 223 121 35 222 120 34 221 119 33
221 119 33 221 119 33 223 118 33 221 119 33 220 120 33 220 120 33
225 122 38 228 119 37 211 94 15 211 92 14 211 92 16 211 92 16
213 91 16 213 91 16 213 90 18 213 90 18 215 90 18 215 90 18 215 90 18
216 89 18 216 89 16 216 89 16 216 89 16 218 88 16 218 88 16 216 89 16
211 92 14 208 94 14 224 112 29 221 114 29 222 117 32 220 118 32
218 119 32 217 119 32 217 119 32 217 119 32 218 119 32 219 117 30
221 114 29 221 112 28 223 111 28 223 111 28 223 111 28 221 112 30
220 112 30 220 112 30 219 109 30 223 105 29 206 81 10 208 79 9
210 78 9 210 77 11 210 77 11 210 77 11 212 76 13 212 76 13 212 76 13
209 74 10 208 72 11 207 71 10 207 71 10 207 71 10 210 72 9 210 72 9
210 72 9 210 72 9 207 72 6 205 73 6 220 90 22 217 90 21 216 90 21
214 92 19 212 92 19 212 92 19 214 92 19 214 92 19 214 92 19 214 92 17
215 93 18 215 93 18 215 93 18 215 93 18 214 94 18 214 94 18 212 94 20
212 94 20 212 94 22 214 93 22 193 70 0 196 69 0 203 68 2 207 67 2
207 67 2 207 67 2 208 68 4 208 68 6 208 68 6 208 68 6 208 66 14
208 66 14 208 66 14 208 66 14 208 66 14 206 67 14 206 67 14 206 67 12
203 68 6 201 66 2 216 83 18 212 81 16 211 84 15 211 84 15 211 84 15
211 84 15 211 84 15 211 84 15 211 84 15 210 85 13 217 92 20 217 92 20
215 93 20 215 93 20 214 94 20 214 94 20 214 94 20 214 94 20 214 94 20
212 92 19 212 92 19 211 91 18 213 90 18 215 90 18 215 90 18 215 90 18
215 90 18 215 90 18 215 90 16 213 91 16 216 101 24 215 102 24
215 103 22 215 103 22 215 103 20 215 103 20 215 103 20 215 103 20
206 97 13 213 104 20 229 120 36 232 126 41 229 124 39 227 125 39
225 126 39 225 126 39 225 126 39 225 126 39 227 125 39 228 126 40
219 117 30 219 117 30 219 117 30 219 117 30 220 116 30 219 117 30
217 118 30 217 118 30 222 117 34 227 117 36 212 95 16 215 95 17
210 92 16 211 92 16 211 92 16 211 92 16 213 91 16 213 91 16 213 91 16
213 91 16 213 91 16 215 90 16 215 90 16 215 90 16 215 90 16 216 89 16
216 90 14 215 90 14 209 90 12 207 93 11 222 113 29 222 115 30
220 116 30 219 117 30 217 118 30 217 118 30 217 120 30 217 120 30
217 118 30 218 116 29 221 112 30 222 110 29 221 108 28 221 108 28
222 108 28 222 108 28 219 109 30 219 109 30 231 117 39 230 110 35
211 81 11 208 76 6 210 77 11 210 77 11 210 77 13 210 77 13 212 76 13
212 76 13 212 76 15 210 75 13 209 73 12 208 72 11 208 72 11 208 72 11
210 72 9 210 72 9 210 72 9 210 72 9 206 70 7 209 76 11 218 87 22
222 94 28 215 89 20 213 90 20 211 91 20 211 91 20 213 90 20 213 90 20
216 90 21 216 91 19 216 91 19 216 91 19 217 92 20 215 93 20 214 94 20
214 94 20 214 94 20 214 94 20 209 89 16 214 94 20 197 74 2 202 77 5
201 69 0 204 67 0 204 67 0 204 67 0 205 68 0 205 68 2 205 68 2
205 68 2 203 67 9 203 67 9 203 67 9 203 67 9 203 67 9 203 67 9
202 68 9 202 68 6 201 66 2 203 68 4 213 81 16 216 83 18 215 85 18
215 85 18 215 85 18 215 85 20 215 85 20 215 85 20 217 86 21 217 86 21
215 87 19 215 87 19 216 88 20 216 88 22 216 88 22 215 89 22 215 89 22
215 89 22 213 88 21 215 89 22 216 90 23 216 90 21 213 88 17 212 87 16
212 87 16 212 87 16 212 87 16 212 87 16 212 88 14 211 88 14
216 101 24 215 102 24 215 103 22 215 103 22 215 103 20 215 103 20
215 103 20 215 103 20 210 100 17 215 106 22 227 118 34 233 124 40
228 121 36 226 122 36 225 123 36 223 123 36 223 123 36 225 123 36
225 123 36 225 123 36 223 121 35 223 121 35 223 121 35 223 121 35
225 121 35 223 121 35 222 122 35 222 122 35 223 118 35 225 115 34
210 93 14 207 87 9 212 95 18 212 95 18 214 94 18 214 94 18 214 94 18
212 93 17 212 93 17 211 92 16 211 92 16 210 90 15 210 90 15 209 89 14
209 89 14 209 89 14 209 90 12 209 90 12 214 98 17 209 97 14
224 114 30 221 114 29 220 116 30 219 117 30 217 118 30 217 118 30
217 120 30 217 120 30 218 119 32 218 116 29 221 112 30 222 110 29
222 110 29 223 109 29 225 108 29 225 108 29 222 109 31 223 108 31
231 113 37 232 109 35 216 84 14 214 79 11 209 76 9 209 76 9 209 76 11
209 76 11 210 75 11 210 75 11 210 75 13 209 73 12 209 73 12 208 72 11
208 72 11 208 72 11 210 72 9 210 72 9 210 72 9 210 72 9 206 70 7
209 76 11 213 83 17 216 88 22 216 90 21 214 91 21 212 92 21 212 92 21
214 91 21 216 90 21 217 90 21 217 90 21 215 90 18 215 90 18 215 90 18
215 90 18 213 90 18 211 91 18 211 91 18 211 91 18 218 98 25 215 95 21
200 78 5 198 73 2 199 69 0 199 69 0 199 69 0 199 69 0 200 70 0
200 70 0 200 70 0 200 70 0 211 84 15 211 84 15 211 84 15 211 84 15
211 83 17 211 83 17 213 83 17 213 83 17 216 83 16 213 81 14 203 68 4
201 68 3 202 69 4 202 69 4 202 69 4 202 68 6 202 68 6 202 68 6
203 67 9 203 67 9 200 64 5 200 64 5 200 64 5 200 63 7 200 63 7
198 64 7 198 64 7 198 64 7 197 63 6 201 67 9 205 71 14 206 75 12
210 83 14 210 83 12 210 83 14 210 83 14 210 83 12 210 83 12 210 83 10
207 85 10 216 101 24 215 102 24 215 103 22 215 103 22 215 103 20
215 103 20 215 103 20 215 103 20 217 107 23 217 107 23 225 115 32
227 118 34 222 115 30 220 116 30 219 117 30 219 117 30 219 117 30
219 117 30 220 116 30 220 116 30 209 104 19 209 104 19 209 104 19
209 104 19 209 104 19 207 105 19 206 106 19 206 104 18 206 102 19
213 103 22 213 98 19 217 100 21 217 99 23 216 98 22 216 98 22
216 98 22 216 98 22 216 98 22 214 99 22 214 99 22 223 110 32
223 110 32 223 111 30 221 112 30 221 112 30 221 112 30 223 111 30
223 111 30 221 109 26 214 105 21 223 116 32 220 113 28 220 116 30
219 117 30 217 118 30 217 118 30 218 119 30 218 119 30 218 119 32
220 118 32 204 94 13 207 92 13 205 93 13 207 92 13 209 92 13
209 92 13 209 91 15 209 91 15 213 91 16 216 89 16 201 69 0 202 68 0
205 73 6 205 73 6 205 72 8 205 72 8 208 73 9 208 73 9 208 72 11
208 72 11 208 72 11 208 72 11 208 72 11 208 72 11 210 72 9 210 72 9
210 72 9 210 72 9 208 73 9 208 75 10 207 77 11 206 78 11 201 75 6
198 75 5 196 76 5 196 76 5 198 75 5 199 74 5 201 73 5 201 73 5
211 86 14 211 86 14 211 86 14 211 86 14 209 87 14 208 88 14 208 88 14
208 88 14 208 88 14 207 87 13 215 95 19 215 93 18 216 94 19 216 94 19
216 94 19 216 94 19 218 95 21 218 95 21 218 95 21 218 95 21 210 85 13
210 85 13 210 85 13 210 85 13 210 85 15 211 84 15 211 84 15 213 83 15
213 81 14 216 83 16 201 66 2 203 68 4 205 69 6 205 69 6 205 69 8
205 69 8 205 68 10 205 68 10 206 67 12 206 67 12 199 60 5 199 60 5
199 60 7 199 60 7 199 60 7 199 60 7 199 60 7 198 61 5 195 59 2
200 63 7 207 70 14 210 76 17 211 81 13 209 82 11 209 81 13 209 81 13
209 82 11 209 82 11 209 82 11 208 83 9 218 101 24 215 102 24
215 103 22 215 103 22 215 103 20 216 104 21 216 104 21 217 105 22
217 107 23 217 107 23 222 113 29 221 114 29 218 114 28 217 112 27
215 113 27 215 113 27 215 113 27 215 113 27 217 112 27 213 109 23
212 108 22 213 106 21 213 106 21 213 106 21 213 106 21 211 107 21
209 107 21 209 107 21 209 102 20 218 108 27 212 97 17 209 92 13
218 101 24 218 101 24 218 101 24 216 101 24 216 101 24 217 103 25
218 106 28 219 107 29 218 108 29 219 109 30 219 111 29 220 112 30
218 113 30 218 113 30 220 112 30 220 112 30 225 119 34 219 112 27
224 117 33 218 114 28 219 117 30 219 117 30 217 118 30 217 118 30
218 119 30 218 119 30 218 119 32 220 118 32 205 95 14 208 94 14
207 94 14 208 94 14 210 93 14 211 92 16 211 92 16 211 92 16 212 88 14
218 88 18 205 70 2 209 71 6 206 71 5 204 72 5 204 71 7 204 71 7
206 70 7 206 70 7 207 71 10 207 71 10 207 71 10 207 71 10 208 72 11
208 72 11 210 72 9 210 72 9 210 72 9 208 73 9 208 73 9 207 74 9
205 72 8 203 72 7 202 74 6 201 75 6 201 75 6 201 75 6 201 75 6
202 74 6 202 74 6 202 74 6 209 82 11 208 83 11 208 83 11 208 83 11
207 85 12 206 85 12 206 85 12 206 85 12 217 97 24 208 88 14 218 99 23
210 90 15 214 94 18 214 94 18 214 94 16 214 94 16 215 95 17 215 95 17
215 95 17 215 95 17 211 84 15 211 84 15 211 84 15 211 84 15 211 84 13
211 84 13 211 84 13 213 83 13 215 82 15 217 84 18 201 68 1 205 69 6
203 68 4 205 67 6 205 67 6 205 67 6 206 68 10 206 68 10 206 68 10
206 68 10 203 62 7 203 62 7 203 62 7 203 62 7 203 62 7 203 62 7
202 63 7 200 64 5 201 65 4 198 65 3 211 78 16 210 79 14 208 80 12
208 80 12 208 80 12 208 80 12 208 80 12 208 80 12 208 81 10 206 81 10
219 102 25 216 103 25 216 104 23 216 104 23 214 105 23 214 105 23
214 105 23 214 105 23 214 105 23 217 107 26 219 111 29 220 112 30
217 112 29 216 111 28 214 112 28 214 112 28 216 111 28 216 111 28
216 111 28 217 112 29 210 103 21 212 102 21 212 102 21 212 102 21
213 103 22 212 104 22 212 104 22 212 104 22 212 104 22 214 101 21
213 98 19 217 100 21 216 102 22 216 102 22 216 102 22 215 103 22
215 103 22 215 103 22 214 101 21 212 102 21 221 112 30 220 112 30
220 112 30 220 112 30 220 112 30 220 112 30 218 114 28 218 114 28
219 115 29 219 115 29 222 117 32 219 115 29 219 117 30 219 117 30
218 119 30 218 119 30 218 119 30 218 119 30 217 120 30 220 118 32
205 95 14 208 94 14 208 93 16 208 93 16 210 92 16 211 92 16 211 91 18
213 90 18 214 86 16 218 88 20 205 70 4 209 71 6 207 72 6 207 72 6
207 72 8 207 72 8 206 70 9 206 70 9 207 71 10 207 71 10 207 71 10
207 71 10 207 72 8 207 72 8 207 72 8 207 72 8 207 72 8 207 72 8
208 73 9 208 73 9 205 72 8 204 71 7 205 72 8 205 72 8 205 72 8
205 72 8 205 72 8 205 72 8 204 74 6 204 74 6 211 84 13 211 84 13
210 85 11 210 85 11 207 85 10 207 85 10 206 86 10 204 85 9 206 86 10
208 88 12 214 92 17 216 94 19 216 94 19 216 94 19 216 95 17 216 95 17
216 95 17 216 95 17 216 95 17 216 95 17 211 84 15 211 84 15 211 84 15
211 84 15 213 83 13 213 83 13 211 84 13 213 83 13 215 82 15 217 84 18
201 68 1 205 69 6 205 67 4 205 67 6 205 67 6 205 67 6 206 68 10
206 68 10 206 68 10 206 68 10 203 62 7 203 62 7 203 62 7 203 62 7
203 62 7 203 62 7 202 63 5 202 63 5 201 65 4 198 65 1 210 79 14
210 79 14 208 80 12 208 80 12 208 80 12 208 80 12 208 80 12 208 80 12
208 81 10 206 81 10 219 102 25 216 103 25 216 104 23 216 104 23
214 105 23 214 105 23 214 105 23 213 103 22 213 103 22 217 107 26
219 111 29 221 114 31 218 113 30 217 112 29 215 113 29 217 112 29
217 112 29 217 112 29 217 112 29 219 111 29 212 102 21 212 102 21
212 102 21 212 102 21 212 102 21 212 102 21 212 102 21 212 102 21
212 102 21 214 101 21 215 101 21 217 100 21 215 101 21 215 101 21
214 102 19 214 102 19 214 101 21 214 101 21 212 103 19 212 103 19
220 112 30 220 112 30 220 112 30 220 112 30 220 112 30 220 112 30
218 114 28 218 114 28 219 115 29 219 115 29 220 116 30 219 115 29
219 117 30 219 117 30 218 119 30 218 119 30 218 119 30 218 119 30
217 120 30 220 118 32 205 95 14 208 94 14 208 93 16 210 92 16
211 92 16 211 92 16 213 90 18 215 90 18 215 85 18 219 87 20 205 69 6
209 71 8 207 72 6 207 72 6 207 72 8 207 72 8 207 71 10 207 71 10
207 71 10 207 71 10 207 71 10 207 71 10 207 72 8 207 72 8 207 72 8
207 72 8 207 72 8 207 72 8 208 73 9 208 73 9 205 72 8 204 71 7
207 72 8 207 72 8 207 72 8 207 72 8 207 72 8 207 72 8 205 73 6
204 74 6 211 84 13 211 84 13 210 85 11 210 85 11 208 86 11 208 86 11
207 87 11 206 86 10 206 86 10 208 88 12 214 92 17 216 94 19 216 94 19
216 94 19 216 95 17 216 95 17 216 95 17 216 95 17 216 95 17 216 95 17
211 84 15 211 84 15 211 84 15 211 84 15 213 83 15 213 83 15 213 83 15
213 83 15 215 82 15 217 84 18 201 68 3 205 69 6 205 67 4 205 67 4
205 67 6 205 67 6 206 68 8 206 68 8 206 68 10 206 68 10 203 62 5
203 62 5 203 62 7 203 62 7 203 61 9 203 62 7 202 63 5 202 63 5
201 65 4 198 65 1 210 79 14 210 79 14 210 79 12 210 79 12 210 79 14
210 79 14 210 79 12 210 79 12 210 80 10 206 81 10 219 102 25
216 103 25 216 104 23 216 104 23 214 105 23 214 105 23 214 105 23
213 103 22 213 103 22 215 106 24 219 111 29 221 114 31 218 113 30
217 112 29 217 112 29 217 112 29 219 111 29 219 111 29 219 111 29
219 111 29 212 102 21 212 102 21 212 102 21 212 102 21 214 101 21
214 101 21 214 101 21 212 102 21 212 102 21 214 101 21 215 101 21
215 101 21 215 101 21 215 101 21 214 102 19 214 102 19 212 102 21
212 102 21 212 103 19 212 103 19 221 112 30 221 112 30 221 112 28
221 112 28 220 113 28 220 113 28 218 114 28 218 114 28 219 115 29
219 115 29 220 116 30 220 116 30 219 117 30 219 117 30 218 119 30
218 119 30 220 118 30 218 119 30 217 120 30 220 118 32 207 94 14
210 93 14 208 93 16 210 92 16 211 92 16 211 92 16 213 90 18 216 89 18
215 85 18 219 87 20 205 69 6 209 71 8 207 72 6 207 72 6 207 72 8
207 72 8 207 71 10 207 71 10 207 71 10 207 71 10 207 71 10 207 71 10
207 72 8 207 72 8 207 72 8 207 72 8 207 72 8 207 72 8 208 73 9
208 73 9 205 72 8 204 71 7 207 72 8 207 72 8 207 72 8 207 72 8
207 72 8 207 72 8 205 73 6 204 74 6 211 84 13 211 84 13 210 85 11
210 85 11 208 86 11 208 86 11 207 87 11 206 86 10 206 86 10 208 88 12
214 92 17 216 94 19 216 94 19 216 94 19 216 94 19 216 94 19 216 94 19
216 94 19 216 94 19 216 94 19 211 84 15 211 84 15 211 84 15 211 84 15
213 83 15 213 83 15 213 83 15 213 83 15 215 82 15 217 84 18 201 68 3
205 69 6 205 67 4 205 67 4 205 67 6 205 67 6 206 68 8 206 68 8
206 68 10 206 68 10 203 62 5 203 62 5 203 62 7 203 62 7 203 61 9
203 61 9 202 63 7 202 63 5 201 65 4 198 65 1 210 79 14 210 79 14
210 79 12 210 79 12 210 79 14 210 79 14 210 79 12 210 79 12 210 79 12
206 81 10 219 101 27 216 103 25 216 103 25 216 104 23 214 105 23
214 105 23 214 105 23 213 103 22 213 103 22 215 106 24 219 111 29
221 114 31 218 113 30 217 112 29 217 112 29 217 112 29 219 111 29
219 111 29 219 111 29 219 111 29 212 102 21 212 102 21 212 102 21
212 102 21 214 101 21 214 101 21 214 101 21 214 101 21 212 102 21
214 101 21 215 101 21 215 101 21 215 101 21 215 101 21 214 101 21
214 102 19 212 102 21 212 102 21 212 103 19 212 103 19 221 112 30
221 112 30 221 112 28 221 112 28 220 113 28 220 113 28 218 114 28
218 114 28 219 115 29 219 115 29 220 116 30 220 116 30 219 117 30
219 117 30 220 118 30 220 118 30 220 118 30 220 118 30 218 119 30
220 118 32 207 94 14 210 92 16 210 92 16 210 92 18 211 91 18
213 90 18 215 90 18 216 88 20 215 85 18 219 87 20 205 69 6 209 71 8
207 72 8 207 72 8 207 72 8 207 71 10 207 71 10 207 71 10 207 71 10
207 71 10 207 71 10 207 71 10 207 72 8 207 72 8 207 72 8 207 72 8
207 72 8 207 72 8 208 73 9 208 73 9 205 72 8 204 71 7 207 72 8
207 72 8 207 72 8 207 72 8 207 72 8 207 72 8 205 72 8 204 74 6
211 84 13 211 84 13 210 85 11 210 85 11 208 86 11 208 86 11 208 86 11
206 86 10 206 86 10 208 88 12 214 92 17 216 94 19 216 94 19 216 94 19
216 94 19 216 94 19 216 94 19 216 94 19 216 94 19 216 94 19 210 85 15
210 85 15 210 85 15 211 84 15 213 83 15 213 83 15 213 83 15 213 83 15
215 82 15 217 84 18 201 68 3 205 69 6 205 67 4 205 67 4 205 67 6
205 67 6 206 68 8 206 68 8 206 68 10 206 68 10 203 62 5 203 62 5
203 62 7 203 62 7 203 61 9 203 61 9 202 63 7 202 63 5 201 65 4
198 65 1 210 79 14 210 79 14 210 79 14 210 79 14 210 79 14 210 79 14
210 79 14 210 79 14 210 79 12 206 81 12 219 101 27 216 103 27
216 103 25 216 103 25 216 103 25 216 103 25 214 104 25 213 103 24
213 103 24 215 105 26 219 111 31 221 113 33 220 112 32 219 111 31
217 112 31 217 112 31 219 111 31 219 111 31 220 110 31 220 110 31
212 102 23 212 102 23 212 102 23 212 102 23 214 101 21 214 101 21
214 101 21 214 101 21 214 101 23 214 101 23 215 100 23 215 100 23
214 101 23 214 101 23 214 101 21 214 101 21 212 102 21 212 102 21
212 103 19 212 103 19 221 112 28 221 112 28 221 112 28 221 112 28
220 113 28 220 113 28 218 114 26 218 114 26 219 115 27 219 115 27
220 116 30 220 116 30 220 116 30 220 116 30 222 117 30 220 118 30
220 119 28 220 118 30 218 119 30 222 117 32 208 93 16 211 91 18
210 92 18 210 92 20 211 91 20 213 90 20 215 89 20 216 88 20 215 85 20
219 86 22 205 69 6 207 72 8 207 72 8 207 71 10 207 71 10 207 71 10
207 71 12 207 71 12 207 71 10 207 71 10 207 71 10 207 71 10 207 72 8
207 72 8 207 72 8 207 72 8 207 72 8 207 72 8 208 72 11 208 72 11
207 71 10 206 70 9 207 71 10 207 71 10 207 71 10 207 71 10 207 71 10
207 71 10 205 72 8 204 74 6 211 84 13 211 84 13 210 85 11 210 85 11
208 86 11 208 86 11 208 86 11 207 85 10 207 85 10 209 87 12 214 92 17
216 94 19 215 95 19 215 95 19 215 95 19 215 95 19 215 95 19 215 95 19
215 95 19 215 95 19 210 85 15 210 85 15 210 85 15 210 85 15 211 84 15
213 83 15 213 83 15 213 83 15 215 82 15 217 84 18 201 68 3 203 70 6
203 68 4 205 67 4 205 67 6 205 67 6 206 68 8 206 68 8 206 68 10
206 68 10 203 62 5 203 62 5 203 62 7 203 62 7 203 61 9 203 61 9
202 63 7 202 63 5 201 65 4 198 65 1 210 79 14 210 79 14 210 79 14
210 79 14 210 79 14 210 79 14 210 79 14 210 79 14 210 79 12 206 81 12
219 101 27 216 103 27 216 103 25 216 103 25 216 103 25 216 103 25
216 103 25 213 103 24 213 103 24 215 105 26 219 111 31 221 113 33
220 112 32 219 111 31 217 112 31 219 111 31 219 111 31 220 110 31
220 110 31 220 110 31 212 102 23 212 102 23 212 102 23 212 102 23
214 101 21 214 101 21 214 101 21 214 101 23 214 101 23 214 101 23
215 100 23 215 100 23 214 101 23 214 101 23 214 101 21 214 101 21
212 102 21 212 102 21 212 103 19 212 103 19 221 112 28 221 112 28
221 112 28 221 112 28 220 113 28 220 113 28 218 114 26 218 114 26
219 115 27 219 115 27 220 116 30 220 116 30 220 116 30 220 116 30
222 117 30 222 117 30 220 119 28 220 118 30 220 118 32 222 117 34
208 93 16 211 91 18 211 91 20 211 91 20 213 90 20 215 89 20 216 88 20
218 88 20 217 84 20 219 86 22 205 69 6 207 72 8 207 71 10 207 71 10
207 71 10 207 71 10 207 71 12 207 71 12 207 71 10 207 71 10 207 71 10
207 71 10 207 72 8 207 72 8 207 72 8 207 72 8 207 72 8 207 72 8
208 72 11 208 72 11 207 71 10 206 70 9 207 71 10 207 71 10 207 71 10
207 71 10 207 71 10 207 71 10 205 72 8 205 72 8 213 83 15 211 84 13
210 85 11 210 85 11 208 86 11 208 86 11 210 85 11 209 84 10 207 85 10
209 87 12 214 92 17 216 94 19 215 95 19 215 95 19 215 95 19 215 95 19
215 95 19 215 95 19 215 95 19 215 95 19 208 86 13 208 86 13 208 86 13
210 85 13 211 84 15 213 83 15 213 83 15 213 83 15 215 82 15 217 84 18
201 68 3 203 70 6 203 68 4 203 68 4 203 68 6 203 68 6 206 68 6
206 68 8 208 67 10 208 67 10 203 62 5 203 62 5 203 62 7 203 62 7
203 61 9 203 61 9 202 63 7 202 63 5 201 65 4 198 65 1 210 79 14
210 79 14 210 77 13 211 78 14 211 78 16 211 78 16 211 78 14 211 78 14
211 79 12 208 80 12 219 101 27 216 103 27 217 103 25 217 103 25
217 103 25 217 103 25 216 103 25 215 102 24 213 103 24 215 105 26
219 111 31 221 113 33 220 112 32 219 111 31 219 111 31 219 111 31
220 110 31 220 110 31 222 109 31 222 109 31 214 101 23 214 101 23
214 101 23 214 101 23 214 101 23 214 101 23 214 101 23 214 101 23
214 101 25 214 101 25 214 101 23 214 101 23 214 101 23 214 101 23
214 101 21 214 101 21 212 102 21 212 102 21 212 103 19 212 103 19
221 112 28 221 112 28 221 112 28 221 112 28 220 113 26 220 113 26
218 114 26 218 114 26 219 115 27 219 115 27 220 116 30 220 116 30
220 116 30 220 116 30 222 117 30 222 117 30 222 118 28 222 117 30
220 118 32 223 116 34 210 92 16 213 90 18 211 91 20 211 91 20
213 90 20 215 89 20 216 88 20 218 88 20 217 84 20 219 86 22 206 70 7
207 72 8 207 71 10 207 71 10 207 71 10 207 71 10 207 71 10 207 71 10
207 71 10 207 71 10 207 71 10 207 71 10 205 72 8 205 72 8 205 72 8
205 72 8 205 72 8 205 72 8 208 72 11 208 72 11 207 71 10 206 70 9
207 71 10 207 71 10 207 71 10 207 71 10 207 71 10 207 71 10 205 72 8
205 72 8 213 83 15 211 84 13 210 85 11 210 85 11 208 86 11 208 86 11
210 85 11 209 84 10 208 86 11 209 87 12 214 92 17 216 94 19 215 95 19
213 96 19 213 96 17 213 96 17 213 96 17 213 96 17 213 96 17 213 96 17
208 86 13 208 86 13 208 86 13 208 86 13 210 85 15 211 84 15 211 84 15
211 84 15 211 84 15 214 86 18 199 69 1 203 70 6 203 68 4 203 68 4
203 68 4 203 68 4 205 69 6 205 69 6 206 68 8 206 68 8 202 63 3
202 63 3 202 63 5 202 63 5 202 63 7 202 63 5 200 64 5 200 64 3
200 67 2 198 65 1 210 79 14 210 79 14 209 76 11 209 76 11 209 75 13
209 75 13 209 76 11 209 76 11 209 76 11 206 78 9 221 100 29
219 101 27 219 101 27 219 102 25 219 102 25 219 102 25 217 103 25
216 101 24 216 101 24 219 104 26 222 109 31 224 112 33 223 110 32
222 109 31 222 109 31 223 108 31 223 108 31 223 108 31 225 108 31
225 108 31 217 99 25 217 99 25 217 99 25 217 99 25 217 99 25
217 99 25 217 99 25 217 99 25 217 99 25 217 99 25 217 99 25 217 99 23
217 99 23 217 99 23 217 99 23 217 100 21 215 101 21 215 101 21
215 101 21 215 101 19 220 111 27 220 111 27 220 111 27 220 111 27
219 112 25 219 112 25 217 113 25 217 113 25 219 115 27 218 114 26
220 116 30 220 116 30 220 116 30 220 116 30 222 117 30 222 117 30
223 117 28 223 117 30 222 117 32 225 115 34 211 92 16 215 90 18
213 90 20 213 90 20 213 90 20 215 89 20 216 88 20 216 88 20 215 85 20
219 86 22 206 70 7 207 72 8 207 71 10 207 71 10 207 71 10 207 71 10
207 71 10 207 71 10 207 71 10 207 71 10 207 71 10 207 71 10 205 72 8
205 72 8 205 72 8 205 72 8 205 72 8 205 72 8 208 72 11 208 72 11
207 71 10 206 70 9 207 71 10 207 71 10 207 71 10 207 71 10 207 71 10
207 71 10 205 72 8 205 72 8 213 83 15 211 84 13 210 85 11 210 85 11
208 86 11 210 85 11 210 85 11 209 84 10 210 85 11 209 87 12 212 93 17
213 96 19 213 96 19 213 96 19 213 96 17 213 96 17 213 96 17 213 96 17
213 96 17 213 96 17 221 101 27 221 101 27 221 101 27 221 101 27
221 101 27 221 101 27 221 101 27 219 101 27 220 102 28 222 102 28
207 79 9 210 77 11 214 79 13 214 79 13 214 79 13 212 79 15 211 78 14
211 78 14 211 78 14 211 78 14 211 78 14 211 78 14 211 78 14 211 78 14
211 78 14 211 78 14 211 78 14 211 78 14 210 79 14 208 78 13 206 76 10
204 73 8 208 75 10 208 75 10 208 75 10 208 75 10 208 74 12 208 74 12
206 76 10 206 76 10 215 89 20 213 90 20 213 90 18 211 91 18 211 92 16
211 92 16 213 91 16 214 92 17 213 91 16 211 88 14 209 84 10 205 81 7
205 80 9 205 80 9 205 80 9 207 79 9 207 79 9 207 79 9 206 78 7
204 77 6 202 74 6 201 73 5 200 72 4 200 72 4 200 72 4 200 72 4
200 72 4 200 72 4 202 74 6 199 71 2 211 84 13 208 81 10 210 83 12
210 83 12 210 83 12 210 83 10 210 83 10 210 83 10 210 83 10 207 85 8
222 110 29 219 111 29 219 112 27 219 112 27 219 112 27 219 112 27
219 112 27 219 112 27 221 114 29 220 113 28 213 109 23 212 108 22
213 109 23 213 109 23 213 109 21 215 108 21 218 107 21 218 107 21
215 108 23 218 106 26 203 78 4 206 76 6 203 78 8 201 78 8 203 78 8
203 78 8 204 77 8 204 77 8 205 75 7 207 74 7 205 73 6 207 74 9
208 73 9 208 73 9 208 73 9 208 73 9 208 72 11 208 72 11 207 74 9
207 74 9 207 74 9 207 74 9 207 74 9 207 74 9 207 74 9 207 74 9
207 74 9 207 74 9 208 72 11 208 72 11 207 71 10 206 70 9 207 71 10
207 71 10 207 71 10 207 71 10 207 71 10 207 71 10 205 72 8 205 72 8
213 83 15 211 84 13 210 85 11 210 85 11 210 85 11 210 85 11 211 85 11
211 85 11 211 86 12 208 88 12 222 108 28 219 107 27 224 110 30
224 110 30 224 110 30 224 110 30 224 110 30 224 110 30 224 110 30
224 110 30 221 101 27 221 101 27 221 101 27 219 101 27 217 102 27
217 102 27 217 102 27 217 102 27 217 104 28 220 102 28 205 80 9
210 78 9 214 79 13 214 79 13 212 80 13 212 80 13 210 79 14 210 79 14
210 79 12 210 79 12 210 79 12 210 79 12 210 79 12 210 79 12 210 79 12
210 79 12 210 79 12 210 79 12 210 79 14 208 78 13 206 76 10 204 73 8
207 74 9 207 74 9 207 74 9 207 74 9 207 73 11 207 73 11 205 74 9
205 74 9 216 88 20 216 88 20 215 90 18 213 90 18 213 91 16 215 90 16
215 90 16 216 91 17 216 89 16 214 87 14 212 83 10 208 79 9 208 79 9
208 79 9 210 78 9 210 78 9 210 78 9 210 78 9 209 77 7 208 75 8
205 72 8 204 71 7 203 70 6 203 70 6 203 70 6 203 70 6 203 70 6
203 70 4 205 73 6 202 69 2 215 82 15 211 79 10 213 81 12 213 81 12
213 81 12 213 81 12 213 81 12 213 82 10 213 82 10 210 83 10
222 108 28 217 110 28 217 110 26 217 110 26 217 110 26 217 110 26
217 110 26 217 110 26 221 114 29 219 112 27 213 109 23 212 108 22
213 109 23 213 109 23 213 109 23 215 108 21 220 106 21 220 106 21
217 107 23 218 106 26 204 78 4 208 76 6 203 78 8 203 78 8 203 78 8
203 78 8 204 77 8 204 77 8 205 75 7 205 75 7 205 73 6 207 74 7
208 73 9 208 73 9 208 73 9 208 73 9 208 72 11 208 72 11 207 74 9
207 74 9 207 74 9 207 74 9 207 74 9 207 74 9 207 74 9 207 74 9
207 74 9 207 74 9 208 72 11 208 72 11 207 71 10 206 70 9 207 71 10
207 71 10 207 71 10 207 71 10 207 71 10 207 71 10 205 72 8 205 72 8
213 83 15 211 84 13 210 85 11 210 85 11 210 85 11 210 85 11 211 85 11
211 85 11 211 86 12 208 88 12 221 108 28 218 108 27 223 111 30
224 110 30 224 110 30 224 110 30 224 110 30 224 110 30 224 110 30
224 110 30 219 102 25 219 102 25 219 102 25 219 102 25 217 102 27
217 102 27 217 102 27 217 102 27 217 104 28 220 102 28 205 80 9
208 79 9 214 79 13 214 79 13 212 80 13 211 81 13 210 79 12 210 79 12
210 79 12 210 79 12 210 79 12 210 79 12 210 79 12 210 79 12 210 79 12
210 79 12 210 79 12 210 79 12 210 79 14 208 78 13 206 76 10 204 73 8
205 72 8 207 74 9 207 74 9 207 74 9 207 73 11 207 73 11 205 74 9
205 74 9 216 88 20 216 88 20 215 90 18 215 90 18 215 90 16 215 90 16
216 89 16 217 90 17 216 89 18 214 86 16 212 82 12 208 79 9 208 78 11
208 78 11 210 77 11 210 77 11 210 77 11 210 77 11 209 76 9 208 75 8
205 72 8 204 71 7 203 70 6 203 70 6 203 70 6 203 70 8 203 70 8
203 70 6 205 72 8 202 69 4 215 82 15 211 79 12 213 81 14 213 81 14
213 81 14 213 81 14 213 81 12 213 81 12 213 81 12 210 83 10
222 108 28 217 110 28 217 110 28 217 110 28 217 110 26 217 110 26
217 110 26 217 110 26 221 114 29 219 112 27 213 109 23 212 108 22
213 109 26 213 109 26 213 109 23 215 108 23 220 106 21 221 105 21
218 106 23 220 105 26 204 78 4 208 76 6 204 77 8 203 78 8 204 77 8
204 77 8 204 77 8 204 77 8 205 75 7 207 74 7 207 74 7 207 74 7
207 74 9 207 74 9 207 74 9 207 74 9 208 73 9 208 73 9 207 74 9
207 74 9 207 74 9 207 74 9 205 74 9 205 74 9 207 74 9 207 74 9
207 74 9 207 74 9 207 73 11 207 73 11 205 72 10 204 71 9 207 71 10
207 71 10 207 71 10 207 71 10 207 71 10 207 71 10 205 72 8 205 72 8
213 83 15 211 84 13 210 85 11 210 85 11 210 85 11 210 85 11 211 85 11
211 85 11 212 88 14 208 88 12 221 108 28 218 108 27 223 111 30
223 111 30 223 111 28 223 111 28 223 111 28 223 111 28 223 111 28
223 111 28 219 102 25 219 102 25 219 102 25 217 103 25 217 102 27
217 102 27 217 102 27 217 102 27 217 104 28 220 102 28 205 80 9
208 79 9 212 80 13 214 79 13 212 80 13 211 81 13 210 79 12 210 79 12
210 79 12 210 79 12 210 79 12 210 79 12 210 79 12 210 79 12 210 79 12
210 79 12 210 79 12 210 79 12 210 79 14 208 78 13 206 76 10 204 73 8
205 72 8 207 74 9 207 74 9 207 74 9 207 73 11 207 73 11 205 74 9
205 74 9 216 88 20 216 88 20 215 90 18 215 90 18 215 90 18 215 90 18
216 89 18 217 90 19 216 89 18 215 86 16 212 82 12 208 78 11 208 78 11
210 77 11 210 77 11 210 77 11 210 77 11 210 77 13 209 76 11 208 75 10
205 72 8 204 71 9 203 70 8 203 70 8 203 70 8 203 70 8 203 70 8
203 70 8 205 72 8 202 69 4 215 82 17 211 78 14 213 81 16 213 81 14
213 81 14 213 81 14 213 81 12 213 81 12 213 81 12 210 83 12
222 107 30 217 110 28 217 110 28 217 110 28 217 110 28 217 110 26
217 110 26 217 110 26 221 114 29 219 112 27 213 109 23 212 108 22
213 109 26 213 109 26 213 109 23 217 107 23 221 105 21 221 105 21
218 106 23 221 104 26 204 77 6 208 75 8 204 77 8 204 77 8 204 77 8
204 77 8 204 77 8 206 76 8 207 74 7 207 74 7 207 74 7 207 74 7
207 74 9 207 74 9 207 74 9 207 74 9 208 73 9 208 73 9 207 74 9
207 74 9 207 74 9 207 74 9 205 74 9 205 74 9 207 74 9 207 74 9
207 74 9 207 74 9 207 73 11 207 73 11 205 72 10 204 71 9 207 71 10
207 71 10 207 71 10 207 71 10 207 71 10 207 71 10 205 72 8 205 72 8
213 83 15 211 84 13 210 85 13 210 85 11 210 85 11 211 85 11 213 84 11
213 84 11 212 88 14 208 88 12 221 108 28 218 108 27 223 111 30
223 111 30 223 111 30 223 111 28 223 111 28 223 111 28 223 111 28
223 111 28 217 103 25 217 103 25 217 103 25 216 103 25 216 103 27
216 103 27 216 103 27 216 103 27 217 104 28 220 102 28 205 80 9
208 79 9 212 80 13 214 79 13 212 80 13 211 81 13 210 80 10 210 80 10
210 80 10 210 80 10 210 80 10 210 80 10 210 80 10 210 80 10 210 80 10
210 80 10 210 80 10 210 79 12 210 79 12 208 78 11 206 76 8 204 74 6
205 73 6 207 74 7 207 74 7 207 74 9 207 74 9 207 74 9 205 74 9
205 74 9 216 88 20 216 88 20 216 88 20 216 88 20 216 88 20 216 88 20
216 88 20 217 90 21 218 88 20 217 84 18 213 81 14 210 77 11 210 77 13
212 76 13 212 76 13 212 76 13 212 76 13 212 76 15 210 75 13 209 73 12
207 71 10 206 70 11 205 68 10 205 69 8 203 70 8 203 70 8 203 70 8
203 70 8 205 72 10 202 68 6 215 81 19 211 78 16 212 79 17 212 79 15
212 80 13 212 80 13 213 81 14 213 81 14 213 81 12 210 83 12
222 107 30 217 110 30 217 110 30 217 110 30 217 110 30 217 110 28
217 110 28 217 110 28 221 114 31 219 111 29 215 108 23 214 107 22
215 108 26 215 108 26 215 108 23 217 107 23 221 105 21 221 105 21
220 106 23 221 104 28 204 77 6 208 75 8 204 76 10 204 76 10 206 76 10
206 76 10 206 76 10 206 76 10 208 75 10 208 75 10 208 75 10 208 75 10
208 75 10 208 75 10 208 75 10 208 75 10 209 73 12 209 73 12 208 75 10
208 75 10 208 75 10 208 75 10 206 76 10 206 76 10 208 75 10 208 75 10
208 75 10 208 75 10 207 73 11 207 73 11 205 72 10 204 71 9 205 72 10
205 72 10 205 72 10 205 72 10 205 72 10 205 72 10 205 72 8 205 72 8
213 83 15 211 84 15 211 84 13 211 84 13 211 85 11 211 85 11 213 84 11
213 84 11 212 88 14 208 88 12 221 108 30 218 108 29 222 109 31
222 109 31 222 110 29 222 110 29 222 110 29 222 110 29 222 110 29
222 110 29 216 103 25 216 103 25 216 103 25 216 103 25 216 103 27
216 103 27 216 103 27 216 103 27 216 103 27 219 103 28 204 81 9
210 80 10 212 80 13 212 80 13 211 81 13 211 81 13 210 80 10 210 80 10
210 80 10 210 80 10 210 80 10 210 80 10 210 80 10 210 80 10 210 80 10
210 80 10 210 80 10 210 80 10 210 79 12 208 78 11 206 76 8 204 74 6
205 73 6 207 74 7 207 74 7 207 74 7 207 74 9 207 74 9 205 74 9
205 74 9 216 88 20 216 88 20 216 88 20 216 88 20 216 88 20 216 88 20
216 88 20 219 89 21 219 87 20 217 84 18 213 81 14 210 77 13 212 76 13
212 76 13 212 76 13 212 76 13 212 76 15 212 76 15 210 75 13 209 73 12
206 70 11 206 70 11 205 68 10 205 68 10 203 70 8 203 70 8 203 70 8
203 70 8 205 72 10 202 68 6 215 81 19 211 78 16 212 79 17 212 79 17
212 79 15 212 80 13 213 81 14 213 81 14 213 81 14 209 84 12
221 108 30 217 110 30 217 110 30 217 110 30 217 110 30 217 110 30
217 110 28 217 110 28 221 114 31 219 111 29 215 108 23 214 107 24
215 108 26 215 108 26 215 108 26 217 107 23 221 105 23 223 104 23
221 104 26 223 103 28 204 77 6 208 75 8 206 76 10 204 76 10 206 76 10
206 76 10 206 76 10 206 76 10 208 75 10 208 75 10 208 75 10 208 75 10
208 75 10 208 75 10 208 75 10 208 75 10 209 73 12 209 73 12 208 75 10
208 75 10 208 75 10 208 75 10 206 76 10 206 76 10 208 75 10 208 75 10
208 75 10 208 75 10 207 73 11 207 73 11 205 72 10 204 71 9 205 72 10
205 72 10 205 72 10 205 72 10 205 72 10 205 72 10 205 72 8 205 72 8
213 83 15 211 84 15 211 84 13 211 84 13 211 85 11 213 84 11 215 83 11
213 84 11 212 88 14 208 88 12 221 108 30 218 108 29 222 109 31
222 109 31 222 110 29 222 110 29 222 110 29 222 110 29 222 110 29
222 110 29 216 103 25 216 103 25 216 103 25 216 103 25 216 103 27
216 103 27 216 103 27 216 103 27 216 103 27 217 102 27 205 82 10
208 81 10 212 80 13 212 80 13 211 81 13 211 81 13 211 79 10 211 79 10
211 79 10 211 79 10 210 80 10 210 80 10 208 81 10 208 81 10 210 80 10
210 80 10 210 80 10 210 80 10 210 79 12 208 78 11 206 76 8 204 74 6
205 73 6 207 74 7 207 74 7 207 74 7 207 74 9 207 74 9 205 74 9
205 74 9 216 88 20 216 88 20 216 88 20 216 88 20 216 88 20 216 88 20
216 88 20 219 89 21 219 86 22 217 84 20 213 81 16 210 77 13 212 76 15
212 76 15 212 76 15 212 76 15 212 76 15 212 76 15 210 75 13 209 73 12
206 70 11 205 68 10 203 67 9 203 67 9 203 70 8 203 70 8 203 70 8
203 70 8 205 72 10 202 68 6 215 81 19 211 78 16 212 79 17 212 79 17
211 80 15 211 80 15 212 81 16 212 81 16 212 82 14 209 84 12
221 108 30 217 110 30 217 110 30 217 110 30 217 110 30 217 110 30
217 110 28 217 110 28 221 114 31 219 111 29 215 108 26 214 107 24
215 107 28 215 107 28 215 108 26 217 107 26 221 105 23 223 104 23
221 104 26 223 103 28 204 77 6 208 75 8 206 76 10 204 76 10 206 76 10
206 76 10 206 76 10 206 76 10 208 75 10 208 75 10 208 75 10 208 75 10
208 75 10 208 75 10 208 75 10 208 75 10 209 73 12 209 73 12 208 75 10
208 75 10 208 75 10 208 75 10 206 76 10 206 76 10 208 75 10 208 75 10
208 75 10 208 75 10 207 73 11 207 73 11 205 72 10 205 72 10 205 72 10
205 72 10 205 72 10 205 72 10 205 72 10 205 72 10 205 72 8 205 72 8
213 83 15 211 84 15 211 84 13 211 84 13 211 85 11 213 84 11 215 83 11
213 84 11 212 88 14 208 88 12 221 108 30 218 108 29 222 109 31
222 109 31 222 110 29 222 110 29 222 110 29 222 110 29 222 110 29
222 110 29 216 103 25 216 103 25 216 103 25 216 103 25 216 103 27
216 103 27 216 103 27 216 103 27 215 102 26 217 102 27 205 82 10
209 82 11 211 81 11 212 80 13 212 80 13 212 80 11 211 79 10 211 79 10
211 79 10 211 79 10 210 80 10 208 81 10 208 81 10 208 81 10 208 81 10
210 80 10 210 80 10 211 79 10 211 79 12 210 77 11 208 75 8 205 73 6
204 72 5 205 73 6 205 73 6 205 73 6 205 72 8 205 72 8 204 73 8
204 73 8 216 88 20 216 88 20 216 88 20 216 88 20 216 88 20 218 87 22
218 87 22 219 88 23 219 86 22 217 84 20 213 81 16 210 77 13 212 76 15
212 76 15 212 76 15 212 76 15 212 76 15 212 76 15 210 75 13 209 73 12
205 68 10 205 68 10 203 67 9 203 67 9 205 69 8 203 70 8 203 70 8
203 70 8 205 72 10 203 70 8 215 81 19 211 78 16 212 79 17 212 79 17
211 80 15 211 80 15 212 81 16 212 81 16 212 82 14 209 83 14
221 108 32 217 110 30 217 110 30 217 110 30 217 110 30 217 110 30
217 110 28 217 110 28 221 114 31 219 111 29 215 108 26 214 106 26
215 107 28 215 107 28 215 107 28 218 106 26 223 104 26 225 103 26
223 104 26 225 102 28 206 76 6 208 75 8 206 76 10 206 76 10 206 76 10
206 76 10 206 76 10 208 75 10 208 75 10 208 75 10 208 75 10 208 75 10
208 75 10 208 75 10 208 75 10 208 75 10 209 73 12 209 73 12 208 75 10
208 75 10 208 75 10 208 75 10 206 76 10 206 76 10 208 75 10 208 75 10
208 75 10 208 75 10 207 73 11 207 73 11 205 72 10 205 72 10 205 72 10
205 72 10 205 72 10 205 72 10 205 72 10 205 72 10 205 72 8 204 73 8
214 84 16 213 85 16 213 85 14 213 85 14 211 84 13 213 84 11 213 84 11
213 84 11 213 89 15 209 89 14 222 109 31 219 109 30 223 110 32
223 110 32 223 111 30 223 111 30 223 111 30 223 111 30 223 111 30
223 111 30 216 104 23 216 104 23 216 104 23 216 103 25 216 103 25
216 103 25 216 103 25 216 103 25 216 101 24 219 102 25 205 83 8
209 82 9 211 81 9 212 80 11 212 80 11 214 80 9 214 80 9 214 80 9
212 81 9 211 81 9 210 83 10 209 84 10 207 85 10 207 85 10 209 84 12
210 83 12 212 82 12 215 80 12 216 78 13 224 84 20 212 73 8 219 80 15
206 71 5 204 72 5 203 72 5 203 72 5 203 72 7 203 72 7 203 72 5
203 72 5 219 88 23 219 88 23 219 89 21 219 89 21 219 88 23 220 87 25
220 87 25 220 88 23 217 84 20 213 81 16 212 76 13 210 75 11 212 76 15
214 78 17 216 77 17 216 77 17 216 77 19 216 77 19 216 77 19 216 77 19
206 68 10 205 66 9 205 66 9 205 66 9 203 67 9 203 67 9 203 67 9
203 67 9 205 68 10 205 68 10 207 73 11 210 77 15 212 81 18 212 81 18
212 81 16 212 81 16 213 83 15 213 83 15 213 83 15 210 85 15
219 106 31 216 108 31 216 108 29 216 108 29 216 108 29 216 108 29
216 108 29 216 108 29 216 108 29 215 107 28 212 104 24 210 103 23
212 103 26 212 103 26 212 103 26 215 102 24 219 100 24 221 99 24
219 100 24 221 99 26 206 76 8 208 75 8 206 76 8 206 76 8 208 75 8
208 75 8 208 75 8 208 75 8 209 74 10 209 74 10 209 74 10 209 74 10
209 73 12 209 73 12 209 73 12 209 73 12 209 73 12 209 73 12 208 74 12
208 74 12 207 73 11 207 73 11 205 74 9 205 74 9 206 76 10 206 76 10
206 76 10 206 76 10 205 74 9 205 74 9 205 74 9 204 73 8 205 72 8
205 72 8 205 72 8 205 72 8 205 72 8 205 72 8 204 73 8 204 73 8
214 84 16 214 84 16 213 83 15 213 83 15 213 83 13 213 83 13 212 82 12
210 83 12 212 87 16 208 88 14 222 107 30 219 107 29 222 109 31
222 109 31 223 108 31 223 108 31 223 108 31 223 108 31 223 108 31
223 108 31 216 104 23 216 104 23 216 104 23 216 104 23 216 103 25
216 103 25 216 103 25 216 103 25 215 100 23 219 102 25 205 83 8
210 83 10 213 84 11 213 82 10 214 80 9 214 80 9 214 80 9 212 81 9
212 81 9 211 81 9 208 83 9 206 84 9 204 85 9 203 85 9 203 85 11
204 84 11 208 83 11 211 81 11 214 79 13 220 83 18 205 66 1 209 71 6
208 73 7 207 74 7 205 75 7 205 75 7 205 74 9 205 74 9 205 75 7
205 75 7 220 90 24 220 90 24 220 90 22 220 90 24 222 88 26 222 88 26
223 87 26 223 87 26 220 88 23 217 84 20 215 80 16 212 76 15 210 75 13
210 75 13 212 74 13 212 74 13 212 73 15 212 73 15 212 73 15 212 73 15
205 66 9 205 66 9 205 66 9 205 66 9 203 67 9 203 67 9 203 67 9
203 67 9 203 67 9 205 68 10 204 71 9 207 73 11 215 81 19 213 82 19
213 83 17 213 83 17 214 84 16 214 84 16 214 84 16 211 86 16
224 106 32 221 108 32 221 108 30 221 108 30 221 108 30 221 108 30
221 108 30 221 108 30 221 108 30 219 107 29 216 103 25 215 102 26
216 103 27 216 103 27 216 103 27 217 102 27 221 101 27 222 100 27
222 100 27 222 100 27 206 76 8 208 75 8 206 76 8 206 76 8 208 75 8
208 75 8 208 75 8 208 75 8 209 74 10 209 74 10 209 74 10 209 74 10
208 72 11 208 72 11 208 72 11 208 72 11 208 72 11 208 72 11 207 73 11
207 73 11 207 73 11 207 73 11 205 74 9 205 74 9 206 76 10 206 76 10
206 76 10 206 76 10 205 74 9 205 74 9 205 74 9 204 73 8 208 75 10
208 75 10 208 75 10 208 75 10 208 75 10 208 75 10 206 76 10 206 76 10
213 83 15 213 83 15 213 83 15 213 83 15 212 82 12 212 82 12 212 82 12
210 83 12 210 85 13 206 85 12 220 105 28 217 105 26 219 107 29
219 107 29 221 106 29 221 106 29 221 106 29 221 106 29 221 106 29
221 106 29 216 104 23 216 104 23 216 104 23 216 104 23 216 103 25
216 103 25 216 103 25 216 103 25 215 100 23 219 102 25 206 86 10
209 84 10 214 85 12 216 84 12 216 84 12 213 82 10 213 82 10 213 82 10
212 83 10 210 83 10 229 107 32 226 109 32 224 110 32 223 110 32
221 111 34 221 111 34 224 109 34 226 108 34 232 109 39 235 107 39
215 85 18 215 85 18 210 79 12 210 79 12 210 79 12 210 79 12 210 79 14
210 79 14 208 78 11 206 76 8 203 72 7 200 70 4 199 69 1 199 69 3
201 67 5 201 67 5 202 66 5 203 68 6 203 70 8 201 67 5 199 63 2
195 60 0 203 67 9 203 67 9 205 66 9 205 66 9 205 66 9 205 66 9
205 66 9 205 66 9 205 66 9 204 65 7 204 65 7 204 65 7 203 67 9
203 67 9 203 67 9 203 67 9 203 67 9 203 67 9 205 69 8 206 70 9
197 64 2 197 64 2 197 64 0 197 64 0 197 66 1 197 66 1 197 67 0
195 67 0 211 86 16 209 87 14 209 87 12 209 87 12 208 88 12 208 88 12
208 88 12 208 88 12 208 88 12 207 87 11 203 83 10 202 82 9 203 83 10
203 83 10 203 83 10 205 82 10 205 82 10 206 81 12 205 82 12 205 80 11
207 77 9 208 75 8 206 76 8 206 76 8 208 75 8 208 75 8 208 75 8
208 75 8 209 74 10 209 74 10 208 73 9 208 73 9 207 71 10 207 71 10
206 70 9 206 70 9 206 70 9 206 70 9 205 72 10 205 72 10 205 72 10
205 72 10 205 74 9 205 74 9 206 76 10 206 76 10 206 76 10 206 76 10
205 74 9 205 74 9 206 76 10 206 76 10 209 76 11 210 77 13 211 78 14
211 78 14 211 78 14 211 78 14 210 79 14 210 79 14 210 79 12 210 79 12
211 81 13 211 81 13 211 81 11 211 81 11 212 82 12 210 83 12 205 80 9
201 81 7 215 100 23 212 100 22 215 102 24 215 102 24 216 101 24
216 101 24 216 101 24 216 101 24 216 101 24 216 101 24 216 104 23
216 104 23 216 104 23 216 104 23 216 103 25 216 103 25 216 103 25
216 103 25 215 100 23 219 102 25 206 86 10 211 86 12 213 86 12
214 85 12 216 84 12 215 83 11 213 84 11 213 84 11 211 85 11 208 86 11
226 109 32 223 110 32 221 111 32 220 112 32 218 112 34 218 112 34
220 112 34 221 111 34 228 112 40 229 108 37 205 82 12 204 79 9
211 84 15 213 83 15 213 83 15 213 83 15 213 83 17 213 83 17 213 83 15
212 82 14 200 70 4 200 70 4 200 70 2 200 70 4 202 68 6 202 68 6
203 68 6 206 70 9 207 71 10 206 70 9 202 66 5 200 64 3 200 64 5
203 64 6 203 64 6 203 64 6 203 64 6 203 64 6 203 64 6 203 64 6
204 65 7 204 65 7 204 65 7 204 65 7 203 67 9 203 67 9 203 67 9
203 67 9 203 67 9 203 67 9 203 68 6 203 68 6 201 65 4 200 64 3
200 65 1 198 65 1 200 67 2 200 67 2 200 67 0 200 67 0 215 85 18
215 85 18 215 86 16 215 86 14 214 87 14 214 87 14 214 87 14 214 87 14
214 87 14 213 85 14 209 81 13 208 80 12 209 82 11 209 82 11 209 82 11
209 82 11 209 81 13 208 82 13 208 82 13 207 79 11 207 77 9 208 75 8
206 76 8 206 76 8 208 75 8 208 75 8 208 75 8 208 75 10 208 73 9
207 72 8 207 72 8 206 70 7 206 70 9 206 70 9 205 69 8 203 68 6
205 69 8 205 69 8 203 70 8 203 70 8 205 72 10 205 72 10 205 74 9
205 74 9 206 76 10 206 76 10 206 76 10 206 76 10 205 74 9 205 74 9
206 76 10 205 74 9 215 82 17 213 81 16 215 82 17 215 82 17 215 82 17
215 82 17 213 83 17 212 81 16 207 77 9 208 78 11 208 78 11 210 79 12
208 79 9 210 80 10 210 80 10 208 81 10 203 78 6 200 80 6 212 97 19
210 98 19 212 100 22 214 99 22 214 99 22 214 99 22 214 99 22
214 99 22 214 99 22 214 99 22 214 105 23 214 105 23 214 105 23
214 105 23 214 104 25 214 104 25 214 104 25 216 103 25 216 101 24
220 103 26 207 87 11 212 88 14 213 86 12 214 85 12 214 85 12
215 86 14 213 86 10 211 87 10 209 88 10 206 89 10 226 111 31
222 113 31 219 114 31 218 115 33 216 116 33 216 116 33 218 115 33
219 114 35 220 110 33 224 109 34 207 87 13 209 87 14 213 85 14
213 85 14 214 84 14 214 84 16 214 84 16 214 84 16 214 84 16 214 84 16
201 71 6 201 71 6 201 71 6 201 71 6 203 70 8 205 68 10 203 67 9
203 67 9 202 66 5 204 66 5 203 65 4 203 65 4 203 64 6 204 63 6
204 63 6 204 63 6 204 63 8 204 63 8 204 63 8 204 63 8 204 65 9
204 65 9 204 65 9 204 65 9 205 66 9 205 66 9 205 66 9 205 66 9
205 66 9 205 66 9 205 66 9 205 66 9 204 65 7 204 66 5 204 66 3
202 67 3 202 67 3 202 67 3 202 67 1 202 67 1 216 81 15 215 82 15
215 82 13 215 82 13 215 82 13 213 83 13 213 83 13 214 84 14 214 84 14
213 83 13 210 79 12 208 78 11 210 80 10 210 80 10 210 80 10 210 80 10
210 79 12 208 80 12 208 80 12 207 77 9 208 75 8 207 74 7 207 74 7
207 74 7 208 75 10 208 75 10 208 75 10 207 74 9 208 72 11 207 71 10
206 70 9 206 70 9 206 70 9 205 69 8 205 69 8 203 68 6 205 68 10
205 68 10 203 70 8 203 70 8 205 72 10 205 72 10 204 73 8 204 73 8
205 74 9 205 74 9 205 74 9 204 73 8 204 73 8 206 76 10 208 78 13
213 83 17 213 83 17 213 83 17 213 83 17 213 83 17 213 83 17 213 83 17
213 83 17 213 83 17 210 79 12 208 78 11 210 77 11 210 77 11 209 76 9
210 77 11 208 78 11 207 79 11 201 79 6 202 82 9 209 94 19 212 96 21
212 96 21 212 96 21 213 96 21 213 96 21 213 96 21 213 96 21 213 96 21
213 96 21 214 105 23 214 105 23 214 105 23 214 105 23 214 104 25
214 104 25 214 104 25 216 103 25 217 103 25 220 103 26 207 87 11
213 89 15 213 86 12 214 85 12 214 85 12 214 87 14 211 87 10 209 88 10
206 89 10 205 90 10 222 113 31 219 114 31 218 115 31 216 116 31
214 116 33 216 116 33 218 115 33 219 114 33 220 110 33 224 109 34
207 87 13 209 87 14 213 85 14 213 85 14 214 84 14 214 84 14 214 84 16
214 84 16 214 84 16 214 84 16 201 71 6 201 71 6 201 71 6 203 70 8
205 68 10 205 68 10 203 67 9 203 67 9 204 66 5 204 66 5 203 65 4
203 64 6 204 63 6 204 63 6 204 63 6 204 63 6 204 63 8 204 63 8
204 63 8 204 63 8 204 65 9 204 65 9 204 65 9 204 65 9 205 66 9
205 66 9 205 66 9 205 66 9 205 66 9 205 66 9 205 66 9 205 66 9
204 65 7 204 65 7 204 66 5 205 65 3 205 65 3 205 65 3 205 65 3
204 66 1 216 81 15 215 82 15 215 82 15 215 82 13 213 83 15 213 83 15
213 83 13 214 84 14 214 84 14 213 83 13 210 79 12 208 78 11 210 80 10
210 80 10 210 80 10 210 80 10 210 79 12 210 79 12 210 79 12 207 77 9
208 75 8 207 74 7 207 74 7 207 74 7 208 75 10 208 75 10 208 75 10
207 74 9 207 71 10 206 70 9 206 70 9 206 70 9 205 69 8 205 69 8
205 69 8 205 69 8 205 68 10 205 68 10 204 71 9 204 71 9 204 71 9
204 71 9 205 72 8 204 73 8 205 74 9 205 74 9 205 74 9 204 73 8
204 73 8 206 76 10 210 79 14 213 83 17 213 83 17 213 83 17 213 83 17
213 83 17 213 83 17 213 83 17 213 83 17 212 81 16 211 81 13 210 79 12
210 77 11 210 77 11 210 77 11 210 77 11 207 77 9 206 78 9 202 80 7
203 83 10 210 92 18 213 97 23 212 96 21 212 96 21 213 96 21 213 96 21
213 96 21 213 96 21 213 96 21 213 96 21 214 105 21 214 105 21
214 105 21 214 105 23 214 104 25 214 104 25 214 104 25 216 103 25
217 103 25 221 104 28 208 88 12 212 90 15 214 87 14 214 87 14
214 87 14 212 88 14 209 88 10 208 88 10 205 90 10 203 91 10
221 114 31 218 115 31 216 116 31 216 116 31 218 115 31 219 114 31
221 114 31 222 112 33 223 108 31 228 108 32 208 86 11 213 86 12
213 86 12 214 85 12 214 85 12 214 84 14 214 84 14 214 84 14 214 84 14
214 84 16 201 71 6 201 71 6 203 70 6 203 70 8 205 68 10 205 68 10
203 67 9 203 67 9 204 65 7 204 65 7 204 65 7 204 65 7 204 63 8
204 63 8 204 63 8 204 63 8 203 64 8 203 64 8 203 64 8 203 64 8
204 65 9 204 65 9 204 65 9 204 65 9 203 67 9 203 67 9 203 67 9
203 67 9 205 66 9 205 66 9 205 66 9 205 66 9 205 64 9 205 64 7
205 65 5 207 64 5 207 64 5 207 64 5 207 64 3 205 65 3 215 82 17
211 83 17 211 84 15 211 84 15 211 84 15 211 84 15 211 84 13 213 85 14
213 85 14 211 84 13 208 80 12 207 79 11 208 80 12 208 80 12 208 80 12
208 80 12 210 79 12 210 79 12 210 79 12 207 77 9 208 75 8 207 74 7
207 74 7 207 74 7 208 75 10 208 75 10 208 75 10 207 74 9 207 71 10
207 71 10 206 70 9 206 70 9 206 70 9 206 70 9 205 69 8 205 69 8
203 70 8 203 70 8 204 71 9 204 71 9 207 71 10 207 71 10 205 72 8
205 72 8 207 74 9 207 74 9 207 74 9 205 72 8 204 73 8 206 76 10
210 79 14 213 83 17 213 83 17 213 83 17 213 83 17 213 83 17 213 83 17
213 83 17 213 83 15 212 82 14 212 80 13 211 79 12 210 77 11 210 77 11
210 78 9 210 78 9 207 77 7 206 78 7 204 79 7 203 83 10 210 92 18
213 97 23 210 97 21 212 96 21 212 96 21 212 96 21 212 96 21 212 96 21
212 96 21 212 96 21 216 104 21 216 104 21 216 104 21 216 104 21
216 104 23 216 103 25 216 103 25 217 103 25 219 102 25 221 104 28
208 88 12 212 90 15 212 88 14 212 88 14 212 88 14 212 88 14 209 88 10
206 89 10 205 90 10 201 92 10 218 113 30 216 114 30 215 115 30
215 115 30 219 114 31 221 114 31 221 114 31 224 112 31 225 108 31
229 107 32 211 85 11 214 85 12 214 85 12 214 85 12 214 85 12
214 85 12 214 84 14 214 84 14 214 84 14 214 84 14 201 71 4 201 71 6
203 70 6 203 70 8 205 68 10 205 68 10 203 67 9 203 67 9 204 65 7
204 65 7 204 65 7 204 65 7 204 63 8 204 63 8 204 63 8 204 63 8
203 64 8 203 64 8 203 64 8 203 64 8 204 65 9 204 65 9 204 65 9
204 65 9 203 67 9 203 67 9 203 67 9 203 67 9 205 66 9 205 66 9
205 66 9 205 66 9 205 64 9 204 63 8 204 63 6 206 63 4 207 64 5
207 64 5 207 64 5 205 65 3 215 82 17 211 83 17 211 83 17 211 84 15
211 84 15 211 84 15 211 84 13 213 85 14 213 85 14 211 84 13 208 80 12
207 79 11 208 80 12 208 80 12 208 80 12 208 80 12 210 79 12 210 79 12
210 79 12 207 77 9 208 75 8 207 74 7 207 74 7 207 74 7 208 75 10
208 75 10 208 75 10 207 74 9 207 71 10 207 71 10 206 70 9 206 70 9
206 70 9 206 70 9 205 69 8 205 69 8 203 70 8 203 70 8 204 71 9
204 71 9 207 71 10 207 71 10 205 72 8 205 72 8 207 74 9 207 74 9
207 74 9 205 72 8 205 72 8 206 76 10 210 79 14 213 83 17 213 83 17
213 83 17 213 83 17 213 83 17 213 83 17 213 83 17 213 83 15 212 82 14
212 80 13 211 79 12 210 77 11 210 77 11 210 78 9 210 78 9 209 77 7
207 77 7 204 79 7 205 82 10 211 91 18 214 97 23 212 96 21 212 96 21
212 96 21 212 96 21 212 96 21 212 96 21 212 96 21 212 96 21
217 103 21 217 103 21 217 103 21 217 103 21 219 102 23 219 102 23
219 102 23 219 102 23 219 102 25 221 104 28 208 88 12 210 90 15
211 88 14 212 88 14 212 88 14 212 88 14 211 89 12 207 90 12 206 91 12
203 93 12 218 114 28 216 114 28 215 115 28 215 115 28 220 112 30
221 112 30 220 112 30 221 112 30 222 108 28 228 106 29 213 82 8
216 82 9 214 85 10 213 86 10 213 86 10 213 86 12 214 85 12 214 85 12
214 84 14 214 84 14 203 70 4 203 70 4 203 70 6 203 70 8 205 68 10
206 68 10 206 68 10 206 68 10 205 66 9 205 66 9 204 65 7 204 65 7
205 64 9 205 64 9 204 65 9 204 65 9 204 65 9 204 65 9 202 66 9
202 66 9 202 66 9 202 66 9 202 66 9 202 66 9 203 67 9 203 67 9
203 67 9 203 67 9 205 66 11 205 66 11 205 66 11 204 65 9 204 63 8
204 63 8 204 63 6 204 63 6 204 63 6 204 63 6 204 63 6 203 65 4
216 80 19 215 81 19 213 83 17 213 83 17 213 83 15 213 83 15 213 83 15
214 84 16 214 84 16 213 83 15 210 79 12 208 78 11 210 79 12 210 79 12
210 79 12 210 79 12 210 79 12 210 79 12 210 79 12 207 77 9 208 75 10
207 74 9 207 74 9 207 74 9 209 74 10 209 74 10 209 74 10 209 74 10
207 73 11 205 72 10 204 71 9 204 71 9 204 71 7 204 71 7 203 70 6
203 70 6 203 70 8 203 70 8 201 71 6 203 70 6 207 72 8 207 72 8
208 73 9 208 73 9 208 73 9 208 73 9 208 73 9 207 72 8 205 72 8
208 75 10 211 78 14 215 82 17 213 83 17 213 83 17 213 83 17 213 83 17
211 84 15 211 84 15 211 84 15 211 81 13 211 79 12 210 77 11 212 77 11
212 77 11 212 77 9 212 77 9 210 78 9 208 79 9 208 79 9 209 82 11
217 90 19 220 95 24 214 97 23 213 97 23 214 97 23 214 97 23 213 97 23
213 97 23 213 97 23 213 97 23 217 103 23 217 103 23 217 103 23
219 102 23 219 102 23 219 102 23 219 102 23 219 102 25 219 102 25
221 104 28 208 88 12 210 90 15 211 88 14 211 88 14 212 88 14
211 88 14 209 90 12 207 90 12 206 91 12 203 93 12 217 112 27
215 113 27 214 114 27 214 114 27 220 112 30 221 112 30 218 113 30
220 112 30 221 108 28 226 107 29 213 82 8 216 82 9 214 85 10
211 87 10 211 87 10 213 86 10 213 86 12 214 85 12 214 84 14 214 84 14
201 71 4 203 70 4 203 70 6 205 69 8 206 68 10 206 68 10 206 68 10
206 68 10 205 66 9 205 66 9 204 65 7 204 65 7 205 64 9 205 64 9
204 65 9 204 65 9 204 65 9 204 65 9 202 66 9 202 66 9 202 66 9
202 66 9 202 66 9 202 66 9 203 67 9 203 67 9 203 67 9 203 67 9
205 66 11 205 66 11 205 66 11 204 65 9 204 63 8 203 62 7 202 63 5
202 63 5 203 64 8 203 64 8 203 64 6 203 64 6 216 80 19 216 80 19
215 82 17 215 82 17 215 82 15 215 82 15 213 83 15 214 84 16 214 84 16
213 83 15 210 79 12 208 78 11 211 79 12 211 79 12 211 79 12 211 79 12
210 79 12 210 79 12 210 79 12 207 77 9 208 75 10 207 74 9 207 74 9
207 74 9 209 74 10 209 74 10 209 74 10 209 74 10 207 73 11 205 72 10
204 71 9 204 71 9 204 71 7 204 71 7 203 70 6 203 70 6 203 70 8
203 70 8 201 71 6 201 71 6 205 72 8 207 72 8 208 73 9 208 73 9
208 73 9 208 73 9 208 73 9 205 72 8 205 72 8 208 75 10 211 78 14
215 82 17 213 83 17 213 83 17 213 83 17 211 83 17 210 85 15 210 85 15
210 85 15 209 81 13 210 79 12 210 77 11 212 77 11 212 77 11 212 77 9
212 77 9 210 78 9 210 78 9 208 79 9 211 81 11 219 89 19 222 95 24
216 96 23 214 97 23 214 97 23 214 97 23 214 97 23 214 97 23 214 97 23
214 97 23 216 103 25 216 103 25 216 103 25 216 103 25 217 103 25
217 103 25 217 103 25 219 102 25 219 101 27 221 104 30 208 88 14
211 91 18 212 90 15 212 90 15 212 90 15 212 90 15 210 91 13 209 92 13
207 92 13 204 94 13 217 112 27 215 113 27 214 114 27 214 114 27
220 113 28 220 113 28 216 114 28 218 114 28 219 110 26 225 108 27
210 84 6 215 84 7 213 90 11 212 90 11 212 90 11 212 90 13 213 89 13
215 88 15 215 88 15 215 88 17 200 72 4 201 71 4 203 70 6 205 69 8
206 68 10 206 68 10 206 68 10 206 68 10 205 66 9 205 66 9 205 66 9
205 66 9 205 64 9 205 64 9 204 65 9 204 65 9 202 66 9 202 66 9
203 67 11 202 68 11 202 68 11 202 68 11 202 68 11 202 68 11 205 68 10
205 68 10 205 68 10 205 68 10 205 68 10 205 68 10 205 68 10 205 66 9
203 64 8 202 63 7 202 63 5 202 63 5 203 64 6 201 65 6 201 65 6
201 65 4 215 79 18 215 81 19 215 82 17 215 82 17 213 83 15 213 83 15
213 83 15 214 84 16 214 84 16 213 83 15 210 79 12 208 78 11 211 79 12
211 79 12 211 79 12 211 79 12 210 79 12 210 79 12 210 79 12 207 77 9
209 76 11 208 75 10 208 75 10 208 75 10 210 75 11 210 75 11 210 75 11
210 75 11 208 74 12 207 73 11 207 73 11 205 72 10 205 72 8 205 72 8
205 72 8 203 70 6 203 72 7 203 72 7 203 72 7 203 72 7 207 74 9
207 74 9 207 74 9 207 74 9 207 74 9 207 74 9 207 74 9 204 73 8
204 74 6 206 76 8 210 79 12 213 83 15 213 83 15 211 84 15 211 84 15
210 85 15 208 85 15 208 86 13 208 86 13 208 83 11 211 81 11 211 79 10
211 79 10 211 79 10 211 79 10 211 79 10 211 79 10 211 79 10 208 79 9
211 81 11 219 89 19 222 95 24 219 94 23 218 95 23 218 95 23 216 96 23
216 96 23 216 96 23 216 96 23 216 96 23 219 101 27 219 101 27
219 101 27 219 101 27 219 101 27 219 101 27 219 101 27 221 101 27
221 101 27 223 103 30 208 88 14 213 90 18 212 90 15 212 90 15
212 90 15 212 90 15 210 91 13 209 92 13 207 92 13 204 94 13
217 112 27 215 113 27 214 114 27 214 114 27 218 114 28 218 114 28
215 115 28 215 115 28 216 111 26 222 110 27 209 85 6 211 85 7
211 92 12 210 93 12 210 93 12 210 93 12 211 92 14 213 91 16 213 91 16
215 90 18 200 72 4 201 71 4 203 70 6 205 69 8 205 68 10 206 68 10
206 68 10 206 68 10 205 66 9 205 66 9 205 66 9 205 66 9 205 64 9
205 64 9 204 65 9 204 65 9 202 66 9 202 66 9 202 68 11 202 68 11
202 68 11 202 68 11 202 68 11 202 68 11 205 68 10 205 68 10 205 68 10
205 68 10 205 68 10 205 68 10 205 68 10 205 68 10 201 65 6 202 63 5
202 63 5 200 64 5 201 65 6 201 65 4 201 65 4 201 65 4 212 79 17
212 79 17 212 79 15 213 81 16 212 82 14 212 82 14 212 82 14 213 83 15
213 83 15 212 82 14 208 78 11 207 77 9 210 77 11 210 77 11 210 77 11
210 77 11 208 78 11 208 78 11 208 78 11 209 76 9 209 76 11 208 75 10
208 75 10 208 75 10 210 75 11 210 75 11 210 75 11 210 75 11 208 74 12
207 73 11 207 73 11 205 72 10 205 72 8 205 72 8 205 72 8 203 70 6
203 72 7 203 72 7 203 72 7 203 72 7 205 74 9 207 74 9 207 74 9
205 74 9 205 74 9 205 74 9 205 74 9 204 74 6 204 74 6 206 76 8
210 79 12 211 84 15 211 84 15 210 85 15 210 85 15 208 86 13 207 87 13
207 87 13 207 87 13 206 83 11 209 82 11 210 80 10 210 80 10 211 79 10
211 79 10 211 79 10 211 79 10 211 79 10 208 79 9 211 81 11 219 89 19
222 95 24 221 93 23 219 94 23 219 94 23 219 94 23 218 95 23 218 95 23
218 95 23 218 95 23 205 75 7 205 75 7 205 75 7 203 76 7 203 76 7
203 76 7 203 76 7 202 76 7 203 78 8 202 76 7 218 93 21 214 92 19
213 91 16 213 91 16 211 92 16 211 92 16 210 90 15 209 91 15 207 92 13
204 94 13 230 125 40 228 126 40 227 127 38 227 127 38 229 127 41
228 128 41 224 130 41 224 130 41 225 126 39 231 124 40 218 99 19
221 100 20 210 96 14 209 97 14 209 97 14 209 97 14 208 96 15
209 94 17 209 94 19 212 92 19 200 72 4 203 70 4 205 69 6 205 69 8
205 68 10 205 68 10 205 68 10 205 68 10 206 68 10 206 68 10 206 68 10
206 68 10 207 66 9 207 66 9 205 66 9 205 66 9 203 67 9 203 67 9
202 68 9 202 68 9 203 69 10 203 69 10 203 69 10 203 69 10 205 68 10
205 68 10 206 70 11 206 70 11 206 70 11 206 70 11 206 70 11 206 70 11
208 72 13 208 72 11 208 72 11 207 73 11 207 73 11 208 75 10 208 75 10
209 76 11 211 78 14 210 79 14 210 79 14 211 80 15 211 81 13 211 81 13
211 81 13 212 82 14 212 82 14 211 81 13 207 77 9 206 76 8 209 76 9
209 76 9 209 76 9 209 76 9 209 76 9 209 76 9 210 77 11 209 76 9
210 75 11 210 75 11 210 75 11 210 75 11 210 75 13 210 75 13 210 75 13
210 75 13 208 74 12 208 74 12 208 74 12 208 74 12 207 74 9 205 72 8
205 72 8 207 74 9 203 72 5 203 72 5 203 72 5 203 72 5 218 88 20
218 88 20 218 88 20 216 88 20 216 88 20 216 88 20 216 88 20 215 88 17
215 88 17 217 90 19 221 93 23 223 98 26 223 98 26 221 99 26 221 99 26
219 100 24 218 101 24 218 101 24 218 101 24 219 100 24 208 83 9
209 82 9 211 81 9 211 81 9 211 79 10 211 79 10 211 79 12 211 79 12
211 79 12 211 79 12 211 79 12 210 79 12 208 79 9 207 79 9 207 79 9
207 79 9 207 79 9 207 79 9 207 79 9 207 79 9 207 73 11 207 73 11
207 73 11 207 73 11 207 73 11 205 74 9 205 74 9 203 76 7 204 77 8
203 76 7 218 93 21 216 91 19 213 91 16 213 91 16 211 92 16 211 92 16
210 90 15 209 91 15 207 92 13 204 94 13 230 125 40 227 127 40
225 128 38 225 128 38 226 129 41 224 130 41 221 131 41 221 131 41
222 127 39 230 125 40 217 100 19 219 101 20 210 98 15 208 99 15
208 99 15 208 99 17 207 97 18 207 97 18 207 97 20 210 95 20 200 72 4
205 70 4 205 69 6 205 69 8 205 68 10 205 68 10 205 68 10 205 68 10
206 68 10 206 68 10 206 68 10 206 68 10 207 66 9 207 66 9 205 66 9
205 66 9 203 67 9 203 67 9 202 68 9 202 68 9 203 69 10 203 69 10
204 70 11 204 70 11 205 68 10 205 68 10 206 70 11 206 70 11 206 70 11
206 70 11 207 71 12 207 71 12 207 73 11 207 73 11 207 73 11 207 74 9
207 74 9 208 75 10 208 75 10 207 77 11 208 78 13 208 78 13 208 78 13
210 79 14 210 79 12 210 79 12 210 79 12 211 81 13 211 81 13 210 79 12
206 76 8 205 75 7 208 75 8 208 75 8 208 75 8 208 75 8 208 75 8
208 75 8 209 76 9 209 76 9 210 75 11 210 75 11 212 76 13 212 76 13
210 75 13 210 75 13 210 75 13 210 75 13 208 74 12 208 74 12 208 74 12
208 74 12 207 74 9 205 72 8 205 72 8 207 74 9 203 72 5 203 72 5
203 72 5 203 72 5 216 88 20 216 88 20 216 88 20 216 88 20 215 89 20
215 89 20 215 90 18 213 88 17 213 88 17 216 91 19 219 95 21 223 98 24
221 99 24 221 99 24 219 100 24 218 101 24 216 101 24 216 101 24
218 101 24 219 100 24 206 84 9 208 83 9 209 82 9 211 81 9 211 79 10
211 79 10 211 79 12 211 79 12 211 79 12 211 79 12 211 79 12 211 79 12
208 79 9 208 79 9 208 79 9 208 79 9 208 79 9 208 79 9 208 79 9
208 79 9 205 74 13 205 74 13 205 74 13 205 74 13 205 74 13 203 75 11
203 75 9 202 76 9 203 78 8 202 76 7 218 93 21 215 93 20 214 92 17
214 92 17 212 93 17 212 93 17 210 92 16 208 93 16 207 94 14 205 95 14
228 126 40 225 128 40 225 128 38 223 129 38 224 130 41 223 130 41
220 132 41 220 132 41 221 128 39 227 127 40 214 102 19 218 101 20
212 101 18 211 101 18 211 101 18 211 101 20 208 100 21 208 100 21
208 100 23 211 98 23 200 72 4 203 70 4 205 69 6 205 69 8 205 68 10
205 68 10 205 68 10 205 68 10 206 68 10 206 68 10 206 68 10 206 68 10
207 66 9 207 66 9 205 66 9 205 66 9 203 67 9 203 67 9 205 68 10
205 68 10 206 70 11 206 70 11 207 71 12 207 71 12 206 70 11 206 70 11
207 71 12 207 71 12 207 71 12 207 71 12 207 73 13 207 73 13 207 73 11
205 74 9 205 74 9 205 75 7 205 75 7 206 76 8 206 76 8 206 76 8
207 77 9 208 78 11 208 78 11 210 79 12 210 79 12 210 79 12 210 79 12
211 81 13 211 81 13 210 79 12 206 76 8 205 75 7 208 75 8 208 75 8
208 75 8 208 75 8 208 75 8 208 75 8 208 75 8 208 75 8 212 76 13
212 76 13 213 77 14 213 77 14 212 76 15 212 76 15 212 76 15 212 76 15
209 75 13 209 75 13 208 74 12 208 74 12 208 75 10 208 75 10 207 74 9
207 74 9 204 74 6 204 74 6 202 74 6 202 74 6 216 88 20 216 88 20
216 88 20 216 88 20 215 90 18 215 90 18 215 90 18 215 90 16 212 90 15
214 92 17 218 95 21 221 99 22 221 99 22 219 100 22 219 100 22
218 101 22 216 101 24 216 101 24 216 101 24 218 101 24 207 85 10
209 84 10 210 83 10 212 83 10 212 80 11 212 80 11 212 80 13 212 80 13
211 79 12 211 79 12 211 79 12 211 79 12 210 78 9 210 78 9 210 78 9
210 78 9 210 78 9 210 78 9 210 78 9 210 78 9 205 74 13 205 74 13
205 74 13 205 74 13 205 74 13 203 75 11 203 75 9 203 75 9 204 77 8
202 76 7 218 93 21 215 93 20 214 92 17 214 92 17 212 93 17 211 94 17
208 93 16 207 94 16 207 94 14 203 96 14 227 127 40 223 128 40
223 129 38 223 129 38 224 130 41 223 130 41 220 132 41 220 132 41
221 128 39 227 127 40 214 102 19 216 102 20 212 101 18 212 101 18
212 101 18 211 101 20 210 100 21 210 100 21 210 99 23 213 97 23
200 72 4 203 70 6 205 69 6 205 69 8 205 68 10 205 68 10 205 68 10
205 68 10 206 68 10 206 68 10 206 68 10 206 68 10 207 66 9 207 66 9
205 66 9 205 66 9 203 67 9 203 67 9 205 68 10 205 68 10 206 70 11
206 70 11 207 71 12 207 71 12 206 70 11 206 70 11 207 71 12 207 71 12
207 71 12 207 71 12 207 73 13 207 73 13 205 74 11 205 74 9 203 76 7
203 76 7 203 76 7 204 77 8 204 77 8 204 77 8 207 77 9 208 78 11
208 78 11 210 79 12 210 79 12 210 79 12 210 79 12 211 81 13 211 81 13
210 79 12 206 76 8 205 75 7 208 75 8 208 75 8 208 75 8 208 75 8
208 75 8 208 75 8 208 75 8 208 75 8 212 76 13 212 76 13 213 77 14
213 77 14 212 76 15 212 76 15 212 76 15 212 76 15 209 75 13 209 75 13
208 74 12 208 75 10 208 75 10 208 75 10 207 74 9 207 74 9 204 74 6
204 74 6 202 74 6 202 74 6 216 88 20 216 88 20 216 88 20 216 88 20
215 90 18 215 90 18 215 90 16 215 90 16 212 90 15 214 92 17 218 96 19
221 99 22 219 101 20 219 101 20 218 101 20 216 102 20 215 103 22
215 102 24 216 101 24 218 101 24 206 86 10 209 84 10 210 83 10
212 82 12 212 80 11 212 80 11 212 80 13 212 80 13 211 79 12 211 79 12
211 79 12 211 79 12 210 78 9 210 78 9 210 78 9 210 78 9 210 78 9
210 78 9 210 78 9 210 78 9 207 73 11 207 73 11 207 73 11 207 73 11
207 73 11 205 74 9 205 74 9 205 75 7 206 76 8 203 76 7 218 93 21
215 93 20 214 92 19 212 92 19 212 92 19 211 93 19 208 95 17 208 95 17
208 96 15 205 97 15 226 129 41 223 131 39 224 130 39 224 130 39
223 131 39 223 131 39 221 131 41 223 130 41 224 126 41 230 125 42
214 101 21 216 102 22 215 101 21 215 101 21 215 101 21 215 101 21
216 98 22 216 98 22 217 97 24 219 96 24 203 72 5 204 71 7 204 71 9
204 71 9 206 70 11 206 70 11 206 70 11 206 70 11 207 69 9 207 69 9
207 69 9 207 69 9 206 68 10 206 68 10 206 68 10 206 68 10 206 68 10
206 68 10 205 68 10 205 68 10 206 70 11 206 70 11 206 70 11 206 70 11
206 70 11 206 70 11 206 70 11 206 70 11 205 72 12 205 72 12 205 72 12
205 72 12 205 74 11 205 74 9 203 76 7 203 76 7 203 76 7 203 76 7
203 76 7 206 78 9 208 78 11 210 79 12 210 79 12 210 79 12 210 79 12
210 79 12 210 79 12 210 79 12 211 81 13 208 78 11 205 75 7 204 74 6
205 74 9 205 74 9 205 74 9 205 74 9 207 74 9 207 74 9 208 75 10
208 75 10 210 77 13 210 77 13 210 77 13 210 77 13 210 77 13 210 77 13
210 77 13 210 77 13 209 76 11 207 77 11 207 77 11 206 76 10 205 74 9
205 74 9 205 74 9 205 74 9 205 75 7 205 75 7 203 76 7 203 76 7
219 89 21 217 90 21 217 90 19 216 91 19 217 90 19 217 90 17 216 91 17
215 90 16 213 91 16 215 93 18 217 97 22 221 101 23 221 102 21
221 102 21 219 103 21 217 103 21 216 104 23 216 103 25 216 103 25
217 102 27 207 87 13 210 85 13 211 84 13 213 83 15 213 81 14
213 81 14 213 81 14 213 81 14 212 80 13 212 80 13 211 81 13 211 81 13
211 79 12 211 79 12 210 80 10 210 80 10 210 80 10 210 80 10 210 80 10
210 80 10 207 74 9 207 74 9 207 74 9 207 74 9 207 74 9 207 74 9
207 74 7 207 74 7 206 76 8 205 75 7 220 92 21 217 92 20 214 92 19
212 92 19 212 92 19 211 93 19 208 95 17 208 95 17 208 96 15 205 97 15
224 130 41 223 131 39 224 130 39 224 130 39 223 131 39 221 132 39
221 131 41 223 130 41 224 126 41 230 125 42 212 102 21 216 102 22
215 101 21 217 100 21 217 100 21 217 100 21 217 97 22 219 97 22
220 95 24 222 94 26 203 72 7 204 71 7 204 71 9 204 71 9 206 70 11
206 70 11 206 70 11 206 70 11 207 69 9 207 69 9 207 69 9 207 69 9
206 68 10 206 68 10 206 68 10 206 68 10 206 68 10 206 68 10 205 68 10
205 68 10 206 70 11 206 70 11 206 70 11 206 70 11 206 70 11 206 70 11
206 70 11 206 70 11 207 71 12 207 71 12 207 71 12 205 72 10 205 74 9
205 74 9 203 76 7 203 76 7 203 76 7 203 76 7 203 76 7 206 78 9
208 78 11 210 79 12 210 79 12 210 79 12 210 79 12 210 79 12 210 79 12
210 79 12 211 81 13 208 78 11 205 75 7 204 74 6 205 74 9 205 74 9
205 74 9 205 74 9 207 74 9 207 74 9 208 75 10 208 75 10 210 77 13
210 77 13 210 77 13 210 77 13 210 77 13 210 77 13 210 77 13 210 77 13
207 77 9 207 77 9 207 77 9 206 76 8 205 74 9 205 74 9 205 74 9
205 74 9 205 75 7 205 75 7 203 76 7 203 76 7 219 89 21 217 90 21
216 91 19 216 91 19 217 90 17 217 90 17 216 91 17 215 90 16 213 91 16
215 93 18 217 97 22 221 101 25 221 101 23 221 102 21 219 103 21
217 103 21 216 104 23 214 104 25 216 103 27 217 102 27 207 87 13
210 85 13 211 84 15 213 83 15 213 81 14 213 81 14 213 81 14 213 81 14
212 80 13 212 80 13 211 81 13 211 81 13 211 79 12 211 79 12 210 80 10
210 80 10 210 80 10 210 80 10 210 80 10 210 80 10 207 74 9 207 74 9
207 74 9 207 74 9 207 74 9 207 74 9 207 74 7 207 74 7 206 76 8
205 75 7 220 92 21 217 92 20 214 92 19 212 92 19 212 92 19 211 93 19
209 94 17 208 95 17 209 95 15 206 96 15 226 129 41 223 131 39
224 130 39 224 130 39 221 132 39 220 132 39 220 132 41 221 131 41
222 127 41 227 126 42 210 103 21 215 103 22 217 100 21 218 99 21
218 99 21 218 99 21 219 97 22 219 97 22 220 95 24 222 94 26 203 72 7
203 72 7 204 71 9 204 71 9 206 70 11 206 70 11 206 70 11 206 70 11
207 69 9 207 69 9 207 69 9 207 69 9 205 68 10 205 68 10 205 68 10
205 68 10 205 68 10 205 68 10 205 68 10 205 68 10 206 70 11 206 70 11
206 70 11 206 70 11 207 69 9 207 69 9 207 69 9 207 69 9 209 70 10
209 70 10 209 70 10 207 71 10 207 74 9 205 74 9 205 74 9 205 74 9
205 75 7 206 76 8 206 76 8 207 77 9 207 77 9 208 78 11 208 78 11
211 81 13 211 81 13 211 81 13 211 81 13 211 81 13 212 82 14 210 79 12
206 76 8 205 75 7 206 76 10 206 76 10 206 76 10 206 76 10 207 74 9
207 74 9 207 74 9 207 74 9 210 77 13 210 77 13 210 77 13 210 77 13
210 77 13 210 77 13 210 77 13 210 77 13 207 77 9 207 77 9 206 76 8
205 75 7 205 74 9 205 74 9 205 74 9 205 74 9 203 76 7 203 76 7
203 76 7 203 76 7 217 90 21 217 90 21 216 91 19 216 91 19 216 91 17
216 91 17 216 91 17 213 91 16 213 91 16 215 93 18 217 97 22
221 101 25 221 101 23 221 101 23 219 102 23 217 103 23 216 104 23
214 104 25 216 103 27 217 102 27 207 87 13 210 85 13 211 84 15
213 83 15 213 81 14 213 81 14 213 81 14 213 81 14 212 80 13 212 80 13
211 81 13 211 81 13 210 79 12 210 79 12 210 80 10 208 81 10 208 81 10
208 81 10 208 81 10 208 81 10 207 74 9 207 74 9 207 74 9 207 74 9
207 74 9 207 74 9 207 74 7 207 74 7 206 76 8 205 75 7 220 92 21
217 92 20 214 92 19 212 92 19 212 92 19 211 93 19 209 94 17 209 94 17
211 94 17 208 96 15 228 128 41 224 130 39 226 129 39 226 129 39
221 132 39 220 132 39 220 132 41 221 131 41 222 127 41 227 126 42
210 103 21 215 103 22 217 100 21 218 99 21 218 99 21 220 98 21
219 97 22 220 95 24 220 95 24 222 94 26 203 72 7 203 72 7 204 71 9
204 71 9 206 70 11 206 70 11 206 70 11 206 70 11 207 69 9 207 69 9
207 69 9 207 69 9 205 68 10 205 68 10 205 68 10 205 68 10 205 68 10
205 68 10 205 68 10 205 68 10 206 70 11 206 70 11 206 70 11 206 70 9
206 70 9 207 69 9 207 69 9 207 69 9 209 70 10 209 70 10 209 70 10
207 72 8 205 72 8 204 73 8 205 74 9 205 74 9 205 75 7 206 76 8
206 76 8 207 77 9 207 77 9 208 78 11 208 78 11 211 81 13 211 81 13
211 81 13 211 81 13 211 81 13 212 82 14 210 79 12 206 76 8 205 75 7
206 76 10 206 76 10 206 76 10 206 76 10 207 74 9 207 74 9 207 74 9
207 74 9 210 77 13 210 77 13 210 77 13 210 77 13 210 77 13 210 77 13
210 77 13 210 77 13 207 77 9 207 77 9 206 76 8 205 75 7 205 74 9
205 74 9 205 74 9 205 74 9 203 76 7 203 76 7 203 76 7 203 76 7
216 90 21 216 90 21 216 91 19 214 92 19 214 92 17 214 92 17 214 92 17
213 91 16 213 91 16 214 94 18 217 97 22 219 100 24 221 101 23
219 102 23 217 103 23 217 103 23 216 104 23 216 103 25 216 103 27
217 102 27 208 88 14 211 86 14 211 84 15 213 83 15 215 82 15
215 82 15 213 81 14 215 82 15 212 80 13 212 80 13 211 81 13 210 79 12
210 79 12 210 79 12 208 81 10 208 81 10 208 81 10 208 81 10 208 81 10
208 81 10 207 74 9 207 74 9 207 74 9 207 74 9 207 74 9 207 74 9
207 74 7 207 74 7 207 77 9 204 74 6 216 89 18 211 86 14 214 92 19
212 92 19 211 93 19 211 93 19 211 93 19 212 92 19 214 92 17 211 94 15
232 130 43 228 131 43 232 130 41 230 131 41 227 132 43 224 134 43
224 134 43 225 133 43 227 130 44 230 125 42 207 98 16 208 94 14
218 99 21 220 98 21 220 98 21 220 98 21 220 96 22 220 95 24 222 94 26
222 94 26 203 72 7 203 72 7 204 71 9 204 71 9 206 70 11 206 70 11
206 70 11 206 70 11 207 69 9 206 68 8 203 68 6 203 68 6 205 69 8
205 69 8 203 70 8 203 70 8 203 70 8 203 70 8 203 70 8 203 70 8
204 71 9 204 71 9 204 71 9 204 71 7 204 71 7 206 70 7 206 70 7
206 70 7 203 68 4 206 70 7 210 75 11 211 78 14 204 73 8 204 73 8
204 73 8 204 73 8 205 75 7 205 75 7 205 75 7 205 75 7 212 82 14
212 82 14 212 82 14 211 81 13 211 81 13 211 81 13 211 81 13 211 81 13
212 82 14 210 79 12 206 76 8 205 75 7 206 76 10 206 76 10 206 76 10
206 76 10 208 75 10 208 75 10 208 75 10 208 75 10 209 76 11 209 76 11
209 76 11 209 76 11 210 77 13 210 77 13 210 77 13 210 77 13 207 77 9
206 76 8 205 75 7 203 72 5 203 72 5 203 72 5 203 72 5 203 72 5
201 73 5 201 74 3 199 74 3 199 74 3 214 92 19 214 92 19 212 92 19
212 92 19 212 93 17 212 93 17 214 94 18 214 94 18 215 95 19 213 96 19
214 97 21 217 99 23 218 101 22 218 101 22 217 103 23 217 103 23
216 103 25 215 102 24 216 101 26 217 99 25 211 88 16 212 87 16
214 86 18 215 85 18 217 84 18 217 84 18 217 84 20 215 82 17 213 81 16
211 78 14 210 79 14 210 79 14 210 79 12 210 79 12 208 81 10 208 81 10
208 81 10 208 81 10 208 81 10 208 81 10 207 74 9 207 74 9 207 74 9
207 74 9 207 74 9 207 74 9 207 74 7 207 74 7 207 77 9 204 74 6
216 89 18 211 86 14 213 90 18 211 91 18 210 92 18 210 92 18 211 91 18
213 90 18 215 90 16 211 92 16 232 127 44 229 129 42 232 128 40
232 128 40 229 129 42 227 130 42 227 130 42 229 129 42 230 125 42
233 123 42 216 99 20 217 98 20 222 100 23 222 100 23 222 100 23
222 100 25 223 98 26 223 98 26 224 97 28 224 97 28 203 72 7 203 72 7
204 71 9 204 71 9 206 70 11 206 70 11 206 70 11 206 70 11 206 68 8
207 69 9 208 72 11 208 72 11 206 70 9 205 69 8 203 70 8 203 70 8
201 70 8 201 70 8 201 70 8 200 71 8 201 73 7 201 73 7 201 73 7
201 73 7 203 72 7 203 72 7 203 72 7 201 71 6 201 71 4 201 71 4
204 74 6 205 75 7 206 76 10 206 76 10 206 76 10 206 76 10 207 77 9
208 78 11 208 78 11 210 79 12 210 79 12 211 81 13 211 81 13 211 81 13
211 81 13 211 81 13 211 81 13 211 81 13 212 82 14 210 79 12 206 76 8
205 75 7 206 76 10 206 76 10 206 76 10 206 76 10 208 75 10 208 75 10
208 75 10 208 75 10 209 76 11 209 76 11 209 76 11 209 76 11 210 77 13
210 77 13 210 77 13 209 76 11 207 77 9 206 76 8 206 76 8 207 77 9
207 77 9 207 77 9 207 77 9 207 77 9 206 78 7 206 78 7 204 79 7
202 80 7 210 90 17 209 91 17 209 91 17 209 91 17 209 91 15 209 91 15
209 91 15 210 92 16 212 95 18 214 97 21 214 97 21 214 97 21 216 99 20
217 100 21 216 102 22 216 102 22 215 102 24 214 101 23 214 99 24
216 98 24 207 85 12 210 83 12 212 82 14 212 82 14 212 80 13 212 80 13
212 79 15 211 78 14 210 77 13 210 77 13 211 80 15 212 81 16 212 82 14
212 82 14 210 83 12 210 83 12 210 83 12 210 83 12 210 83 12 210 83 12
207 74 9 207 74 9 207 74 9 207 74 9 207 74 9 207 74 9 207 74 7
207 74 7 207 77 9 205 75 7 216 89 18 211 86 14 211 88 16 209 89 16
207 90 16 209 89 16 211 88 16 212 87 16 212 88 14 209 89 14
215 108 26 212 110 23 215 108 21 215 108 21 215 108 23 213 109 23
213 109 23 215 108 23 216 104 23 223 104 26 208 83 7 211 85 9
210 86 9 208 87 9 208 87 9 208 86 11 209 84 12 209 84 12 210 83 14
210 83 14 203 72 7 203 72 7 204 71 9 204 71 9 206 70 11 206 70 11
206 70 11 206 70 11 205 67 6 208 72 11 212 79 17 216 82 20 221 85 24
221 85 24 219 86 24 218 87 24 216 88 22 216 88 22 216 88 22 215 89 22
216 90 23 216 90 21 216 90 21 216 90 21 216 90 21 216 90 21 216 90 21
216 90 21 213 90 20 212 89 19 211 88 18 211 86 16 207 79 11 208 78 11
210 79 12 210 79 12 210 79 12 210 79 12 211 81 13 211 81 13 212 82 14
212 82 14 212 82 14 212 82 14 212 82 14 212 82 14 212 82 14 212 82 14
213 83 15 211 81 13 207 77 9 206 76 8 207 77 11 207 77 11 207 77 11
207 77 11 208 75 10 208 75 10 208 75 10 208 75 10 209 76 11 209 76 11
209 76 11 209 76 11 210 77 13 210 77 13 210 77 13 210 77 13 206 76 8
208 78 11 212 82 14 214 84 16 214 84 16 214 84 16 214 84 16 214 84 16
213 85 14 211 86 14 211 86 14 209 87 14 226 109 32 224 110 32
224 110 32 224 110 32 224 110 32 224 110 32 224 110 32 223 108 31
220 105 26 215 101 21 212 97 17 213 98 19 214 97 19 214 97 19
214 99 20 215 101 21 212 100 22 212 100 22 213 97 23 214 97 23
201 79 6 204 77 6 206 76 8 206 76 8 207 74 7 207 74 7 205 75 7
205 75 7 203 72 5 207 77 9 213 83 15 217 86 19 217 86 19 217 86 19
215 88 17 215 88 17 215 88 17 215 88 17 215 88 17 215 88 17 207 74 9
207 74 9 207 74 9 207 74 9 207 74 9 207 74 9 207 74 7 207 74 7
207 77 9 205 75 7 216 89 18 211 86 14 208 86 13 208 86 13 207 87 13
208 86 13 210 85 13 211 84 13 211 85 11 208 86 11 215 106 24
214 107 22 215 106 22 215 106 20 215 106 22 215 106 22 215 106 22
217 105 22 217 100 21 225 103 26 211 85 9 216 90 14 212 88 12
211 89 12 211 89 12 212 88 14 211 86 14 213 85 14 213 85 16 214 84 16
201 71 6 203 70 6 203 70 8 205 69 8 205 68 10 205 68 10 206 70 11
207 69 11 205 67 6 208 72 11 216 82 20 221 90 27 217 86 23 217 86 23
217 86 23 215 86 23 213 88 21 213 88 21 213 88 21 212 88 21 213 90 20
213 90 20 213 90 20 213 90 20 213 90 20 213 90 20 213 90 20 213 90 18
211 91 18 209 89 16 204 84 11 204 81 11 209 81 13 211 81 13 211 81 13
211 81 13 212 82 14 212 82 14 212 82 14 212 82 14 212 82 14 212 82 14
212 82 14 212 82 14 212 82 14 212 82 14 212 82 14 212 82 14 213 83 15
211 81 13 207 77 9 206 76 8 207 77 11 207 77 11 207 77 11 207 77 11
208 75 10 208 75 10 208 75 10 208 75 10 209 76 11 209 76 11 209 76 11
209 76 11 209 76 11 209 76 11 209 76 11 209 76 11 205 75 7 207 77 9
214 84 16 219 89 21 219 89 21 219 89 21 219 89 21 219 89 21 217 90 19
216 91 19 216 91 19 214 92 19 223 105 29 221 106 29 221 106 29
221 106 29 221 106 29 221 106 29 221 106 29 223 108 31 224 110 30
223 109 29 220 105 26 215 101 21 214 97 19 214 97 19 213 98 19
213 98 19 211 99 21 211 99 21 213 97 23 214 97 23 199 76 4 202 75 4
204 74 6 204 74 6 204 72 5 204 72 5 203 72 5 203 72 5 199 69 1
205 75 7 215 85 18 219 89 21 219 89 21 219 89 21 217 90 19 217 90 19
217 90 19 217 90 19 217 90 19 217 90 19 207 74 9 207 74 9 207 74 9
207 74 9 207 74 9 207 74 9 205 75 7 205 75 7 204 74 6 205 75 7
209 82 11 211 84 13 210 85 13 210 85 13 211 84 13 211 84 13 211 84 13
211 84 13 211 85 11 208 86 11 219 104 24 217 105 24 217 105 22
217 105 22 217 105 22 217 105 22 217 105 22 217 105 22 222 108 28
219 102 23 213 91 14 210 86 9 211 87 10 211 87 10 211 87 10 211 86 12
213 85 14 213 85 14 214 84 16 214 84 16 202 69 4 202 69 4 205 69 8
205 69 8 206 68 10 206 68 10 206 68 10 206 68 10 208 67 8 207 69 9
218 87 24 215 86 23 212 88 23 212 88 23 213 88 21 213 88 21 212 88 21
212 88 21 212 89 19 210 90 19 211 91 20 211 91 18 211 91 18 211 91 18
211 91 18 211 91 18 211 91 18 211 92 16 214 94 18 211 92 16 207 87 11
206 83 11 209 81 13 211 80 15 211 80 15 211 80 15 210 83 14 210 83 14
210 83 14 210 83 14 211 84 15 211 84 15 211 84 15 211 84 15 211 84 15
211 84 15 211 84 15 211 84 15 213 85 16 210 83 14 207 79 11 206 78 9
208 78 13 208 78 13 208 78 13 208 78 13 209 76 11 209 76 11 209 76 11
209 76 11 209 76 11 209 76 11 209 76 11 209 76 11 209 76 11 209 76 11
209 76 11 209 76 11 205 75 7 208 78 11 214 84 16 214 84 16 214 84 16
214 84 16 214 84 16 214 84 16 213 85 14 213 85 14 211 86 12 209 87 12
222 107 30 223 110 32 223 111 30 223 111 30 222 110 29 222 110 29
222 110 29 222 110 29 222 108 28 227 112 32 212 97 17 216 102 22
214 97 21 214 97 21 212 97 19 212 97 19 211 99 21 211 99 21 213 98 21
216 96 21 201 76 4 202 75 4 204 74 4 204 74 4 204 74 4 204 74 4
204 74 6 203 72 5 203 72 5 203 72 5 216 88 20 217 90 21 217 90 19
217 90 19 217 90 19 217 90 19 217 90 19 217 90 19 217 90 19 217 90 19
207 74 9 207 74 9 207 74 9 207 74 9 207 74 9 207 74 9 205 75 7
205 75 7 204 74 6 205 75 7 209 82 11 211 84 13 211 84 13 211 84 13
213 83 13 213 83 13 213 83 13 213 83 13 211 85 11 210 85 11
220 103 24 219 104 24 217 105 24 217 105 22 217 105 22 217 105 22
217 105 22 217 105 22 222 108 28 219 102 23 211 92 14 208 87 9
211 87 10 211 87 10 211 87 10 211 86 12 213 85 14 213 85 14 214 84 16
214 84 16 201 68 3 201 68 3 203 68 6 203 68 6 205 66 9 205 66 9
206 68 10 206 68 10 208 67 8 206 68 8 218 87 24 213 87 23 210 89 23
210 89 23 212 88 21 213 88 21 212 88 21 210 89 21 210 90 19 210 90 19
211 91 18 211 91 18 211 91 18 211 91 18 211 92 16 211 92 16 211 92 16
211 92 16 214 94 16 211 92 14 207 87 9 206 84 9 209 81 13 211 80 15
211 80 15 211 80 15 210 83 14 210 83 14 210 83 14 210 83 14 211 84 15
211 84 15 211 84 15 211 84 15 211 84 15 211 84 15 211 84 15 211 84 15
213 85 16 210 83 14 207 79 11 206 78 9 208 78 13 208 78 13 208 78 13
208 78 13 209 76 11 209 76 11 209 76 11 209 76 11 209 76 11 209 76 11
209 76 11 209 76 11 208 75 10 208 75 10 208 75 10 208 75 10 206 76 8
208 78 11 214 84 16 214 84 16 214 84 16 214 84 16 214 84 16 214 84 16
213 85 14 213 85 14 211 86 12 209 87 12 222 107 30 223 110 32
221 112 30 221 112 30 222 110 29 222 110 29 222 110 29 222 110 29
222 108 28 227 112 32 212 97 17 216 102 22 213 96 19 213 96 19
212 97 19 212 97 19 211 99 21 213 98 21 214 97 21 216 96 21 201 76 4
202 75 4 204 74 4 204 74 4 204 74 4 204 74 4 204 74 6 204 74 6
203 72 5 203 72 5 217 90 21 216 88 20 217 90 19 217 90 19 217 90 19
217 90 19 217 90 19 217 90 19 217 90 19 217 90 19 207 74 9 207 74 9
207 74 9 207 74 9 207 74 9 207 74 9 205 75 7 205 75 7 204 74 6
206 76 8 209 82 11 211 84 13 211 84 13 211 84 13 213 83 13 213 83 13
213 83 13 213 83 13 211 85 11 208 86 11 220 103 26 219 104 26
217 105 24 217 105 24 217 105 22 217 105 22 217 105 22 217 105 22
222 108 28 219 102 23 211 92 14 209 88 10 211 87 10 211 87 10
211 87 10 211 86 12 213 85 14 213 85 14 214 84 16 214 84 16 201 68 3
202 67 3 203 68 6 203 68 6 205 66 9 205 66 9 206 68 10 206 68 10
208 67 8 206 68 8 218 87 24 212 88 23 210 89 23 210 89 23 212 88 21
213 88 21 212 89 19 210 90 19 210 90 19 210 90 17 211 91 18 211 92 16
211 92 16 211 92 16 211 92 16 211 92 16 211 92 16 211 92 16 214 94 16
211 92 14 207 87 9 206 84 9 209 81 13 211 80 15 211 80 15 211 80 15
210 83 14 210 83 14 210 83 14 210 83 14 211 84 15 211 84 15 211 84 15
211 84 15 211 84 15 211 84 15 211 84 15 211 84 15 213 85 16 210 83 14
207 79 11 206 78 9 208 78 13 208 78 13 208 78 13 208 78 13 209 76 11
209 76 11 209 76 11 209 76 11 209 76 11 209 76 11 209 76 11 209 76 11
208 75 10 208 75 10 208 75 10 208 75 10 206 76 8 208 78 11 214 84 16
214 84 16 214 84 16 214 84 16 214 84 16 214 84 16 213 85 14 213 85 14
211 86 12 209 87 12 222 108 28 221 112 30 221 112 30 221 112 28
222 110 27 222 110 27 222 110 27 222 110 27 222 108 28 227 112 32
213 98 19 216 102 22 213 96 19 213 96 19 212 97 19 212 97 19
211 99 21 213 98 21 214 97 21 216 96 21 201 76 4 202 75 4 204 74 4
204 74 4 204 74 4 204 74 4 202 75 4 202 75 4 201 74 3 201 74 3
217 90 19 216 89 18 217 90 19 217 90 19 217 90 19 217 90 19 217 90 19
217 90 19 217 90 19 217 90 19 207 74 9 207 74 9 207 74 9 207 74 9
207 74 9 207 74 9 205 75 7 205 75 7 204 74 6 206 76 8 209 82 11
211 84 13 211 84 13 211 84 13 213 83 13 213 83 13 213 83 13 213 83 13
211 85 11 208 86 11 220 103 26 219 104 26 217 105 26 217 105 24
217 105 24 217 105 22 217 105 22 217 105 22 222 108 28 219 102 23
211 92 14 209 88 10 211 87 10 211 87 10 211 87 10 213 86 12 213 85 14
214 84 14 214 84 16 216 83 16 202 67 3 202 67 3 203 68 6 205 67 6
205 66 9 205 66 9 206 68 10 208 67 10 208 67 8 206 68 8 218 87 24
212 88 23 210 89 23 210 89 23 212 88 21 213 88 21 212 89 19 210 90 19
210 90 17 210 90 17 211 92 16 211 92 16 211 92 16 211 92 16 211 92 16
211 92 16 211 92 16 211 92 16 214 94 16 211 92 14 207 87 9 206 84 9
209 81 13 211 80 15 211 80 15 211 80 15 210 83 14 210 83 14 210 83 14
210 83 14 211 84 15 211 84 15 211 84 15 211 84 15 211 84 15 211 84 15
211 84 15 211 84 15 213 85 16 210 83 14 207 79 11 206 78 9 208 78 13
208 78 13 208 78 13 208 78 13 209 76 11 209 76 11 209 76 11 209 76 11
209 76 11 209 76 11 209 76 11 209 76 11 208 75 10 208 75 10 208 75 10
208 75 10 206 76 8 208 78 11 214 84 16 214 84 16 214 84 16 214 84 16
214 84 16 214 84 16 213 85 14 213 85 14 211 86 12 209 87 12
222 108 28 221 112 30 221 112 28 221 112 28 222 110 27 222 110 27
222 110 27 222 110 27 222 108 28 224 110 30 213 98 19 215 101 21
213 96 19 213 96 19 212 97 19 212 97 19 211 99 21 213 98 21 214 97 21
216 96 23 201 76 4 204 74 4 204 74 4 204 74 4 204 74 4 204 74 4
202 75 4 202 75 4 201 74 3 201 74 3 217 90 19 216 89 18 217 90 19
217 90 19 217 90 19 217 90 19 217 90 19 217 90 19 217 90 19 217 90 19
207 74 9 207 74 9 207 74 9 207 74 9 207 74 9 207 74 9 205 75 7
205 75 7 204 74 6 206 76 8 209 82 11 211 84 13 211 84 13 211 84 13
213 83 13 213 83 13 213 83 13 213 83 13 211 84 13 208 86 13
220 102 28 219 103 28 217 105 26 217 105 26 217 105 24 217 105 24
217 105 22 217 105 22 215 101 21 219 102 23 204 85 7 209 88 10
212 88 12 214 87 12 214 87 12 214 87 14 215 86 16 215 86 16 217 84 18
217 84 18 203 68 4 203 68 4 205 67 6 205 67 6 208 67 10 208 67 10
208 67 10 208 67 10 209 66 8 206 68 8 218 87 24 212 88 23 210 89 23
210 89 23 212 88 21 213 88 21 212 89 19 210 90 19 210 90 17 210 90 17
211 92 16 211 92 16 211 92 16 211 92 16 211 92 16 211 92 16 211 92 16
211 92 16 214 94 16 211 92 14 207 87 9 206 84 9 209 81 13 211 80 15
211 80 15 211 80 15 210 83 14 210 83 14 210 83 14 210 83 14 211 84 15
211 84 15 211 84 15 211 84 15 211 84 15 211 84 15 211 84 15 211 84 15
213 85 16 210 83 14 207 79 11 206 78 9 208 78 13 208 78 13 208 78 13
208 78 13 210 77 13 210 77 13 210 77 13 209 76 11 209 76 11 208 75 10
208 75 10 208 75 10 208 75 10 208 75 10 208 75 10 208 75 10 206 76 8
208 78 11 214 84 16 214 84 16 214 84 16 214 84 16 214 84 16 214 84 16
213 85 14 213 85 14 213 86 12 209 87 12 222 108 28 221 112 30
221 112 28 221 112 28 223 111 28 223 111 28 223 111 28 223 111 28
223 109 29 223 109 29 214 99 20 215 101 21 214 97 21 214 97 21
213 98 21 213 98 21 213 97 23 213 97 23 214 97 23 218 95 23 202 74 6
204 74 6 205 73 6 205 73 6 204 74 4 204 74 4 202 75 4 202 75 4
201 74 3 201 74 3 217 90 19 216 89 18 217 90 19 217 90 19 217 90 19
217 90 19 217 90 19 217 90 19 217 90 19 217 90 19 207 74 9 207 74 9
207 74 9 207 74 9 207 74 9 207 74 9 205 75 7 205 75 7 204 74 6
206 76 8 209 82 11 211 84 13 211 84 13 211 84 13 213 83 13 213 83 13
213 83 13 213 83 13 211 84 13 208 86 13 220 102 28 219 103 28
217 105 26 217 105 26 217 105 24 217 105 24 217 105 22 217 105 22
215 101 21 219 102 23 204 85 7 211 87 10 214 87 12 214 87 12
214 87 12 214 87 14 215 86 16 215 86 16 217 84 18 217 84 18 203 68 4
203 68 4 205 67 6 205 67 6 208 67 10 208 67 10 208 67 10 208 67 10
209 66 8 206 68 8 218 87 24 212 88 23 210 89 23 210 89 23 212 88 21
213 88 21 212 89 19 210 90 19 210 90 17 210 90 17 211 92 16 211 92 16
211 92 16 211 92 16 211 92 16 211 92 16 211 92 16 211 92 16 214 94 16
211 92 14 207 87 9 206 84 9 209 81 13 211 80 15 211 80 15 211 80 15
210 83 14 210 83 14 210 83 14 210 83 14 211 84 15 211 84 15 211 84 15
211 84 15 211 84 15 211 84 15 211 84 15 211 84 15 213 85 16 210 83 14
207 79 11 206 78 9 208 78 13 208 78 13 208 78 13 208 78 13 210 77 13
210 77 13 210 77 13 209 76 11 209 76 11 208 75 10 208 75 10 208 75 10
208 75 10 208 75 10 208 75 10 208 75 10 206 76 8 208 78 11 214 84 16
214 84 16 214 84 16 214 84 16 214 84 16 214 84 16 213 85 14 213 85 14
213 86 12 209 87 12 222 108 28 221 112 30 221 112 28 221 112 28
223 111 28 223 111 28 223 111 28 223 111 28 223 109 29 222 108 28
215 101 21 214 99 20 214 97 21 214 97 21 213 98 21 213 98 21
213 97 23 214 97 23 216 96 23 218 95 23 202 74 6 204 74 6 205 73 6
205 73 6 204 74 4 204 74 4 202 75 4 202 75 4 201 74 3 201 74 3
217 90 19 216 89 18 217 90 19 217 90 19 217 90 19 217 90 19 217 90 19
217 90 19 217 90 19 217 90 19 207 74 9 207 74 9 207 74 9 207 74 9
207 74 9 207 74 9 205 75 7 205 75 7 204 74 6 206 76 8 209 82 11
211 84 13 211 84 13 211 84 13 213 83 13 213 83 13 213 83 13 213 83 13
211 84 13 208 86 13 220 102 28 219 103 28 217 105 26 217 105 26
217 105 24 217 105 24 217 105 22 217 105 22 215 101 21 219 102 23
204 85 7 212 88 12 214 87 12 214 87 12 214 87 12 214 87 14 215 86 16
215 86 16 217 84 18 217 84 18 203 68 4 203 68 4 205 67 6 205 67 6
208 67 10 208 67 10 208 67 10 208 67 10 209 66 8 206 68 8 218 87 24
212 88 23 210 89 23 210 89 23 212 88 21 213 88 21 212 89 19 210 90 19
210 90 17 210 90 17 211 92 16 211 92 16 211 92 16 211 92 16 211 92 16
211 92 16 211 92 16 211 92 16 214 94 16 211 92 14 207 87 9 206 84 9
209 81 13 211 80 15 211 80 15 211 80 15 210 83 14 210 83 14 210 83 14
210 83 14 211 84 15 211 84 15 211 84 15 211 84 15 211 84 15 211 84 15
211 84 15 211 84 15 213 85 16 210 83 14 207 79 11 206 78 9 208 78 13
208 78 13 208 78 13 208 78 13 210 77 13 210 77 13 210 77 13 209 76 11
209 76 11 208 75 10 208 75 10 208 75 10 208 75 10 208 75 10 208 75 10
208 75 10 206 76 8 208 78 11 214 84 16 214 84 16 214 84 16 214 84 16
214 84 16 214 84 16 213 85 14 213 85 14 213 86 12 209 87 12
222 108 28 221 112 30 221 112 28 221 112 28 223 111 28 223 111 28
223 111 28 223 111 28 223 109 29 222 108 28 216 102 22 214 99 20
214 97 21 214 97 21 213 98 21 213 98 21 213 97 23 214 97 23 216 96 23
218 95 23 202 74 6 204 74 6 205 73 6 205 73 6 204 74 4 204 74 4
202 75 4 202 75 4 201 74 3 201 74 3 217 90 19 216 89 18 217 90 19
217 90 19 217 90 19 217 90 19 217 90 19 217 90 19 217 90 19 217 90 19
207 74 9 207 74 9 207 74 9 207 74 9 207 74 9 207 74 9 205 75 7
205 75 7 204 74 6 206 76 8 209 82 11 211 84 13 211 84 13 211 84 13
213 83 13 213 83 13 213 83 13 213 83 13 211 84 13 208 86 13
220 102 28 219 103 28 217 105 26 217 105 26 217 105 24 217 105 24
217 105 22 217 105 22 215 101 21 219 102 23 204 85 7 212 88 12
214 87 12 214 87 12 214 87 12 214 87 14 215 86 16 215 86 16 217 84 18
217 84 18 203 68 4 203 68 4 205 67 6 205 67 6 208 67 10 208 67 10
208 67 10 208 67 10 209 66 8 206 68 8 218 87 24 212 88 23 210 89 23
210 89 23 212 88 21 213 88 21 212 89 19 210 90 19 210 90 17 210 90 17
211 92 16 211 92 16 211 92 16 211 92 16 211 92 16 211 92 16 211 92 16
211 92 16 214 94 16 211 92 14 207 87 9 206 84 9 209 81 13 211 80 15
211 80 15 211 80 15 210 83 14 210 83 14 210 83 14 210 83 14 211 84 15
211 84 15 211 84 15 211 84 15 211 84 15 211 84 15 211 84 15 211 84 15
213 85 16 210 83 14 207 79 11 206 78 9 208 78 13 208 78 13 208 78 13
208 78 13 210 77 13 210 77 13 210 77 13 209 76 11 209 76 11 208 75 10
208 75 10 208 75 10 208 75 10 208 75 10 208 75 10 208 75 10 206 76 8
208 78 11 214 84 16 214 84 16 214 84 16 214 84 16 214 84 16 214 84 16
213 85 14 213 85 14 213 86 12 209 87 12 222 108 28 221 112 30
221 112 28 221 112 28 223 111 28 223 111 28 223 111 28 223 111 28
223 109 29 222 108 28 216 102 22 214 99 20 214 97 21 214 97 21
213 98 21 213 98 21 213 97 23 214 97 23 216 96 23 218 95 23 202 74 6
204 74 6 205 73 6 205 73 6 204 74 4 204 74 4 202 75 4 202 75 4
201 74 3 201 74 3 217 90 19 216 89 18 217 90 19 217 90 19 217 90 19
217 90 19 217 90 19 217 90 19 217 90 19 217 90 19
