P3
160 160
255
216 97 19 216 97 19 216 97 19 216 97 19 218 95 21 218 95 21 218 95 21
218 95 21 214 92 19 219 96 24 204 79 7 209 84 12 207 79 11 207 79 11
208 78 11 208 78 11 208 78 11 208 78 11 210 77 11 209 76 9 209 76 9
208 75 8 209 74 8 209 74 8 211 73 8 211 73 8 209 74 8 208 75 8
206 76 8 204 77 8 217 92 22 214 91 21 215 93 20 215 93 20 215 93 20
215 93 20 215 93 20 215 93 20 215 93 20 212 95 18 225 119 34
222 121 32 222 121 32 222 121 32 224 120 32 224 120 32 224 120 32
224 120 32 224 119 34 223 118 33 219 115 29 219 112 27 220 111 27
220 111 27 220 111 27 220 111 27 220 111 27 220 111 27 220 111 27
220 111 27 217 105 22 217 105 22 217 105 22 219 104 22 220 103 24
220 103 24 219 104 24 219 104 24 219 102 23 221 101 23 213 89 13
216 89 16 212 87 16 211 88 16 211 88 16 211 88 16 212 87 16 212 87 16
211 86 14 211 86 14 211 85 11 211 85 11 210 83 10 210 83 10 212 83 10
212 83 10 210 83 10 210 83 10 208 83 9 206 82 8 222 100 25 221 99 24
219 100 24 219 100 24 219 100 24 219 100 24 219 100 24 219 100 24
219 100 24 219 100 24 212 93 17 212 93 17 212 93 17 212 93 17
212 93 17 212 93 17 212 93 17 212 93 17 214 92 17 213 91 16 211 88 14
210 85 11 213 85 14 214 84 14 214 84 14 214 84 14 214 84 14 214 84 14
214 84 14 214 84 14 215 88 15 213 89 15 213 89 15 213 89 15 213 89 13
213 89 13 213 89 13 213 89 13 211 87 8 210 91 11 229 122 37
225 128 40 222 130 38 222 130 38 225 128 38 227 127 38 225 128 38
225 128 38 226 129 39 226 129 39 227 130 40 227 130 40 228 132 41
228 132 41 228 132 41 228 132 41 228 132 41 228 132 41 227 130 40
225 128 38 221 125 34 219 122 32 219 122 32 219 122 32 219 122 32
219 122 32 219 122 32 219 122 32 219 122 32 219 122 32 216 97 19
216 97 19 216 97 19 216 97 19 218 95 21 218 95 21 218 95 21 218 95 21
214 92 19 219 96 24 204 79 7 209 84 12 207 79 11 207 79 11 208 78 11
208 78 11 208 78 11 208 78 11 210 77 11 209 76 9 209 76 9 208 75 8
209 74 8 209 74 8 211 73 8 211 73 8 209 74 8 208 75 8 206 76 8
204 77 8 217 92 22 214 91 21 215 93 20 215 93 20 215 93 20 215 93 20
215 93 20 215 93 20 215 93 20 212 95 18 225 119 34 222 121 32
222 121 32 222 121 32 224 120 32 224 120 32 224 120 32 224 120 32
224 119 34 223 118 33 219 115 29 219 112 27 220 111 27 220 111 27
220 111 27 220 111 27 220 111 27 220 111 27 220 111 27 220 111 27
217 105 22 217 105 22 217 105 22 219 104 22 220 103 24 220 103 24
219 104 24 219 104 24 219 102 23 221 101 23 213 89 13 216 89 16
212 87 16 211 88 16 211 88 16 211 88 16 212 87 16 212 87 16 211 86 14
211 86 14 211 85 11 211 85 11 210 83 10 210 83 10 212 83 10 212 83 10
210 83 10 210 83 10 208 83 9 206 82 8 222 100 25 221 99 24 219 100 24
219 100 24 219 100 24 219 100 24 219 100 24 219 100 24 219 100 24
219 100 24 212 93 17 212 93 17 212 93 17 212 93 17 212 93 17
212 93 17 212 93 17 212 93 17 214 92 17 213 91 16 211 88 14 210 85 11
213 85 14 214 84 14 214 84 14 214 84 14 214 84 14 214 84 14 214 84 14
214 84 14 215 88 15 213 89 15 213 89 15 213 89 15 213 89 13 213 89 13
213 89 13 213 89 13 211 87 8 210 91 11 229 122 37 225 128 40
222 130 38 222 130 38 225 128 38 227 127 38 225 128 38 225 128 38
226 129 39 226 129 39 227 130 40 227 130 40 228 132 41 228 132 41
228 132 41 228 132 41 228 132 41 228 132 41 227 130 40 225 128 38
221 125 34 219 122 32 219 122 32 219 122 32 219 122 32 219 122 32
219 122 32 219 122 32 219 122 32 219 122 32 216 97 19 216 97 19
216 97 19 216 97 19 218 95 21 218 95 21 218 95 21 218 95 21 214 92 19
219 96 24 204 79 7 209 84 12 207 79 11 207 79 11 208 78 11 208 78 11
208 78 11 208 78 11 210 77 11 209 76 9 209 76 9 208 75 8 209 74 8
209 74 8 211 73 8 211 73 8 209 74 8 208 75 8 206 76 8 204 77 8
217 92 22 214 91 21 215 93 20 215 93 20 215 93 20 215 93 20 215 93 20
215 93 20 215 93 20 212 95 18 225 119 34 222 121 32 222 121 32
222 121 32 224 120 32 224 120 32 224 120 32 224 120 32 224 119 34
223 118 33 219 115 29 219 112 27 220 111 27 220 111 27 220 111 27
220 111 27 220 111 27 220 111 27 220 111 27 220 111 27 217 105 22
217 105 22 217 105 22 219 104 22 220 103 24 220 103 24 219 104 24
219 104 24 219 102 23 221 101 23 213 89 13 216 89 16 212 87 16
211 88 16 211 88 16 211 88 16 212 87 16 212 87 16 211 86 14 211 86 14
211 85 11 211 85 11 210 83 10 210 83 10 212 83 10 212 83 10 210 83 10
210 83 10 208 83 9 206 82 8 222 100 25 221 99 24 219 100 24
219 100 24 219 100 24 219 100 24 219 100 24 219 100 24 219 100 24
219 100 24 212 93 17 212 93 17 212 93 17 212 93 17 212 93 17
212 93 17 212 93 17 212 93 17 214 92 17 213 91 16 211 88 14 210 85 11
213 85 14 214 84 14 214 84 14 214 84 14 214 84 14 214 84 14 214 84 14
214 84 14 215 88 15 213 89 15 213 89 15 213 89 15 213 89 13 213 89 13
213 89 13 213 89 13 211 87 8 210 91 11 229 122 37 225 128 40
222 130 38 222 130 38 225 128 38 227 127 38 225 128 38 225 128 38
226 129 39 226 129 39 227 130 40 227 130 40 228 132 41 228 132 41
228 132 41 228 132 41 228 132 41 228 132 41 227 130 40 225 128 38
221 125 34 219 122 32 219 122 32 219 122 32 219 122 32 219 122 32
219 122 32 219 122 32 219 122 32 219 122 32 216 97 19 216 97 19
216 97 19 216 97 19 218 95 21 218 95 21 218 95 21 218 95 21 214 92 19
219 96 24 204 79 7 209 84 12 207 79 11 207 79 11 208 78 11 208 78 11
208 78 11 208 78 11 210 77 11 209 76 9 209 76 9 208 75 8 209 74 8
209 74 8 211 73 8 211 73 8 209 74 8 208 75 8 206 76 8 204 77 8
217 92 22 214 91 21 215 93 20 215 93 20 215 93 20 215 93 20 215 93 20
215 93 20 215 93 20 212 95 18 225 119 34 222 121 32 222 121 32
222 121 32 224 120 32 224 120 32 224 120 32 224 120 32 224 119 34
223 118 33 219 115 29 219 112 27 220 111 27 220 111 27 220 111 27
220 111 27 220 111 27 220 111 27 220 111 27 222 110 27 217 105 22
217 105 22 217 105 22 219 104 22 220 103 24 220 103 24 219 104 24
219 104 24 219 102 23 221 101 23 213 89 13 216 89 16 212 87 16
211 88 16 211 88 16 211 88 16 212 87 16 212 87 16 211 86 14 211 86 14
211 85 11 211 85 11 210 83 10 210 83 10 212 83 10 212 83 10 210 83 10
210 83 10 208 83 9 206 82 8 222 100 25 221 99 24 219 100 24
219 100 24 219 100 24 219 100 24 219 100 24 219 100 24 219 100 24
219 100 24 212 93 17 212 93 17 212 93 17 212 93 17 212 93 17
212 93 17 212 93 17 212 93 17 214 92 17 213 91 16 211 88 14 210 85 11
213 85 14 214 84 14 214 84 14 214 84 14 214 84 14 214 84 14 214 84 14
214 84 14 215 88 15 213 89 15 213 89 15 213 89 15 213 89 13 213 89 13
213 89 13 213 89 13 211 87 8 210 91 11 229 122 37 227 127 40
223 128 40 222 130 38 225 128 38 227 127 38 227 127 38 225 128 38
226 129 39 226 129 39 227 130 40 227 130 40 228 132 41 228 132 41
228 132 41 228 132 41 228 132 41 228 132 41 227 130 40 225 128 38
221 125 34 219 122 32 219 122 32 219 122 32 219 122 32 219 122 32
219 122 32 219 122 32 219 122 32 219 122 32 217 98 20 217 98 20
217 98 20 217 98 20 219 97 22 219 97 22 219 97 22 219 97 22 215 93 20
220 97 25 205 80 9 210 85 13 208 80 12 208 80 12 210 79 12 210 79 12
210 79 12 210 79 12 211 79 12 210 77 11 210 77 11 209 76 9 210 75 9
210 75 9 212 75 9 212 75 9 210 75 9 209 76 9 207 77 9 206 78 9
218 93 23 215 92 22 215 93 20 215 93 20 215 93 20 215 93 20 215 93 20
215 93 20 215 93 20 212 95 18 225 118 36 222 120 34 222 120 34
222 120 34 224 119 34 224 119 34 224 119 34 224 119 34 224 119 34
223 118 33 219 115 29 220 113 28 221 112 28 221 112 28 221 112 28
221 112 28 223 111 28 223 111 28 223 111 28 223 111 28 217 103 23
217 103 23 217 103 23 217 103 23 220 103 24 220 103 24 219 104 24
219 104 24 219 102 23 221 101 23 213 89 13 216 89 16 212 87 16
211 88 16 211 88 16 211 88 16 212 87 16 212 87 16 211 86 14 211 86 14
211 85 11 211 85 11 210 83 10 210 83 10 212 83 10 212 83 10 210 83 10
210 83 10 208 83 9 206 82 8 222 100 25 221 99 24 219 100 24
219 100 24 219 100 24 219 100 24 219 100 24 219 100 24 219 100 24
219 100 24 212 93 17 212 93 17 212 93 17 212 93 17 212 93 17
212 93 17 212 93 17 212 93 17 214 92 17 213 91 16 211 88 14 210 85 11
213 85 14 214 84 14 214 84 14 214 84 14 214 84 14 214 84 14 214 84 14
214 84 14 215 88 15 213 89 15 213 89 15 213 89 15 213 89 13 213 89 13
213 89 13 213 89 13 211 87 10 210 91 13 231 121 39 228 126 42
225 128 40 223 128 40 227 127 40 228 126 40 228 126 38 227 127 38
228 128 39 228 128 39 228 128 39 228 128 39 227 130 40 227 130 40
227 130 40 227 130 40 227 130 40 227 130 40 227 130 40 226 129 39
223 126 35 220 123 33 220 123 33 220 123 33 220 123 33 220 123 33
220 123 33 220 123 33 220 123 33 220 123 33 217 98 20 217 98 20
217 98 20 217 98 20 219 97 22 219 97 22 219 97 22 219 97 22 215 93 20
220 97 25 205 80 9 210 85 13 208 80 12 208 80 12 210 79 12 210 79 12
210 79 12 210 79 12 211 79 12 210 77 11 210 77 11 209 76 9 210 75 9
210 75 9 212 75 9 212 75 9 210 75 9 209 76 9 207 77 9 206 78 9
218 93 23 215 92 22 215 93 20 215 93 20 215 93 20 215 93 20 215 93 20
215 93 20 215 93 20 212 95 18 225 118 36 222 120 34 222 120 34
222 120 34 224 119 34 224 119 34 224 119 34 224 119 34 224 119 34
223 118 33 219 115 29 220 113 28 221 112 28 221 112 28 221 112 28
221 112 28 223 111 28 223 111 28 223 111 28 223 111 28 217 103 23
217 103 23 217 103 23 217 103 23 220 103 24 220 103 24 219 104 24
219 104 24 219 102 23 221 101 23 213 89 13 216 89 16 212 87 16
211 88 16 211 88 16 211 88 16 212 87 16 212 87 16 211 86 14 211 86 14
211 85 11 211 85 11 210 83 10 210 83 10 212 83 10 212 83 10 210 83 10
210 83 10 208 83 9 206 82 8 222 100 25 221 99 24 219 100 24
219 100 24 219 100 24 219 100 24 219 100 24 219 100 24 219 100 24
219 100 24 212 93 17 212 93 17 212 93 17 212 93 17 212 93 17
212 93 17 212 93 17 212 93 17 214 92 17 213 91 16 211 88 14 210 85 11
213 85 14 214 84 14 214 84 14 214 84 14 214 84 14 214 84 14 214 84 14
214 84 14 215 88 15 213 89 15 213 89 15 213 89 15 213 89 13 213 89 13
213 89 13 213 89 13 211 87 10 210 91 13 231 121 39 228 126 42
225 128 40 225 128 40 227 127 40 228 126 40 228 126 38 228 126 38
229 128 39 228 128 39 228 128 39 228 128 39 227 130 40 227 130 40
227 130 40 227 130 40 227 130 40 227 130 40 227 130 40 226 129 39
223 126 35 220 123 33 220 123 33 220 123 33 220 123 33 220 123 33
220 123 33 220 123 33 220 123 33 220 123 33 217 98 20 217 98 20
217 98 20 217 98 20 219 97 22 219 97 22 219 97 22 219 97 22 215 93 18
219 97 22 205 81 7 210 85 13 208 81 10 208 81 10 210 80 10 210 80 10
210 79 12 210 79 12 211 79 12 210 77 11 210 77 11 209 76 9 210 76 7
210 76 7 212 75 7 212 75 7 210 76 7 209 77 7 207 77 7 206 78 7
218 93 21 215 93 20 217 92 20 217 92 18 215 93 18 215 93 18 215 93 18
215 93 18 215 93 18 212 95 18 225 118 36 222 120 34 222 120 34
222 120 34 224 119 34 224 119 34 224 119 34 224 119 34 224 119 34
223 118 33 219 115 29 220 113 28 221 112 28 221 112 28 221 112 28
221 112 28 223 111 28 223 111 28 223 111 28 223 111 28 217 103 23
217 103 23 217 103 23 217 103 23 220 103 24 220 103 24 219 104 24
219 104 24 219 102 23 221 101 23 213 89 13 216 89 16 212 87 16
211 88 16 211 88 16 211 88 16 212 87 16 212 87 16 211 86 14 211 86 14
210 85 11 210 85 11 209 84 10 210 83 10 210 83 10 210 83 10 210 83 10
209 84 10 209 82 9 206 82 8 222 100 25 219 100 24 219 100 24
219 100 24 219 100 24 219 100 24 219 100 24 219 100 24 219 100 24
219 100 24 212 93 15 212 93 15 212 93 15 212 93 15 212 93 17
212 93 17 212 93 15 212 93 15 214 92 17 213 91 16 211 88 14 210 85 11
213 85 14 214 84 14 214 84 14 214 84 14 214 84 14 214 84 14 214 84 14
214 84 14 215 88 15 213 89 15 213 89 15 213 89 15 213 89 13 213 89 13
213 89 13 213 89 13 211 87 10 210 91 13 232 120 39 230 125 42
227 127 40 225 128 40 227 127 40 228 126 40 230 126 38 230 126 38
229 128 39 229 128 39 228 128 39 228 128 39 227 130 40 227 130 40
226 131 40 226 131 40 227 130 40 227 130 40 227 130 40 226 129 39
223 126 35 220 123 33 220 123 33 220 123 33 220 123 33 220 123 33
220 123 33 220 123 33 220 123 33 220 123 33 216 97 19 216 97 19
216 97 19 216 97 19 218 95 21 218 95 21 219 97 22 218 95 21 215 93 18
218 95 21 206 82 8 209 84 10 207 79 9 207 79 9 208 79 9 208 79 9
210 79 12 210 79 12 211 79 12 210 77 11 210 77 11 209 76 9 210 76 7
210 76 7 210 76 7 210 76 7 209 77 7 207 77 7 207 77 7 206 78 7
217 92 20 217 92 20 217 92 18 217 92 18 215 93 18 215 93 18 215 93 18
215 93 18 215 93 18 212 95 18 225 118 36 222 120 34 222 120 34
222 120 34 224 119 34 224 119 34 224 119 34 224 119 34 224 119 34
223 118 33 219 115 29 218 114 28 220 113 28 221 112 28 221 112 28
221 112 28 223 111 28 223 111 28 223 111 28 223 111 28 217 103 23
217 103 23 217 103 23 217 103 23 220 103 24 219 104 24 219 104 24
219 104 24 217 103 23 221 101 23 212 90 13 215 90 14 211 88 14
211 88 16 211 88 16 211 88 16 212 87 16 212 87 16 211 86 14 211 86 12
209 84 10 209 84 10 208 83 9 208 83 9 209 82 9 209 82 9 208 83 9
208 83 9 209 82 9 208 81 8 222 100 25 218 101 24 218 101 24
218 101 24 219 100 24 219 100 24 219 100 24 219 100 24 219 100 24
219 100 24 212 93 15 212 93 15 212 93 15 212 93 15 214 92 15
214 92 15 212 93 15 212 93 15 214 92 17 215 90 16 214 87 14 211 85 11
213 85 14 214 84 14 214 84 14 214 84 14 214 84 14 214 84 14 214 84 14
213 85 14 215 88 17 215 88 17 215 88 17 215 88 17 215 88 15 215 88 15
215 88 15 213 89 15 215 90 14 214 92 15 233 121 41 231 124 42
228 126 42 227 127 40 228 126 40 230 125 40 230 126 38 230 126 38
231 127 39 229 128 39 229 128 39 229 130 40 228 132 41 228 132 41
226 131 40 226 131 40 227 130 40 227 130 40 227 130 40 226 129 39
223 126 35 222 123 33 222 123 33 220 123 33 220 123 33 220 123 33
220 123 33 220 123 33 220 123 33 220 123 33 215 95 17 215 95 17
216 97 19 216 97 19 218 96 19 218 96 19 218 96 19 218 96 19 215 93 18
216 94 19 207 85 10 206 82 8 207 80 7 208 81 8 208 81 8 208 81 10
210 80 10 210 80 10 210 80 10 210 80 10 207 74 5 207 74 5 207 74 5
207 74 5 207 74 5 207 74 5 207 75 3 205 76 3 211 81 9 204 78 4
217 90 17 210 85 11 217 92 18 217 92 18 215 93 18 215 93 18 217 92 18
217 92 18 215 93 18 212 95 18 223 118 35 220 120 33 220 120 33
221 119 33 221 119 33 221 119 33 221 119 33 221 119 33 221 119 33
220 118 32 216 114 28 217 112 27 217 112 29 219 111 29 219 111 29
219 111 29 222 110 29 223 109 29 223 109 29 223 109 29 217 103 23
217 103 23 217 103 23 217 103 23 219 104 24 219 104 24 219 104 24
219 104 24 219 104 24 218 101 22 204 87 8 206 86 8 209 88 10
209 87 12 209 87 12 209 87 12 209 87 12 209 87 12 208 86 11 208 86 11
209 84 10 209 84 10 208 83 9 208 83 9 208 83 9 208 83 9 208 83 9
209 82 9 215 86 14 209 82 9 217 97 22 209 94 17 216 104 23 216 104 23
219 102 23 219 102 23 219 102 23 219 102 23 219 102 23 219 102 23
209 92 13 209 92 13 209 92 11 210 91 11 213 90 9 213 90 9 212 90 11
211 92 14 213 91 14 214 87 14 219 84 14 215 80 12 215 86 16 214 86 16
214 86 16 214 86 16 214 86 16 214 86 16 214 86 16 214 86 16 214 86 18
215 85 18 215 85 18 215 85 18 215 85 18 215 86 16 215 86 16 214 86 16
220 93 19 216 94 19 235 120 43 232 122 43 226 121 38 225 122 38
225 123 36 226 122 36 228 121 36 228 121 36 230 124 37 230 126 38
230 129 40 229 130 40 230 133 42 228 133 42 229 135 44 229 135 44
229 135 44 231 134 44 228 132 41 228 128 39 224 125 35 223 122 33
222 121 32 221 121 32 221 121 32 221 121 32 221 121 32 221 121 32
221 121 32 221 121 32 214 94 16 214 94 16 215 95 17 215 95 17
216 95 17 216 95 17 218 96 19 216 95 17 215 93 18 215 93 18 212 90 15
207 85 10 208 83 9 210 83 10 209 82 9 209 82 9 208 81 10 208 81 10
207 79 9 207 79 9 207 79 9 208 79 9 208 79 9 208 79 9 208 79 9
207 79 9 207 80 7 207 80 7 203 76 3 204 78 4 213 89 15 215 90 16
217 92 18 215 93 18 215 93 18 215 93 18 217 92 18 217 92 18 215 93 18
212 95 16 227 118 34 224 119 34 224 119 34 224 119 34 224 119 34
225 119 34 225 119 34 225 119 34 225 119 34 224 117 33 221 114 29
220 113 28 220 112 30 221 112 30 221 112 30 221 112 30 223 111 30
224 110 30 224 110 30 224 110 30 217 103 23 217 103 23 217 103 23
217 103 23 219 104 24 219 104 24 219 104 24 219 104 24 217 103 23
216 102 22 205 90 10 207 90 12 210 91 13 212 90 13 212 90 13
212 90 13 212 90 13 212 90 13 211 89 12 211 89 12 211 86 12 211 86 12
210 85 11 210 85 11 210 85 11 210 85 11 210 85 11 211 85 11 211 81 9
207 80 7 216 98 22 210 98 19 212 104 22 213 103 22 216 102 22
216 102 22 216 102 22 216 102 22 216 102 22 216 102 22 208 94 14
208 94 14 208 94 12 208 94 10 211 93 8 213 92 8 210 94 10 210 93 12
211 92 14 217 92 18 217 83 14 220 85 17 211 84 13 210 85 13 210 85 13
210 85 13 210 85 13 210 85 13 210 85 13 211 84 15 214 84 18 214 84 18
214 84 18 214 84 18 214 84 16 214 84 16 214 84 16 214 84 16 218 91 20
216 91 17 233 116 39 227 117 38 230 125 42 230 125 42 230 125 40
231 124 40 231 124 40 231 124 40 232 126 39 232 126 39 231 127 39
228 128 39 227 130 40 226 131 40 226 131 40 226 131 40 226 131 40
227 130 40 228 128 39 225 126 37 223 122 33 224 120 32 225 121 33
226 122 34 226 122 34 226 122 34 226 122 34 226 122 34 226 122 34
226 122 34 214 94 16 214 94 16 215 95 17 215 95 17 216 95 17
216 95 17 218 96 19 216 95 17 215 94 16 214 92 15 214 92 15 209 88 10
211 88 14 213 89 15 215 90 16 213 91 16 214 92 17 214 92 17 215 93 18
215 93 18 221 99 26 221 99 26 221 99 24 221 99 24 221 99 24
219 100 24 219 100 24 219 100 22 227 105 28 226 104 27 215 94 16
214 92 15 215 94 16 214 94 16 214 94 16 215 94 16 215 94 16 215 94 16
215 94 16 214 94 16 216 102 20 215 103 20 215 103 20 215 103 20
215 103 20 216 102 20 216 102 20 216 102 20 216 102 20 215 101 19
212 97 15 210 96 14 210 96 16 212 95 16 212 95 16 210 96 16 210 96 16
210 96 16 210 96 16 210 96 16 217 103 23 217 103 23 217 103 23
217 103 23 219 104 24 219 104 24 219 104 24 219 104 24 217 103 23
219 104 24 209 95 15 213 96 17 215 95 17 216 95 17 216 95 17
216 95 17 216 95 17 216 95 17 215 94 16 215 94 16 214 92 17 214 92 17
213 91 16 213 91 16 213 91 16 213 91 16 213 91 16 215 90 16 224 94 22
220 96 22 234 119 41 232 122 43 230 125 42 231 124 42 234 122 42
234 122 42 231 124 42 231 124 42 231 124 42 231 124 42 225 119 34
225 119 34 225 119 34 225 119 32 229 118 30 229 118 30 227 118 32
225 119 34 232 120 39 231 113 37 209 84 12 206 78 7 208 83 11
208 83 11 208 83 11 208 83 11 208 83 11 208 83 11 208 83 11 209 81 13
212 81 16 212 81 16 212 81 16 212 81 16 212 82 14 212 82 14 212 82 14
212 82 14 211 84 13 209 84 10 226 109 32 222 109 31 213 105 23
211 106 23 213 106 21 213 106 21 214 105 21 214 105 21 214 105 19
213 106 19 227 123 35 224 125 35 223 126 35 221 127 35 219 127 35
219 127 35 221 127 35 223 126 35 223 124 34 221 121 32 219 117 28
219 112 25 218 109 23 219 108 23 219 108 23 219 108 23 219 108 23
219 108 23 219 108 23 219 108 23 214 94 16 214 94 16 215 95 17
214 94 16 215 94 16 215 94 16 215 94 16 215 94 16 214 92 15 214 92 15
214 92 15 213 91 14 214 92 17 214 92 17 214 92 17 214 92 17 212 93 17
212 93 17 212 93 17 211 94 17 221 104 30 221 104 30 221 104 28
221 104 28 221 104 28 221 104 28 221 104 26 221 104 26 218 101 22
224 105 27 212 93 15 217 98 20 214 94 16 214 94 16 214 94 16
214 94 16 215 94 16 215 94 16 214 94 16 214 94 16 221 102 21
219 103 21 219 103 21 219 103 21 219 103 21 221 101 23 221 101 23
221 102 21 221 102 21 219 101 20 216 97 17 215 96 15 216 95 17
216 95 17 216 95 17 215 95 17 213 96 17 212 97 17 212 97 17 212 97 17
217 103 23 217 103 23 217 103 23 217 103 23 219 104 24 219 104 24
219 104 24 219 104 24 216 102 22 219 104 24 212 97 17 217 100 21
217 98 20 219 97 20 219 97 20 219 97 20 219 97 20 219 97 20 218 96 19
218 96 19 215 93 18 215 93 18 214 92 17 214 92 17 215 93 18 215 93 18
215 93 18 217 92 18 217 90 17 216 94 19 232 120 41 231 124 44
227 124 41 227 124 41 230 123 41 230 123 41 227 124 41 225 125 41
225 125 41 224 124 39 223 123 36 222 122 35 222 123 33 223 122 33
227 121 31 227 121 31 223 122 33 223 121 35 229 122 39 233 121 43
204 84 11 207 85 12 206 81 10 206 81 10 206 81 10 206 81 10 206 81 10
206 81 10 206 81 10 208 80 12 211 80 15 211 80 15 211 80 15 211 80 15
211 81 13 211 81 13 211 81 13 211 81 13 208 81 10 205 81 7 224 104 29
220 105 28 218 108 29 216 109 27 216 109 27 216 109 25 218 108 25
218 108 25 220 111 25 221 112 26 223 119 31 220 120 31 220 123 33
219 124 33 216 124 32 216 124 32 218 123 32 219 122 32 221 121 32
220 118 30 218 114 26 217 111 24 222 108 24 225 109 25 225 109 25
225 109 25 225 109 25 225 109 25 225 109 25 225 109 25 214 94 16
214 94 16 214 94 16 214 94 16 215 94 16 214 92 15 214 92 15 214 92 15
214 92 15 213 91 14 211 92 14 211 92 14 214 92 17 215 93 18 214 94 18
214 94 18 212 93 17 211 94 17 211 94 17 209 94 17 217 102 27
217 102 27 217 103 25 217 103 25 217 103 25 217 103 25 217 103 23
217 103 23 217 103 23 217 100 21 213 96 17 212 95 16 212 95 16
212 95 16 214 94 16 214 94 16 214 94 16 214 94 16 215 94 16 215 94 16
222 102 24 222 102 24 222 102 24 222 102 24 222 102 24 223 101 26
223 101 26 223 102 24 223 102 22 222 101 21 219 97 18 219 95 17
217 93 16 217 93 16 217 93 16 215 94 16 214 94 16 212 95 16 212 95 16
212 95 16 218 101 24 218 101 24 218 101 24 218 101 24 217 103 23
217 103 23 217 103 23 217 103 23 217 103 23 216 102 22 214 99 20
216 99 20 216 97 19 218 96 19 218 96 19 218 96 19 218 96 19 218 96 19
216 95 17 216 95 17 215 93 18 215 93 18 214 92 17 214 92 17 215 93 18
215 93 18 215 93 18 215 93 18 216 91 17 215 95 19 231 120 41
228 125 44 225 125 41 225 125 41 229 124 41 229 124 41 225 125 41
224 126 41 224 126 41 223 125 39 221 124 36 220 123 35 220 123 33
222 123 33 223 122 31 223 122 31 222 123 33 222 122 35 223 121 37
228 120 40 199 84 9 203 83 12 206 83 11 208 83 11 208 83 11 208 83 11
208 83 11 208 83 11 208 83 11 209 81 13 212 81 16 212 81 16 212 81 16
212 81 16 212 82 14 212 82 14 212 82 14 212 82 14 207 79 9 204 79 7
223 103 30 220 102 28 217 105 26 214 106 26 214 107 24 215 106 24
217 105 22 217 105 22 217 106 20 215 106 20 224 118 31 222 121 32
219 122 32 218 123 32 217 125 33 217 125 33 219 124 33 220 123 33
223 124 34 226 124 35 213 109 21 218 109 23 224 108 24 225 107 24
225 107 24 225 107 24 225 107 24 225 107 24 225 107 24 225 107 24
214 94 16 214 94 16 214 94 16 212 93 15 214 92 15 213 91 14 213 91 14
213 91 14 213 91 14 213 91 14 211 92 14 211 92 14 214 92 17 214 92 17
212 93 17 212 93 17 212 93 17 211 94 17 211 94 17 209 94 17
217 102 27 217 102 27 217 103 25 217 103 25 217 103 25 217 103 25
217 103 23 217 103 23 217 103 23 217 100 21 214 97 19 212 95 16
212 95 16 212 95 16 214 94 16 214 94 16 214 94 16 214 94 16 215 94 16
215 94 16 222 102 24 222 102 24 222 102 24 222 102 24 222 102 26
223 101 26 223 101 26 223 101 26 223 102 24 222 101 21 219 97 18
219 95 17 217 93 16 217 93 16 217 93 16 215 94 16 214 94 16 212 95 16
212 95 16 212 95 16 218 101 24 218 101 24 218 101 24 218 101 24
217 103 23 217 103 23 217 103 23 217 103 23 217 103 23 216 102 22
214 99 20 216 99 20 216 97 19 218 96 19 218 96 19 218 96 19 218 96 19
218 96 19 216 95 17 216 95 17 215 93 18 215 93 18 214 92 17 214 92 17
215 93 18 215 93 18 215 93 18 215 93 18 214 92 17 213 96 19
229 121 41 227 126 44 224 126 41 224 126 41 227 124 41 227 124 41
224 126 41 222 127 41 222 127 41 221 126 39 220 125 36 219 124 35
219 124 33 220 123 33 223 122 31 223 122 33 220 123 35 220 123 37
223 121 39 228 120 42 199 83 11 203 83 12 206 83 11 208 83 11
208 83 11 208 83 11 208 83 11 208 83 11 208 83 11 209 81 13 212 81 16
212 81 16 212 81 16 212 81 16 212 82 14 212 82 14 212 82 14 212 82 14
208 81 10 205 80 9 226 103 31 221 104 30 217 105 26 215 105 26
214 107 24 215 106 24 217 105 22 219 104 22 219 105 20 217 106 20
227 120 33 223 122 33 220 123 33 219 124 33 217 125 33 217 125 33
219 124 33 220 123 33 223 124 34 226 124 35 213 109 21 218 109 23
224 108 24 225 107 24 225 107 24 225 107 24 225 107 24 225 107 24
225 107 24 225 107 24 214 94 16 214 94 16 214 94 16 212 93 15
214 92 15 213 91 14 213 91 14 213 91 14 213 91 14 213 91 14 213 91 14
213 91 14 214 92 17 214 92 17 214 92 17 214 92 17 212 93 17 212 93 17
212 93 17 211 94 17 219 101 27 219 101 27 219 102 25 219 102 25
219 102 25 219 102 25 219 102 23 219 102 23 219 102 23 218 99 21
216 97 19 214 94 16 214 94 16 214 94 16 214 94 16 214 94 16 215 94 16
215 94 16 214 94 16 215 95 17 221 101 23 220 103 24 220 103 24
220 103 24 220 103 26 222 102 26 222 102 26 222 102 26 222 102 24
221 102 21 217 98 18 216 97 17 215 94 14 215 94 14 215 94 14
214 95 14 212 96 14 212 96 14 210 96 14 212 97 17 215 101 21
216 102 22 216 102 22 216 102 22 217 103 23 217 103 21 217 103 21
217 103 21 217 103 21 216 102 20 214 100 18 216 99 18 216 97 19
218 96 19 218 96 19 218 96 19 218 96 19 218 96 19 216 95 17 216 95 17
215 93 18 215 93 18 214 92 17 214 92 17 215 93 18 215 93 18 215 93 18
215 93 18 212 93 17 212 97 19 227 122 41 227 126 44 222 127 41
222 127 41 225 125 41 225 125 41 224 126 41 224 126 41 224 126 41
223 125 39 221 124 36 220 123 35 220 123 33 222 123 33 225 121 31
225 121 33 222 122 35 222 122 37 223 121 39 228 120 42 200 82 11
205 82 12 208 83 11 208 83 11 208 83 11 208 83 11 208 83 11 208 83 11
208 83 11 209 81 13 212 81 16 212 81 16 212 81 16 212 81 16 212 82 14
212 82 14 212 82 14 212 82 14 208 81 10 205 80 9 226 103 31
221 104 30 217 105 26 215 105 26 214 107 24 215 106 24 219 104 22
220 104 22 220 104 20 217 106 20 227 120 33 223 122 33 222 123 33
220 123 33 219 124 33 217 125 33 219 124 33 220 123 33 223 124 34
226 124 35 213 109 21 216 110 23 222 108 24 224 108 24 224 108 24
224 108 24 224 108 24 224 108 24 224 108 24 224 108 24 214 94 16
214 94 16 214 94 16 212 93 15 214 92 15 213 91 14 213 91 14 213 91 14
213 91 14 213 91 14 213 91 14 213 91 14 214 92 17 214 92 17 214 92 17
214 92 17 214 92 17 214 92 17 214 92 17 212 93 17 221 101 27
221 101 27 221 101 25 221 101 25 219 102 25 219 102 25 219 102 23
219 102 23 221 101 23 218 99 21 216 97 19 214 94 16 214 94 16
214 94 16 214 94 16 214 94 16 215 94 16 215 94 16 214 94 16 215 95 17
219 102 23 220 103 24 220 103 24 220 103 24 220 103 26 220 103 26
220 103 26 220 103 24 220 104 22 221 102 21 217 98 18 216 97 17
214 95 14 214 95 14 214 95 14 214 95 14 212 96 14 212 96 14 210 96 14
212 97 15 215 101 21 216 102 22 216 102 22 216 102 22 217 103 21
217 103 21 217 103 21 217 103 21 217 103 21 216 102 20 214 100 18
216 99 18 216 97 19 218 96 19 218 96 19 218 96 19 218 96 19 218 96 19
216 95 17 216 95 17 215 93 18 215 93 18 214 92 17 214 92 17 215 93 18
215 93 18 215 93 18 215 93 18 212 93 17 212 97 19 227 122 41
227 126 44 222 127 41 222 127 41 225 125 41 225 125 41 224 126 41
224 126 41 224 126 41 223 125 39 221 124 36 220 123 35 220 123 33
222 123 33 225 121 31 225 121 33 223 121 35 222 122 37 223 121 39
229 119 42 200 82 11 205 82 12 208 82 13 208 82 13 208 82 13
208 82 13 208 82 13 208 82 13 208 82 13 209 81 13 212 81 16 212 81 16
212 81 16 212 81 16 212 82 14 212 82 14 212 82 14 212 82 14 208 81 10
205 80 9 226 103 31 221 104 30 217 105 26 215 105 26 214 107 24
215 106 24 219 104 22 220 104 22 222 103 20 219 105 20 227 120 33
223 122 33 223 122 33 222 123 33 220 123 33 219 124 33 219 124 33
220 123 33 223 124 34 226 124 35 213 109 21 218 109 23 221 109 24
222 108 24 222 108 24 222 108 24 222 108 24 222 108 24 222 108 24
222 108 24 214 94 16 214 94 16 214 94 16 214 94 16 212 93 15
212 93 15 212 93 15 212 93 15 214 92 15 214 92 15 214 92 15 214 92 15
214 92 17 214 92 17 214 92 17 214 92 17 214 92 17 216 91 17 216 91 17
214 92 17 221 99 26 221 99 26 221 99 24 221 99 24 219 102 23
217 103 23 217 103 23 219 103 21 219 103 21 217 100 19 214 98 17
212 96 14 214 95 14 214 95 14 214 95 14 214 95 14 215 94 16 215 94 16
214 94 16 215 95 17 221 101 25 222 102 26 220 103 26 220 103 26
222 102 24 222 102 24 222 102 24 222 102 24 222 103 22 222 101 21
219 97 18 218 96 17 215 94 14 215 94 14 214 95 14 214 95 14 212 96 14
212 96 14 212 97 15 212 97 15 215 101 19 215 101 19 216 102 20
216 102 20 219 103 21 219 103 21 219 103 21 219 103 21 219 103 21
218 101 20 216 99 18 216 99 18 216 97 19 216 97 19 216 97 19
216 97 19 216 97 19 216 97 19 215 95 17 215 95 17 214 94 16 214 94 16
212 93 15 212 93 15 214 94 16 214 94 16 214 94 16 214 94 16 214 92 15
213 96 17 229 122 39 227 126 42 224 126 41 224 126 39 225 126 39
225 126 39 224 126 39 222 127 39 222 127 39 221 126 37 220 125 36
219 124 33 219 124 33 220 123 33 223 122 33 225 121 33 222 122 35
222 122 37 223 121 39 228 120 42 200 82 11 205 82 12 208 82 13
208 82 15 208 82 15 208 82 15 208 82 15 208 82 15 208 82 15 209 81 15
211 80 15 211 80 15 211 80 15 211 80 15 211 81 13 211 81 13 211 81 13
211 81 13 207 79 9 204 79 7 225 102 30 220 102 28 217 105 26
215 105 26 214 107 24 215 106 24 219 104 22 222 103 22 223 102 20
220 104 20 225 121 33 222 123 33 223 122 33 223 122 33 222 123 33
222 123 33 220 123 33 220 123 33 223 124 34 226 124 35 217 108 21
221 107 23 221 109 24 221 109 24 221 109 24 221 109 24 221 109 24
221 109 24 221 109 24 221 109 24 214 94 16 214 94 16 214 94 16
214 94 16 212 93 15 212 93 15 212 93 15 212 93 15 212 93 15 214 92 15
214 92 15 214 92 15 214 92 17 214 92 17 214 92 17 214 92 17 216 91 17
216 91 17 216 91 17 216 91 17 223 98 24 223 98 24 223 98 24 221 99 24
219 102 23 217 103 23 217 103 21 217 103 21 217 103 21 217 100 19
214 98 17 212 96 14 212 96 14 214 95 14 214 95 14 214 95 14 214 94 16
214 94 16 214 94 16 215 95 17 221 101 25 222 102 26 220 103 26
220 103 26 222 102 24 222 102 24 222 102 24 222 102 24 223 102 24
222 101 21 219 97 18 218 96 17 217 93 14 217 93 14 215 94 14
214 95 14 214 95 14 212 96 14 213 97 15 213 97 15 217 100 19
217 100 19 218 101 20 218 101 20 219 103 21 221 101 23 221 101 23
221 101 23 221 101 23 219 100 22 217 98 20 217 98 20 216 97 19
216 97 19 216 97 19 216 97 19 216 97 19 216 97 19 215 95 17 215 95 17
214 94 16 214 94 16 212 93 15 212 93 15 214 94 16 214 94 16 214 94 16
214 94 16 214 92 15 213 96 17 229 122 39 228 126 42 224 126 39
224 126 39 227 125 39 227 125 39 224 126 39 224 126 39 224 126 39
223 125 37 221 125 34 220 123 33 220 123 33 222 123 33 225 121 33
225 121 33 222 122 35 222 122 37 223 121 39 228 120 42 200 82 11
205 82 12 208 82 15 208 82 15 208 82 15 208 82 15 208 82 15 208 82 15
208 82 15 209 81 15 211 80 15 211 80 15 211 80 15 211 80 15 211 81 13
211 81 13 211 81 13 211 81 13 207 79 9 204 79 7 225 102 30 220 102 28
217 105 26 215 105 26 214 107 24 215 106 24 219 104 22 220 104 22
223 102 20 220 104 20 223 122 33 220 123 33 222 123 33 223 122 33
223 122 33 223 122 33 220 123 33 220 123 33 223 124 34 227 123 35
220 106 21 223 106 23 221 109 24 221 109 24 221 109 24 221 109 24
221 109 24 221 109 24 221 109 24 221 109 24 215 95 17 215 95 17
215 95 17 215 95 17 214 94 16 214 94 16 214 94 16 214 94 16 214 94 16
214 94 16 212 93 15 212 93 15 212 93 15 212 93 15 212 93 15 214 92 15
214 92 15 214 92 15 214 92 15 214 92 15 223 99 22 223 99 22 223 99 22
221 99 22 217 103 23 216 104 21 216 104 21 216 104 21 216 104 21
215 101 19 213 99 17 210 96 14 210 96 14 212 96 14 212 96 14
212 96 14 212 95 16 212 95 16 212 95 16 214 97 19 218 101 24
220 103 26 220 103 26 220 103 26 222 102 26 222 102 26 222 102 26
222 102 26 223 102 24 222 100 23 219 97 20 218 96 19 217 93 16
217 93 16 215 94 16 215 94 16 215 94 16 214 94 16 215 95 17 216 97 19
217 98 20 218 99 21 219 100 22 219 100 22 221 101 23 222 100 25
222 100 25 222 100 25 222 100 25 221 99 24 219 97 22 217 98 20
216 97 19 216 97 19 216 97 19 216 97 19 216 97 19 216 97 19 215 95 17
215 95 17 215 95 17 215 95 17 214 94 16 214 94 16 215 95 17 215 95 17
215 95 17 215 95 17 215 94 16 216 97 19 231 121 39 228 126 42
225 126 39 225 126 39 227 125 39 227 125 39 225 126 39 225 126 39
225 126 39 224 124 37 223 124 34 222 123 33 222 123 33 223 122 33
227 120 33 227 120 33 223 121 35 223 121 37 225 120 39 229 119 42
202 82 11 206 81 12 208 82 15 209 81 15 209 81 15 209 81 15 209 81 15
209 81 15 209 81 15 209 81 15 211 80 15 211 80 15 211 80 15 211 80 15
211 81 13 211 81 13 211 81 13 211 81 13 207 79 9 204 79 7 225 102 30
220 102 28 218 106 28 217 106 28 215 108 26 217 107 26 218 106 23
220 106 23 223 104 21 220 106 21 222 123 33 219 124 33 220 123 33
223 122 33 223 122 33 223 122 33 222 123 33 220 123 33 223 124 34
229 122 35 220 106 21 223 106 23 221 109 24 219 110 24 219 110 24
219 110 24 219 110 24 219 110 24 219 110 24 219 110 24 216 97 19
216 97 19 216 97 19 216 97 19 215 95 17 215 95 17 215 95 17 213 96 17
213 96 17 212 97 17 209 95 15 209 95 15 211 94 15 211 94 15 211 94 15
211 94 15 211 94 15 211 94 15 211 94 15 211 94 15 219 100 22
219 100 22 219 100 22 218 101 20 214 105 21 213 106 21 213 106 21
214 105 21 214 105 21 214 102 19 211 99 17 209 97 14 209 97 14
210 96 14 210 96 14 210 96 14 210 96 16 212 95 16 212 95 16 214 97 19
218 101 24 220 103 26 220 103 26 222 102 26 222 102 26 223 101 28
223 101 28 223 101 26 223 101 26 224 99 25 220 96 22 219 95 21
217 92 18 217 92 18 217 92 18 217 92 18 217 92 18 217 92 18 216 94 19
218 95 21 219 97 22 220 98 23 221 99 24 221 99 24 224 99 25 224 99 27
224 99 27 224 99 27 224 99 27 221 99 24 218 95 21 218 95 21 218 95 21
216 97 19 216 97 19 216 97 19 216 97 19 216 97 19 215 95 17 215 95 17
215 95 17 215 95 17 215 95 17 214 94 16 215 95 17 215 95 17 215 95 17
216 95 17 217 93 16 216 97 19 231 121 39 228 126 42 225 126 39
225 126 39 227 125 39 229 124 39 227 125 39 227 125 39 227 125 39
226 124 37 225 123 34 223 122 33 223 122 33 225 121 33 228 119 33
228 119 33 227 120 35 227 119 37 228 118 39 233 117 42 201 78 8
208 80 12 209 81 15 211 80 15 211 80 15 211 80 15 211 80 15 211 80 15
211 80 15 211 80 15 211 80 15 211 80 15 211 80 15 211 80 15 211 81 13
211 81 13 211 81 13 211 81 13 207 79 9 204 79 7 225 102 30 220 102 28
218 106 28 217 106 28 215 108 26 215 108 26 217 107 23 218 106 23
221 105 21 218 107 21 219 124 33 215 126 33 219 124 33 220 123 33
220 123 33 220 123 33 217 125 33 217 125 33 220 125 34 224 125 35
217 108 21 219 108 23 217 111 24 217 111 24 217 111 24 217 111 24
217 111 24 217 111 24 217 111 24 217 111 24 217 98 20 217 98 20
217 98 20 217 98 20 216 97 19 216 97 19 214 97 19 213 98 19 214 99 20
211 99 19 229 120 38 229 120 38 233 124 40 233 124 40 233 124 40
233 124 40 233 124 40 233 124 40 231 124 40 231 124 40 231 124 40
231 124 40 231 124 40 231 124 40 230 125 40 230 125 40 230 125 40
231 124 40 231 124 40 233 124 40 220 111 27 221 112 28 221 112 28
223 111 28 223 111 28 223 111 28 224 110 30 224 110 30 224 110 30
228 111 32 206 89 12 210 90 15 210 90 15 212 90 15 213 88 17
213 88 19 213 88 19 213 88 17 210 85 13 215 88 17 197 70 0 201 74 3
199 71 2 199 71 2 199 71 2 199 71 2 200 70 2 200 70 2 201 71 4
203 72 5 202 74 6 203 76 7 204 77 8 204 77 8 206 78 9 206 78 9
206 78 9 206 78 9 206 78 9 204 79 7 219 94 23 218 93 21 216 94 19
216 94 19 215 95 17 215 95 17 216 97 19 216 97 19 217 98 20 217 98 20
216 97 19 216 97 19 216 97 19 215 95 17 216 97 19 215 95 17 215 95 17
216 95 17 218 94 17 217 98 20 217 107 26 213 110 27 211 112 25
211 112 25 213 111 25 215 110 25 216 109 25 216 109 25 216 109 25
215 108 23 214 107 20 213 106 19 213 106 19 214 105 19 217 104 19
217 104 19 216 104 21 216 104 23 217 103 25 218 98 25 203 76 7
203 70 6 204 71 7 204 71 7 204 71 7 204 71 7 204 71 7 204 71 7
204 71 7 203 72 7 206 76 10 206 76 10 206 76 10 206 76 10 206 76 8
206 76 8 206 76 8 206 76 8 206 78 7 203 78 6 223 101 28 219 101 27
219 107 29 218 108 29 216 109 27 215 110 27 213 109 23 215 108 23
218 107 21 215 108 21 245 153 61 242 155 61 243 154 61 243 154 61
242 155 61 239 156 61 237 157 61 235 158 61 236 156 60 243 156 62
220 125 34 225 126 37 223 122 33 225 121 33 225 121 33 225 121 33
225 121 33 225 121 33 225 121 33 225 121 33 218 99 21 218 99 21
218 99 21 218 99 21 217 98 20 217 98 20 216 99 20 214 99 20
214 101 21 211 101 20 228 121 38 228 121 38 231 124 40 230 125 40
230 125 40 230 125 40 230 125 40 228 126 40 228 126 40 228 126 40
228 126 38 228 126 38 228 126 38 228 126 38 228 126 40 228 126 40
230 125 40 230 125 40 231 124 40 231 124 40 219 112 27 220 113 28
220 113 28 221 112 28 221 112 28 221 112 28 223 111 30 224 110 30
224 110 30 227 112 32 206 89 12 210 90 15 212 90 15 213 88 17
215 87 19 215 87 19 215 87 19 215 87 19 211 84 15 215 87 19 197 70 1
201 73 7 200 70 4 200 70 4 200 70 4 202 69 4 202 69 4 202 69 4
203 70 6 204 71 7 205 72 8 207 74 9 208 75 10 206 76 10 207 77 11
207 77 9 207 77 9 207 77 9 207 77 9 206 78 9 220 92 23 217 92 20
216 94 19 216 94 19 215 95 17 215 95 17 216 97 19 216 97 19 217 98 20
217 98 20 216 97 19 216 97 19 217 98 20 216 97 19 216 97 19 215 95 17
215 95 17 216 95 17 218 94 17 217 98 20 217 107 26 213 110 27
211 112 25 211 112 25 213 111 25 216 109 25 218 108 25 219 108 25
219 108 25 218 106 23 217 106 20 216 105 19 216 105 19 217 104 19
221 102 19 221 102 19 217 103 21 217 103 23 219 102 25 220 97 25
205 73 6 205 69 6 206 70 7 204 71 7 204 71 7 204 71 7 204 71 7
204 71 7 204 71 7 204 71 7 206 76 10 206 76 10 206 76 10 206 76 10
206 76 8 206 76 8 206 76 8 206 76 8 206 78 7 203 78 6 223 101 28
219 101 27 219 107 29 218 108 29 216 109 27 215 110 27 212 110 23
213 109 23 217 108 21 213 109 21 243 154 61 239 156 61 242 155 61
240 155 61 237 157 61 235 158 61 232 159 61 232 159 61 233 157 60
238 158 62 217 127 34 222 128 37 222 123 33 223 122 33 223 122 33
223 122 33 223 122 33 223 122 33 223 122 33 223 122 33 219 100 22
219 100 22 219 100 22 219 100 22 218 99 21 218 99 21 218 99 21
217 100 21 215 103 22 210 103 21 228 121 36 226 122 36 230 125 40
228 126 40 228 126 38 228 126 38 228 126 38 227 127 38 227 127 38
227 127 38 227 127 38 227 127 38 227 127 38 227 127 38 227 127 38
228 126 38 228 126 40 230 125 40 230 125 40 230 125 40 217 112 27
218 114 28 218 114 28 220 113 28 220 113 28 220 113 28 221 112 30
223 111 30 223 111 30 227 112 32 206 89 12 210 90 15 212 89 17
213 88 17 215 87 19 215 87 19 215 87 21 215 87 21 211 83 17 215 87 21
197 69 3 201 73 7 200 69 6 202 68 6 202 68 6 203 68 6 203 68 6
203 68 6 205 69 8 206 70 9 207 71 10 208 72 11 209 73 12 208 74 12
207 76 13 207 77 11 209 76 11 209 76 11 207 77 11 207 77 11 221 91 25
218 91 22 218 93 19 216 95 17 216 95 17 216 95 17 218 96 19 218 96 19
219 97 20 219 97 20 219 97 20 219 97 20 220 98 21 219 97 20 219 97 20
218 96 19 218 96 19 218 96 19 219 95 19 218 99 21 217 107 26
213 110 27 211 112 25 211 112 25 213 111 25 216 109 25 219 108 25
221 107 25 221 107 25 220 106 23 219 105 20 217 104 19 217 104 19
219 103 19 222 101 19 222 101 19 219 103 21 219 102 23 221 101 25
222 97 25 207 72 6 206 69 4 206 70 7 206 70 7 206 70 7 206 70 7
206 70 7 206 70 7 206 70 7 204 71 7 206 76 10 206 76 10 206 76 10
206 76 10 206 76 8 206 76 8 206 76 8 206 76 8 206 78 7 203 78 6
223 101 28 219 101 27 221 108 30 219 109 30 217 110 28 214 112 28
211 112 25 213 111 25 216 110 23 213 111 23 242 155 61 237 157 61
240 155 61 240 155 61 237 157 61 235 158 61 234 159 61 232 159 61
233 157 60 240 157 62 217 127 34 222 128 37 220 123 33 222 123 33
222 123 33 222 123 33 222 123 33 222 123 33 222 123 33 222 123 33
219 100 22 219 100 22 219 100 22 219 100 22 218 99 21 218 99 21
218 99 21 217 100 21 213 103 22 210 103 21 228 121 36 226 122 36
228 126 40 228 126 40 228 126 40 227 127 38 227 127 38 227 127 38
227 127 38 227 127 38 227 127 38 227 127 38 227 127 38 227 127 38
227 127 38 227 127 38 228 126 40 228 126 40 230 125 40 230 125 40
217 112 27 218 114 28 218 114 28 218 114 28 218 114 28 218 114 28
220 112 30 221 112 30 221 112 30 224 112 31 206 89 12 212 90 15
212 89 17 213 88 17 213 88 19 215 87 19 215 87 21 215 87 21 211 83 17
215 87 21 197 69 3 203 72 7 202 68 6 203 68 6 203 68 6 203 68 6
203 68 6 203 68 6 205 69 8 206 70 9 207 71 10 208 72 11 209 73 12
209 73 12 209 75 13 207 76 13 209 76 11 209 76 11 207 77 11 207 77 11
220 91 25 218 91 22 218 93 19 216 95 17 216 95 17 216 95 17 218 96 19
218 96 19 219 97 20 219 97 20 219 97 20 219 97 20 220 98 21 219 97 20
219 97 20 218 96 19 218 96 19 218 96 19 219 95 19 218 99 21
218 106 26 216 109 27 215 110 25 215 110 25 216 109 25 218 108 25
221 107 25 221 107 25 221 107 25 220 106 23 219 104 22 217 104 19
217 104 19 219 103 19 222 101 19 222 101 19 219 103 21 219 102 23
221 101 25 222 97 25 207 72 6 206 69 4 206 70 7 206 70 9 206 70 9
206 70 9 206 70 9 206 70 9 206 70 9 206 70 7 208 75 10 206 76 10
206 76 10 206 76 10 206 76 8 206 76 8 206 76 8 206 76 8 207 77 7
203 78 6 222 102 28 217 102 27 219 109 30 217 110 30 217 110 28
216 111 28 211 112 25 213 111 25 215 110 23 211 112 23 240 155 61
237 157 61 239 156 61 239 156 61 237 157 61 235 158 61 234 159 61
234 159 61 234 157 60 240 157 62 217 127 34 222 128 37 220 123 33
220 123 33 220 123 33 220 123 33 220 123 33 220 123 33 220 123 33
220 123 33 218 99 21 218 99 21 218 99 21 218 99 21 218 99 21
218 99 21 218 99 21 217 100 21 215 103 22 212 102 21 228 121 38
226 121 38 227 124 41 227 124 41 225 125 41 224 126 39 224 126 39
224 126 39 225 126 37 225 126 37 227 125 37 227 125 37 227 125 37
227 125 37 227 125 39 227 125 39 227 125 39 227 125 39 229 124 39
229 124 39 216 111 26 217 112 27 218 114 28 218 114 28 218 114 28
218 114 28 220 112 30 220 112 30 220 112 30 224 112 31 207 90 14
212 90 15 213 89 15 213 88 17 213 88 19 213 88 19 213 88 19 213 88 19
210 84 17 215 87 21 197 69 3 203 72 7 203 68 6 205 67 6 205 67 6
205 67 6 205 67 6 205 67 6 205 69 8 206 70 9 207 71 10 208 72 11
209 73 12 209 73 12 209 75 13 207 76 13 209 76 11 209 76 11 207 77 9
206 78 7 215 95 19 214 94 16 216 95 17 218 94 15 218 94 17 218 94 17
219 95 19 219 95 19 219 95 19 219 95 19 220 96 20 220 96 20 220 96 20
220 96 20 220 96 20 220 96 20 219 97 20 219 97 20 219 97 20 221 99 22
223 106 27 222 108 28 222 108 28 222 108 28 222 108 28 224 107 28
224 107 26 224 107 26 224 107 28 223 106 27 221 104 26 220 104 22
220 104 22 220 104 20 222 103 20 222 103 20 219 104 22 219 104 24
220 103 26 221 99 26 207 74 7 206 70 7 206 70 9 206 70 11 206 70 11
206 70 11 206 70 11 206 70 11 206 70 11 206 70 9 208 75 10 206 76 8
206 76 8 206 76 8 206 76 8 206 76 6 206 76 6 206 76 6 207 77 7
203 78 6 219 103 28 213 105 27 214 111 30 214 111 30 217 110 28
217 110 28 216 111 26 216 111 26 217 111 24 213 113 24 241 157 60
237 159 60 240 158 60 240 158 60 238 159 60 237 159 60 235 160 60
235 160 60 233 156 57 239 157 59 215 126 31 221 127 33 221 125 32
221 125 32 221 125 32 221 125 32 221 125 34 221 125 34 221 125 34
221 125 34 218 99 21 218 99 21 218 99 21 218 99 21 218 99 21
218 99 21 218 99 21 217 100 21 215 103 22 212 102 21 229 120 38
228 121 38 229 124 41 227 124 41 225 125 41 224 126 41 224 126 39
224 126 39 224 127 37 224 127 37 225 126 37 225 126 37 225 126 37
225 126 37 227 125 39 229 124 39 229 124 39 229 124 39 229 124 39
229 124 39 216 111 26 217 112 27 218 114 28 218 114 28 218 114 28
218 114 28 220 112 30 220 112 30 220 112 30 223 111 30 210 90 15
212 90 15 213 89 15 213 88 17 213 88 19 213 88 19 213 88 19 213 88 19
210 84 17 215 87 21 199 69 3 204 71 7 203 68 6 205 67 6 205 67 6
205 67 6 205 67 6 205 67 6 205 69 8 206 70 9 207 71 10 208 72 11
209 73 12 208 74 12 207 76 13 207 76 13 209 76 11 209 76 9 207 77 7
204 79 5 213 96 17 210 96 14 216 95 15 218 94 15 218 94 17 218 94 17
219 95 19 219 95 19 219 95 19 219 95 19 220 96 20 220 96 20 220 96 20
220 96 20 220 96 20 220 96 20 219 97 20 219 97 20 217 98 20
218 101 22 223 106 27 224 107 28 224 107 28 224 107 28 224 107 28
222 108 26 222 108 26 222 108 26 222 108 26 221 107 25 220 106 23
219 104 22 219 104 22 219 105 20 220 104 20 219 105 20 217 105 22
217 105 24 219 104 26 219 99 26 203 76 7 204 71 7 206 70 9 206 70 11
206 70 11 206 70 11 206 70 11 206 70 11 206 70 11 206 70 9 208 75 10
206 76 8 206 76 8 206 76 8 206 76 6 206 76 6 206 76 6 208 76 6
210 76 7 206 76 6 220 102 28 213 105 27 214 111 30 214 111 30
219 109 28 221 108 28 219 110 26 219 110 26 219 110 24 214 112 24
241 157 60 235 160 60 238 159 60 238 159 60 237 159 60 235 160 60
233 161 60 233 161 60 232 157 57 237 157 59 214 127 31 219 128 33
221 125 32 221 125 32 221 125 32 221 125 32 221 125 34 221 125 34
221 125 34 221 125 34 218 99 21 218 99 21 218 99 21 218 99 21
218 99 21 218 99 21 218 99 21 217 100 21 216 102 22 214 101 21
229 120 38 228 121 38 229 124 41 227 124 41 225 125 41 224 126 41
222 127 39 222 127 39 222 127 39 222 127 39 222 127 39 222 127 39
222 127 39 224 126 39 227 125 39 230 123 39 230 123 39 230 123 39
230 123 39 230 123 39 217 110 26 219 112 27 220 113 28 220 113 28
220 113 28 220 113 28 220 112 30 220 112 30 220 112 30 223 111 30
210 90 15 213 89 15 213 89 15 213 88 17 213 88 19 213 88 19 213 88 19
213 88 19 211 85 18 216 88 22 199 69 3 204 71 7 203 68 6 205 67 6
207 66 6 207 66 6 205 67 6 205 67 6 205 69 8 206 70 9 205 72 10
207 73 11 208 75 10 208 75 10 207 77 11 207 77 11 209 76 11 209 76 9
207 77 7 204 79 5 213 96 17 210 96 14 215 96 15 216 95 15 216 95 17
216 95 17 218 96 19 218 96 19 218 96 19 218 96 19 219 97 20 219 97 20
219 97 20 219 97 20 219 97 20 219 97 20 219 97 20 217 98 20
212 100 20 213 103 22 218 108 25 219 110 26 219 110 26 219 110 26
219 110 26 219 110 24 219 110 24 219 110 24 219 110 24 218 109 23
217 108 21 215 106 20 215 107 18 215 107 18 217 106 20 215 106 20
214 107 22 214 107 24 215 105 26 216 101 26 200 77 7 203 72 7
204 71 9 206 70 11 206 70 11 206 70 11 206 70 11 206 70 11 206 70 11
206 70 9 208 75 10 206 76 8 206 76 8 206 76 8 206 76 6 206 76 6
206 76 6 208 76 6 212 75 7 209 75 6 223 101 28 216 103 27 217 110 30
217 110 30 222 108 28 224 107 28 222 108 26 222 108 26 222 108 24
216 112 24 241 157 60 233 161 60 233 161 60 233 161 60 233 161 60
232 162 60 230 163 60 230 163 60 228 158 57 234 159 59 211 129 31
218 129 33 221 125 32 223 124 32 223 124 32 223 124 32 223 124 34
223 124 34 223 124 34 223 124 34 218 99 21 218 99 21 218 99 21
218 99 21 218 99 21 218 99 21 218 99 21 218 99 21 218 101 22
215 101 21 232 120 39 228 121 38 229 124 41 227 124 41 225 125 41
224 126 41 222 127 39 222 127 39 222 127 39 222 127 39 222 127 39
222 127 39 222 127 39 224 126 39 229 124 39 230 123 39 230 123 39
230 123 39 230 123 39 230 123 39 217 110 26 219 112 27 220 113 28
220 113 28 220 113 28 220 113 28 220 112 30 220 112 30 220 112 30
223 111 30 210 90 15 213 89 15 213 89 15 213 88 17 213 88 19
213 88 19 213 88 19 213 88 19 211 85 18 216 88 22 198 67 2 202 69 4
203 68 6 205 67 6 207 66 6 207 66 6 205 67 6 205 67 6 205 69 8
206 70 9 205 72 10 207 73 11 208 75 10 206 76 10 206 78 11 206 78 11
207 77 9 207 77 7 206 79 5 202 80 5 212 97 17 210 96 14 215 96 15
216 95 15 216 95 17 216 95 17 218 96 19 218 96 19 218 96 19 218 96 19
219 97 20 219 97 20 219 97 20 219 97 20 219 97 20 217 98 20 217 98 20
216 99 20 212 102 21 209 102 20 216 109 27 217 110 26 217 110 26
217 110 26 217 110 26 217 111 24 217 111 24 219 110 24 219 110 24
218 109 23 217 108 21 215 107 18 215 107 18 215 107 18 217 106 20
217 105 22 214 107 24 214 106 28 215 105 30 216 100 30 201 74 10
203 72 9 204 70 11 206 70 11 206 70 11 206 70 11 206 70 11 206 70 11
206 70 11 206 70 9 208 75 10 206 76 8 206 76 8 206 76 8 206 76 6
206 76 6 206 76 6 208 76 6 212 75 7 209 75 6 223 101 28 216 103 27
217 110 30 217 110 30 222 108 28 224 107 28 222 108 26 222 108 26
222 108 24 216 112 24 241 157 60 233 161 60 233 161 60 233 161 60
233 161 60 232 162 60 230 163 60 230 163 60 228 158 57 234 159 59
211 129 31 218 129 33 221 125 32 223 124 32 223 124 32 223 124 32
222 123 33 222 123 33 222 123 33 222 123 33 218 99 21 218 99 21
218 99 21 218 99 21 218 99 21 218 99 21 218 99 21 218 99 21
218 101 22 216 102 22 232 120 39 231 124 42 230 125 42 228 126 42
227 126 42 225 127 42 225 128 40 225 128 40 225 128 40 224 126 39
224 124 37 223 123 36 223 123 36 225 123 36 226 122 36 226 122 36
226 122 36 227 123 37 229 122 37 228 121 36 225 119 34 223 116 32
221 114 29 221 114 29 221 114 29 221 114 29 220 112 30 220 112 30
220 112 30 223 111 30 212 90 15 215 88 15 215 88 15 215 88 17
215 87 19 215 87 19 213 88 19 213 88 19 214 86 20 216 88 22 198 67 2
201 68 3 202 66 5 204 66 5 205 65 5 205 65 5 205 66 9 205 66 9
205 69 8 206 70 9 207 74 9 208 75 10 207 77 11 207 77 9 207 79 13
207 79 13 208 78 11 208 79 9 207 80 7 204 81 7 213 98 19 212 97 15
217 100 19 218 99 19 218 99 21 218 99 21 217 98 20 217 98 20
217 98 20 217 98 20 217 98 20 218 99 21 218 99 21 218 99 21 218 99 21
217 100 21 215 101 21 214 101 21 212 102 23 210 100 21 224 114 32
219 109 28 222 113 31 222 113 31 222 113 31 222 113 29 222 113 29
224 112 29 223 111 28 222 110 27 219 108 25 218 107 21 219 105 20
219 104 22 220 103 24 220 103 26 219 103 28 217 103 32 215 99 31
220 96 33 203 71 13 205 68 12 207 71 12 207 71 12 207 71 12 207 71 12
207 71 12 207 71 12 207 71 10 207 71 10 209 76 11 207 77 9 207 77 9
207 77 9 207 77 7 207 77 7 207 77 7 209 77 7 210 76 5 206 77 4
219 102 25 210 103 23 214 111 30 214 112 28 219 109 28 221 109 26
219 110 26 219 110 26 221 109 24 216 112 24 239 155 58 234 157 58
234 157 58 234 157 58 234 157 58 233 158 58 229 159 58 229 159 58
233 161 60 233 156 57 217 131 35 217 125 31 220 124 31 222 123 31
222 123 31 222 123 31 222 123 33 222 123 33 222 123 33 222 123 33
218 99 21 218 99 21 218 99 21 218 99 21 218 99 21 218 99 21 218 99 21
218 99 21 219 102 23 215 101 21 229 117 36 224 117 35 230 125 42
228 126 42 227 126 42 225 127 42 227 127 40 228 126 40 228 126 40
230 125 40 229 124 39 229 124 39 229 124 39 229 124 39 229 124 39
229 124 39 229 124 39 227 123 37 227 120 35 224 117 33 222 115 30
220 113 28 220 113 28 220 113 28 220 113 28 220 113 28 219 111 29
219 111 29 219 111 29 222 110 29 212 90 15 215 88 15 215 88 15
215 88 17 215 87 19 215 87 19 213 88 19 213 88 19 215 87 21 216 88 22
197 66 1 200 67 2 202 66 5 204 66 5 205 65 5 205 65 5 205 66 9
205 66 9 205 69 8 205 69 8 204 71 7 204 71 7 204 74 6 204 74 6
203 75 9 203 76 7 205 75 5 205 75 5 203 76 3 200 78 3 209 95 15
207 95 12 212 97 15 213 97 15 213 96 17 213 96 17 212 95 16 213 96 17
213 96 17 214 97 19 214 97 19 216 99 20 216 99 20 217 100 21
217 100 21 215 101 21 215 101 21 214 101 21 212 100 22 214 101 23
224 112 31 224 112 31 223 109 29 223 108 31 225 108 31 225 108 31
225 108 29 225 108 29 225 106 28 224 104 29 222 102 26 221 101 25
221 99 24 223 98 24 224 97 26 223 97 28 221 98 30 221 97 32 225 98 36
225 93 35 209 69 16 208 66 14 210 71 15 208 72 13 208 72 13 208 72 13
208 72 13 208 72 13 208 72 11 208 72 11 209 76 11 207 77 9 207 77 9
207 77 9 207 77 7 207 77 7 207 77 7 207 77 7 207 78 5 201 79 4
217 110 30 214 113 31 209 114 28 209 114 28 214 112 26 216 111 26
213 113 26 214 112 26 217 111 24 214 112 24 242 155 59 239 157 59
242 155 59 242 155 59 239 157 59 237 157 59 234 159 59 234 159 59
231 154 54 233 151 53 221 129 35 221 125 32 222 123 31 222 123 31
222 123 31 222 123 31 221 121 32 221 121 32 221 121 32 221 121 32
218 99 21 218 99 21 218 99 21 218 99 21 218 99 21 218 99 21 218 99 21
218 99 21 220 103 24 213 98 19 223 111 30 216 109 27 212 107 24
211 108 24 209 109 24 209 109 24 214 107 22 215 106 22 215 106 22
217 105 22 218 106 23 218 106 23 217 107 23 217 107 23 217 107 23
215 108 23 215 108 23 215 108 23 221 114 29 219 112 27 216 109 25
214 107 22 214 107 22 215 108 23 215 108 23 215 108 23 216 109 27
216 109 27 216 109 27 219 107 27 212 90 15 215 88 15 215 88 15
215 88 17 215 87 19 215 87 19 213 88 19 213 88 19 217 89 23 218 90 24
198 67 2 201 68 3 202 66 5 204 66 5 205 65 5 205 65 5 205 66 9
205 66 9 203 68 6 203 68 6 218 85 21 217 86 21 217 86 19 215 87 19
216 88 20 216 88 20 218 88 18 218 88 18 216 89 16 213 91 16
222 108 28 219 108 25 223 111 28 224 110 28 224 110 30 224 110 30
223 109 29 222 108 28 221 106 27 220 105 26 219 104 24 217 103 23
216 102 22 215 101 21 215 101 21 215 101 21 215 101 21 215 101 21
217 103 25 213 96 19 195 77 1 190 71 0 199 77 2 201 76 4 201 76 4
201 76 4 201 75 6 202 74 6 201 73 5 200 72 6 199 69 3 198 67 2
198 65 1 200 65 1 202 64 1 200 65 1 198 65 3 198 65 5 194 58 1
205 64 11 211 62 15 220 70 23 208 66 12 205 68 10 205 68 10 205 68 10
205 68 10 205 68 10 205 69 8 205 69 8 216 83 18 214 84 16 214 84 16
214 84 16 214 84 14 214 84 14 214 84 14 213 85 14 207 87 11 203 93 14
224 129 45 223 135 48 230 147 57 230 147 57 235 145 55 235 145 55
232 147 55 234 146 55 240 143 53 240 143 53 222 133 38 222 133 38
230 129 38 230 129 38 224 132 38 221 134 38 219 135 38 219 135 38
223 136 40 228 136 42 217 118 26 219 117 26 222 123 31 222 123 31
222 123 31 222 123 31 221 121 32 221 121 32 221 121 32 221 121 32
217 100 21 217 100 21 217 100 21 217 100 21 217 100 21 217 100 21
217 100 21 217 100 21 221 104 26 212 97 17 219 107 27 211 101 20
214 107 24 212 107 24 211 108 24 212 107 24 217 105 22 219 104 22
220 106 23 220 106 23 221 107 25 219 108 25 221 109 26 219 110 26
219 110 26 219 110 26 219 110 26 219 110 26 219 110 26 218 108 25
215 106 22 213 104 20 213 104 20 214 105 21 214 105 21 214 105 21
215 106 24 215 106 24 215 106 24 217 105 24 212 90 15 215 88 15
215 88 15 215 88 17 215 87 19 215 87 19 215 87 19 215 87 19 217 89 23
218 90 24 198 67 2 201 68 3 202 66 5 204 66 5 205 65 5 205 65 5
205 66 9 205 66 9 203 68 6 203 68 6 215 82 17 213 83 15 211 84 13
211 84 13 213 85 16 213 85 16 214 84 14 213 85 14 211 86 12 209 88 10
219 104 24 216 104 21 219 108 25 219 108 25 219 107 27 219 107 27
218 106 26 217 105 24 217 105 24 216 104 23 216 104 23 215 103 22
215 103 22 214 101 21 215 101 21 215 101 21 215 101 21 215 101 21
216 101 24 218 101 24 197 74 0 200 72 2 201 72 2 201 72 2 201 71 4
201 71 4 203 70 6 203 70 8 202 68 6 202 66 5 200 64 5 199 63 4
199 61 3 199 61 3 201 60 3 201 60 3 199 61 3 199 60 5 199 60 5
214 70 18 215 64 17 218 69 20 208 66 12 205 68 10 205 68 10 205 68 10
205 68 10 205 68 10 205 69 8 205 69 8 213 83 17 213 83 15 213 83 15
213 83 15 213 83 13 213 83 13 213 83 13 211 84 13 206 86 10 201 91 12
226 133 48 227 143 55 228 147 56 228 147 56 231 146 54 229 146 54
226 148 54 228 147 54 233 143 51 232 140 48 227 138 43 226 135 40
232 130 39 233 129 39 228 132 39 225 134 39 224 134 39 224 134 39
222 130 36 226 132 38 218 116 25 222 118 28 223 122 31 222 123 31
222 123 31 222 123 31 221 121 32 221 121 32 221 121 32 221 121 32
216 102 22 216 102 22 216 102 22 216 102 22 216 102 22 216 102 22
216 102 22 216 102 22 218 101 22 218 101 22 216 102 22 216 102 22
217 103 23 216 104 23 216 104 23 216 104 23 217 103 21 217 103 21
217 103 21 216 104 21 221 109 26 219 110 26 219 110 26 219 110 26
219 110 26 221 109 26 221 109 26 221 109 26 221 109 26 219 108 25
217 105 22 216 104 21 217 105 24 217 105 24 217 105 24 217 105 24
217 105 24 217 105 24 217 105 24 219 104 24 212 93 17 216 91 19
216 91 19 216 91 19 217 90 21 217 90 21 217 90 21 217 90 21 217 90 21
218 91 22 198 68 0 201 68 3 203 68 4 205 67 6 207 66 6 207 66 9
207 66 9 205 66 9 203 67 9 203 68 6 218 85 21 217 86 19 215 88 17
215 88 17 218 88 18 218 88 18 218 88 18 216 89 16 215 90 16 211 92 14
224 107 28 221 106 27 222 110 29 222 110 29 222 110 29 222 110 29
221 108 28 219 107 27 219 107 27 218 106 26 217 105 24 216 104 23
216 104 23 215 103 22 215 102 24 215 102 24 215 102 24 215 102 24
216 103 25 219 102 25 199 74 3 204 72 3 206 71 5 206 71 5 204 72 5
204 71 7 206 70 9 206 70 11 206 70 11 207 69 11 203 64 6 203 64 6
203 64 6 203 64 6 203 64 8 203 64 8 203 64 8 203 64 8 202 63 7
204 63 8 209 65 14 209 68 13 206 68 10 206 68 10 206 68 10 206 68 10
206 68 8 206 68 8 206 68 8 205 69 8 214 84 18 213 85 16 213 85 16
213 85 14 213 85 14 213 85 14 213 86 12 214 85 12 213 84 11 208 88 12
238 138 53 229 141 52 228 140 51 228 140 51 226 141 49 225 142 49
225 142 47 226 141 47 227 139 46 227 137 45 224 137 44 225 135 42
225 133 41 225 133 41 226 134 42 226 134 42 225 135 42 225 135 42
225 133 41 228 133 42 221 121 32 223 122 33 222 121 32 222 121 32
222 121 32 222 121 32 222 121 32 222 121 32 222 121 32 222 121 32
215 103 22 215 103 22 215 103 22 215 103 22 215 103 22 215 103 22
215 103 22 216 102 22 218 101 22 218 101 22 218 101 22 218 101 22
219 102 23 219 102 23 219 102 23 219 102 23 219 103 21 219 103 21
217 103 21 216 104 21 219 110 26 219 110 26 217 110 26 219 110 26
221 109 26 221 109 26 221 109 26 221 109 26 221 109 26 219 108 25
217 105 22 216 104 21 219 104 24 219 104 24 219 104 24 219 104 24
219 104 24 219 104 24 219 104 24 220 103 26 212 92 19 214 92 19
216 91 19 216 91 19 217 90 21 217 90 21 219 89 21 219 89 21 217 90 21
220 90 22 200 67 0 201 68 1 203 68 4 205 67 6 207 66 9 207 66 9
207 66 9 207 66 9 205 66 9 202 68 6 217 86 21 217 86 19 215 88 17
215 88 17 218 88 18 218 88 18 218 88 16 216 89 16 215 90 14 211 92 14
224 107 28 221 106 27 222 110 29 222 110 29 222 110 29 222 110 29
221 108 28 219 107 27 219 107 27 218 106 26 217 105 24 216 104 23
216 104 23 215 103 22 215 102 24 215 102 24 215 102 24 215 102 24
216 103 25 219 102 25 201 74 3 206 71 3 207 70 5 207 70 5 206 71 5
206 70 7 207 69 9 207 69 11 207 69 11 207 69 11 203 64 6 203 64 6
203 64 6 203 64 8 203 63 10 203 63 10 203 63 10 203 63 10 202 63 7
203 64 8 206 67 12 207 68 13 206 68 10 206 68 10 206 68 10 206 68 10
206 68 8 206 68 8 206 68 8 205 69 8 214 84 18 213 84 18 213 85 16
213 85 14 213 85 14 213 85 14 213 86 12 214 85 12 217 83 12 210 85 11
240 137 53 231 140 52 231 138 51 229 139 51 226 141 49 225 142 49
226 141 47 226 141 47 227 139 46 226 138 45 224 137 44 223 136 42
220 136 41 222 135 41 225 135 42 226 134 42 225 135 42 225 135 42
225 133 41 228 133 42 221 121 32 223 122 33 222 121 32 222 121 32
222 121 32 222 121 32 222 121 32 222 121 32 222 121 32 222 121 32
215 103 22 215 103 22 215 103 22 215 103 22 215 103 22 215 103 22
215 103 22 216 102 22 218 101 22 218 101 22 218 101 22 218 101 22
219 102 23 219 102 23 219 102 23 219 102 23 219 103 21 219 103 21
217 103 21 216 104 21 219 110 26 219 110 26 217 110 26 219 110 26
221 109 26 221 109 26 221 109 26 221 109 26 221 109 26 219 108 25
217 105 22 216 104 21 219 104 24 219 104 24 219 104 24 219 104 24
219 104 24 219 104 24 219 104 24 220 103 26 212 92 19 214 92 19
216 91 19 216 91 19 217 90 21 217 90 21 219 89 21 219 89 21 218 91 22
221 91 23 201 68 1 202 69 2 203 68 4 205 67 6 207 66 9 207 66 9
207 66 9 207 66 9 205 66 9 202 68 6 217 86 21 215 87 19 215 88 17
215 88 15 216 89 16 216 89 16 218 88 16 216 89 16 215 90 14 211 92 14
224 107 28 221 106 27 222 110 29 222 110 29 222 110 29 222 110 29
221 108 28 219 107 27 219 107 27 218 106 26 217 105 24 216 104 23
216 104 23 215 103 22 215 102 24 215 102 24 215 102 24 215 102 24
216 103 25 219 102 25 201 74 3 206 71 3 207 70 5 207 70 5 206 71 5
206 70 7 207 69 9 207 69 11 207 69 11 207 69 11 203 64 6 203 64 6
203 64 6 203 64 8 203 63 10 203 63 10 203 63 10 203 63 10 202 63 7
203 64 8 206 67 12 207 68 13 206 68 10 206 68 10 206 68 10 206 68 10
206 68 8 206 68 8 206 68 8 205 69 8 214 84 18 213 84 18 213 85 16
213 85 14 213 85 14 213 85 14 213 86 12 214 85 12 217 83 12 210 85 11
240 137 53 231 140 52 231 138 51 229 139 51 226 141 49 225 142 49
226 141 47 226 141 47 225 140 46 224 139 45 223 138 44 222 137 42
220 136 41 222 135 41 225 135 42 226 134 42 225 135 42 225 135 42
225 133 41 228 133 42 221 121 32 223 122 33 222 121 32 222 121 32
222 121 32 222 121 32 222 121 32 222 121 32 222 121 32 222 121 32
215 103 22 215 103 22 215 103 22 215 103 22 215 103 22 215 103 22
215 103 22 216 102 22 218 101 22 218 101 22 218 101 22 218 101 22
219 102 23 219 102 23 219 102 23 219 102 23 219 103 21 219 103 21
217 103 21 216 104 21 219 110 26 219 110 26 217 110 26 219 110 26
221 109 26 221 109 26 221 109 26 221 109 26 221 109 26 219 108 25
217 105 22 216 104 21 219 104 24 219 104 24 219 104 24 219 104 24
219 104 24 219 104 24 219 104 24 220 103 26 212 92 19 214 92 19
216 91 19 216 91 19 217 90 21 217 90 21 219 89 21 219 89 21 218 91 22
221 91 23 201 68 1 202 69 2 203 68 4 205 67 6 207 66 9 207 66 9
207 66 9 205 66 9 203 67 9 202 68 6 217 86 21 215 88 17 213 89 15
213 89 15 216 89 16 216 89 16 218 88 16 216 89 16 215 90 14 211 92 14
224 107 28 221 106 27 222 110 29 222 110 29 222 110 29 222 110 29
221 108 28 219 107 27 219 107 27 218 106 26 217 105 24 216 104 23
216 104 23 215 103 22 215 102 24 215 102 24 215 102 24 215 102 24
216 103 25 219 102 25 201 74 3 206 71 3 207 70 5 207 70 5 206 71 5
206 70 7 207 69 9 207 69 11 207 69 11 207 69 11 203 64 6 203 64 6
203 64 6 203 64 8 203 63 10 203 63 10 203 63 10 203 63 10 202 63 7
203 64 8 206 67 12 207 68 13 206 68 10 206 68 10 206 68 10 206 68 10
206 68 8 206 68 8 206 68 8 205 69 8 214 84 18 213 84 18 213 85 16
213 85 14 213 85 14 213 85 14 213 86 12 214 85 12 217 83 12 209 84 10
240 137 53 231 140 52 231 138 51 229 139 51 226 141 49 225 142 49
226 141 47 226 141 47 225 140 46 224 139 45 223 138 44 222 137 42
220 136 41 222 135 41 225 135 42 226 134 42 225 135 42 225 135 42
225 133 41 228 133 42 221 121 32 223 122 33 222 121 32 222 121 32
222 121 32 222 121 32 222 121 32 222 121 32 222 121 32 222 121 32
215 103 22 215 103 22 215 103 22 215 103 22 215 103 22 215 103 22
215 103 22 216 102 22 218 101 22 218 101 22 218 101 22 218 101 22
219 102 23 219 102 23 219 102 23 219 102 23 219 103 21 219 103 21
217 103 21 216 104 21 219 110 26 219 110 26 217 110 26 219 110 26
221 109 26 221 109 26 221 109 26 221 109 26 221 109 26 219 108 25
217 105 22 216 104 21 219 104 24 219 104 24 219 104 24 219 104 24
219 104 24 219 104 24 219 104 24 220 103 26 212 92 19 214 92 19
216 91 19 216 91 19 217 90 21 217 90 21 219 89 21 219 89 21 220 90 22
221 91 23 201 68 1 202 69 2 203 68 4 205 67 6 207 66 9 207 66 9
205 66 11 205 66 11 203 67 9 202 68 6 217 86 19 215 88 17 213 89 15
213 89 13 216 89 16 216 89 16 216 90 14 216 90 14 213 91 14 211 92 14
224 107 28 221 106 27 222 110 29 222 110 29 222 110 29 222 110 29
221 108 28 219 107 27 219 107 27 218 106 26 215 106 24 214 105 23
216 104 23 215 103 22 215 102 24 215 102 24 215 102 24 215 102 24
216 103 27 219 101 27 201 74 3 206 71 3 207 70 5 207 70 5 206 71 5
206 70 7 207 69 9 207 69 11 207 69 11 207 69 11 203 64 6 203 64 6
203 64 6 203 64 8 203 63 10 203 63 10 203 63 10 203 63 10 202 63 7
203 64 8 206 67 12 207 68 13 206 68 10 206 68 10 206 68 10 206 68 10
206 68 8 206 68 8 206 68 6 205 69 6 214 84 18 213 84 18 213 85 16
213 85 14 213 85 14 213 85 14 213 86 12 214 85 12 216 84 10 209 85 8
238 138 53 231 141 50 231 141 50 229 141 50 226 143 50 226 143 48
227 143 48 227 143 48 225 142 47 223 141 46 223 138 44 222 137 42
220 136 41 222 135 41 225 135 42 226 134 42 225 135 42 225 135 42
225 133 41 228 133 42 221 121 32 223 122 33 222 121 32 222 121 32
222 121 32 222 121 32 222 121 32 222 121 32 222 121 32 222 121 32
215 103 22 215 103 22 215 103 22 215 103 22 215 103 22 215 103 22
215 103 22 216 102 22 218 101 22 218 101 22 218 101 22 218 101 22
219 102 23 219 102 23 219 102 23 219 102 23 219 103 21 219 103 21
217 103 21 216 104 21 219 110 26 219 110 26 217 110 26 219 110 26
221 109 26 221 109 26 221 109 26 221 109 26 221 109 26 219 108 25
217 105 22 216 104 21 219 104 24 219 104 24 219 104 24 219 104 24
219 104 24 219 104 24 219 104 24 220 103 26 212 92 19 214 92 19
216 91 19 216 91 19 217 90 21 217 90 21 219 89 21 219 89 21 220 90 22
221 91 23 201 68 1 202 69 2 203 68 4 203 68 6 205 66 9 205 66 9
205 66 11 203 67 11 203 67 9 202 68 6 217 86 19 213 89 15 213 89 13
213 89 13 215 90 14 216 90 14 216 90 14 215 90 14 213 91 14 211 92 14
224 107 28 221 106 27 222 110 29 222 110 29 222 110 29 222 110 29
221 108 28 219 107 27 219 107 27 218 106 26 215 106 24 214 105 23
214 105 23 215 103 22 215 102 24 215 102 24 215 102 24 215 102 24
216 103 27 219 101 27 201 74 3 206 71 3 207 70 5 207 70 5 206 71 5
204 71 7 206 70 9 207 69 11 207 69 11 207 69 11 203 64 6 203 64 6
203 64 6 203 64 8 203 63 10 203 63 10 203 63 10 203 63 10 202 63 7
203 64 8 206 67 12 207 68 13 206 68 10 206 68 10 206 68 10 206 68 10
206 68 8 206 68 8 206 68 6 205 69 6 214 84 18 213 85 16 213 85 14
213 85 14 213 85 14 213 85 14 213 86 12 214 85 12 216 84 10 207 85 8
238 138 51 229 141 50 231 141 50 229 141 50 226 143 48 224 144 48
226 143 48 226 143 48 225 142 47 223 141 46 223 138 44 222 137 42
220 136 41 222 135 41 225 135 42 226 134 42 225 135 42 225 135 42
225 133 41 228 133 42 221 121 32 223 122 33 222 121 32 222 121 32
222 121 32 222 121 32 222 121 32 222 121 32 222 121 32 222 121 32
215 103 22 215 103 22 215 103 22 215 103 22 215 103 22 215 103 22
215 103 22 216 102 22 218 101 22 218 101 22 218 101 22 218 101 22
219 102 23 219 102 23 219 102 23 219 102 23 219 103 21 219 103 21
217 103 21 216 104 21 219 110 26 219 110 26 217 110 26 219 110 26
221 109 26 221 109 26 221 109 26 221 109 26 221 109 26 219 108 25
217 105 22 216 104 21 219 104 24 219 104 24 219 104 24 219 104 24
219 104 24 219 104 24 219 104 24 220 103 26 212 92 19 214 92 19
216 91 19 216 91 19 217 90 21 217 90 21 219 89 21 219 89 21 219 89 21
221 91 23 203 70 4 204 72 5 204 71 7 206 70 9 206 70 11 206 70 11
206 70 11 206 70 11 206 70 11 204 71 7 215 88 17 213 89 15 212 90 13
212 90 11 215 91 12 215 91 12 216 90 12 215 91 12 213 92 12 211 92 12
224 107 26 221 107 25 222 110 27 222 110 27 222 110 27 222 110 27
221 109 26 219 108 25 219 108 25 218 106 23 215 106 22 213 106 21
213 106 21 213 103 22 213 103 22 213 103 22 213 103 24 213 103 24
214 104 27 217 102 27 199 74 3 204 72 3 207 70 5 207 70 5 204 72 5
204 71 7 206 70 9 207 69 11 207 69 11 207 69 11 203 64 6 203 64 6
203 64 6 203 64 8 203 63 10 203 63 10 203 63 10 203 63 10 202 63 7
203 64 8 206 67 12 207 68 13 205 68 10 205 69 8 205 69 8 205 69 8
205 69 8 205 69 8 205 69 6 203 70 6 213 85 16 211 86 16 211 86 14
211 86 12 211 86 12 211 86 12 211 86 12 213 86 10 217 86 12 208 87 9
238 140 53 230 143 51 231 144 53 230 145 53 227 147 51 227 147 51
227 147 51 227 147 51 225 145 49 223 141 46 223 138 44 222 137 42
220 136 41 222 135 41 225 135 42 226 134 42 225 135 42 225 135 42
225 133 41 228 133 42 221 121 32 223 122 33 222 121 32 222 121 32
222 121 32 222 121 32 222 121 32 222 121 32 222 121 32 222 121 32
216 102 22 216 102 22 216 102 22 216 102 22 216 102 22 216 102 22
216 102 22 216 102 22 218 101 22 219 100 24 219 100 24 219 100 24
221 101 25 221 101 25 221 101 25 221 101 23 221 101 23 221 101 23
219 102 23 217 103 21 221 109 26 221 109 26 219 110 26 221 109 26
222 108 26 222 108 28 222 108 28 222 108 28 222 108 28 221 106 27
219 104 24 217 103 23 220 103 24 222 102 26 222 102 26 222 102 26
222 102 26 222 102 26 222 102 26 222 102 26 214 92 19 216 91 19
216 91 19 217 90 19 217 90 21 217 90 21 219 89 21 219 89 21 217 86 19
221 91 23 204 72 5 205 73 6 205 72 8 205 72 8 207 71 10 207 71 12
205 72 12 205 72 12 207 71 10 204 73 8 212 89 17 209 92 13 209 92 11
209 92 11 210 93 12 210 93 12 210 93 12 210 93 12 208 94 12 207 95 12
219 110 26 218 108 25 219 112 27 219 112 27 219 112 27 219 112 27
217 110 26 218 108 25 218 108 25 217 107 23 214 107 22 213 106 21
213 106 21 212 105 20 213 103 22 213 103 22 213 103 24 213 103 24
214 104 27 217 102 27 199 74 3 204 72 3 206 71 5 206 71 5 204 72 5
203 72 7 204 71 9 206 70 9 206 70 9 206 70 9 201 65 4 201 65 4
201 65 4 201 65 4 201 65 6 201 65 8 201 65 8 201 65 8 200 64 5
201 65 6 205 68 10 206 70 11 205 69 8 205 69 8 205 69 8 205 69 8
205 69 8 205 69 8 205 69 6 203 70 6 213 85 16 211 86 14 211 86 12
211 86 12 211 86 12 211 86 12 211 87 10 213 86 10 217 88 13 208 88 10
237 142 54 230 145 53 231 146 54 231 146 54 228 148 52 226 149 52
226 149 52 228 148 52 227 147 51 223 141 46 226 136 44 226 134 42
225 133 41 225 133 41 228 133 42 228 133 42 228 133 42 228 133 42
227 132 41 231 132 42 222 121 32 225 121 33 224 120 32 224 119 34
224 119 34 224 119 34 224 119 34 224 119 34 224 119 34 224 119 34
217 100 21 217 100 21 217 100 21 217 100 21 218 101 22 218 101 22
218 101 22 218 101 22 220 98 23 220 97 25 209 87 14 211 88 16
211 88 16 211 88 16 211 88 16 211 88 16 212 87 16 212 87 16 211 88 14
209 90 12 216 99 20 216 99 20 214 100 18 216 99 18 217 98 20
217 97 22 217 97 22 217 97 22 217 97 22 218 99 23 208 88 12 211 88 14
211 86 12 213 85 14 213 85 14 213 85 14 213 85 14 213 85 14 213 85 14
213 85 14 208 81 10 208 80 12 208 80 12 210 79 12 210 79 12 210 79 12
210 79 12 210 79 12 213 83 17 210 79 14 206 76 10 206 76 10 208 75 10
208 75 10 208 74 12 208 74 12 208 74 14 208 74 14 208 74 12 204 77 8
230 117 39 227 119 37 230 118 35 228 119 33 225 121 33 222 123 33
222 122 35 222 122 35 222 122 35 222 122 35 234 137 49 233 136 48
232 135 47 232 135 47 233 134 47 233 134 47 232 133 46 234 132 46
234 132 46 236 131 46 222 117 32 222 117 32 222 117 32 223 116 32
223 116 34 223 116 34 225 115 34 225 115 36 224 117 37 228 115 37
209 87 14 214 84 14 217 82 16 217 82 16 214 84 16 213 85 16 213 85 16
213 85 16 213 85 16 213 85 16 210 83 14 210 83 14 210 83 14 212 82 14
212 81 16 213 81 16 213 81 16 213 81 16 213 80 18 213 80 18 203 70 8
204 71 9 206 70 9 206 70 9 206 70 9 206 70 9 206 70 9 206 70 9
206 70 9 204 71 7 218 91 22 217 92 20 217 92 18 217 92 18 217 92 18
217 92 18 217 93 16 217 93 16 216 90 14 207 90 12 237 144 55
229 146 54 233 148 56 232 149 56 228 151 54 227 152 54 228 151 54
228 151 54 228 151 54 237 152 58 213 113 24 217 111 24 216 112 24
216 112 24 216 112 24 216 112 24 216 112 24 216 112 24 215 110 23
216 110 23 216 110 23 216 110 23 218 108 25 218 108 27 218 108 27
218 108 27 218 108 27 218 108 27 218 108 27 218 108 27 217 100 21
217 100 21 217 100 21 217 100 21 218 101 22 218 101 22 218 101 22
219 100 24 220 97 25 222 97 25 211 86 14 212 87 16 212 87 16
212 87 16 212 87 16 212 87 16 214 86 18 214 86 18 212 87 16 212 88 14
219 97 20 217 98 20 216 99 18 217 98 20 219 97 22 219 97 22 219 97 22
219 97 22 219 97 22 220 98 23 209 87 12 212 88 14 213 85 14 214 84 14
214 84 14 214 84 14 214 84 14 214 84 14 214 84 14 214 84 14 210 79 12
210 79 12 210 79 12 210 79 12 210 79 12 210 79 12 210 79 12 210 79 12
211 80 15 210 79 14 207 77 11 207 77 11 207 77 11 209 76 11 209 75 13
207 76 13 207 76 13 207 76 13 207 77 11 204 79 9 227 119 39
223 121 35 227 120 33 227 120 33 220 124 31 217 125 31 217 125 33
217 125 35 217 125 35 217 125 35 231 139 49 230 137 48 229 136 47
229 136 47 230 135 47 230 135 47 231 133 46 231 133 46 232 133 46
232 133 46 220 118 32 222 117 32 222 117 32 222 117 32 223 116 34
223 116 34 225 115 34 225 115 34 224 117 37 228 115 37 209 87 14
214 84 14 217 82 16 217 82 16 214 84 16 213 85 16 211 86 14 211 86 14
211 86 14 211 86 14 209 84 12 209 84 12 209 84 12 210 83 12 212 82 14
212 82 14 212 82 14 212 82 14 212 81 16 212 81 16 201 71 6 203 72 7
204 71 9 206 70 9 206 70 9 206 70 9 206 70 9 206 70 9 206 70 9
204 71 7 218 91 22 217 92 20 217 92 18 217 92 18 217 92 18 217 92 18
217 93 16 217 93 16 217 91 15 207 92 13 238 146 56 229 148 55
233 150 57 233 150 57 228 153 55 226 154 55 228 153 55 230 152 55
230 152 55 238 151 58 216 112 24 222 108 24 221 109 24 221 109 24
219 110 24 219 110 24 219 110 24 219 110 24 218 109 23 218 109 23
218 109 23 218 108 25 219 107 27 219 107 27 219 107 27 219 107 27
219 107 27 219 107 27 219 107 27 219 107 27 217 100 21 217 100 21
217 100 21 217 100 21 218 101 22 218 101 22 218 101 22 219 100 24
220 97 25 222 97 25 211 86 14 212 87 16 212 87 16 212 87 16 212 87 16
212 87 16 214 86 18 214 86 18 212 87 16 212 88 14 219 97 20 217 98 20
216 99 18 217 98 20 219 97 22 219 97 22 219 97 22 219 97 22 219 97 22
220 98 23 209 87 12 212 88 14 213 85 14 214 84 14 214 84 14 214 84 14
214 84 14 214 84 14 214 84 14 214 84 14 210 79 12 210 79 12 210 79 12
210 79 12 210 79 12 210 79 12 210 79 12 210 79 12 210 79 14 210 79 14
208 80 14 208 80 14 208 80 14 210 79 14 210 79 14 208 80 14 208 80 14
208 80 14 210 79 12 205 82 10 227 119 37 223 121 35 227 120 33
225 121 31 220 124 31 217 125 31 217 125 33 217 125 33 217 125 33
217 125 33 231 139 47 230 138 46 229 137 45 229 137 45 230 136 45
230 136 45 231 134 44 231 134 44 232 133 44 232 133 44 220 118 30
220 118 30 220 118 30 222 117 32 222 117 32 223 116 32 223 116 34
223 116 34 224 117 37 226 116 37 208 88 14 213 85 14 216 83 16
216 83 16 213 85 16 211 86 16 211 86 14 211 86 14 211 86 14 211 86 14
207 85 12 207 85 12 209 84 12 210 83 12 212 82 14 212 82 14 212 82 14
212 82 14 212 82 14 212 82 14 201 71 4 203 72 7 204 71 7 204 71 7
204 71 7 204 71 7 204 71 9 204 71 9 204 71 9 203 72 7 217 92 20
215 93 18 215 93 18 215 93 18 215 94 16 215 94 16 215 94 16 217 93 16
217 93 14 208 94 12 238 148 57 230 150 56 235 153 58 234 154 58
230 155 58 229 156 58 230 155 58 230 155 58 230 155 58 237 152 58
216 112 24 222 108 24 221 109 24 221 109 24 219 110 24 219 110 24
219 110 24 219 110 24 218 109 23 218 109 23 218 109 23 218 108 25
219 107 27 219 107 27 219 107 27 219 107 27 219 107 27 219 107 27
219 107 27 219 107 27 217 100 21 217 100 21 217 100 21 217 100 21
218 101 22 218 101 22 218 101 22 219 100 24 220 97 25 222 97 25
211 86 14 212 87 16 212 87 16 212 87 16 212 87 16 212 87 16 214 86 18
214 86 18 212 87 16 212 88 14 219 97 20 217 98 20 216 99 18 217 98 20
219 97 22 219 97 22 219 97 22 219 97 22 219 97 22 220 98 23 209 87 12
212 88 14 213 85 14 214 84 14 214 84 14 214 84 14 214 84 14 214 84 14
214 84 14 214 84 14 210 79 12 210 79 12 210 79 12 210 79 12 210 79 12
210 79 12 210 79 12 210 79 12 210 79 14 210 79 14 208 80 14 208 80 14
208 80 14 208 80 14 208 80 14 208 80 14 206 81 14 206 81 14 208 80 12
205 83 8 227 119 37 223 121 35 225 121 33 223 122 31 219 125 31
217 125 31 217 125 33 217 125 33 217 125 33 217 125 33 231 139 47
230 138 46 229 137 45 229 137 45 230 136 45 230 136 45 231 134 44
231 134 44 232 133 44 232 133 44 220 118 30 220 118 30 220 118 30
220 118 32 222 117 32 222 117 34 223 116 34 223 116 34 223 117 37
226 116 37 208 88 14 213 85 14 216 83 16 216 83 16 213 85 16
211 86 16 211 86 14 211 86 14 211 86 14 211 86 14 207 85 12 207 85 12
209 84 12 210 83 12 212 82 14 212 82 14 212 82 14 212 82 14 212 82 14
212 82 14 201 71 4 203 72 5 204 71 7 204 71 7 204 71 7 204 71 7
204 71 9 204 71 9 204 71 9 203 72 7 217 92 20 215 93 18 215 93 18
215 93 18 215 94 16 215 94 16 215 94 16 215 94 16 217 93 14 207 95 12
238 148 57 228 150 56 234 154 58 234 154 58 229 156 58 227 157 58
229 156 58 230 155 58 230 155 58 237 152 58 216 112 24 222 108 24
221 109 24 221 109 24 219 110 24 219 110 24 219 110 24 219 110 24
218 109 23 218 109 23 218 109 23 218 108 25 219 107 27 219 107 27
219 107 27 219 107 27 219 107 27 219 107 27 219 107 27 219 107 27
217 100 21 217 100 21 217 100 21 217 100 21 218 101 22 218 101 22
218 101 22 219 100 24 220 97 25 222 97 25 211 86 14 212 87 16
212 87 16 212 87 16 212 87 16 212 87 16 214 86 18 214 86 18 212 87 16
212 88 14 219 97 20 217 98 20 216 99 18 217 98 20 219 97 22 219 97 22
219 97 22 219 97 22 219 97 22 220 98 23 209 87 12 212 88 14 213 85 14
214 84 16 214 84 16 214 84 16 214 84 16 214 84 16 214 84 16 214 84 16
210 79 12 210 79 12 210 79 12 210 79 12 210 79 12 210 79 12 210 79 12
210 79 12 208 80 12 208 80 12 208 80 12 208 80 12 208 80 12 208 80 12
208 80 14 206 81 14 205 81 14 205 81 14 206 81 12 203 83 8 227 119 37
223 121 35 225 121 33 223 122 33 219 125 31 217 125 31 217 125 33
217 125 33 217 125 33 217 125 33 231 139 47 230 138 46 229 137 45
229 137 45 230 136 45 230 136 45 229 135 44 231 134 44 231 134 44
232 133 44 218 119 32 218 119 32 220 118 32 220 118 32 222 117 34
222 117 34 223 115 36 223 115 36 223 117 37 226 116 37 209 87 14
214 84 14 217 82 16 217 82 16 214 84 16 213 85 16 211 86 14 211 86 14
211 86 12 211 86 12 207 85 10 207 85 10 209 84 10 210 83 12 212 82 12
212 82 12 212 82 12 212 82 12 212 82 14 212 82 14 201 71 4 203 72 5
204 72 5 204 72 5 204 72 5 204 71 7 204 71 7 204 71 7 204 71 7
203 72 5 217 92 20 215 93 18 215 93 18 215 93 18 215 93 18 215 93 18
215 93 18 215 94 16 215 94 14 207 95 12 236 148 57 228 150 56
234 153 60 232 154 60 229 156 60 227 156 60 229 156 60 230 155 60
229 156 60 235 152 60 216 111 26 222 108 26 221 109 26 221 109 26
219 110 24 219 110 24 219 110 24 219 110 24 218 109 23 218 109 23
218 109 23 218 108 25 219 107 27 219 107 27 219 107 27 219 107 27
219 107 27 219 107 27 219 107 27 219 107 27 217 100 21 217 100 21
217 100 21 217 100 21 218 101 22 218 101 22 218 101 22 219 100 24
220 97 25 222 97 25 211 86 14 212 87 16 212 87 16 212 87 16 212 87 16
212 87 16 214 86 18 214 86 18 212 87 16 212 88 14 219 97 20 217 98 20
216 99 18 217 98 20 219 97 22 219 97 22 219 97 22 219 97 22 219 97 22
220 98 23 209 87 12 212 87 16 213 85 16 214 84 16 214 84 16 214 84 16
214 84 16 214 84 16 214 84 16 214 84 16 210 79 12 210 79 12 210 79 12
210 79 12 210 79 12 210 79 12 210 79 12 210 79 12 208 80 12 208 80 12
208 80 12 208 80 12 208 80 12 208 80 12 208 80 14 206 81 14 205 81 14
203 83 12 205 82 10 202 84 8 225 120 37 222 122 35 223 122 33
223 122 33 219 125 31 217 125 31 217 125 33 217 125 33 217 125 33
217 125 33 231 139 47 230 138 46 229 137 45 229 137 45 230 136 45
230 136 45 229 135 44 229 135 44 231 134 44 231 134 44 218 119 32
218 119 32 220 118 32 220 118 32 222 117 34 222 117 34 223 115 36
223 115 36 223 117 37 226 116 37 209 87 14 214 84 14 217 82 16
217 82 16 214 84 16 213 85 16 211 86 14 211 86 14 211 86 12 211 86 12
207 85 10 207 85 10 209 84 10 209 84 10 210 83 12 212 82 12 212 82 12
212 82 12 212 82 14 212 82 14 201 71 4 203 72 5 204 72 5 204 72 5
204 72 5 204 72 5 204 71 7 204 71 7 204 71 7 203 72 5 217 92 20
215 93 18 215 93 18 215 93 18 215 93 18 215 93 18 215 93 18 215 93 18
215 94 16 205 96 12 236 148 57 228 150 56 234 153 60 232 154 60
227 156 60 227 156 60 229 156 60 230 155 60 229 156 60 235 152 60
216 111 26 222 108 26 221 109 26 221 109 26 219 110 24 219 110 24
219 110 24 219 110 24 218 109 23 218 109 23 218 109 23 218 108 25
219 107 27 219 107 27 219 107 27 219 107 27 219 107 27 219 107 27
219 107 27 219 107 27 217 100 21 217 100 21 217 100 21 217 100 21
218 101 22 218 101 22 218 101 22 219 100 24 220 97 25 222 97 25
211 86 14 212 87 16 212 87 16 212 87 16 212 87 16 212 87 16 214 86 18
214 86 18 212 87 16 212 88 14 219 97 20 217 98 20 216 99 18 217 98 20
219 97 22 219 97 22 219 97 22 219 97 22 219 97 22 220 98 23 209 87 12
212 87 16 213 85 16 214 84 16 214 84 16 214 84 16 214 84 16 214 84 16
214 84 16 214 84 16 210 79 12 210 79 12 210 79 12 210 79 12 210 79 12
210 79 12 210 79 12 210 79 12 208 80 12 208 80 12 206 81 12 206 81 12
206 81 12 206 81 12 206 81 12 206 81 12 205 82 12 203 83 12 205 82 10
202 84 8 225 120 37 222 122 35 223 122 33 222 123 33 219 125 31
217 125 31 217 125 33 217 125 33 217 125 33 217 125 33 231 139 47
230 138 46 229 137 45 229 137 45 229 135 44 229 135 44 229 135 44
229 135 44 231 134 44 231 134 44 218 119 32 218 119 32 218 119 32
220 118 32 220 117 34 222 117 34 222 116 36 222 116 36 224 117 37
228 115 37 209 87 14 214 84 14 217 82 16 217 82 16 214 84 16
213 85 16 211 86 14 211 86 14 211 86 12 211 86 12 207 85 10 207 85 10
207 85 10 209 84 10 210 83 12 210 83 12 212 82 12 212 82 12 212 82 12
212 82 12 201 72 2 203 73 3 204 72 5 206 71 5 206 71 5 206 71 5
204 71 7 204 71 7 204 71 7 203 72 5 218 91 20 217 92 18 217 92 18
217 92 18 215 93 18 215 93 18 215 93 18 215 93 18 215 94 16 205 96 12
236 148 57 228 150 56 234 153 60 232 154 60 227 156 60 227 156 60
229 156 60 230 155 60 229 156 60 235 152 60 216 111 26 222 108 26
221 109 26 221 109 26 219 110 24 219 110 24 219 110 24 219 110 24
218 109 23 218 109 23 218 109 23 218 108 25 219 107 27 219 107 27
219 107 27 219 107 27 219 107 27 219 107 27 219 107 27 219 107 27
217 100 21 217 100 21 217 100 21 217 100 21 218 101 22 218 101 22
218 101 22 219 100 24 220 97 25 220 97 25 211 86 14 212 87 16
214 86 16 214 86 16 212 87 16 212 87 16 214 86 18 214 86 18 212 87 16
212 88 14 219 97 22 219 97 22 217 98 20 217 98 20 219 97 22 220 95 24
220 95 24 220 95 24 220 95 24 222 97 25 211 86 14 212 87 16 213 85 16
214 84 16 214 84 16 214 84 16 214 84 16 214 84 16 214 84 16 214 84 16
210 79 12 210 79 12 210 79 12 210 79 12 210 79 12 210 79 12 210 79 12
208 80 12 208 80 12 208 80 12 205 80 11 206 81 12 206 81 12 206 81 12
206 81 12 205 82 12 203 83 12 203 83 10 203 83 8 200 85 8 224 119 36
221 121 34 221 121 32 221 121 32 218 123 30 216 124 30 216 124 32
216 124 32 217 125 33 217 125 33 228 135 44 228 135 44 228 135 44
228 135 44 229 135 44 229 135 44 229 135 44 229 135 44 231 134 44
231 134 44 218 119 32 218 119 32 218 119 32 218 119 32 220 117 34
220 117 34 222 116 36 222 116 36 224 117 37 228 115 37 209 87 14
212 82 12 217 82 16 217 82 16 214 84 16 213 85 14 213 85 14 211 86 14
211 86 12 208 86 11 206 86 10 206 86 10 206 86 10 207 85 10 209 84 12
209 84 12 210 83 12 212 82 12 212 82 12 213 81 12 203 71 2 204 72 3
206 71 5 206 71 5 206 71 5 206 71 5 204 71 7 204 71 7 204 71 7
203 72 5 220 92 21 218 93 19 218 93 19 218 93 19 216 94 19 216 94 19
216 94 19 216 94 19 215 95 17 203 96 12 236 148 57 228 150 56
232 154 60 232 154 60 229 156 60 229 156 60 230 155 60 232 154 60
232 154 60 237 151 60 214 112 26 219 110 26 219 110 26 219 110 26
221 109 26 221 109 26 221 109 26 219 110 26 218 108 25 218 108 25
218 108 25 218 108 25 219 107 27 221 106 27 221 106 27 221 106 27
221 106 27 221 106 27 221 106 27 221 106 27 216 99 20 216 99 20
216 99 20 216 99 20 217 100 21 217 100 21 217 100 21 217 99 23
217 99 25 218 98 25 211 86 14 214 86 16 214 84 14 214 84 14 213 85 14
213 85 14 214 86 18 214 86 18 214 86 18 214 86 16 222 97 25 222 97 25
222 97 25 222 97 25 222 97 25 223 95 27 223 95 27 223 95 27 223 95 27
224 97 28 214 86 18 215 87 19 215 85 18 215 85 18 215 85 18 215 85 18
215 85 18 215 85 18 215 85 18 215 85 18 210 79 12 210 79 12 208 80 12
208 80 12 208 80 12 208 80 12 208 80 12 206 81 12 205 80 11 205 80 11
205 80 11 204 79 9 204 79 9 205 80 11 204 81 11 204 81 11 202 82 9
200 83 9 200 83 7 197 85 7 222 120 36 219 122 34 219 122 32
219 122 32 218 123 32 218 123 32 218 123 32 218 123 32 217 125 33
218 126 34 224 132 40 225 133 41 225 133 41 226 134 42 228 135 44
229 135 44 228 133 44 228 131 43 226 129 41 225 128 40 224 124 37
223 123 36 221 121 34 220 120 33 221 119 35 221 118 37 223 117 37
223 117 37 221 113 35 224 109 34 205 81 7 212 80 11 218 81 13
218 81 13 215 82 13 213 84 11 211 85 11 210 85 11 210 85 11 208 86 11
204 85 9 202 84 8 200 85 6 202 84 8 203 83 8 205 83 8 206 82 8
208 81 8 211 79 10 213 78 10 202 68 0 203 69 0 206 71 5 206 71 5
206 71 5 206 71 5 204 72 5 204 72 5 204 72 5 203 72 5 220 92 21
220 92 21 218 93 21 218 93 21 218 93 19 218 93 19 218 93 19 215 95 19
212 97 17 206 103 20 233 144 56 235 154 63 228 152 57 228 152 57
231 151 57 231 151 57 231 151 57 233 150 57 234 149 57 238 148 57
211 112 25 215 110 25 215 110 25 218 108 27 219 107 29 221 106 29
221 106 29 219 107 29 220 110 31 219 109 30 217 110 30 218 108 29
221 106 27 223 106 27 223 106 27 223 106 27 223 106 27 223 106 27
223 106 27 223 106 27 216 99 20 216 99 20 216 99 20 216 99 20
217 100 21 217 100 21 217 100 21 217 99 23 215 100 25 217 99 25
211 86 14 215 86 16 216 84 14 216 84 14 214 84 14 213 85 14 214 86 18
214 86 18 214 86 18 214 86 18 223 95 27 223 95 27 223 95 27 223 95 27
223 95 27 223 95 27 223 95 27 223 95 27 223 95 27 224 97 28 214 86 18
215 87 19 215 85 18 215 85 18 215 85 18 215 85 18 215 85 18 215 85 18
215 85 18 215 85 18 210 79 12 210 79 12 208 80 12 208 80 12 208 80 12
208 80 12 206 81 12 206 81 12 205 80 11 206 81 12 209 83 14 209 83 14
206 81 12 204 79 9 202 80 9 201 80 9 199 82 7 199 82 7 199 82 5
196 84 3 225 123 36 221 124 36 221 125 34 221 125 34 220 125 34
220 125 34 220 125 34 220 125 34 221 128 37 223 131 39 225 133 41
225 133 41 226 134 42 226 134 42 228 135 44 229 135 44 230 132 44
228 131 43 226 129 41 227 127 40 225 126 39 224 124 37 222 122 35
222 120 36 222 119 38 224 119 38 224 119 38 225 118 38 222 112 35
228 113 38 212 88 14 218 86 15 218 81 13 218 81 13 216 82 11
215 83 11 213 84 11 211 85 11 210 85 11 207 87 11 204 87 10 202 87 10
201 89 8 199 89 8 201 88 10 202 87 10 204 87 10 207 85 10 210 83 12
212 82 12 203 71 2 204 72 3 203 70 4 203 70 4 203 70 4 203 70 4
203 70 4 203 70 4 203 70 4 201 71 4 217 90 19 217 90 19 216 91 19
216 91 19 216 91 17 216 91 17 216 91 17 214 92 17 210 93 14
210 103 21 235 140 53 243 155 66 236 153 61 236 153 61 240 152 61
241 151 61 241 151 61 241 151 61 244 149 61 247 148 61 217 112 27
219 112 27 220 111 27 222 110 29 225 108 31 226 106 33 225 107 33
225 107 33 221 106 31 221 108 32 220 110 33 222 109 33 223 108 31
225 108 29 225 108 29 225 108 29 225 108 29 225 108 29 225 108 29
225 108 29 216 99 20 216 99 20 216 99 20 216 99 20 217 100 21
217 100 21 217 100 21 217 99 23 215 100 25 217 99 25 211 86 14
215 86 16 216 84 14 216 84 14 214 84 14 213 85 14 214 86 18 214 86 18
214 86 18 214 86 18 210 83 14 210 83 14 210 83 14 210 83 14 210 83 14
210 83 14 210 83 14 210 83 14 210 83 14 211 84 15 201 73 5 202 74 6
203 72 5 203 72 5 203 72 5 203 72 5 203 72 5 203 72 5 203 72 5
203 72 5 210 79 12 210 79 12 208 80 12 208 80 12 208 80 12 208 80 12
206 81 12 205 80 11 205 80 11 209 83 14 215 92 22 220 97 27
223 100 30 223 100 30 223 101 28 222 102 28 220 102 28 220 103 26
219 104 26 217 105 24 229 127 41 228 128 41 226 129 39 226 129 39
224 130 39 223 131 39 224 132 40 224 132 40 224 132 40 224 132 40
226 134 42 226 134 42 226 134 42 226 134 42 228 133 42 228 133 42
230 132 44 231 131 44 231 131 44 233 131 44 201 99 13 201 99 13
201 99 13 203 98 15 203 98 17 205 97 17 205 97 17 205 97 17 202 89 13
211 93 19 198 74 0 209 77 5 218 81 13 218 81 13 216 82 11 215 83 11
213 84 11 211 85 11 210 85 11 207 87 11 231 113 37 228 115 37
224 117 35 223 118 35 221 118 37 221 118 37 223 117 37 226 116 37
229 114 37 231 113 37 222 102 26 226 101 30 222 94 26 224 93 26
224 93 26 224 93 26 224 93 26 224 93 26 222 92 25 218 91 22 216 89 18
214 86 16 211 86 14 211 86 14 211 86 12 211 86 12 211 86 12 212 88 14
212 88 12 208 88 10 209 102 20 208 108 23 204 109 20 202 107 19
206 106 19 207 105 19 207 105 19 207 105 19 210 103 19 214 102 19
205 89 7 207 88 7 208 87 7 210 86 9 210 85 11 210 85 13 208 86 13
208 86 13 209 89 16 210 92 18 213 97 23 215 100 25 217 99 23
217 100 21 217 100 21 217 100 21 217 100 21 217 100 21 217 100 21
217 100 21 216 99 20 216 99 20 216 99 20 216 99 20 217 100 21
217 100 21 217 100 21 217 99 23 215 100 25 217 99 25 211 86 14
215 86 16 216 84 14 216 84 14 214 84 14 213 85 14 214 86 18 214 86 18
214 86 18 214 86 18 209 81 13 209 81 13 209 81 13 209 81 13 209 81 13
209 81 13 209 81 13 209 81 13 209 81 13 210 83 14 200 72 4 201 73 5
201 71 4 201 71 4 201 71 4 201 71 4 201 71 4 201 71 4 201 71 4
201 71 4 210 79 12 210 79 12 208 80 12 208 80 12 208 80 12 208 80 12
206 81 12 206 81 12 204 79 9 209 83 14 220 97 27 228 105 35 222 99 29
222 99 29 221 101 27 221 101 27 219 102 25 217 103 25 217 103 23
214 105 23 232 130 43 230 130 43 228 132 41 227 132 41 225 133 41
225 133 41 225 133 41 225 133 41 226 134 42 226 134 42 226 134 42
226 134 42 225 133 41 225 133 41 227 132 41 228 132 41 230 130 43
230 130 43 233 131 44 233 131 44 202 100 14 204 100 14 204 100 14
206 98 16 207 97 18 207 97 18 207 97 18 207 97 18 205 89 14 215 95 21
207 80 7 215 83 11 217 80 12 217 80 12 215 81 10 213 82 10 212 83 10
210 83 10 209 84 10 206 86 10 233 116 39 230 117 39 225 120 37
222 122 37 220 122 39 219 123 39 220 122 39 222 121 39 225 120 39
228 118 39 219 107 29 224 106 30 218 95 23 219 94 25 221 93 25
221 93 25 221 93 25 221 93 25 221 93 25 221 93 25 210 83 12 209 84 12
209 84 12 209 84 12 209 84 10 209 84 10 209 84 10 210 83 10 210 79 5
217 88 13 226 109 30 217 110 28 211 108 24 211 109 22 215 106 22
217 105 22 215 106 22 217 105 22 219 104 22 222 103 22 212 88 10
215 87 10 217 86 10 217 86 12 215 86 14 214 86 16 214 86 16 212 87 16
208 86 13 211 91 18 216 96 23 219 101 27 219 102 25 219 102 23
219 102 23 219 102 23 219 102 23 219 102 23 219 102 23 219 102 23
217 100 21 217 100 21 217 100 21 217 100 21 217 100 21 217 100 21
217 100 21 217 99 23 214 99 24 216 98 24 210 85 13 214 84 14
216 84 14 216 84 14 214 84 14 213 85 14 214 86 18 214 86 18 214 86 18
214 86 18 209 81 13 209 81 13 209 81 13 209 81 13 209 81 13 209 81 13
209 81 13 209 81 13 209 81 13 210 83 14 200 72 4 201 73 5 203 72 7
203 72 7 203 72 7 203 72 7 203 72 7 203 72 7 203 72 7 203 72 7
211 81 13 211 81 13 209 81 13 209 81 13 209 81 13 209 81 13 208 82 13
208 82 13 204 81 9 205 82 10 223 101 28 223 101 28 223 101 28
223 101 28 222 102 28 222 102 28 220 103 26 219 104 26 217 105 24
214 107 24 232 130 43 230 130 43 228 131 43 227 132 43 226 134 42
226 134 42 225 133 41 225 133 41 228 133 42 228 133 42 226 134 42
225 133 41 225 133 41 224 132 40 227 132 41 228 132 41 230 130 43
230 130 43 232 130 43 233 129 43 203 98 15 205 97 15 206 96 15
208 96 15 208 95 17 208 95 19 208 95 19 209 94 19 209 94 19 209 89 16
209 82 9 215 81 10 216 79 11 217 80 12 215 81 10 213 82 10 212 82 12
210 83 10 209 84 10 207 85 8 234 117 38 231 119 38 226 121 38
221 124 38 220 125 38 218 125 38 218 125 38 220 125 38 225 125 43
225 120 39 213 103 24 214 99 22 216 98 24 217 97 24 219 96 24
219 96 24 220 95 24 220 95 24 220 95 24 220 95 24 208 83 11 206 83 11
206 83 11 206 83 11 208 83 9 208 83 9 208 83 9 211 81 9 211 74 4
219 84 14 221 99 24 217 105 26 210 103 21 210 103 21 215 101 21
217 100 21 215 101 21 217 100 21 217 98 20 218 94 17 219 90 15
220 86 13 220 84 12 219 85 12 217 85 14 215 86 16 215 86 16 214 86 16
211 86 14 211 88 16 220 97 25 219 99 26 217 99 23 217 100 21
217 100 21 217 100 21 217 100 21 217 100 21 217 100 21 217 100 21
217 100 21 217 100 21 217 100 21 217 100 21 217 100 21 217 100 21
217 100 21 217 99 23 214 99 24 216 98 24 210 85 13 214 84 14
216 84 14 216 84 14 214 84 14 213 85 14 214 86 18 214 86 18 214 86 18
214 86 18 209 81 13 209 81 13 209 81 13 209 81 13 209 81 13 209 81 13
209 81 13 209 81 13 209 81 13 210 83 14 200 72 4 201 73 5 203 72 7
203 72 7 203 72 7 203 72 7 203 72 7 203 72 7 203 72 7 203 72 7
211 81 13 211 81 13 209 81 13 209 81 13 209 81 13 209 81 13 208 82 13
208 82 13 205 82 10 204 81 9 225 102 30 223 101 28 223 101 28
222 102 28 222 102 28 220 102 28 220 103 26 219 104 26 217 105 24
214 107 24 230 128 42 229 129 42 227 130 42 226 131 42 225 133 41
225 133 41 225 133 41 225 133 41 228 133 42 228 133 42 226 134 42
225 133 41 224 132 40 223 131 39 226 131 40 226 131 40 227 130 42
227 130 42 230 130 43 232 130 43 205 97 15 206 96 15 208 96 15
209 95 15 209 94 17 209 94 19 209 94 19 211 93 19 211 93 19 211 88 16
209 82 9 212 77 7 214 77 10 216 79 11 214 80 9 212 81 9 211 81 11
209 82 11 208 83 9 206 84 7 233 118 38 229 120 38 225 123 36
221 124 36 220 125 38 218 125 38 218 125 38 220 125 38 225 125 43
225 120 39 213 103 24 212 100 22 214 99 24 216 98 24 216 98 24
217 97 24 217 97 24 219 96 24 219 96 24 219 96 24 207 85 12 207 85 12
207 85 12 207 85 12 209 84 10 209 84 10 209 84 10 210 83 10 210 76 5
217 85 14 219 100 24 217 105 26 210 103 21 210 103 21 215 101 21
217 100 21 215 101 21 217 100 21 217 98 20 218 94 17 219 90 15
218 87 13 219 85 12 219 84 14 217 85 16 215 86 16 215 86 16 214 86 16
211 86 14 211 88 16 220 97 25 219 99 26 217 99 23 217 100 21
217 100 21 217 100 21 217 100 21 217 100 21 217 100 21 217 100 21
217 100 21 217 100 21 217 100 21 217 100 21 217 100 21 217 100 21
217 100 21 217 99 23 214 99 24 216 98 24 210 85 13 214 84 14
216 84 14 216 84 14 214 84 14 213 85 14 214 86 18 214 86 18 214 86 18
214 86 18 209 81 13 209 81 13 209 81 13 209 81 13 209 81 13 209 81 13
209 81 13 209 81 13 209 81 13 210 83 14 200 72 4 201 73 5 203 72 7
203 72 7 204 71 7 204 71 7 204 71 7 204 71 7 204 71 7 204 71 7
211 81 13 211 81 13 209 81 13 209 81 13 209 81 13 209 81 13 208 82 13
208 82 13 206 81 10 204 81 9 223 103 28 222 102 26 222 102 28
220 102 28 220 103 26 220 103 26 220 103 26 219 104 24 217 105 24
214 107 22 230 128 42 229 129 42 227 130 42 226 131 42 225 133 41
224 134 41 224 134 41 225 133 41 228 133 42 228 133 42 228 133 42
227 132 41 224 132 40 224 132 40 224 132 40 224 132 40 224 132 42
224 132 42 225 133 43 230 130 43 206 96 15 209 95 15 211 94 13
211 94 15 211 94 17 211 94 17 211 94 17 211 94 17 212 93 17 211 88 14
209 82 9 210 78 7 214 77 10 216 79 11 214 80 9 212 81 9 211 81 11
209 82 11 208 83 9 204 85 7 231 119 36 228 121 36 225 123 36
223 123 36 221 124 36 220 125 36 221 124 38 223 123 38 229 123 43
228 118 39 215 102 24 214 99 22 214 99 22 214 99 22 214 99 22
216 98 22 216 98 22 217 97 22 217 97 22 217 97 22 206 85 12 206 85 12
207 85 12 207 85 12 209 84 10 209 84 10 209 84 10 210 83 10 207 78 5
214 87 14 216 101 24 212 107 26 207 105 21 207 105 21 210 103 21
212 102 21 212 102 21 212 102 21 214 99 20 213 96 17 214 92 15
215 88 13 215 86 12 217 85 14 215 86 16 214 86 16 214 86 16 212 87 16
209 87 14 209 89 16 218 98 25 218 100 26 217 99 23 217 100 21
217 100 21 217 100 21 217 100 21 217 100 21 217 100 21 217 100 21
217 100 21 217 100 21 217 100 21 217 100 21 217 100 21 217 100 21
217 100 21 217 99 23 214 99 24 216 98 24 208 86 13 213 85 14
214 84 14 214 84 14 214 84 14 213 85 14 214 86 18 214 86 18 214 86 18
214 86 18 209 81 13 209 81 13 209 81 13 209 81 13 209 81 13 209 81 13
209 81 13 209 81 13 209 81 13 210 83 14 200 72 4 203 72 5 203 72 7
203 72 7 204 71 7 204 71 7 204 71 7 204 71 7 204 71 7 204 71 7
211 81 13 211 81 13 209 81 13 209 81 13 209 81 13 209 81 13 208 82 13
208 83 11 206 81 10 205 80 9 223 103 28 219 104 26 219 104 26
219 104 26 219 104 26 220 103 24 220 103 24 219 104 24 217 105 22
214 107 22 230 128 42 227 130 42 226 131 42 224 132 42 224 134 41
224 134 41 224 134 41 225 133 41 228 133 42 228 133 42 228 133 42
227 132 41 224 132 40 224 132 40 224 132 40 224 132 40 224 132 42
224 132 42 225 133 43 230 130 43 206 96 15 211 94 15 212 94 13
212 93 15 212 93 17 212 93 17 212 93 17 212 93 17 212 93 17 211 88 14
209 82 9 210 78 9 213 78 10 214 79 11 212 80 11 212 80 11 211 81 11
211 81 11 209 82 9 204 85 7 229 120 36 225 123 36 223 124 34
221 125 34 221 124 36 221 124 36 221 124 38 223 123 38 229 123 43
228 118 39 216 101 24 216 98 22 214 99 22 214 99 22 214 99 22
214 99 22 216 98 22 216 98 22 216 98 22 216 98 22 206 85 12 206 85 12
207 85 12 207 85 12 209 84 10 209 84 10 209 84 10 209 84 10 206 79 5
211 88 14 216 101 24 214 106 26 209 104 21 209 104 21 212 102 21
212 102 21 212 102 21 212 102 21 212 100 20 213 96 17 212 93 15
213 89 13 214 87 12 214 87 12 214 87 14 214 86 16 212 87 16 212 87 16
209 87 14 209 89 16 217 99 25 218 101 24 217 99 23 217 99 23
217 99 23 217 99 23 217 99 23 217 99 23 217 99 23 217 99 23
215 101 21 215 101 21 215 101 21 215 101 21 215 101 21 215 101 21
215 101 21 215 100 23 216 98 24 216 98 24 207 87 13 209 87 14
211 86 14 213 85 14 214 84 14 214 84 14 214 86 18 214 86 18 214 86 18
214 86 18 209 81 13 209 81 13 209 81 13 209 81 13 209 81 13 209 81 13
211 81 13 211 81 13 211 81 13 212 82 14 201 71 4 204 72 5 204 71 7
204 71 7 204 71 7 204 71 7 204 71 7 204 71 7 204 71 7 204 71 7
211 80 15 211 81 13 209 81 13 209 82 11 209 82 11 209 82 11 209 82 11
209 82 9 208 81 8 205 81 7 221 104 28 217 105 26 215 105 26
215 106 24 217 105 24 219 104 22 220 104 22 219 104 22 217 105 22
214 107 22 230 128 42 227 130 42 224 132 42 222 132 42 224 134 41
222 135 41 224 134 41 225 133 41 228 133 42 228 133 42 230 133 42
228 133 42 225 133 41 224 132 40 225 133 41 227 132 41 227 132 41
228 132 41 228 132 41 232 130 43 208 96 13 211 94 13 211 94 13
211 94 15 212 93 17 212 93 17 212 93 17 214 92 17 214 92 17 212 88 14
209 82 11 208 79 9 210 77 11 211 79 12 211 79 12 210 79 12 211 81 11
211 81 11 209 82 9 204 85 7 226 122 36 221 125 34 221 125 34
221 125 34 221 124 36 220 125 36 218 125 38 218 125 38 224 126 41
225 120 37 216 102 22 217 98 20 216 99 20 216 99 20 214 99 20
214 99 20 216 98 22 216 98 22 216 98 22 216 98 22 206 86 10 207 85 10
207 85 10 207 85 10 209 84 10 209 84 10 209 84 10 209 84 10 204 79 5
211 88 14 219 100 24 220 103 26 217 100 21 217 100 21 217 100 21
217 100 21 217 100 21 217 100 21 217 98 20 215 95 17 214 92 15
212 90 13 212 88 12 212 88 12 214 87 12 214 87 14 212 88 14 212 88 14
209 87 12 209 89 14 217 99 23 216 101 24 215 100 23 215 100 25
215 100 25 215 100 25 215 100 25 215 100 25 215 100 25 215 100 25
217 100 21 217 100 21 217 100 21 217 100 21 217 100 21 217 100 21
217 100 21 217 99 23 216 98 24 217 97 24 207 87 13 209 87 14
211 86 14 213 85 14 214 84 14 214 84 14 214 86 18 214 86 18 214 86 18
214 86 18 209 81 13 209 81 13 209 81 13 209 81 13 209 81 13 209 81 13
211 81 13 211 81 13 211 81 13 212 82 14 203 70 4 204 72 5 204 71 7
204 71 7 204 71 7 204 71 7 204 71 7 204 71 7 204 71 7 204 71 7
211 80 15 209 81 13 209 82 11 209 82 11 209 82 11 209 82 11 209 82 9
209 82 9 210 80 8 205 81 7 220 105 28 214 106 26 212 107 24
212 107 24 214 107 22 217 105 22 219 104 22 219 104 22 215 106 22
214 107 22 230 128 42 227 130 42 224 132 42 221 133 42 222 135 41
222 135 41 222 135 41 224 134 41 226 134 42 228 133 42 230 133 42
230 133 42 227 132 41 226 131 40 227 132 41 227 132 41 228 132 41
228 132 41 230 131 41 233 129 43 208 96 13 211 94 13 212 94 13
212 93 15 212 93 17 214 92 17 214 92 17 216 91 17 216 91 17 214 86 16
209 82 11 208 79 9 210 77 11 211 79 12 210 79 14 210 79 14 211 81 13
211 81 11 209 82 9 204 85 7 225 123 36 220 125 34 220 126 32
220 126 32 221 125 34 220 125 36 217 126 38 217 126 38 222 127 41
225 120 37 218 101 22 219 97 20 217 98 18 216 99 18 214 100 18
216 99 18 216 99 20 216 98 22 216 98 22 217 97 22 207 85 10 207 85 10
207 85 10 207 85 10 209 84 10 209 84 10 209 84 10 209 84 10 202 80 5
211 88 14 221 99 24 223 101 26 220 98 21 220 98 21 220 98 21
220 98 21 220 98 21 220 98 21 219 97 20 216 95 17 214 92 15 212 90 13
211 89 12 211 89 12 212 88 12 214 87 12 212 88 12 211 89 12 208 88 10
209 90 12 217 100 21 216 101 24 215 100 25 217 99 25 217 99 25
217 99 25 217 99 25 217 99 25 217 99 25 217 99 25 218 99 21 218 99 21
218 99 21 218 99 21 218 99 21 218 99 21 218 99 21 218 99 23 217 97 24
217 97 24 208 86 13 211 86 14 213 85 14 214 84 14 214 84 14 214 84 14
214 86 18 214 86 18 214 86 18 214 86 18 209 81 13 209 81 13 209 81 13
209 81 13 209 81 13 209 81 13 209 81 13 209 81 13 211 81 13 212 82 14
201 71 4 203 72 5 203 72 7 203 72 7 203 72 7 203 72 7 204 71 7
204 71 7 204 72 5 203 72 5 209 81 13 208 82 13 208 83 11 208 83 11
208 83 9 208 83 9 208 83 9 208 83 9 208 81 6 205 81 5 218 106 26
212 107 24 209 109 24 209 109 22 212 108 22 214 107 22 217 105 22
217 105 22 214 107 22 212 108 22 229 129 42 226 131 42 222 132 42
221 133 42 220 136 41 220 136 41 220 136 41 222 135 41 226 134 42
230 133 42 231 132 42 231 132 42 228 132 41 227 132 41 227 132 43
227 132 43 227 132 43 227 132 43 228 131 43 232 129 45 209 95 15
214 92 15 214 92 15 214 92 17 214 92 17 216 91 17 216 91 19 217 90 19
217 90 19 214 86 18 210 83 14 210 79 12 210 79 12 211 81 13 211 80 15
211 80 15 211 81 13 212 82 12 211 81 9 206 86 8 224 124 37 219 127 35
219 128 33 221 127 33 223 126 35 221 126 37 218 127 39 218 127 39
223 128 42 226 121 38 219 102 23 220 98 21 218 99 19 217 100 19
217 100 19 217 100 19 218 99 21 218 99 21 218 99 21 218 99 21
207 85 10 207 85 10 207 85 10 207 85 10 209 84 10 209 84 10 209 84 10
209 84 10 202 80 5 211 88 14 221 99 24 223 101 26 220 98 21 220 98 21
220 98 21 220 98 21 220 98 21 220 98 21 219 97 20 218 96 19 215 94 16
213 91 14 213 91 14 213 91 14 212 88 12 212 88 12 212 88 12 211 89 12
208 88 10 209 90 12 217 100 21 218 101 24 217 99 25 218 98 25
218 98 25 218 98 25 218 98 25 218 98 25 218 98 25 218 98 25 220 98 21
220 98 21 220 98 21 220 98 21 220 98 21 220 98 21 220 98 21 220 98 23
219 96 24 219 96 24 210 85 13 213 85 14 214 84 14 216 84 14 216 84 14
216 84 14 215 85 18 214 86 18 214 86 18 214 86 18 209 81 13 209 81 13
209 81 13 209 81 13 209 81 13 209 81 13 209 81 13 209 81 13 211 81 13
212 82 14 201 71 4 203 72 5 203 72 7 203 72 7 203 72 7 203 72 7
203 72 7 204 71 7 204 72 5 203 72 5 208 83 11 206 83 11 206 83 11
206 84 9 206 84 9 206 84 9 206 84 9 206 84 9 206 82 6 204 82 5
217 107 26 209 109 24 206 111 22 206 111 22 209 109 22 212 108 22
214 107 22 214 107 22 212 108 22 209 109 22 227 130 42 224 132 42
221 133 42 219 134 42 219 136 41 219 136 41 220 136 41 222 135 41
226 134 42 230 133 42 233 131 42 233 131 42 230 131 41 230 131 41
228 131 43 228 131 43 228 131 43 228 131 45 228 131 45 233 128 45
212 93 17 217 90 17 217 90 19 217 90 19 217 90 19 217 90 19 219 89 21
219 89 21 219 89 21 215 85 18 210 83 14 208 80 12 211 81 13 211 81 13
211 80 15 211 80 15 212 82 14 212 82 12 212 82 12 207 87 9 225 126 39
219 129 37 221 129 35 222 128 35 224 127 37 222 127 39 219 129 41
219 129 41 224 129 43 227 122 39 220 103 24 221 99 22 218 99 19
217 100 19 217 100 19 217 100 19 218 99 21 218 99 21 219 100 22
219 100 22 207 85 10 206 84 9 206 84 9 206 84 9 208 83 9 208 83 9
209 84 10 209 84 10 202 80 5 211 88 14 221 99 24 223 101 26 220 98 21
220 98 21 220 98 21 220 98 21 220 98 21 220 98 21 219 97 20 218 96 19
215 94 16 214 92 15 214 92 15 214 92 15 211 89 12 211 89 12 211 89 12
211 89 12 208 88 10 209 90 12 218 99 21 219 100 24 218 98 25
220 97 25 220 97 25 220 97 25 220 97 25 220 97 25 220 97 25 220 97 25
215 90 14 215 90 14 215 90 14 215 90 14 215 90 14 215 90 14 215 90 14
215 90 16 215 90 18 215 90 18 206 78 7 208 79 9 210 78 9 212 77 9
212 77 9 212 77 9 208 78 11 207 79 11 207 79 11 207 79 11 213 85 16
213 85 16 213 85 16 213 85 16 211 84 15 211 84 15 211 84 15 211 84 15
213 85 16 211 84 15 209 81 13 208 80 12 208 80 14 209 81 15 209 81 15
209 81 15 209 81 15 211 80 15 211 81 13 209 82 11 222 100 25
221 101 25 221 101 25 221 101 23 221 101 23 221 101 23 221 101 23
221 101 23 219 97 20 218 101 20 236 131 46 231 137 48 232 142 51
232 142 51 237 139 51 238 138 51 240 138 51 240 138 51 240 141 54
240 143 55 239 147 57 237 150 58 237 151 60 235 152 60 234 154 58
235 153 58 236 151 56 237 150 56 243 149 58 244 145 55 219 117 28
219 115 27 216 115 26 216 115 26 216 114 28 216 114 28 216 114 30
216 114 30 216 114 32 221 111 32 197 72 0 202 69 2 202 69 2 202 69 2
202 69 4 202 69 4 202 69 4 202 69 4 205 72 8 199 69 3 211 84 15
208 80 12 212 82 14 213 83 15 213 83 17 214 84 18 213 83 17 213 83 15
216 84 14 209 87 12 227 127 40 220 130 38 222 130 36 223 129 36
225 128 38 223 128 40 220 130 42 220 130 42 226 130 44 229 124 41
221 104 26 222 100 23 219 101 20 218 101 20 218 101 20 218 101 20
219 100 22 219 100 22 221 101 23 221 101 23 207 85 10 205 83 8
206 84 9 206 84 9 208 83 9 208 83 9 208 83 9 208 83 9 201 79 4
209 87 12 222 97 23 224 99 25 219 97 20 219 97 20 219 97 20 219 97 20
219 97 20 219 97 20 219 97 20 218 96 19 216 95 17 216 95 17 215 94 16
215 94 16 215 95 17 215 95 17 215 95 17 215 95 17 216 95 17 219 97 20
211 89 12 213 91 16 212 89 17 213 88 17 213 88 17 213 88 17 213 88 17
213 88 17 213 88 17 213 88 17 215 90 14 215 90 14 215 90 14 215 90 14
215 90 14 215 90 14 215 90 14 215 90 16 215 90 18 216 89 18 207 77 7
210 78 9 212 77 9 213 76 9 213 76 9 212 77 9 208 78 11 207 79 11
207 79 11 207 79 11 213 85 16 213 85 16 213 85 16 213 85 16 211 84 15
211 84 15 211 84 15 211 84 15 213 85 16 211 84 15 209 81 13 208 80 12
208 80 14 209 81 15 209 81 15 209 81 15 209 81 15 209 81 15 209 81 13
208 83 11 221 101 25 219 102 23 219 102 23 219 102 23 219 102 23
219 102 23 219 102 23 219 103 21 216 99 18 215 103 20 232 133 46
228 138 48 229 143 51 230 143 51 233 141 51 237 139 51 238 138 51
238 138 51 239 142 54 237 144 55 236 148 57 236 150 58 235 152 60
234 153 60 234 154 58 234 154 58 234 152 56 237 150 56 243 149 58
244 145 55 219 117 28 219 115 27 218 114 26 220 113 26 220 113 28
220 113 28 220 112 30 220 112 30 220 112 32 224 109 34 200 70 2
205 67 4 205 67 4 205 67 6 205 67 6 203 68 6 203 68 6 203 68 6
206 70 9 201 68 3 214 84 16 209 81 13 213 83 15 213 83 15 214 84 18
214 84 18 215 85 20 214 84 18 218 86 19 211 88 14 228 128 41
221 132 39 223 131 37 224 130 37 226 129 39 224 130 41 221 131 43
221 131 43 227 132 45 230 125 42 223 106 27 223 102 24 219 101 20
218 101 20 219 103 21 219 103 21 221 101 23 221 101 23 222 102 24
222 102 24 207 85 10 204 81 7 205 83 8 205 83 8 206 82 8 206 82 8
208 83 9 208 83 9 201 79 4 208 86 11 222 97 23 223 98 24 219 97 20
219 97 20 219 97 20 219 97 20 219 97 20 219 97 20 219 97 20 218 96 19
218 96 19 218 96 19 216 95 17 215 95 17 216 99 20 216 99 20 217 98 20
217 98 20 216 95 17 220 96 20 212 88 12 215 90 16 213 88 17 213 88 17
213 88 17 213 88 17 213 88 17 213 88 17 213 88 17 213 88 17 216 90 14
216 90 14 216 90 14 216 90 14 216 90 14 216 90 14 216 90 14 216 89 16
216 89 18 218 88 18 207 77 7 210 78 9 212 77 9 213 76 9 215 75 9
213 76 9 208 78 11 207 79 11 207 79 11 207 79 11 213 85 16 213 85 16
213 85 16 213 85 16 211 84 15 211 84 15 211 84 15 211 84 15 211 86 16
210 85 15 208 82 13 206 81 12 208 80 14 209 81 15 209 81 15 209 81 15
208 82 15 208 82 15 208 82 13 206 83 11 219 102 23 217 103 21
217 103 21 217 103 21 217 103 21 217 103 21 217 103 21 217 103 21
215 101 19 213 106 21 230 135 47 228 140 49 227 144 51 227 144 51
232 142 51 233 141 51 235 140 51 235 140 51 236 143 54 235 145 55
234 149 57 234 151 58 234 153 60 234 153 60 232 154 58 232 154 58
235 153 58 238 151 58 243 149 58 244 145 55 219 117 28 219 115 27
220 113 26 221 112 26 221 112 28 221 112 28 221 112 30 221 112 30
221 111 32 226 108 34 202 69 4 207 66 6 207 66 6 207 66 9 207 66 9
205 66 9 205 66 9 205 66 9 206 70 9 200 67 2 217 86 19 212 82 14
214 84 16 214 84 16 215 85 20 215 85 20 215 85 20 215 85 20 218 86 19
212 90 15 229 129 44 222 133 40 224 132 38 226 132 38 227 130 40
226 131 42 222 132 44 222 132 44 228 133 46 231 126 43 224 107 28
225 103 26 221 102 21 219 103 21 220 104 22 220 104 22 222 102 24
222 102 24 223 104 26 223 104 26 207 85 10 204 81 7 205 83 8 205 83 8
206 82 8 206 82 8 208 83 9 208 83 9 204 79 5 210 85 11 222 97 23
223 98 24 220 96 20 220 96 20 219 97 20 219 97 20 219 97 20 219 97 20
219 97 20 219 97 20 219 97 20 219 97 20 219 97 20 217 98 20 216 99 20
216 99 20 216 99 20 217 98 20 216 95 17 220 96 20 214 87 12 216 89 16
215 88 17 215 88 17 215 88 17 215 88 17 215 88 17 215 88 17 215 88 17
215 88 17 216 90 14 216 90 14 216 90 14 216 90 14 216 90 14 216 90 14
216 90 14 216 89 16 218 88 18 218 88 18 209 77 7 210 78 9 212 77 9
213 76 9 213 76 9 212 77 9 208 78 11 207 79 11 207 79 11 207 79 11
213 85 16 213 85 16 213 85 16 213 85 16 211 84 15 211 84 15 211 84 15
211 84 15 213 85 16 211 84 15 209 81 13 208 80 12 208 80 14 209 81 15
209 81 15 209 81 15 208 82 15 208 82 15 208 82 13 206 83 11
217 103 23 216 104 21 216 105 19 216 105 19 216 105 19 216 105 19
216 105 19 216 105 19 214 102 19 213 106 21 230 135 47 226 141 49
225 145 51 225 145 51 230 143 51 232 142 51 233 141 51 233 141 51
234 144 54 234 146 55 234 149 57 234 151 58 235 152 60 234 153 60
230 155 58 232 154 58 234 154 58 237 152 58 238 151 58 241 146 55
219 117 28 221 114 27 221 112 26 221 112 26 221 112 28 221 112 28
221 112 30 221 112 30 221 112 30 226 108 34 202 69 4 207 66 9
207 66 9 207 66 9 207 65 11 207 65 11 205 66 9 205 66 9 205 69 8
201 66 2 218 86 19 213 83 15 214 84 16 214 84 16 215 85 20 215 85 20
215 85 20 215 85 20 217 86 19 212 90 15 230 128 44 224 132 42
224 132 40 226 131 40 226 131 40 226 131 42 224 131 44 224 131 44
230 132 46 231 126 43 222 108 28 223 104 26 219 103 21 219 103 21
220 104 22 220 104 22 220 103 24 222 102 24 223 104 26 223 104 26
209 84 10 205 81 7 206 82 8 206 82 8 208 81 8 208 81 8 209 82 9
208 83 9 204 79 5 209 84 10 222 97 23 222 97 23 220 96 20 220 96 20
219 97 20 219 97 20 219 97 20 219 97 20 219 97 20 219 97 20 219 97 20
219 97 20 219 97 20 217 98 20 216 99 20 216 99 20 216 99 20 217 98 20
216 95 17 220 96 20 212 88 12 216 89 16 215 88 17 215 88 17 215 88 17
215 88 17 215 88 17 215 88 17 215 88 17 215 88 17 213 89 15 213 89 15
213 89 15 213 89 15 213 89 15 213 89 15 213 89 15 215 88 15 218 88 18
219 87 20 209 76 9 210 77 11 211 79 12 213 78 12 213 78 12 211 79 12
208 78 11 208 78 11 208 78 11 210 79 12 214 84 16 214 84 16 214 84 16
214 84 16 214 84 14 214 84 14 214 84 14 214 84 14 215 85 18 214 84 16
212 82 14 208 80 12 208 80 12 209 81 13 209 81 13 209 81 13 209 81 13
209 81 13 209 81 13 206 83 11 217 103 23 216 104 21 216 105 19
216 105 19 216 105 19 216 105 19 216 105 19 216 105 19 216 103 18
214 107 20 231 137 46 229 142 48 227 145 49 227 145 49 230 143 49
232 142 49 232 142 49 232 142 49 233 145 52 234 146 53 234 150 55
236 151 56 236 154 59 235 155 59 232 156 59 232 156 59 234 154 58
234 154 58 232 154 58 233 150 55 216 119 28 221 114 27 221 112 26
221 112 26 221 112 28 221 112 28 221 112 28 221 112 28 221 112 28
226 109 32 202 69 4 207 66 9 207 65 11 207 65 11 207 65 11 207 65 11
205 66 9 205 66 9 205 69 8 201 66 2 218 86 19 213 83 15 215 85 18
215 85 18 215 85 20 215 85 20 215 87 21 215 87 21 215 87 19 210 90 17
230 128 44 226 131 42 226 131 40 226 131 40 226 131 42 226 131 42
227 130 44 229 129 44 234 129 46 234 124 43 222 108 28 221 104 26
219 104 22 219 104 22 219 104 22 219 104 22 219 104 22 220 104 22
220 104 22 222 102 24 208 81 8 211 79 10 210 80 10 210 80 10
210 80 10 210 80 10 210 80 10 208 81 10 206 79 5 210 83 10 220 96 22
222 97 23 220 96 22 220 96 22 220 96 22 219 97 22 219 97 22 217 97 22
217 97 22 217 97 22 217 97 22 217 97 22 217 97 22 217 97 22 217 97 22
217 97 22 217 97 22 219 97 22 216 94 19 219 97 22 211 88 14 215 90 16
215 88 17 215 87 19 215 87 19 215 87 19 215 87 19 215 87 19 215 87 19
215 87 19 213 89 15 213 89 15 213 89 15 213 89 15 213 89 15 213 89 15
213 89 15 215 88 17 218 88 20 219 87 20 209 76 9 210 77 11 211 79 12
211 79 12 211 79 12 211 79 12 208 78 11 208 78 11 208 78 11 210 79 12
214 84 16 214 84 16 214 84 16 214 84 16 214 84 14 214 84 14 214 84 14
214 84 14 215 85 18 214 84 16 212 82 14 210 79 12 208 80 12 209 81 13
209 81 13 209 81 13 209 81 13 209 81 13 209 81 13 208 83 11
219 102 23 216 104 21 216 104 21 216 105 19 216 105 19 216 105 19
216 105 19 217 104 19 218 102 18 217 106 20 235 135 46 231 141 48
229 144 49 229 144 49 232 142 49 233 141 49 230 143 49 230 143 49
233 145 52 232 147 53 234 150 55 236 151 56 236 154 59 235 155 59
232 156 59 232 156 59 234 154 58 232 154 58 227 157 58 230 152 55
214 120 28 219 115 27 220 113 26 221 112 26 221 112 28 221 112 28
221 112 28 221 112 28 221 112 28 226 109 32 202 69 4 207 66 9
207 65 11 207 65 11 207 65 11 207 65 11 205 66 9 205 67 6 203 68 4
201 66 2 218 86 19 214 84 16 215 85 18 215 85 18 215 85 20 214 86 20
213 88 21 213 88 21 213 88 19 209 91 17 229 129 44 224 132 42
226 131 40 226 131 40 224 132 42 226 131 42 227 130 44 229 129 44
234 129 46 234 124 43 221 108 28 218 106 26 219 104 22 219 104 22
219 104 22 219 104 22 219 104 22 219 104 22 219 104 22 222 102 24
210 80 8 211 79 10 211 79 10 211 79 10 211 79 10 210 80 10 210 80 10
210 80 10 206 79 5 209 82 9 220 96 22 220 96 22 220 96 22 220 96 22
220 96 22 219 97 22 219 97 22 217 97 22 217 97 22 217 97 22 217 97 22
217 97 22 217 97 22 217 97 22 219 97 22 219 97 22 219 97 22 219 97 22
216 94 19 219 97 22 211 88 14 215 90 18 215 87 19 215 87 19 215 87 19
215 87 19 215 87 19 215 87 19 215 87 19 215 87 19 213 89 15 213 89 15
213 89 15 213 89 15 213 89 15 213 89 15 213 89 15 215 88 17 218 88 20
219 87 20 209 76 9 210 77 11 211 79 12 211 79 12 211 79 12 211 79 12
208 78 11 208 78 11 208 78 11 210 79 12 214 84 16 214 84 16 214 84 16
214 84 16 214 84 14 214 84 14 214 84 14 214 84 14 215 85 18 214 84 16
212 82 14 210 79 12 210 79 12 211 81 13 211 81 13 211 81 13 211 81 13
211 81 13 211 81 13 208 83 11 219 102 25 216 104 23 216 104 21
216 104 21 216 105 19 216 105 19 216 105 19 217 104 19 221 102 19
221 105 21 239 135 47 235 140 49 232 142 49 232 142 49 237 140 49
235 140 49 230 143 49 229 144 49 231 146 52 230 148 53 233 150 55
234 152 56 236 154 59 235 155 59 230 157 59 230 157 59 233 155 59
233 155 59 227 157 58 230 152 55 214 120 28 219 115 27 220 113 26
220 113 26 220 113 26 220 113 26 220 113 26 220 113 26 220 113 26
224 110 30 200 69 6 205 66 11 205 66 11 205 66 11 205 66 11 205 66 11
205 66 9 205 67 6 203 68 4 200 65 1 219 87 20 214 84 16 215 85 18
215 85 18 215 85 20 214 86 20 212 88 21 210 89 21 212 89 19 205 92 17
226 130 46 221 133 42 222 133 40 222 133 40 222 132 42 222 132 42
224 131 44 227 130 44 231 131 46 231 126 43 217 110 28 217 107 26
217 105 22 219 104 22 219 104 22 219 104 22 219 104 22 219 104 22
219 104 22 222 102 24 208 81 8 210 80 10 210 80 10 210 80 10
210 80 10 208 81 10 208 81 10 208 81 10 207 80 7 209 82 9 220 96 22
220 96 22 220 96 22 220 96 22 219 97 22 219 97 22 219 97 22 219 97 22
217 97 22 217 97 22 217 97 22 217 97 22 217 97 22 217 97 22 219 97 22
219 97 22 219 97 22 219 97 22 216 94 19 219 97 22 211 88 14 215 90 18
215 87 19 215 87 19 215 87 19 215 87 19 215 87 19 215 87 19 215 87 19
215 87 19 213 89 15 213 89 15 213 89 15 213 89 15 213 89 15 213 89 15
213 89 15 215 88 17 218 88 20 219 87 20 209 76 9 210 77 11 211 79 12
211 79 12 211 79 12 211 79 12 208 78 11 208 78 11 208 78 11 210 79 12
214 84 16 214 84 16 214 84 16 214 84 16 214 84 14 214 84 14 214 84 14
214 84 14 215 85 18 214 84 16 212 82 14 210 79 12 210 79 12 211 81 13
211 81 13 211 81 13 211 81 13 211 81 13 211 81 13 208 83 11
219 102 25 216 104 23 216 104 21 216 104 21 216 105 19 216 105 19
216 105 19 217 104 19 221 102 19 221 105 21 239 135 47 235 140 49
232 142 49 232 142 49 237 140 49 235 140 49 229 144 49 225 145 49
228 148 52 229 149 53 231 151 55 231 151 55 234 154 58 232 154 58
229 156 58 229 156 58 232 154 58 232 154 58 226 156 56 228 151 54
213 118 27 218 114 26 219 112 25 219 112 25 219 112 25 219 112 25
219 112 25 219 112 25 219 112 25 223 109 29 200 69 6 205 66 11
205 66 11 205 66 11 205 66 11 205 66 11 205 66 9 205 67 6 202 66 5
202 67 3 218 85 21 215 85 18 215 85 18 215 85 20 215 85 20 214 86 20
212 88 21 210 89 21 212 88 21 205 92 17 226 130 46 221 133 44
222 132 42 222 133 40 222 132 42 222 132 42 224 131 44 227 130 44
231 131 46 229 127 43 216 111 28 217 107 26 217 105 22 219 104 22
219 104 22 219 104 22 219 104 22 219 104 22 219 104 22 220 103 24
206 82 8 210 80 10 210 80 10 210 80 10 208 81 10 208 81 10 208 81 10
208 81 10 207 80 7 208 81 8 219 95 21 219 95 21 220 96 22 220 96 22
219 97 22 219 97 22 219 97 22 219 97 22 217 97 22 217 97 22 217 97 22
217 97 22 217 97 22 217 97 22 219 97 22 219 97 22 219 97 22 219 97 22
216 94 19 219 97 22 211 88 14 215 90 18 215 87 19 215 87 19 215 87 19
215 87 19 215 87 19 215 87 19 215 87 19 215 87 19 215 90 16 215 90 16
215 90 16 215 90 16 215 90 16 215 90 16 215 90 16 216 89 18 213 83 15
216 83 16 209 76 9 211 79 12 210 77 11 210 77 11 210 77 11 210 77 11
208 78 11 208 78 11 208 78 11 208 78 11 214 84 16 214 84 16 214 84 16
214 84 16 214 84 14 214 84 14 214 84 14 214 84 14 215 85 18 214 84 16
212 82 14 210 79 12 210 79 12 211 81 13 211 81 13 211 81 13 211 81 13
211 81 13 211 81 11 208 83 11 218 101 24 215 103 22 215 103 20
215 103 20 215 103 18 215 103 18 215 103 18 216 103 18 219 103 19
210 99 13 238 139 49 225 135 42 229 142 48 229 142 48 232 140 48
231 141 48 224 144 48 221 146 48 222 147 49 223 148 51 225 149 52
227 152 54 228 153 55 228 153 55 229 156 58 229 156 58 232 154 58
232 154 58 226 156 56 228 151 54 213 118 27 218 114 26 219 112 25
219 112 25 219 112 25 219 112 25 219 112 25 219 112 25 219 112 25
223 109 29 200 69 6 205 66 11 205 66 11 205 66 11 205 66 11 205 66 11
205 66 9 205 66 9 203 65 4 205 69 8 215 82 17 222 89 24 218 85 21
218 85 21 218 85 23 217 86 23 215 88 24 215 88 24 215 89 22 210 92 20
229 128 46 224 131 44 224 132 42 224 132 42 224 132 42 226 131 42
227 130 44 229 129 44 234 129 46 231 124 42 217 107 26 215 103 22
217 103 21 217 103 21 217 103 21 217 103 21 217 103 21 217 103 21
217 103 21 219 102 23 208 83 9 209 82 11 209 82 11 209 82 11
209 82 11 209 82 11 209 82 11 209 82 11 204 79 5 211 86 12 219 95 21
218 93 19 220 96 22 220 96 22 219 97 22 219 97 22 219 97 22 219 97 22
217 97 22 217 97 22 219 97 22 219 97 22 219 97 22 219 97 22 219 97 22
219 97 22 219 97 22 219 97 22 220 98 23 218 95 21 215 93 18 216 91 19
216 88 20 216 88 20 216 88 20 216 88 20 215 87 19 215 87 19 215 87 19
215 87 19 212 88 14 212 88 14 212 88 14 212 88 14 212 88 14 212 88 14
212 88 14 214 86 16 213 83 15 216 83 16 209 76 9 211 79 12 210 77 11
210 77 11 210 77 11 210 77 11 208 78 11 208 78 11 208 78 11 208 78 11
213 83 15 213 83 15 213 83 15 213 83 15 213 83 13 213 83 13 213 83 13
213 83 13 214 84 16 213 83 15 211 81 13 208 78 11 208 78 11 210 79 12
210 79 12 210 79 12 210 79 12 210 79 12 210 80 10 206 81 10 216 98 22
212 100 20 212 101 18 212 101 18 212 101 16 212 101 16 212 101 16
211 102 16 212 103 17 202 101 12 234 144 52 226 143 48 225 147 51
227 147 51 230 145 51 228 146 51 223 148 51 220 150 51 221 151 52
222 152 53 225 154 55 226 156 56 228 158 59 228 158 59 228 158 59
230 157 59 234 157 60 234 157 60 228 158 59 231 153 56 215 121 30
220 116 28 221 114 27 221 114 27 221 114 27 221 114 27 221 114 27
221 114 27 221 114 27 226 111 31 200 69 6 205 66 11 205 66 11
205 66 11 205 66 11 205 66 11 205 66 9 204 65 7 204 66 5 207 69 9
212 76 13 215 82 17 218 85 21 219 86 22 219 86 24 219 86 24 219 88 25
219 88 25 220 88 23 216 90 21 231 124 44 225 127 42 227 127 40
227 127 40 227 127 40 228 126 40 230 125 42 231 124 42 234 124 43
235 120 41 224 107 28 224 105 27 219 103 21 217 103 21 217 103 21
217 103 21 217 103 21 217 103 21 217 103 21 219 102 23 206 82 8
208 81 10 208 81 10 208 81 10 208 81 10 208 81 10 208 81 10 208 81 10
208 83 9 215 90 16 218 93 19 218 93 19 218 93 19 218 93 19 216 94 19
216 94 19 216 94 19 216 94 19 216 96 21 216 96 21 218 95 21 218 95 21
219 97 22 219 97 22 219 97 22 219 97 22 219 97 22 219 97 22 216 94 19
214 92 17 212 90 15 212 87 16 214 86 18 214 86 18 214 86 18 214 86 18
214 86 18 214 86 18 214 86 18 214 86 18 210 85 11 210 85 11 210 85 11
210 85 11 210 85 11 210 85 11 210 85 11 211 84 13 213 83 15 216 83 16
209 76 9 211 79 12 210 77 11 210 77 11 210 77 11 210 77 11 208 78 11
208 78 11 208 78 11 208 78 11 211 81 13 211 81 13 211 81 13 211 81 13
211 81 11 211 81 11 211 81 11 211 81 11 212 82 14 211 81 13 208 78 11
206 76 8 206 76 8 207 77 9 207 77 9 207 77 9 207 77 9 207 77 9
207 77 7 204 79 7 229 114 37 226 116 35 226 117 33 226 117 33
226 117 31 226 117 31 226 117 31 224 118 31 220 120 31 212 122 30
249 172 75 243 173 74 238 172 72 240 172 72 243 170 72 243 170 72
240 172 72 240 172 72 238 170 70 236 168 68 234 166 66 231 163 63
231 163 63 231 163 63 231 163 63 233 163 63 237 162 65 237 162 65
233 163 63 234 159 61 220 125 34 225 121 33 224 120 32 224 120 32
224 120 32 224 120 32 224 120 32 224 120 32 224 120 32 229 117 36
200 69 6 205 66 11 205 66 11 205 66 11 205 66 11 205 66 11 205 66 9
205 66 9 205 67 6 206 68 8 206 70 7 204 71 7 203 70 6 202 69 4
202 68 6 203 68 6 206 68 8 208 67 8 209 67 6 205 70 4 217 99 25
210 103 21 212 103 19 212 103 19 212 103 19 214 102 19 215 101 21
217 100 21 218 99 21 223 99 22 215 88 13 217 91 15 221 102 21
217 103 21 217 103 21 217 103 21 217 103 21 217 103 21 217 103 21
219 102 23 215 93 18 217 92 20 217 92 20 217 92 20 217 92 20
217 92 20 217 92 20 217 92 20 211 86 12 216 94 19 216 94 19 216 94 19
216 91 17 216 91 17 214 92 17 214 92 17 214 92 17 214 92 17 212 93 17
212 93 17 206 84 9 206 84 9 206 84 9 206 84 9 206 84 9 206 84 9
206 84 9 206 84 9 211 88 14 208 86 11 206 84 9 206 81 10 209 81 13
209 81 13 209 81 13 209 81 13 210 83 14 210 83 14 210 83 14 210 83 14
210 83 12 210 83 12 210 83 12 210 83 12 210 83 12 210 83 12 210 83 12
210 83 12 213 83 15 216 83 16 209 76 9 211 79 12 210 77 11 210 77 11
210 77 11 210 77 11 210 77 11 210 77 11 210 77 11 210 77 11 211 79 12
211 79 12 211 79 12 210 79 12 210 80 10 210 80 10 210 80 10 210 80 10
211 81 13 210 79 12 207 77 9 205 75 7 206 76 8 206 76 8 206 76 8
206 76 8 206 76 8 206 76 8 206 76 6 203 78 6 227 112 35 224 114 32
224 114 30 224 114 30 224 115 28 224 115 28 224 115 28 222 115 28
216 117 27 209 122 28 249 176 77 244 181 80 237 176 74 237 176 74
239 175 74 240 175 74 240 175 74 240 175 74 239 174 73 237 171 70
236 170 69 233 168 67 233 168 67 233 168 67 235 167 67 236 166 67
240 164 67 238 165 67 234 166 66 236 161 63 221 128 37 226 124 35
226 122 34 226 122 34 226 122 34 226 122 34 226 122 34 226 122 34
226 122 34 231 119 38 200 69 6 205 66 11 205 66 11 205 66 11
205 66 11 205 66 11 205 66 9 205 66 9 205 67 6 205 67 6 203 68 4
201 68 3 202 69 4 203 70 6 203 70 8 205 69 8 209 68 9 211 68 9
211 68 7 206 71 5 219 96 24 214 99 22 214 99 20 214 100 18 214 100 18
216 99 18 217 98 20 218 96 19 220 96 20 224 98 22 220 91 16 222 95 20
221 102 21 217 103 21 217 103 21 217 103 21 217 103 21 217 103 21
217 103 21 219 102 23 215 93 18 217 92 20 217 92 20 217 92 20
217 92 20 217 92 20 217 92 20 216 91 19 214 92 17 216 94 19 216 94 19
216 94 19 215 90 16 215 90 16 213 91 16 213 91 16 213 91 16 213 91 16
211 92 16 211 92 16 207 85 10 207 85 10 207 85 10 207 85 10 207 85 10
209 84 12 209 84 12 209 84 12 210 85 13 208 83 11 205 80 9 204 79 7
207 79 11 207 79 11 207 79 11 207 79 11 208 80 12 208 80 12 208 80 12
208 80 12 212 82 14 212 82 14 212 82 14 212 82 14 212 82 14 212 82 14
212 82 14 212 82 14 213 83 15 211 81 13 208 78 11 207 77 9 207 77 9
207 77 9 207 77 9 209 76 9 210 77 11 212 77 11 212 77 11 212 77 11
213 78 12 213 78 12 213 78 12 211 79 12 210 79 12 210 79 12 210 79 12
210 79 12 208 78 11 208 78 11 208 78 11 208 78 11 206 76 10 207 77 11
207 77 11 207 77 11 207 77 9 207 77 9 207 77 7 204 79 7 228 113 36
225 115 34 225 115 32 225 115 32 225 116 30 225 116 30 225 116 30
225 116 30 224 118 31 214 120 28 244 171 73 236 173 72 238 174 73
238 174 73 234 176 73 234 176 73 239 175 74 240 175 74 239 174 73
238 172 72 236 170 67 234 169 66 233 168 65 233 168 65 235 167 65
236 166 65 239 167 66 239 167 66 235 167 65 237 163 63 222 130 36
227 126 35 226 124 33 226 124 33 226 124 33 226 124 33 226 124 35
226 124 35 226 124 35 232 120 39 200 69 6 205 66 11 205 66 11
205 66 11 205 66 11 205 66 11 207 66 9 207 66 9 205 67 6 205 67 6
202 66 5 203 68 6 205 69 8 205 69 8 205 69 8 205 69 8 207 69 9
207 69 9 206 70 7 203 72 5 219 96 24 217 97 22 216 99 20 216 99 18
216 99 18 216 99 18 217 98 20 217 98 20 219 97 20 219 97 20 219 97 20
219 97 20 218 101 20 216 102 20 216 102 20 216 102 20 216 102 20
216 102 20 216 102 20 218 101 22 212 93 17 214 92 19 214 92 19
214 92 19 214 92 19 214 92 19 214 92 19 214 92 19 215 93 18 215 93 18
215 93 18 215 93 18 213 91 16 213 91 16 213 91 16 213 91 16 213 91 16
213 91 16 213 91 16 213 91 16 207 85 10 207 85 10 207 85 10 207 85 10
209 84 12 210 83 14 210 83 14 210 83 14 209 81 13 209 81 13 209 81 13
209 81 13 208 80 12 210 79 12 210 79 12 210 79 12 210 79 12 210 79 12
210 79 12 210 79 12 212 82 14 212 82 14 212 82 14 212 82 14 212 82 14
212 82 14 212 82 14 212 82 14 213 83 15 211 81 13 208 78 11 207 77 9
207 77 9 207 77 9 207 77 9 207 77 9 210 77 11 212 77 11 212 77 11
212 77 11 213 78 12 213 78 12 213 78 12 213 78 12 211 79 12 210 79 12
210 79 12 210 79 12 208 78 11 208 78 11 208 78 11 208 78 11 207 77 11
207 77 11 207 77 11 207 77 11 207 77 9 207 77 9 207 77 7 204 79 7
228 113 36 225 115 34 225 115 34 225 115 32 225 115 32 225 116 30
225 116 30 225 116 30 226 117 31 216 119 28 244 171 73 236 173 72
239 174 73 238 174 73 233 177 73 233 177 73 239 175 74 240 175 74
239 174 73 238 172 72 236 170 67 234 169 66 233 168 65 233 168 65
235 167 65 236 166 65 238 166 65 236 166 65 234 166 64 235 162 61
219 130 35 224 125 33 225 123 32 225 123 32 225 123 32 225 123 32
225 123 34 225 123 34 225 123 34 231 119 38 200 69 6 205 66 11
205 66 11 205 66 11 205 66 11 205 66 11 207 66 9 207 66 9 205 67 6
205 67 6 203 68 6 203 68 6 205 69 8 205 69 8 205 69 8 205 69 8
206 70 9 206 70 9 204 71 7 201 73 5 220 95 24 219 97 22 217 98 20
216 99 18 216 99 18 216 99 18 217 98 20 217 98 20 217 98 20 217 98 20
217 98 20 217 98 20 218 101 20 216 102 20 216 102 20 216 102 20
216 102 20 216 102 20 216 102 20 218 101 22 212 93 17 214 92 19
214 92 19 214 92 19 214 92 19 214 92 19 214 92 19 214 92 19 215 93 18
215 93 18 215 93 18 215 93 18 214 92 17 214 92 17 214 92 17 214 92 17
214 92 17 214 92 17 214 92 17 214 92 17 207 85 10 207 85 10 207 85 10
209 84 12 210 83 14 210 83 14 210 83 14 210 83 14 209 81 13 209 81 13
209 81 13 209 81 13 210 79 12 210 79 12 210 79 12 210 79 12 210 79 12
210 79 12 210 79 12 210 79 12 212 82 14 212 82 14 212 82 14 212 82 14
212 82 14 212 82 14 210 83 14 210 83 14 211 84 15 209 81 13 207 79 11
206 78 9 206 78 9 206 78 9 206 78 9 207 77 9 210 77 11 210 77 11
210 77 11 210 77 11 211 79 12 211 79 12 213 78 12 213 78 12 211 79 12
210 79 12 210 79 12 210 79 12 208 78 11 208 78 11 208 78 11 208 78 11
207 77 11 207 77 11 207 77 11 207 77 11 207 77 9 207 77 9 207 77 7
204 79 7 228 113 36 225 115 36 225 115 34 225 115 34 225 115 32
225 115 32 225 115 32 225 115 32 228 116 31 217 118 28 244 171 73
236 173 72 241 173 73 239 174 73 234 176 73 233 177 73 239 175 74
240 175 74 239 174 73 238 172 72 236 170 67 234 169 66 233 168 65
233 168 65 235 167 65 236 166 65 238 166 65 238 166 65 232 167 64
235 162 61 219 130 35 224 125 33 225 123 32 225 123 32 225 123 32
225 123 32 225 123 34 225 123 34 225 123 34 231 119 38 200 70 4
205 66 9 205 66 11 205 66 11 205 66 11 205 66 11 207 66 9 207 66 9
205 67 6 205 67 6 203 68 6 203 68 6 205 69 8 205 69 8 205 69 8
205 69 8 206 70 9 206 70 9 204 71 7 201 73 5 220 95 24 219 97 22
217 98 20 216 99 18 216 99 18 216 99 18 217 98 20 217 98 20 217 97 22
217 97 22 217 98 20 217 98 20 218 101 20 216 102 20 216 102 20
216 102 20 216 102 20 216 102 20 216 102 20 218 101 22 212 93 17
212 92 19 212 92 19 212 92 19 212 92 19 212 92 19 212 92 19 212 92 19
214 94 18 214 94 18 214 94 18 214 94 18 214 92 17 214 92 17 214 92 17
214 92 17 214 92 17 214 92 17 214 92 17 214 92 17 207 85 10 207 85 10
207 85 10 209 84 12 210 83 14 210 83 14 210 83 14 210 83 14 209 81 13
209 81 13 209 81 13 209 81 13 210 79 12 210 79 12 210 79 12 210 79 12
210 79 12 210 79 12 210 79 12 210 79 12 212 82 14 212 82 14 212 82 14
212 82 14 212 82 14 212 82 14 210 83 14 210 83 14 211 84 15 209 81 13
207 79 11 206 78 9 206 78 9 206 78 9 206 78 9 206 78 9 208 78 11
210 77 11 210 77 11 210 77 11 211 79 12 211 79 12 213 78 12 211 79 12
210 79 12 210 79 12 210 79 12 210 79 12 208 78 11 208 78 11 208 78 11
208 78 11 207 77 11 207 77 11 207 77 11 207 77 11 207 77 9 207 77 9
207 77 7 204 79 7 228 113 36 226 114 36 226 114 34 226 114 34
226 115 32 226 115 32 226 115 32 226 115 32 228 116 31 217 118 28
244 171 73 236 173 72 241 173 73 239 174 73 234 176 73 233 177 73
239 175 74 240 175 74 239 174 73 238 172 72 236 170 67 234 169 66
233 168 65 235 167 65 236 166 65 238 166 65 240 165 65 238 166 65
232 167 64 235 162 61 219 130 35 226 124 33 225 123 32 225 123 32
225 123 32 225 123 34 225 123 34 225 123 34 225 123 34 231 119 38
200 70 4 205 66 9 205 66 11 205 66 11 205 66 11 205 66 11 207 66 9
207 66 9 205 67 6 205 67 6 205 67 6 203 68 6 205 69 8 205 69 8
205 69 8 205 69 8 206 70 9 206 70 9 204 71 9 201 73 7 220 95 26
219 97 22 217 98 20 216 99 18 216 99 18 216 99 18 217 98 20 217 98 20
217 97 22 217 97 22 217 98 20 217 98 20 218 101 20 216 102 20
216 102 20 216 102 20 216 102 20 216 102 20 216 102 20 218 101 22
212 93 17 212 92 19 212 92 19 212 92 19 212 92 19 212 92 19 212 92 19
212 92 19 214 94 18 214 94 18 214 94 18 214 94 18 214 92 17 214 92 17
214 92 17 214 92 17 214 92 17 214 92 17 214 92 17 214 92 17 207 85 10
207 85 10 207 85 10 209 84 12 210 83 14 210 83 14 210 83 14 210 83 14
209 81 13 209 81 13 209 81 13 209 81 13 210 79 12 210 79 12 210 79 12
210 79 12 210 79 12 210 79 12 210 79 12 210 79 12 210 83 12 210 83 12
210 83 12 210 83 12 210 83 12 210 83 12 210 83 12 210 83 12 211 84 13
209 82 11 205 80 9 204 79 7 204 79 7 204 79 7 204 79 7 206 78 7
207 79 9 208 79 9 208 79 9 208 79 9 211 79 10 211 79 10 211 79 10
211 79 10 210 80 10 208 81 10 208 81 10 208 81 10 206 78 7 206 78 7
206 78 7 206 78 9 207 77 11 207 77 11 209 76 11 209 76 11 209 76 9
209 76 9 209 76 9 206 78 7 230 112 36 228 113 36 228 113 34
228 113 34 228 113 34 228 113 34 228 113 34 228 114 32 229 115 31
217 118 28 244 171 73 236 173 72 242 172 73 241 173 73 234 176 73
233 177 73 239 175 74 240 175 74 239 174 73 238 172 72 236 170 67
234 169 66 233 168 65 235 167 65 236 166 65 238 166 65 241 164 65
240 165 65 234 166 66 235 162 63 221 128 37 226 124 35 226 122 34
226 122 34 226 122 34 226 122 34 226 122 36 226 122 36 226 122 36
231 118 40 200 70 4 205 66 9 205 66 9 205 66 9 205 66 9 205 66 9
207 66 9 207 66 9 207 66 9 207 66 9 205 66 9 205 66 9 206 68 10
206 68 10 206 68 10 206 68 10 206 70 11 206 70 11 204 71 9 203 72 7
220 95 26 219 97 22 217 98 20 216 99 18 216 99 18 216 99 18 217 98 20
217 98 20 217 97 22 217 97 22 217 98 20 217 98 20 218 101 20
216 102 20 218 101 20 218 101 20 216 102 20 216 102 20 216 102 20
218 101 22 212 93 17 212 93 17 211 94 17 211 94 17 211 94 17
211 94 17 211 94 17 211 94 17 214 94 18 214 94 18 214 94 18 214 94 18
214 94 18 214 94 18 214 94 18 214 94 18 215 93 18 215 93 18 215 93 18
215 93 18 210 85 11 210 85 11 210 85 11 210 85 13 210 83 14 210 83 14
210 83 14 210 83 14 209 81 13 209 81 13 209 81 13 209 81 13 210 79 12
210 79 12 210 79 12 210 79 12 210 79 12 210 79 12 210 79 12 210 79 12
211 84 13 211 84 13 211 84 13 211 84 13 211 84 13 210 83 12 210 83 12
210 83 12 213 85 14 210 83 12 205 80 9 204 79 7 204 79 7 204 79 7
204 79 7 204 79 7 207 79 9 207 79 9 208 79 9 208 79 9 212 80 11
212 80 11 212 80 11 212 80 11 211 81 11 209 82 11 209 82 11 209 82 11
207 79 9 207 79 9 206 78 7 206 78 9 207 77 11 207 77 11 209 76 11
209 76 11 209 76 9 209 76 9 209 76 9 206 78 9 231 111 38 228 113 36
228 113 36 228 113 34 228 113 34 228 113 34 228 113 34 228 113 34
229 115 33 219 117 28 245 170 73 236 173 72 242 172 73 241 173 73
234 176 73 233 177 73 239 175 74 240 175 74 239 174 73 238 172 72
236 170 67 234 169 66 233 168 65 235 167 65 238 166 65 240 165 65
243 163 65 240 165 65 234 166 66 235 162 63 221 128 37 227 123 35
226 122 34 226 122 34 226 122 34 226 122 34 226 122 36 226 122 36
226 122 36 231 118 40 200 70 4 205 66 9 205 66 9 205 66 9 205 66 9
205 66 9 207 66 9 207 66 9 207 66 9 207 66 9 205 66 9 205 66 9
206 68 10 206 68 10 206 68 10 206 68 10 206 70 11 206 70 11 204 71 9
203 72 7 220 95 26 219 97 22 217 98 20 216 99 18 216 99 18 216 99 18
217 98 20 217 98 20 217 97 22 217 97 22 217 98 20 217 98 20
218 101 20 216 102 20 218 101 20 218 101 20 216 102 20 216 102 20
216 102 20 216 102 22 211 94 17 212 93 17 211 94 17 211 94 17
211 94 17 211 94 17 211 94 17 211 94 17 214 94 18 216 96 21 215 95 19
215 95 19 215 95 19 215 95 19 215 95 19 215 95 19 216 94 19 215 93 18
215 93 18 215 93 18 211 86 12 211 86 12 211 86 12 211 86 14 210 83 14
210 83 14 210 83 14 210 83 14 209 81 13 209 81 13 209 81 13 209 81 13
210 79 12 210 79 12 210 79 12 210 79 12 210 79 12 210 79 12 210 79 12
210 79 12 211 84 13 211 84 13 211 84 13 211 84 13 211 84 13 211 84 13
210 85 13 210 85 13 212 87 16 209 84 12 205 80 9 202 80 7 202 80 7
202 80 7 202 80 7 204 79 7 205 80 9 207 79 9 207 79 9 208 79 9
212 82 12 212 82 12 213 81 12 213 81 12 212 82 12 210 83 12 210 83 12
210 83 12 208 81 10 208 81 10 207 79 9 206 78 9 207 77 11 207 77 11
209 76 11 209 76 11 209 76 9 209 76 9 209 76 9 206 78 9 231 111 38
230 112 38 230 112 36 230 112 36 230 112 36 230 112 36 230 112 36
230 113 34 231 114 33 219 117 28 245 170 73 238 172 72 244 171 73
242 172 73 234 176 73 233 177 73 239 175 74 240 175 74 239 174 73
238 172 72 236 170 67 234 169 66 233 168 65 235 167 65 238 166 65
241 164 65 243 163 65 241 164 65 234 166 66 235 162 63 222 128 37
227 123 35 228 121 34 228 121 34 228 121 34 228 121 34 228 121 36
228 121 36 228 121 36 233 118 40 201 71 6 206 68 8 206 68 10
206 68 10 206 68 10 206 68 10 208 67 10 208 67 10 208 67 10 208 67 10
206 68 10 205 66 9 206 68 10 206 68 10 206 68 10 206 68 10 206 70 11
206 70 11 204 71 9 203 72 7 220 95 26 219 96 24 217 98 20 216 99 18
216 99 18 216 99 18 217 98 20 217 98 20 217 97 22 217 97 22 216 97 19
217 98 20 217 100 19 215 101 19 217 100 19 217 100 19 215 101 19
215 101 19 215 101 19 215 101 21 211 94 17 211 94 17 211 94 17
209 94 17 209 94 17 209 94 17 209 94 17 211 94 17 214 94 18 217 97 22
216 96 21 215 95 19 215 95 19 215 95 19 215 95 19 215 95 19 216 94 19
216 94 19 216 94 19 216 94 19 212 88 14 212 88 14 212 88 14 212 87 16
210 83 14 210 83 14 210 83 14 210 83 14 209 81 13 209 81 13 209 81 13
209 81 13 210 79 12 210 79 12 210 79 12 210 79 12 210 79 12 210 79 12
210 79 12 210 79 12 213 85 14 213 85 14 213 85 14 213 85 14 213 85 14
211 84 13 210 85 13 210 85 13 213 88 17 210 85 13 204 81 9 202 80 7
202 80 7 202 80 7 202 80 7 202 80 7 204 81 9 205 80 9 205 80 9
207 79 9 213 83 13 213 83 13 215 82 13 215 82 13 213 83 13 211 84 13
211 84 13 211 84 13 209 82 11 209 82 11 207 79 9 207 77 7 207 77 9
207 77 11 209 76 11 209 76 11 209 76 9 209 76 9 209 76 9 207 77 9
233 110 38 230 112 38 230 112 36 230 112 36 230 112 36 230 112 36
230 112 36 230 113 34 231 114 33 222 115 28 250 168 73 243 170 72
247 169 73 245 170 73 242 172 73 241 173 73 245 172 74 247 171 74
245 170 73 244 169 72 242 167 67 239 167 66 238 166 65 240 165 65
241 164 65 243 163 65 244 162 65 243 163 65 239 163 66 239 159 63
224 127 37 227 123 35 228 121 34 228 121 34 228 121 34 228 121 36
228 121 36 228 121 38 228 121 38 233 118 40 201 71 6 206 68 8
206 68 10 206 68 10 206 68 10 206 68 10 208 67 10 208 67 10 208 67 10
208 67 10 206 68 10 205 66 9 206 68 10 206 68 10 206 68 10 206 68 10
206 70 11 206 70 11 206 70 9 204 71 9 222 94 28 220 95 26 219 97 22
219 97 22 219 97 22 219 97 22 220 96 22 220 95 24 220 95 24 219 96 24
218 96 19 217 98 20 217 100 19 215 101 19 217 100 19 217 100 19
215 101 19 215 101 19 215 101 19 215 101 19 211 94 15 211 94 17
209 94 17 209 94 17 209 94 17 209 94 17 209 94 17 209 94 17 212 95 18
219 100 24 217 97 22 216 96 21 216 96 21 216 96 21 216 96 21
216 96 21 218 95 21 216 94 19 216 94 19 216 94 19 213 89 15 213 89 15
213 89 15 213 89 15 209 84 12 210 83 12 210 83 12 210 83 12 209 82 11
209 82 11 209 82 11 209 82 11 208 80 12 208 80 12 208 80 12 208 80 12
208 80 12 208 80 12 208 80 12 208 80 12 212 88 14 212 88 14 212 88 14
211 86 12 211 86 12 211 86 12 211 86 12 211 86 12 212 90 15 208 86 11
228 106 31 223 101 26 227 105 30 227 105 30 224 104 29 224 104 29
226 104 29 226 104 29 225 102 28 226 102 28 211 85 11 213 84 11
215 83 11 215 83 11 213 84 11 211 85 11 211 85 11 213 86 12 211 84 13
209 82 11 208 79 9 206 76 6 208 75 8 209 76 9 209 76 9 209 76 9
209 76 11 209 76 11 210 77 11 208 78 11 206 81 10 203 83 10 204 84 11
204 85 9 204 85 9 204 85 7 204 85 7 204 85 7 206 87 6 203 91 8
223 123 36 220 130 40 213 131 35 213 131 35 218 128 35 218 126 34
218 126 34 217 125 33 218 126 34 218 126 34 219 127 35 218 128 35
217 130 37 216 131 37 214 132 37 213 133 37 214 132 37 217 130 37
221 128 37 225 128 38 206 104 16 210 106 18 214 107 22 214 107 22
214 107 22 214 107 24 214 107 24 214 106 26 214 106 26 219 103 28
201 71 6 206 68 8 206 68 8 206 68 8 206 68 8 206 68 8 208 67 10
208 67 10 208 67 10 208 67 10 206 68 10 206 68 10 206 68 10 205 66 9
205 66 9 205 66 9 206 68 10 206 68 10 205 69 8 205 69 8 205 69 6
203 70 6 203 70 6 203 70 6 201 71 6 203 70 6 205 69 8 205 69 8
204 72 5 205 75 5 219 95 19 217 98 18 216 99 18 216 99 16 216 99 18
216 99 18 216 99 18 216 99 18 214 100 18 214 100 18 224 110 30
224 110 30 224 110 30 224 110 30 223 111 30 223 111 30 223 111 30
226 111 31 226 111 31 219 102 23 217 100 21 216 99 20 216 97 19
217 98 20 217 98 20 216 97 19 216 97 19 216 97 19 216 97 19 218 96 19
214 92 15 214 92 15 214 92 15 214 92 15 216 94 19 218 93 19 218 93 19
218 93 19 219 95 21 218 93 19 216 91 17 215 90 16 213 88 17 213 88 17
213 88 17 213 88 17 213 88 17 213 88 17 213 88 17 213 88 17 213 89 15
213 89 15 213 89 15 212 88 14 212 88 14 211 86 12 211 86 12 211 86 12
213 91 16 209 87 12 228 106 31 223 101 26 227 105 30 225 106 30
223 105 29 223 105 29 224 104 29 226 104 29 225 102 28 226 102 28
213 86 12 214 85 12 216 84 12 216 84 12 214 85 12 213 86 12 213 86 12
214 87 14 213 85 14 210 83 12 208 79 9 206 76 6 208 75 8 209 76 9
209 76 9 209 76 9 209 76 11 209 76 11 210 77 11 208 78 11 206 81 10
205 82 10 206 83 11 204 84 11 204 85 9 204 85 7 204 85 7 204 85 7
206 87 6 205 91 8 228 121 36 225 128 40 216 129 35 216 129 35
224 125 35 226 122 34 225 123 34 222 123 33 223 124 34 223 124 34
224 125 35 224 125 35 224 127 37 221 128 37 216 131 37 214 132 37
216 131 37 219 129 37 225 126 37 230 126 38 208 103 16 212 105 18
214 107 22 214 107 22 214 107 24 214 107 24 214 106 26 214 106 26
214 106 28 219 103 30 201 71 6 206 68 8 206 68 8 206 68 8 206 68 8
206 68 8 208 67 10 208 67 10 208 67 10 208 67 10 206 68 10 206 68 10
206 68 10 205 66 9 205 66 9 205 66 9 206 68 10 206 68 10 205 69 8
205 69 8 206 68 6 206 68 8 206 68 10 206 68 10 205 69 8 206 68 10
208 66 12 208 67 10 207 70 7 207 74 5 219 95 19 219 97 18 217 99 16
216 99 16 216 99 18 216 99 18 216 99 18 216 99 18 214 100 18
214 100 18 224 110 30 224 110 30 224 110 30 224 110 30 223 111 30
223 111 30 223 111 30 224 112 31 226 111 31 220 105 26 216 102 22
215 101 21 216 99 20 218 99 21 218 99 21 217 98 20 217 98 20
216 97 19 216 97 19 216 97 19 215 94 16 215 94 16 215 94 16 215 94 16
216 95 17 216 95 17 216 95 17 216 95 17 218 96 19 216 95 17 214 92 15
213 91 16 212 89 17 212 89 17 212 89 17 212 89 17 212 89 17 212 89 17
212 89 17 212 89 17 213 89 15 213 89 15 213 89 15 212 88 14 212 88 14
212 88 14 211 88 14 211 88 14 214 92 17 208 88 12 226 107 31
222 102 26 225 106 30 225 106 30 223 105 29 223 105 29 224 104 29
224 104 29 223 103 28 225 102 28 214 87 14 215 86 14 217 85 14
217 85 14 215 86 14 214 87 14 214 87 14 215 88 15 214 86 16 211 84 13
210 80 10 207 77 7 208 75 8 209 76 9 209 76 9 209 76 9 209 76 11
209 76 11 210 77 11 208 78 11 208 80 12 206 81 12 206 83 11 206 83 11
206 84 9 206 84 9 206 84 7 206 84 7 207 85 8 206 89 10 228 121 36
225 128 40 216 129 37 218 128 37 224 125 35 226 122 34 225 123 34
222 123 33 223 124 34 223 124 34 224 125 35 225 126 37 225 128 38
222 130 38 217 130 37 216 131 37 216 131 37 221 128 37 225 126 37
230 126 38 209 103 16 212 105 18 215 106 22 215 106 22 215 106 24
215 106 24 215 105 26 215 105 26 215 105 28 220 102 30 203 72 7
207 70 7 207 69 9 207 69 9 207 69 9 207 69 9 209 68 11 209 68 11
209 68 11 209 68 11 207 69 11 206 68 10 206 68 10 205 66 9 205 66 9
205 66 9 206 68 10 206 68 10 205 69 8 205 69 8 206 68 8 206 68 8
206 68 10 206 68 10 205 69 8 206 68 10 208 66 12 208 67 10 207 69 9
207 74 7 218 93 19 219 97 18 216 97 14 214 98 14 214 98 17 214 98 17
214 98 17 214 98 17 213 99 17 213 99 17 223 111 30 223 111 30
223 111 30 223 111 30 223 111 30 223 111 30 223 111 30 224 112 31
224 112 31 219 107 27 216 104 23 215 101 21 216 99 20 218 99 21
218 99 21 217 98 20 217 98 20 217 98 20 217 98 20 217 98 20 216 95 17
216 95 17 216 95 17 216 95 17 216 95 17 216 95 17 216 95 17 216 95 17
218 96 19 216 95 17 214 92 15 213 91 16 212 89 17 212 89 17 212 89 17
212 89 17 212 89 17 212 89 17 212 89 17 212 89 17 215 90 16 215 90 16
215 90 16 213 89 15 213 89 15 212 88 14 211 88 14 211 88 14 214 94 18
209 89 14 226 107 31 222 102 26 225 106 30 224 106 30 221 106 29
221 106 29 223 105 29 223 105 29 223 103 28 225 102 28 213 89 15
215 88 15 217 87 15 217 87 15 215 88 15 215 88 15 215 88 15 216 89 16
215 88 17 213 85 14 210 80 10 207 77 7 208 75 8 209 76 9 209 76 9
209 76 9 209 76 11 209 76 11 210 77 11 210 77 11 208 80 12 206 81 12
208 83 11 208 83 11 208 83 9 208 83 9 208 83 9 206 84 7 207 85 8
206 89 10 228 121 36 225 128 40 218 128 37 218 128 37 224 124 37
226 122 34 225 123 34 222 123 33 223 124 34 223 124 34 224 125 35
225 126 37 225 128 38 222 130 38 217 130 37 217 130 37 217 130 37
221 128 37 225 126 37 230 125 40 209 102 18 213 104 20 215 106 22
215 106 24 215 106 24 215 105 26 215 105 26 215 105 28 215 105 28
220 102 30 203 72 7 207 70 7 207 69 9 207 69 9 207 69 9 207 69 9
209 68 11 209 68 11 209 68 11 209 68 11 207 69 11 206 68 10 206 68 10
205 66 9 205 66 9 205 66 9 206 68 10 206 68 10 205 68 10 205 69 8
206 68 8 206 68 8 206 68 10 206 68 10 205 69 8 206 68 10 208 66 12
208 67 10 207 69 9 207 74 7 218 93 19 219 97 20 216 97 17 214 98 14
214 98 17 214 98 17 214 98 17 214 98 17 213 99 17 213 99 17
223 111 30 223 111 30 223 111 30 223 111 30 223 111 30 223 111 30
223 111 30 224 112 31 224 112 31 222 110 29 217 105 24 216 102 22
217 100 21 219 100 22 219 100 22 218 99 21 218 99 21 217 98 20
217 98 20 217 98 20 218 96 19 218 96 19 218 96 19 218 96 19 216 95 17
216 95 17 216 95 17 216 95 17 218 96 19 216 95 17 214 92 15 213 91 16
212 89 17 212 89 17 212 89 17 212 89 17 212 89 17 212 89 17 212 89 17
212 89 17 213 91 14 213 91 14 213 91 14 213 91 14 212 90 13 212 90 13
212 90 13 212 90 13 215 95 17 210 91 13 226 109 30 221 104 26
223 106 27 223 106 27 221 106 27 221 106 27 221 106 27 221 106 27
223 106 27 224 105 27 215 90 14 216 90 14 218 89 14 218 89 14
216 90 14 215 90 14 215 90 16 215 90 16 216 89 16 213 86 12 210 80 10
207 77 7 206 76 6 207 77 7 209 76 9 209 76 9 210 75 9 210 75 9
212 76 13 210 77 13 208 78 11 207 79 11 208 81 10 208 81 10 209 82 11
209 82 11 209 82 9 208 83 9 209 85 8 208 88 10 228 121 36 225 128 40
218 127 39 219 127 39 224 124 37 227 123 37 225 123 36 223 123 36
224 124 37 224 124 37 225 126 39 225 126 39 225 128 40 222 129 40
220 130 40 219 131 40 220 130 40 223 128 40 228 126 40 231 126 43
210 103 21 214 105 23 217 105 24 217 105 24 217 105 26 217 105 26
217 104 28 217 104 28 217 104 30 220 102 30 203 72 7 207 70 7
207 70 7 207 70 7 207 69 9 207 69 9 209 68 11 209 68 11 209 68 13
209 68 13 207 68 13 206 67 12 206 67 12 205 66 11 205 66 11 205 66 11
206 67 12 206 67 12 206 67 12 206 68 10 206 68 8 206 68 8 206 68 10
206 68 10 205 69 8 206 68 10 208 66 12 208 67 10 207 69 9 207 74 7
218 93 19 219 97 20 216 97 17 214 98 14 216 97 17 216 97 17 214 98 17
214 98 17 213 99 17 213 99 17 223 111 28 223 111 28 221 112 28
221 112 28 221 112 28 221 112 28 221 112 28 222 113 29 224 112 31
222 110 29 219 104 24 216 102 22 217 100 21 218 101 22 218 101 22
218 101 22 218 99 21 218 99 21 218 99 21 218 99 21 219 97 20
219 97 20 219 97 20 219 97 20 218 96 19 218 96 19 218 96 19 218 96 19
216 95 17 215 94 16 213 91 14 212 90 15 212 89 17 212 89 17 212 89 17
212 89 17 212 89 17 212 89 17 212 89 17 212 89 17 213 91 14 213 91 14
213 91 14 213 91 14 212 90 13 212 90 13 212 90 13 212 90 13 215 95 17
210 91 13 226 109 30 221 104 26 223 106 27 221 106 27 221 106 27
221 106 27 219 107 27 219 107 27 221 106 27 224 105 27 215 90 14
216 90 14 218 89 14 218 89 14 216 90 14 215 90 14 215 90 16 215 90 16
216 89 16 213 86 12 210 80 10 207 77 7 206 76 6 207 77 7 207 77 9
209 76 9 209 76 9 210 75 9 212 76 13 210 77 13 208 78 11 208 78 11
208 80 12 208 81 10 209 82 11 209 82 11 209 82 9 209 82 9 210 84 8
208 88 10 228 121 38 227 127 40 219 127 39 219 127 39 224 124 37
227 123 37 225 123 36 223 123 36 224 124 37 224 124 37 225 126 39
225 126 39 225 128 40 222 129 40 220 130 40 220 130 40 222 129 40
223 128 40 228 126 42 232 125 43 212 102 21 216 104 23 217 105 24
217 105 24 217 105 26 217 105 26 217 104 28 217 104 28 217 104 30
222 101 30 204 71 7 207 70 7 207 70 7 207 70 7 207 69 9 207 69 9
209 68 11 209 68 11 209 68 13 209 68 13 207 68 13 206 67 12 206 67 12
205 66 11 205 66 11 205 66 11 206 67 12 206 67 12 206 67 12 206 67 12
206 68 10 206 68 8 206 68 10 206 68 10 205 69 8 206 68 8 208 67 10
208 67 10 207 69 9 207 74 7 218 93 19 219 97 20 216 97 17 214 98 14
216 97 17 216 97 17 214 98 17 214 98 17 213 99 17 213 99 17
223 111 28 223 111 28 221 112 28 221 112 28 221 112 28 221 112 28
221 112 28 222 113 29 224 112 31 222 110 29 219 104 24 216 102 22
215 101 21 218 101 22 218 101 22 218 101 22 218 99 21 218 99 21
218 99 21 218 99 21 219 97 20 219 97 20 219 97 20 219 97 20 218 96 19
218 96 19 218 96 19 218 96 19 216 95 17 215 94 16 213 91 14 212 90 15
212 89 17 212 89 17 212 89 17 212 89 17 212 89 17 212 89 17 212 89 17
212 89 17 211 92 14 211 92 14 211 92 14 211 92 14 210 91 13 210 91 13
210 91 13 210 91 13 216 95 17 210 91 13 226 109 30 220 105 26
221 106 27 219 107 27 219 107 27 219 107 27 219 108 25 219 108 25
221 107 25 223 106 25 213 92 12 216 90 12 218 89 12 218 89 12
216 90 14 215 90 14 215 90 16 215 90 16 216 89 16 213 86 12 210 80 10
207 77 7 204 77 6 206 78 7 206 78 7 207 77 7 207 77 9 209 76 9
210 77 11 208 78 11 208 78 13 208 78 13 210 79 12 210 79 12 211 81 11
211 81 11 211 81 9 211 81 9 210 83 10 208 88 12 228 121 38 227 126 42
221 126 39 221 126 39 226 124 37 227 123 37 225 123 36 223 123 36
224 124 37 224 124 37 225 126 39 227 127 40 226 129 41 224 130 41
222 129 40 222 129 40 222 129 40 225 128 40 228 126 42 232 125 43
212 102 21 216 104 23 219 104 24 219 104 24 219 104 26 219 104 26
219 103 28 219 103 28 219 103 30 222 101 30 204 72 5 207 70 5
207 70 7 207 70 7 207 69 9 207 69 9 209 68 11 209 68 11 209 68 13
209 68 13 207 68 13 206 67 12 206 67 12 205 66 11 205 66 11 205 66 11
206 67 12 206 67 12 206 67 12 206 67 12 206 68 10 206 68 10 206 68 8
206 68 8 206 68 8 206 68 8 208 67 10 208 67 10 207 69 9 207 74 9
218 93 19 219 97 20 216 97 17 214 98 14 216 97 17 216 97 17 214 98 17
214 98 17 213 99 17 213 99 17 223 111 28 221 112 28 221 112 28
221 112 28 220 113 28 220 113 28 221 112 28 222 113 29 222 113 31
222 110 29 219 104 24 216 102 22 215 101 21 216 102 22 218 101 22
218 101 22 218 99 21 218 99 21 220 98 21 220 98 21 219 97 20
219 97 20 219 97 20 219 97 20 218 96 19 218 96 19 218 96 19 218 96 19
216 95 17 215 94 16 213 91 14 212 90 15 212 89 17 212 89 17 212 89 17
212 89 17 212 89 17 212 89 17 212 89 17 212 89 17 210 91 13 210 91 13
210 91 13 210 91 13 209 90 12 209 90 12 209 90 12 209 90 12 216 95 17
210 91 13 224 110 30 218 106 26 218 108 27 218 108 27 219 107 27
219 107 27 219 108 25 219 108 25 221 107 25 223 106 25 213 92 12
215 91 12 215 91 12 216 90 12 215 90 14 215 90 14 213 91 14 213 91 16
215 90 16 213 86 12 211 79 8 209 77 7 206 76 6 206 78 7 206 78 7
206 78 7 207 77 9 207 77 9 208 78 11 208 78 11 208 78 13 208 78 13
210 79 12 210 79 12 211 81 11 211 81 11 211 81 11 209 82 9 207 85 10
205 90 12 228 120 40 227 126 42 223 125 39 223 125 39 224 124 37
226 124 37 223 123 36 221 124 36 223 125 37 223 125 37 224 126 39
225 128 40 224 130 41 224 130 41 223 128 40 223 128 40 223 128 40
225 128 40 228 126 42 231 126 43 210 103 21 214 105 23 217 105 24
217 105 26 217 105 26 217 104 28 217 104 28 217 104 30 217 104 30
222 101 30 204 72 5 207 70 7 207 70 7 207 70 7 207 69 9 207 69 9
209 68 11 209 68 11 209 68 13 209 68 13 207 68 13 207 68 13 206 67 12
206 67 12 206 67 12 206 67 12 206 67 12 206 67 12 206 67 12 206 67 12
206 68 10 206 68 10 206 68 8 206 68 8 206 68 6 208 67 8 209 66 10
209 66 10 209 68 9 207 74 9 216 94 19 216 99 18 214 98 14 214 98 14
214 98 17 214 98 17 214 98 17 214 98 17 213 99 17 213 99 17
223 111 28 221 112 28 221 112 28 221 112 28 221 112 28 221 112 28
221 112 28 222 113 29 219 114 31 219 111 29 218 106 26 216 102 22
212 100 20 214 101 21 215 101 21 217 100 21 218 99 21 218 99 21
220 98 21 220 98 21 219 97 20 219 97 20 219 97 20 219 97 20 218 96 19
218 96 19 218 96 19 218 96 19 216 95 17 215 94 16 213 91 14 212 90 13
212 90 15 213 88 17 213 88 17 213 88 17 213 88 17 213 88 17 213 88 17
213 88 17 209 92 13 209 92 13 209 92 13 209 92 13 207 90 12 207 90 12
207 90 12 209 90 12 216 92 15 213 91 14 229 117 36 224 117 35
215 110 25 216 109 25 218 108 25 219 108 25 221 107 25 221 107 25
223 106 25 223 106 25 209 90 10 209 90 10 209 90 10 211 89 10
211 89 10 211 89 10 207 91 10 207 90 12 206 84 7 215 88 13 206 70 0
215 76 7 206 77 4 203 78 4 203 78 6 204 77 6 204 77 6 204 77 6
206 78 9 206 78 9 207 77 9 207 77 9 207 79 11 207 79 11 210 79 12
210 79 12 210 79 12 206 81 10 200 87 11 198 93 14 227 124 45
230 130 47 228 128 43 226 128 43 228 128 43 226 128 43 225 127 42
223 128 42 223 128 42 223 128 42 222 127 41 222 127 41 223 128 42
223 128 42 223 128 42 225 127 42 226 128 43 226 128 43 229 127 43
230 128 44 210 105 22 212 107 24 215 107 28 215 107 28 215 107 30
215 107 30 217 106 32 217 106 32 217 105 34 221 103 34 203 72 7
207 70 7 207 69 9 207 69 9 207 69 9 207 69 9 209 68 11 209 68 11
209 68 13 209 67 15 207 68 15 206 67 14 206 67 14 205 66 13 206 67 14
206 67 14 206 67 14 206 67 14 207 68 13 207 68 13 206 68 10 206 68 10
206 68 8 206 68 8 206 68 6 208 67 8 209 66 10 209 66 10 211 66 8
208 73 7 211 94 17 211 101 18 216 103 18 216 103 18 216 103 18
216 103 18 216 103 18 216 103 18 217 104 19 219 105 20 218 107 21
219 108 23 221 109 24 221 109 24 221 109 26 221 109 26 221 109 26
217 110 26 209 114 26 207 110 22 215 106 22 214 100 18 212 100 20
214 101 21 215 101 21 217 100 21 218 99 21 220 98 21 220 98 21
220 98 21 219 97 20 219 97 20 219 97 20 219 97 20 217 98 20 217 98 20
217 98 20 217 98 20 216 97 19 214 94 16 210 91 13 211 89 12 213 89 13
215 88 15 215 88 15 215 88 15 215 88 15 215 88 15 215 88 15 215 88 15
211 94 15 211 94 15 211 94 15 211 94 15 210 93 14 210 93 14 208 94 14
210 93 14 211 87 10 208 87 9 224 112 31 218 113 30 212 110 23
212 110 23 213 109 23 217 107 23 217 107 23 218 106 23 218 106 23
218 106 23 202 90 7 202 90 7 202 90 7 202 90 7 203 89 7 203 89 7
200 91 7 200 91 7 208 94 14 216 95 17 206 72 0 211 75 2 202 75 2
201 76 2 201 76 4 201 76 4 202 75 4 202 75 4 203 76 7 203 76 7
206 76 8 207 77 9 207 79 11 207 79 11 210 79 12 210 79 12 210 79 12
206 81 12 205 92 17 203 95 18 229 121 44 231 123 46 229 121 41
227 122 39 227 122 39 226 123 39 225 122 38 223 123 38 224 124 39
224 124 39 224 124 39 226 123 39 228 126 42 228 126 42 228 126 42
230 125 42 231 126 43 231 126 43 232 125 43 235 126 44 213 103 22
215 106 24 217 106 28 218 106 28 218 105 30 218 105 30 218 105 32
220 104 32 220 104 34 223 102 34 202 69 4 205 67 4 205 67 6 205 67 6
205 67 6 205 67 6 207 66 9 207 65 11 207 65 13 207 65 13 205 66 13
204 65 11 204 65 11 203 63 10 203 63 12 203 63 12 204 65 11 204 65 11
205 66 11 205 66 11 205 66 9 205 66 9 206 68 8 206 68 8 206 68 6
206 68 6 208 67 8 209 66 10 212 67 9 206 71 5 210 96 16 204 100 14
208 101 14 210 101 12 210 101 14 210 101 14 210 101 14 208 101 14
210 104 17 212 105 18 214 107 20 213 109 21 216 112 24 216 112 24
216 111 26 216 111 26 216 111 26 213 113 26 207 119 28 210 118 28
208 99 15 213 99 17 212 100 20 212 100 20 214 99 20 216 99 20
217 98 20 219 97 20 219 97 20 219 97 20 219 97 20 219 97 20 219 97 20
219 97 20 217 98 20 217 98 20 217 98 20 217 98 20 215 95 17 214 94 16
212 93 15 214 92 15 213 89 13 213 89 13 213 89 13 213 89 13 213 89 13
213 89 13 213 89 13 213 89 13 214 99 20 214 99 20 214 99 20 214 99 20
213 98 19 213 98 19 213 98 19 214 97 19 227 103 27 225 103 26
239 129 48 233 130 46 230 132 44 230 132 44 233 131 44 233 131 44
231 132 42 231 132 42 232 133 44 233 134 45 235 135 46 236 137 47
237 138 48 237 138 48 239 136 50 239 136 50 235 138 50 235 138 50
233 130 46 238 128 46 222 100 23 224 98 22 220 96 22 219 97 22
219 97 22 220 96 22 220 95 24 220 95 24 220 95 24 222 95 24 207 79 11
207 79 11 207 79 11 207 79 11 208 80 12 208 80 12 208 80 12 208 80 12
197 74 2 193 73 0 212 92 19 211 91 18 209 89 14 207 90 12 207 90 12
206 91 12 205 90 10 203 91 10 204 92 12 205 93 13 208 96 15 210 96 16
213 98 19 213 98 19 213 98 19 214 97 19 216 99 20 216 99 20 217 98 20
220 98 21 198 76 0 200 78 1 201 79 4 203 78 4 203 78 6 203 78 6
204 77 8 204 77 8 204 76 10 206 76 10 199 63 0 199 63 0 199 63 2
199 63 2 200 62 2 200 62 2 202 61 4 202 61 6 202 60 8 202 60 8
200 61 8 200 61 8 199 60 7 199 60 7 199 59 9 199 59 9 200 61 8
200 61 8 200 61 6 200 61 6 206 68 10 206 68 10 206 68 8 206 68 6
205 69 6 206 68 6 208 67 8 209 66 10 208 65 6 207 74 7 236 124 43
231 131 44 232 135 45 232 135 43 232 135 45 232 135 45 232 135 45
230 136 45 230 136 45 230 136 45 243 151 59 243 151 59 241 151 59
241 151 59 241 151 61 241 151 61 241 151 61 240 152 61 238 153 61
239 147 57 211 101 18 220 104 22 212 100 20 212 100 20 214 99 20
216 99 20 216 97 19 218 96 19 218 96 19 218 96 19 219 97 20 219 97 20
219 97 20 219 97 20 217 98 20 217 98 20 217 98 20 217 98 20 215 95 17
216 97 19 217 98 20 218 99 21 221 101 23 221 101 23 221 101 23
221 101 23 221 101 23 221 101 23 221 101 23 221 101 23 216 102 22
216 102 22 216 102 22 216 102 22 216 102 22 216 102 22 216 102 22
218 101 22 221 99 22 218 99 21 232 125 43 225 127 42 225 133 43
225 133 43 228 131 43 228 131 43 225 133 41 224 134 41 225 135 42
225 135 42 226 136 44 227 137 45 228 139 46 230 138 46 231 137 48
230 137 48 227 139 48 227 139 48 235 142 55 237 135 51 217 103 23
217 98 20 216 94 19 216 94 19 216 94 19 216 94 19 218 93 21 218 93 21
218 93 21 218 93 21 206 78 9 206 78 9 206 78 9 206 78 9 207 79 11
208 78 11 208 78 11 208 78 11 208 79 9 203 73 3 219 89 19 213 85 14
210 83 10 210 84 8 209 85 8 209 85 8 206 84 7 206 84 7 207 87 9
208 88 10 213 91 14 214 92 15 218 96 19 218 96 19 219 95 19 219 95 19
220 96 20 222 95 20 224 95 20 225 96 21 203 74 0 205 76 1 208 76 4
208 76 4 208 76 6 208 76 6 209 74 8 211 73 8 211 73 10 211 73 10
198 60 0 198 60 0 198 60 0 198 60 0 198 60 0 198 59 2 200 59 2
200 58 4 200 58 6 200 58 6 198 59 6 198 59 6 197 58 4 197 58 4
197 57 6 197 57 6 198 59 6 198 59 6 198 59 6 198 59 4 206 68 10
206 68 10 206 68 8 206 68 6 205 70 4 205 69 6 206 68 8 208 67 10
209 68 9 203 72 5 235 126 44 226 129 41 225 133 41 224 134 39
224 134 41 222 135 41 222 135 41 222 135 41 220 136 41 220 136 41
236 154 59 236 154 59 235 155 59 235 155 59 235 154 61 235 154 61
235 154 61 235 154 61 240 157 64 246 154 64 206 97 13 209 92 11
209 97 16 209 97 16 210 96 16 212 95 16 215 95 17 216 95 17 218 96 19
218 96 19 218 96 19 218 96 19 219 97 20 219 97 20 217 98 20 217 98 20
217 98 20 217 98 20 214 94 16 216 97 19 219 100 22 222 102 24
219 102 23 219 102 23 219 102 23 219 102 23 219 102 23 219 102 23
219 102 23 219 102 23 217 103 23 217 103 23 217 103 23 217 103 23
216 102 22 216 102 22 216 102 22 218 101 22 223 104 26 219 104 24
233 131 44 225 133 43 222 134 43 222 134 43 227 132 43 227 132 43
224 134 41 222 135 41 223 136 42 223 136 42 224 137 44 226 138 45
227 139 46 227 139 46 228 138 48 228 138 48 225 140 48 225 140 48
229 139 49 231 133 46 211 101 18 212 95 16 215 95 19 216 94 19
216 94 19 216 94 19 218 93 21 218 93 21 218 93 21 218 93 21 204 77 8
204 77 8 206 78 9 206 78 9 207 77 9 209 76 9 210 77 11 210 77 11
209 77 7 210 78 9 216 84 14 217 85 16 216 84 12 216 84 12 214 85 12
214 85 12 211 85 11 211 85 11 212 88 14 213 89 15 218 91 18 220 93 19
222 95 22 222 95 22 224 94 22 224 94 22 224 94 22 225 93 22 227 93 22
228 94 23 206 72 1 208 74 3 211 74 4 211 74 4 211 74 6 211 74 6
211 73 8 212 73 8 212 72 10 212 72 10 198 58 0 198 58 0 198 58 0
197 59 0 197 58 0 197 58 0 198 57 2 198 57 2 198 57 4 198 56 6
197 57 6 197 57 6 196 56 5 196 56 5 196 56 5 196 56 5 197 57 6
197 57 6 197 58 4 197 58 2 207 69 11 207 69 11 207 69 9 206 70 7
204 72 5 204 71 7 206 70 9 207 69 11 210 72 11 202 74 6 237 130 48
228 133 44 227 137 45 226 139 43 226 138 45 224 139 45 224 139 45
222 140 45 221 141 45 221 141 45 231 153 56 231 153 56 229 154 56
228 155 56 228 154 58 228 154 58 228 154 58 229 154 58 230 150 56
242 149 60 205 94 11 214 95 14 209 97 16 209 97 16 210 96 16
212 95 16 215 95 19 216 94 19 216 94 19 216 94 19 218 95 21 218 95 21
218 95 21 218 95 21 217 98 20 217 98 20 217 98 20 217 98 20 216 97 19
218 99 21 221 101 23 220 103 24 217 103 23 217 103 23 217 103 23
217 103 23 217 103 23 217 103 23 217 103 23 217 103 23 216 102 22
216 102 22 216 102 22 216 102 22 216 102 22 216 102 22 216 102 22
216 102 22 220 105 26 215 106 24 230 132 44 222 134 43 219 136 43
220 135 43 224 134 43 225 133 43 224 134 41 222 135 41 223 136 42
223 136 42 224 137 44 226 138 45 227 139 46 228 139 46 230 137 48
228 138 48 225 140 48 225 140 48 229 139 49 233 134 47 211 99 17
214 94 16 216 94 19 216 94 19 216 94 19 216 94 19 218 93 21 218 93 21
218 93 21 218 93 21 203 76 7 203 76 7 204 77 8 204 77 8 206 76 8
208 75 8 209 76 9 209 76 9 209 77 7 210 78 9 216 84 14 217 85 16
216 84 12 216 84 12 214 85 12 214 85 12 211 85 11 211 85 11 212 88 14
213 89 15 220 93 19 220 93 19 222 95 22 222 95 22 224 94 22 224 94 22
224 94 22 225 93 22 227 93 22 228 94 23 206 72 1 208 74 3 211 74 4
211 74 4 211 74 6 211 74 6 211 73 8 212 73 8 212 72 10 212 72 10
198 58 0 198 58 0 198 58 0 198 58 0 197 58 0 198 57 2 198 57 2
198 57 4 198 56 6 198 56 6 198 56 6 197 57 6 196 56 5 196 56 5
196 56 5 196 56 5 197 57 6 197 57 6 197 58 4 197 58 4 207 68 13
207 69 11 207 69 9 206 70 7 204 72 5 203 72 7 204 71 9 206 70 11
209 73 12 202 76 7 236 131 48 226 134 44 227 137 45 227 138 43
227 137 45 226 138 45 226 138 45 224 139 45 224 139 45 221 141 45
231 153 56 228 155 56 228 155 56 226 156 56 226 155 58 226 155 58
226 155 58 228 154 58 228 150 56 242 149 60 207 95 12 214 95 14
209 97 16 209 97 16 210 96 16 212 95 16 215 95 19 216 94 19 216 94 19
216 94 19 218 95 21 218 95 21 218 95 21 216 96 21 217 98 20 217 98 20
217 98 20 217 98 20 216 97 19 218 99 21 221 101 23 220 103 24
217 103 23 217 103 23 217 103 23 217 103 23 217 103 23 217 103 23
217 103 23 217 103 23 217 103 23 217 103 23 217 103 23 217 103 23
216 102 22 216 102 22 216 102 22 216 102 22 218 106 26 212 107 24
226 134 44 220 135 43 217 137 43 217 137 43 222 134 43 225 133 43
225 133 41 225 133 41 226 134 42 226 134 42 228 135 44 229 137 45
230 138 46 231 137 46 233 136 48 231 137 48 228 138 48 228 138 48
231 137 48 237 132 47 214 98 17 216 95 17 216 94 19 216 94 19
216 94 19 216 94 19 218 93 21 218 93 21 218 93 21 218 93 21 203 76 7
203 76 7 204 77 8 204 77 8 204 77 8 206 76 8 207 77 9 207 77 9
207 77 7 208 79 9 214 84 14 214 86 16 213 86 12 213 86 12 211 86 12
211 86 12 208 86 11 208 86 11 209 89 14 209 89 14 216 94 19 218 95 21
219 97 22 219 97 22 220 96 22 220 96 22 220 96 22 222 95 22 224 94 22
225 95 23 203 73 1 205 76 3 208 76 4 208 76 4 208 76 6 208 76 6
209 74 8 211 73 8 211 73 10 211 73 10 197 59 0 197 59 0 197 59 0
197 59 0 198 57 0 198 57 2 200 56 4 200 56 4 200 56 6 200 56 6
198 56 6 198 56 6 197 55 5 197 55 5 197 55 5 197 55 5 197 57 6
197 57 6 197 58 4 197 58 4 207 68 13 207 69 11 207 69 9 206 70 7
203 72 5 203 72 7 204 71 9 204 70 11 208 74 12 200 77 7 232 132 48
225 135 44 230 136 45 232 135 43 232 135 45 230 136 45 230 136 45
230 136 45 230 136 45 227 137 45 231 153 56 228 155 56 228 155 56
228 155 56 228 154 58 228 154 58 228 154 58 228 154 58 228 150 56
240 150 60 205 96 12 212 96 14 209 97 16 209 97 16 210 96 16
212 95 16 213 96 19 215 95 19 215 95 19 215 95 19 216 96 21 216 96 21
216 96 21 216 96 21 217 98 20 217 98 20 217 98 20 217 98 20 216 99 18
217 100 19 218 101 20 219 103 21 219 102 23 219 102 23 219 102 23
219 102 23 219 102 23 219 102 23 219 102 23 219 102 23 217 103 23
217 103 23 217 103 23 217 103 23 216 102 22 216 102 22 216 102 22
216 102 22 218 106 26 212 107 24 228 133 44 222 134 43 219 136 43
219 136 43 222 134 43 225 133 43 227 132 41 227 132 41 228 133 42
228 133 42 228 135 44 229 137 45 228 139 46 230 138 46 233 136 48
233 136 48 230 137 48 230 137 48 231 137 48 236 134 48 213 97 15
218 94 17 216 95 17 216 94 19 216 94 19 216 94 19 218 93 21 218 93 21
218 93 21 218 93 21 203 76 7 203 76 7 204 77 8 204 77 8 204 77 8
204 77 8 206 78 9 206 78 9 206 78 7 207 79 9 213 85 14 214 86 16
211 86 12 211 86 12 211 86 12 209 87 12 208 86 11 208 86 11 209 89 14
209 89 14 216 96 21 216 96 21 217 97 22 217 97 22 217 97 22 217 97 22
217 97 22 219 97 22 220 96 22 222 97 23 201 74 1 203 76 3 206 76 6
208 76 6 208 75 8 208 75 8 209 74 8 209 74 10 209 74 10 211 73 12
197 59 0 197 58 0 197 58 0 197 58 2 198 57 2 198 57 4 200 56 4
200 56 4 200 56 6 200 56 6 200 56 6 198 56 6 197 55 5 197 55 5
197 55 5 197 55 5 197 57 6 197 57 6 197 58 4 197 58 4 207 68 13
207 69 11 207 69 9 206 70 7 203 72 5 203 72 7 204 71 9 204 70 11
208 74 12 199 78 7 231 133 48 225 135 42 230 136 45 232 135 43
232 135 45 232 135 45 232 135 45 232 135 45 232 135 45 227 137 45
232 152 56 229 154 56 229 154 56 229 154 56 229 154 58 229 154 58
229 154 58 229 154 58 228 150 56 240 150 60 205 96 12 212 96 14
210 96 16 210 96 16 212 95 16 214 94 16 213 96 19 213 96 19 213 96 19
213 96 19 214 97 21 214 97 21 214 97 21 214 97 21 217 98 20 217 98 20
217 98 20 217 98 20 216 99 18 217 100 19 218 101 20 219 103 21
219 102 23 219 102 23 219 102 23 219 102 23 219 102 23 219 102 23
219 102 23 219 102 23 217 103 23 217 103 23 217 103 23 217 103 23
217 103 23 217 103 23 217 103 21 217 103 21 219 104 22 214 105 21
232 130 43 226 131 42 224 134 41 224 134 41 224 134 41 225 133 41
227 132 41 227 132 41 226 134 42 226 134 42 226 136 44 224 139 45
223 141 46 225 140 46 230 138 46 231 137 46 231 137 46 230 137 48
228 138 48 233 135 50 212 97 17 218 94 17 215 94 16 215 94 16
215 94 16 215 93 18 218 93 21 218 93 21 218 93 21 218 93 21 203 76 7
203 76 7 203 76 7 203 76 7 204 77 8 204 77 8 204 77 8 204 77 8
203 78 6 204 79 7 210 85 13 211 86 14 211 86 12 211 86 12 211 86 12
211 86 12 211 86 12 211 86 12 211 86 12 211 88 14 216 96 21 217 97 22
217 99 23 217 99 23 217 99 23 217 99 23 215 100 23 217 99 23
219 100 24 219 97 22 203 78 4 205 75 5 208 75 8 209 74 10 209 74 10
209 74 10 211 73 10 211 73 12 211 73 12 211 72 14 197 58 4 197 57 6
198 56 6 198 56 6 198 56 6 198 56 6 200 56 6 202 55 6 202 55 6
202 55 6 200 56 6 200 56 6 198 56 6 198 56 6 198 56 6 198 56 6
198 56 6 198 56 6 198 57 4 198 57 4 207 68 13 207 69 11 207 69 9
206 70 7 204 72 5 204 71 7 204 71 9 204 70 11 206 75 12 199 78 7
229 134 48 222 137 42 226 136 44 226 136 44 226 136 44 226 136 44
227 137 45 227 137 45 227 137 45 226 138 45 234 152 56 232 152 56
231 153 56 231 153 56 231 153 58 231 153 58 231 153 58 231 153 58
228 150 56 238 151 60 205 96 12 214 95 14 212 95 16 212 95 18
215 93 18 215 93 18 213 96 19 212 97 19 212 97 19 212 97 19 213 98 21
213 98 21 214 97 21 214 97 21 217 98 20 219 97 20 217 98 20 217 98 20
216 99 18 217 100 19 216 102 20 216 102 20 216 102 22 216 102 22
218 101 22 218 101 22 219 102 23 219 102 23 219 102 23 219 102 23
217 103 23 217 103 23 217 103 23 217 103 23 217 103 23 217 103 23
217 103 21 217 103 21 219 104 22 216 104 21 233 129 43 229 129 42
227 132 41 225 133 41 225 133 41 225 133 41 227 132 41 227 132 41
226 134 42 225 135 42 224 137 44 222 140 45 222 142 46 222 142 46
227 139 46 230 138 46 230 138 46 230 137 48 227 139 50 233 137 51
210 96 16 216 95 17 215 94 16 215 94 16 215 94 16 215 93 18 218 93 21
218 93 21 218 93 21 218 93 21 203 76 7 203 76 7 203 76 7 203 76 7
204 77 8 204 77 8 204 77 8 204 77 8 203 78 6 204 79 7 210 85 13
211 86 14 211 86 12 211 86 12 213 86 12 213 86 12 213 86 12 213 86 12
211 86 12 212 88 14 219 97 22 217 97 22 217 99 23 215 100 23
217 99 23 217 99 23 215 100 23 215 100 23 218 101 24 217 97 22
203 78 4 205 75 5 208 75 10 209 73 12 211 73 12 211 73 12 211 73 12
211 73 12 212 72 12 212 71 14 197 57 6 197 56 10 198 56 10 198 56 8
198 56 6 200 56 6 202 55 6 202 55 6 202 55 6 202 55 6 200 56 6
200 56 6 198 56 6 198 56 6 198 56 6 198 56 6 198 56 6 198 56 6
198 57 4 198 57 4 207 68 13 207 69 11 207 69 9 207 70 7 206 71 5
204 71 7 204 71 9 204 70 11 206 75 12 197 79 7 229 134 48 220 138 42
223 138 44 224 137 44 224 137 44 224 137 44 226 138 45 226 138 45
224 139 45 222 140 45 234 152 56 232 152 56 232 152 56 231 153 56
231 153 58 231 153 58 231 153 58 231 153 58 228 150 56 238 151 60
207 95 12 215 94 16 214 94 18 215 93 18 218 91 18 218 91 18 215 95 19
212 97 19 212 97 19 212 97 19 213 98 21 214 97 21 214 97 21 216 96 21
219 97 22 219 97 20 219 97 20 217 98 20 217 98 20 217 100 21
216 102 22 216 102 22 216 102 22 216 102 22 218 101 22 218 101 22
219 102 23 219 102 23 219 102 23 219 102 23 219 104 24 219 104 24
219 104 24 219 104 24 219 104 24 219 104 24 219 104 22 219 104 22
219 104 22 217 105 22 233 129 43 229 129 42 227 132 41 225 133 41
227 132 41 227 132 41 227 132 41 227 132 41 225 133 41 224 134 41
224 137 44 222 140 45 222 142 46 222 142 46 225 140 46 227 139 46
228 139 46 228 138 48 224 138 49 231 138 51 209 97 16 219 97 20
215 94 16 215 94 16 215 94 16 215 93 18 219 94 23 219 94 23 219 94 23
219 94 23 203 76 7 203 76 7 203 76 7 203 76 7 206 78 9 206 78 9
206 78 9 206 78 9 204 77 6 206 78 7 211 84 13 213 85 14 211 86 12
211 86 12 213 86 12 213 86 12 213 86 12 213 86 12 211 86 12 211 86 12
219 97 22 218 99 23 217 99 23 215 100 23 217 99 23 217 99 23
215 100 23 215 100 23 218 101 24 217 97 22 203 78 4 205 75 5 208 75 8
209 74 10 209 74 10 209 74 10 209 74 10 211 73 10 211 73 10 211 73 12
197 58 4 197 57 8 198 56 8 198 56 6 198 56 6 200 56 6 202 55 4
202 55 4 202 55 4 202 55 4 200 56 4 200 56 4 198 57 4 198 57 4
198 57 4 198 57 4 198 56 6 198 56 6 198 57 4 198 57 4 209 70 14
209 70 12 209 70 10 209 71 8 207 72 6 207 72 8 207 71 10 205 72 12
207 76 13 198 80 8 229 136 49 221 139 44 224 139 45 226 138 45
226 138 45 226 138 45 225 140 46 225 140 46 225 140 46 223 141 46
232 152 56 231 153 56 231 153 56 229 154 56 229 154 58 229 154 58
229 154 58 229 154 58 228 150 56 240 150 60 208 94 12 217 93 16
217 92 18 217 92 18 222 90 18 220 91 18 216 94 19 213 96 19 213 96 19
213 96 19 214 97 23 214 97 23 216 96 23 216 96 23 219 97 22 220 96 22
220 96 22 219 97 22 218 99 23 217 99 23 215 100 23 215 101 21
216 102 22 216 102 22 218 101 22 218 101 22 219 102 23 219 102 23
219 102 23 219 102 23 219 104 24 219 104 24 219 104 24 219 104 24
219 104 24 219 104 24 219 104 22 219 104 22 219 104 22 217 105 22
233 129 43 228 128 41 226 131 40 224 132 40 226 131 40 226 131 40
226 131 40 226 131 40 224 132 40 222 133 40 224 137 44 222 140 45
222 142 46 222 142 46 223 141 46 225 140 46 227 139 46 225 140 46
221 140 47 229 141 52 206 98 16 217 98 20 215 94 16 215 94 16
215 94 16 215 93 18 219 94 23 219 94 23 219 94 23 219 94 23 203 76 7
203 76 7 203 76 7 203 76 7 206 78 9 206 78 9 206 78 9 206 78 9
204 77 6 206 78 7 211 84 13 213 85 14 211 86 12 211 86 12 213 86 12
213 86 12 213 86 12 213 86 12 211 86 12 211 86 12 220 98 23 218 99 23
217 99 23 215 100 23 217 99 23 217 99 23 215 100 23 215 100 23
218 101 24 217 97 22 203 78 4 203 76 3 206 76 6 208 75 8 208 75 8
209 74 8 209 74 8 209 74 8 209 74 8 211 73 10 197 58 2 197 57 6
197 57 6 198 56 6 198 56 6 198 56 6 200 56 4 202 55 4 202 55 4
200 56 4 200 56 2 198 57 2 198 57 2 198 57 2 198 57 4 198 57 4
198 56 6 198 56 6 198 57 4 198 57 2 209 70 12 209 70 10 209 71 8
209 71 8 208 73 7 208 73 9 208 72 11 208 72 13 210 77 15 199 81 9
230 137 50 222 140 45 225 140 46 227 139 46 227 139 46 227 139 46
228 141 47 226 141 47 226 141 47 226 141 47 234 152 56 234 152 56
232 152 56 232 152 56 232 152 58 232 152 58 232 152 58 232 152 58
232 149 56 243 148 60 210 93 12 220 91 16 218 91 18 220 91 18
225 88 18 223 89 18 218 93 19 215 95 21 215 95 21 215 95 21 216 96 23
216 95 25 218 95 25 218 95 23 220 95 24 222 95 24 222 95 24 220 95 24
220 97 25 218 99 23 217 99 23 217 99 23 216 101 24 216 102 22
218 101 22 218 101 22 218 101 22 218 101 22 218 101 22 218 101 22
220 105 26 220 105 26 220 105 26 220 105 26 220 105 26 220 105 26
220 106 23 220 106 23 223 109 27 217 105 22 233 129 41 228 128 39
224 130 39 223 131 39 223 129 38 223 129 38 224 130 39 224 130 39
223 131 39 221 132 39 237 150 56 234 152 56 232 152 56 231 153 56
232 152 56 232 152 56 234 152 56 234 152 56 231 153 58 237 151 60
208 103 18 216 99 18 218 99 21 220 98 21 220 98 21 220 98 23
219 94 23 219 94 23 219 94 23 219 94 23 208 80 12 208 80 12 208 80 12
208 80 12 206 78 9 206 78 9 206 78 9 206 78 9 209 82 11 210 83 12
216 89 18 217 90 19 216 91 17 216 91 17 217 90 17 217 90 17 217 90 17
217 90 17 216 91 17 216 91 17 220 98 23 218 99 23 217 99 23
215 100 23 217 99 23 217 99 23 215 100 23 215 100 23 217 99 23
218 99 23 210 85 11 214 87 14 213 85 14 214 84 14 214 84 14 216 84 14
216 84 14 216 84 14 216 84 14 217 82 18 203 67 11 203 66 13 203 66 13
205 66 13 205 66 13 205 66 13 207 65 13 208 64 11 208 64 11 207 65 11
207 65 11 205 66 9 205 66 9 205 66 11 205 66 11 205 66 13 205 65 15
205 65 15 206 67 14 207 68 13 209 70 12 210 72 11 210 72 9 210 72 7
209 74 8 209 74 10 209 73 12 209 73 14 211 78 16 200 82 11 231 138 51
223 141 46 226 141 47 228 141 47 228 141 47 228 141 47 229 142 48
231 141 48 231 141 48 231 141 48 222 133 40 222 133 40 224 132 40
224 132 40 224 132 42 224 132 42 224 132 42 224 132 42 220 130 40
230 130 43 197 75 0 207 73 0 205 74 2 207 72 4 212 70 4 210 71 4
205 75 5 202 76 7 202 76 7 202 76 7 203 78 8 203 77 10 204 76 10
204 77 8 205 75 7 205 75 7 205 75 7 205 75 7 202 76 7 202 80 7
219 96 24 219 99 26 218 101 24 218 101 24 218 101 22 218 101 22
218 101 22 218 101 22 218 101 22 218 101 22 220 105 26 220 105 26
220 105 26 220 105 26 220 105 26 220 105 26 220 106 23 220 106 23
223 109 27 217 105 22 233 129 41 227 127 38 223 129 38 222 130 38
223 129 38 223 129 38 222 128 37 222 128 37 222 130 38 220 130 38
237 150 56 234 152 56 232 152 56 231 153 56 231 153 56 231 153 56
232 152 56 232 152 56 229 154 58 234 153 60 206 106 19 212 101 18
218 99 21 220 98 21 220 98 21 220 98 23 219 94 23 219 94 23 219 94 23
219 94 23 208 80 12 208 80 12 208 80 12 208 80 12 206 78 9 206 78 9
206 78 9 206 78 9 209 82 11 210 83 12 216 89 18 217 90 19 216 91 19
216 91 17 217 90 17 217 90 17 217 90 17 217 90 17 216 91 17 216 91 17
220 98 23 218 99 23 217 99 23 215 100 23 217 99 23 217 99 23
215 100 23 215 100 23 217 99 23 218 99 23 210 85 11 214 87 14
213 85 14 213 85 14 214 84 14 214 84 14 214 84 14 214 84 14 216 84 14
216 83 16 202 68 9 202 67 13 203 66 13 203 66 13 203 66 13 203 66 13
205 66 11 207 65 11 207 65 11 207 65 11 205 66 9 205 66 9 205 66 9
205 66 9 205 66 11 205 66 11 205 66 13 205 66 13 206 67 12 207 69 11
209 70 10 210 72 9 211 73 8 211 73 8 210 75 9 210 75 11 210 75 13
210 74 15 212 79 17 202 83 12 232 139 52 225 142 47 227 143 48
229 142 48 229 142 48 229 142 48 232 142 49 232 142 49 233 141 49
233 141 49 225 133 41 227 132 41 227 132 41 228 132 41 228 131 43
228 131 43 228 131 43 228 131 43 223 130 41 233 131 44 201 74 0
210 73 3 210 73 5 210 73 5 214 70 5 213 71 7 209 74 8 206 76 8
206 76 8 206 76 8 207 77 11 207 77 11 209 76 11 209 76 11 208 75 10
208 75 8 208 75 8 208 75 8 203 76 7 204 79 9 219 96 26 221 99 26
219 100 24 218 101 24 218 101 22 218 101 22 217 100 21 217 100 21
217 100 21 217 100 21 220 105 26 220 105 26 220 105 26 220 105 26
221 106 27 221 106 27 221 107 25 221 107 25 223 109 27 219 108 25
233 129 41 227 127 38 223 129 38 222 130 38 223 129 38 223 129 38
222 128 37 222 128 37 221 128 37 219 129 37 237 150 56 234 152 56
232 152 56 231 153 56 229 154 56 229 154 56 231 153 56 231 153 56
228 154 58 232 154 60 204 107 19 212 103 19 217 100 21 218 99 21
218 99 21 220 98 23 219 96 24 219 96 24 219 96 24 220 95 24 208 80 12
208 80 14 208 80 14 208 80 14 207 79 11 207 79 11 207 79 11 207 79 11
209 81 13 210 83 14 216 88 20 217 90 21 216 91 19 216 91 19 217 90 19
217 90 17 217 90 17 217 91 15 216 92 15 216 92 15 220 98 21 218 99 21
217 100 21 215 101 21 217 99 23 217 99 23 215 100 23 215 100 23
217 99 23 218 99 23 210 85 11 214 87 14 211 86 12 213 86 12 213 86 12
213 86 12 213 86 12 214 85 12 214 85 12 214 84 16 200 69 9 202 68 11
202 68 11 202 68 11 202 68 11 203 67 11 205 66 11 205 66 9 205 66 9
205 66 9 205 66 9 203 68 6 203 68 6 203 67 9 203 67 9 203 67 11
205 66 11 205 66 11 206 67 12 207 69 11 208 72 11 209 74 10 210 75 9
210 76 7 213 76 11 213 75 13 213 75 15 212 75 17 213 80 18 203 85 13
233 141 53 226 143 48 229 144 49 230 143 49 230 143 49 230 143 49
233 143 51 233 143 51 233 143 51 233 143 51 224 134 41 225 133 41
225 133 41 225 133 41 227 132 43 227 132 43 227 132 43 227 132 43
224 130 41 236 129 44 203 74 0 211 72 3 210 73 5 211 72 5 213 71 7
213 71 7 211 73 10 208 75 10 208 75 8 208 75 8 209 76 11 210 75 11
210 75 11 210 75 11 209 74 10 209 74 10 209 74 10 208 75 10 205 74 9
204 78 11 219 95 28 221 98 28 219 100 24 218 101 22 218 101 22
218 101 22 217 100 21 217 100 21 217 100 21 217 100 21 220 105 26
220 105 26 220 105 26 220 105 26 221 106 27 221 106 27 221 107 25
221 107 25 222 110 27 218 108 25 232 128 40 227 127 38 223 129 38
223 129 38 223 129 38 223 129 38 222 128 37 222 128 37 221 128 37
219 129 37 237 150 56 234 152 56 232 152 56 229 154 56 228 155 56
228 155 56 231 153 56 231 153 56 228 154 58 234 153 60 206 106 19
214 102 19 217 100 21 218 99 21 218 99 21 218 99 21 219 97 22
219 96 24 219 96 24 219 96 24 206 81 12 208 80 14 208 80 14 208 80 14
207 79 11 207 79 11 207 79 11 207 79 11 209 81 13 210 83 14 216 88 20
217 90 21 216 91 19 216 91 19 217 90 19 217 90 19 217 90 17 217 91 15
216 92 15 214 92 15 218 99 21 217 100 21 215 101 21 215 101 21
215 100 23 215 100 23 215 100 23 215 100 23 217 99 23 218 99 23
210 85 11 214 87 14 211 86 12 211 86 12 213 86 12 213 86 12 213 86 12
213 86 12 214 85 12 214 84 16 202 68 6 203 67 9 203 67 9 203 67 11
203 67 11 205 66 9 205 66 9 205 66 9 205 66 9 205 66 9 203 68 6
203 68 6 203 68 6 203 68 6 203 67 9 203 67 9 203 67 11 205 66 11
206 68 10 206 70 9 208 73 9 209 74 8 210 76 7 210 76 7 213 76 11
213 75 13 213 75 15 213 75 17 213 80 18 204 84 13 235 140 53
226 143 48 229 144 49 230 143 49 230 143 49 230 143 49 231 144 51
233 143 51 233 143 51 233 143 51 224 134 41 224 134 41 224 134 41
225 133 41 225 133 43 225 133 43 225 133 43 227 132 43 226 129 41
236 129 44 203 74 0 211 72 3 210 73 5 210 72 7 211 71 7 211 71 9
211 73 10 209 74 10 209 74 10 209 74 10 209 74 10 209 74 10 211 73 10
211 73 10 209 73 12 209 73 12 209 74 10 208 75 10 205 74 9 204 78 11
219 95 28 219 99 28 218 101 24 218 101 22 218 101 22 218 101 22
217 100 21 217 100 21 217 100 21 217 100 21 221 106 27 221 106 27
221 106 27 221 106 27 221 106 27 221 106 27 221 107 25 219 108 25
219 110 26 217 110 26 229 128 39 226 129 39 224 130 39 224 130 39
226 129 39 226 129 39 223 129 38 223 129 38 222 130 38 220 130 38
237 152 58 235 153 58 234 154 58 230 155 58 227 157 58 229 156 58
232 154 58 234 154 58 232 154 60 240 152 61 213 104 20 221 100 20
219 100 22 219 100 22 219 100 22 219 100 22 218 99 23 218 99 23
218 99 23 220 97 25 208 82 13 209 81 15 209 81 15 209 81 15 206 81 14
206 81 14 206 81 14 206 81 14 206 81 12 208 82 13 213 88 19 215 89 20
216 90 21 216 90 21 216 90 21 216 91 19 217 90 17 217 91 15 216 92 15
214 92 15 218 99 21 217 100 21 214 101 21 214 101 21 214 101 23
215 100 23 215 100 23 217 99 23 218 99 23 220 98 23 210 85 11
212 88 14 213 86 12 213 86 12 213 85 14 213 85 14 213 85 14 213 85 14
213 85 14 216 83 16 205 67 4 208 65 6 208 65 6 208 65 9 208 65 9
208 65 9 208 65 9 207 66 9 205 67 6 205 67 6 203 68 6 202 68 6
202 68 6 202 68 6 202 68 6 202 68 9 202 68 9 203 67 9 205 68 10
206 70 9 208 73 9 209 74 8 210 76 7 210 76 7 213 76 11 215 75 13
215 74 15 213 75 17 215 79 18 206 83 13 237 139 53 227 143 48
229 144 49 229 144 49 229 144 49 229 144 49 230 145 51 231 144 51
231 144 51 231 144 51 224 134 41 224 134 41 225 133 41 225 133 41
227 132 41 227 132 41 227 132 41 227 132 41 226 129 39 236 129 44
203 74 0 210 73 3 208 74 5 207 74 7 208 73 9 210 72 11 210 72 11
210 72 11 210 72 9 210 72 9 211 73 12 211 73 12 211 73 12 209 73 12
208 74 12 208 74 12 209 74 10 208 75 10 205 75 7 204 79 7 216 98 22
216 102 22 218 101 22 218 101 20 218 101 22 218 101 22 218 101 22
218 101 22 218 101 22 218 101 22 221 106 27 221 106 27 221 106 27
221 106 27 221 106 27 221 106 27 221 107 25 219 108 25 219 110 26
217 110 26 228 126 38 226 129 39 226 129 39 226 129 39 226 129 39
226 129 39 223 129 38 222 130 38 220 130 38 219 131 38 237 152 58
234 154 58 232 154 58 230 155 58 227 157 58 229 156 58 232 154 58
234 154 58 234 153 60 241 151 61 215 103 20 221 100 20 219 100 22
219 100 22 219 100 22 219 100 22 218 99 23 218 99 23 218 99 23
220 97 25 209 81 13 211 80 15 211 80 15 209 81 15 208 80 14 208 80 14
208 80 14 208 80 14 208 80 12 209 81 13 215 87 19 215 89 20 216 90 21
216 90 21 216 90 21 217 90 19 217 90 17 217 91 15 217 91 15 216 92 15
218 99 21 217 100 21 215 101 21 214 101 21 214 101 23 215 100 23
217 99 23 218 99 23 220 98 23 220 98 23 210 85 11 212 88 14 213 86 12
213 86 12 213 85 14 213 85 14 213 85 14 213 85 14 213 85 14 216 83 16
205 67 4 208 65 6 208 65 9 208 65 9 208 65 9 208 65 9 208 65 9
207 66 9 205 66 9 203 67 9 202 68 9 202 68 9 202 68 9 202 68 9
202 68 9 202 68 9 202 68 9 202 68 9 203 70 8 204 71 7 208 73 7
209 75 6 210 76 5 210 76 7 213 76 11 215 75 13 215 74 15 213 75 17
217 78 18 206 83 13 238 138 53 229 142 48 229 144 49 229 144 49
229 144 49 229 144 49 231 144 51 231 144 51 233 143 51 233 143 51
225 133 41 225 133 41 227 132 41 227 132 41 228 132 41 228 132 41
228 132 41 228 132 41 226 129 39 236 129 44 203 74 0 210 73 3
207 74 7 205 74 9 207 73 11 208 72 11 210 72 11 210 72 11 210 72 11
210 72 9 210 72 11 210 72 11 210 72 11 208 72 11 208 74 12 206 75 12
208 75 10 208 75 8 205 75 5 204 79 5 216 99 20 216 102 20 218 101 20
218 101 20 218 101 22 218 101 22 218 101 22 218 101 22 218 101 22
218 101 22 221 106 27 221 106 27 221 106 27 221 106 27 221 106 27
221 106 27 221 107 25 221 107 25 221 109 26 220 111 27 230 126 38
228 128 39 226 129 39 226 129 39 228 128 39 228 128 39 225 128 38
222 130 38 220 130 38 219 131 38 235 153 58 234 154 58 230 155 58
229 156 58 229 156 58 229 156 58 232 154 58 232 154 58 232 154 60
240 152 61 212 105 20 218 101 20 218 101 22 218 101 22 218 101 22
218 101 22 217 99 23 217 99 25 217 99 25 220 97 25 209 82 11
212 80 13 212 80 13 211 81 13 210 79 12 210 79 12 210 79 12 210 79 12
210 79 12 211 81 11 217 87 17 216 89 18 217 90 19 217 90 19 217 90 19
217 90 17 219 90 15 219 90 15 217 91 13 216 92 13 222 98 19 220 99 19
218 99 19 217 100 21 215 100 23 215 100 23 217 99 23 218 99 23
220 98 23 220 98 23 210 85 11 212 88 14 213 86 12 213 86 12 214 85 12
214 85 12 214 85 12 214 85 12 214 85 12 216 83 16 203 67 9 203 67 11
205 66 11 205 66 11 205 66 11 205 66 11 205 66 11 205 66 11 203 67 11
202 68 11 200 69 11 200 69 11 200 69 11 200 69 11 200 69 11 200 69 9
200 69 9 200 69 6 201 70 8 204 71 7 207 74 7 208 76 6 209 77 5
210 76 7 212 77 11 213 75 13 213 75 15 213 75 17 217 78 18 208 82 13
240 137 53 231 141 50 232 142 49 230 143 49 230 143 49 232 142 49
233 143 53 235 142 53 235 142 53 236 141 53 227 132 43 228 131 43
228 131 43 230 130 43 230 130 43 230 130 43 230 130 43 230 130 43
226 129 39 236 129 44 201 74 0 208 74 5 205 74 9 203 75 11 207 73 11
208 72 13 210 71 13 210 71 13 210 72 11 210 72 11 210 72 11 210 72 11
208 73 9 208 73 9 206 75 12 206 75 12 208 75 10 208 75 8 205 75 5
204 79 5 216 99 20 216 102 20 218 101 20 218 101 20 218 101 22
218 101 22 218 101 22 218 101 22 218 101 22 218 101 22 221 106 27
221 106 27 221 106 27 221 106 27 221 106 27 221 106 27 221 107 25
221 107 25 222 110 27 219 112 27 228 126 38 228 128 39 226 129 39
226 129 39 228 128 39 226 129 39 223 129 38 222 130 38 219 131 38
217 132 38 235 153 58 232 154 58 230 155 58 229 156 58 230 155 58
230 155 58 232 154 58 232 154 58 230 155 60 236 153 61 208 106 20
215 103 20 218 101 22 218 101 22 218 101 22 218 101 24 217 99 23
217 99 25 217 99 25 218 98 25 209 82 11 212 80 11 212 80 11 211 81 11
210 80 10 210 79 12 210 79 12 210 80 10 210 80 10 211 81 11 217 87 17
216 89 18 217 90 19 216 91 17 216 91 17 216 91 17 217 91 15 217 91 15
216 92 13 216 92 13 222 98 19 222 98 19 220 99 19 218 99 21
215 100 23 215 100 23 217 99 23 218 99 23 220 98 23 220 98 23
210 85 11 212 88 14 213 86 12 213 86 12 214 85 12 214 85 12 214 85 12
214 85 12 216 84 12 216 83 16 202 68 9 203 67 11 203 67 11 203 67 11
203 67 11 205 66 11 205 66 11 205 66 13 203 66 13 203 66 13 202 67 13
200 68 13 200 68 13 202 68 11 202 68 11 202 68 9 202 68 6 202 68 6
203 70 6 204 72 5 207 74 5 208 76 6 209 77 5 209 77 5 210 78 9
212 76 13 212 76 15 213 75 15 217 79 16 209 81 13 241 136 53
232 140 50 232 142 49 230 143 49 230 143 49 230 143 49 233 143 53
233 143 53 235 142 53 235 142 53 227 132 43 227 132 43 228 131 43
228 131 43 230 130 43 230 130 43 230 130 43 230 130 43 226 129 39
236 129 44 201 74 1 208 74 5 204 76 10 204 76 14 206 75 14 209 73 14
210 71 13 210 71 13 210 71 13 210 72 11 210 72 11 209 70 10 208 73 9
207 74 9 205 74 11 205 74 11 208 75 10 208 75 8 206 76 6 204 79 5
216 99 20 215 101 19 218 101 20 218 101 20 218 101 22 218 101 22
218 101 22 218 101 22 218 101 22 218 101 22 221 106 27 221 106 27
221 106 27 221 106 27 221 106 27 221 106 27 221 107 25 219 108 25
217 110 26 213 111 25 226 129 41 222 127 39 221 128 39 221 128 39
223 128 40 223 128 40 222 130 38 220 130 38 220 132 39 218 133 39
235 155 59 233 155 59 232 156 59 232 156 59 233 155 59 235 155 59
235 155 59 233 155 59 230 157 61 234 156 62 204 107 19 213 104 20
214 99 20 217 97 22 217 97 22 217 97 22 216 96 21 216 96 21 214 97 21
216 96 21 204 79 5 207 78 5 207 78 5 206 79 5 207 80 7 207 79 9
207 79 9 207 80 7 207 80 7 208 81 8 214 87 14 213 89 15 215 90 16
213 91 14 213 91 14 213 91 14 213 91 14 213 92 12 213 92 12 213 92 12
219 97 18 220 99 19 222 98 19 220 98 21 215 100 23 215 100 23
217 99 23 218 99 23 223 101 26 219 97 22 212 88 14 208 83 9 214 87 14
214 87 14 215 86 16 215 86 16 215 86 16 215 86 16 217 85 16 217 84 18
207 72 8 207 71 10 209 70 12 209 70 12 209 70 12 209 70 12 210 69 12
210 69 14 210 69 14 209 68 13 205 66 11 202 66 9 203 67 11 205 68 10
205 68 10 205 68 10 205 69 8 205 69 6 205 70 4 204 72 3 207 74 5
207 78 5 209 77 5 209 77 5 208 79 9 208 78 13 212 76 15 213 75 15
216 78 15 210 79 12 246 136 55 234 139 50 230 143 51 227 144 51
227 144 51 227 144 51 230 145 53 230 145 53 231 144 53 231 144 53
224 134 43 224 134 43 225 133 43 225 133 43 227 132 43 227 132 43
227 132 43 227 132 43 227 130 42 228 121 38 203 76 3 207 72 6
203 75 11 203 74 13 205 73 15 208 72 15 210 71 15 210 71 15 210 71 13
210 71 13 207 71 10 207 71 10 208 72 11 207 73 11 205 74 11 205 74 11
207 74 9 207 74 7 207 77 7 205 81 7 214 97 19 214 100 18 217 100 19
217 100 19 217 100 21 217 100 21 218 101 22 218 101 22 218 101 22
218 101 22 220 105 26 220 105 26 220 105 26 220 105 26 220 105 26
220 105 26 220 106 23 218 106 23 217 107 23 217 110 26 226 124 37
225 128 40 225 128 40 225 128 40 228 128 41 228 128 41 228 128 39
228 128 39 227 130 40 226 131 40 243 151 59 240 152 59 238 153 59
240 152 59 243 151 59 244 150 59 244 150 59 241 151 59 234 151 58
234 146 55 211 107 21 215 101 21 214 97 21 216 96 21 216 96 21
216 96 21 215 95 19 215 95 19 213 96 19 215 95 19 206 84 9 208 83 9
208 83 9 206 84 9 207 85 10 207 85 10 207 85 10 207 85 8 207 85 8
208 87 9 214 92 15 214 94 16 215 95 17 213 96 17 213 96 17 212 97 15
212 97 15 212 97 15 212 97 15 213 97 15 217 98 18 218 99 19 220 99 19
218 99 21 215 100 23 215 100 23 217 99 23 218 99 23 221 99 24
219 97 22 213 89 15 210 85 11 214 87 14 214 87 14 215 86 16 215 86 16
215 86 16 215 86 16 215 86 16 215 85 18 203 72 5 203 72 5 203 72 7
203 72 7 203 72 7 204 71 7 204 71 7 206 70 9 206 70 9 205 69 8
201 67 5 197 66 3 197 66 3 198 67 4 198 67 4 198 67 4 200 67 2
201 66 2 201 66 0 200 67 0 206 77 4 207 78 5 209 77 3 207 78 5
207 79 9 207 79 13 210 77 15 212 76 15 214 73 11 212 80 13 243 131 50
238 138 51 235 142 53 233 143 53 233 143 53 233 143 53 234 144 54
236 143 54 236 143 54 237 142 54 228 133 44 230 132 44 230 132 44
231 131 44 231 131 44 233 131 44 233 131 44 231 131 44 232 135 47
225 118 36 204 78 4 201 66 0 201 72 9 201 72 11 203 71 13 206 69 13
207 68 13 207 68 13 209 70 12 209 70 12 208 72 11 209 73 12 210 75 13
209 75 13 208 77 15 208 77 15 210 77 13 210 77 11 210 80 10 206 82 8
216 99 20 214 100 18 217 100 19 217 100 19 217 100 21 217 100 21
218 101 22 218 101 22 218 101 22 218 101 22 217 103 23 217 103 23
217 103 23 217 103 23 217 103 23 217 103 23 217 103 21 219 103 21
222 103 22 219 101 20 205 91 8 201 89 6 199 90 6 199 90 6 203 89 7
205 89 7 208 87 5 208 87 5 209 88 6 207 88 5 202 89 4 200 88 3
198 89 3 200 88 3 203 87 3 204 86 3 204 86 3 200 86 2 195 90 5
203 93 10 211 87 8 220 91 16 213 91 16 211 92 16 211 92 16 211 92 16
210 90 15 210 90 15 209 92 13 209 92 13 224 105 27 224 105 27
223 106 27 221 106 27 222 108 28 222 108 28 222 108 28 222 108 26
222 108 26 223 109 27 229 115 33 229 117 34 230 118 35 228 119 35
228 119 35 227 120 35 223 121 35 223 121 35 225 121 35 228 119 35
211 99 17 214 100 18 216 99 18 216 99 20 215 100 23 215 100 23
217 99 23 218 99 23 219 97 22 216 94 19 215 90 16 212 88 14 216 89 16
216 89 16 216 89 16 216 89 16 216 89 16 216 89 16 216 89 16 215 90 16
225 106 30 224 106 30 224 106 32 224 106 32 224 106 32 224 106 32
225 105 32 225 105 32 227 104 32 224 104 31 222 102 28 218 100 26
217 99 25 217 99 25 217 99 25 220 97 25 225 95 27 226 94 27 226 94 25
225 95 25 206 77 4 207 78 5 209 77 5 207 78 5 205 80 9 205 79 13
208 77 15 212 76 15 214 73 11 207 72 6 211 94 17 201 94 12 202 95 11
202 95 11 202 95 11 202 95 11 203 96 14 205 95 14 205 95 14 207 94 14
197 85 5 199 84 5 199 84 5 200 83 5 200 83 5 202 83 5 202 83 5
198 86 6 191 89 3 191 83 1 194 67 0 200 65 1 197 69 7 197 68 9
201 67 9 202 66 9 204 65 9 204 65 9 204 65 7 204 65 7 215 79 18
215 79 18 213 81 16 213 81 16 213 82 19 213 82 19 215 82 17 215 82 15
212 82 12 209 84 10 217 100 21 215 101 19 217 100 19 217 100 19
217 100 21 217 100 21 218 101 22 218 101 22 218 101 22 218 101 22
215 101 21 215 101 21 215 101 21 215 101 21 215 101 21 215 101 21
215 101 19 218 99 19 223 99 20 225 99 21 208 84 5 207 88 7 207 88 7
207 88 7 211 87 8 213 86 8 216 85 8 216 85 8 217 86 10 213 84 7
210 84 6 208 84 5 206 85 5 208 84 5 211 82 5 212 81 5 212 81 5
209 83 5 201 82 3 205 83 6 219 88 14 222 88 15 213 89 15 210 90 15
210 90 15 210 90 15 209 89 14 209 89 14 207 90 12 207 90 12
226 109 30 224 110 30 223 111 28 223 111 28 222 113 29 222 113 29
222 113 29 222 113 29 222 113 27 224 115 28 229 120 34 229 122 35
230 124 37 230 124 37 229 124 37 227 125 37 224 126 39 224 126 39
225 126 39 229 124 39 210 100 17 212 101 18 214 100 18 216 99 18
215 101 21 215 100 23 217 99 23 218 99 23 216 94 19 216 94 19
215 90 16 215 90 16 217 92 18 217 92 18 217 92 18 217 92 18 217 92 18
217 92 18 217 92 18 215 93 18 223 109 29 220 110 29 220 110 29
220 110 31 220 110 31 220 110 29 222 110 29 222 110 29 223 109 29
222 108 28 218 106 26 215 103 22 212 100 20 212 100 20 212 100 20
216 98 22 220 96 22 222 95 24 222 95 24 222 95 24 206 77 4 207 78 5
209 77 5 207 77 7 207 79 11 207 79 11 208 78 13 212 76 15 209 69 7
208 73 7 208 88 12 207 92 13 210 93 14 210 93 12 210 93 12 210 93 12
212 93 15 212 93 15 212 93 15 214 92 15 205 83 6 205 83 6 206 82 6
206 82 6 208 81 6 208 81 6 208 81 6 205 83 6 201 92 8 204 92 12
197 67 0 194 59 0 196 64 4 196 64 6 199 62 6 200 61 6 202 63 7
202 63 7 202 63 5 202 63 5 219 83 22 219 83 22 217 84 20 215 85 20
214 85 22 215 85 20 217 84 18 217 84 18 213 83 13 210 85 11
218 101 22 216 102 20 217 100 19 217 100 19 217 100 21 217 100 21
218 101 22 218 101 22 218 101 22 218 101 22 216 99 18 216 99 18
216 99 18 216 99 18 216 99 20 216 99 20 216 99 20 217 98 20 222 97 21
221 94 19 214 88 10 210 86 7 210 86 9 210 86 9 211 85 9 213 86 10
214 85 12 214 84 14 214 84 14 213 85 14 210 83 12 210 83 12 209 84 12
210 83 12 210 83 12 212 82 12 212 82 12 210 83 12 208 83 9 209 84 10
214 85 12 215 86 14 212 88 14 211 88 14 211 88 14 211 88 14 209 89 14
209 89 14 207 90 12 207 90 12 223 109 29 223 109 29 222 110 27
222 110 27 220 111 27 220 111 27 219 112 27 219 112 27 219 112 25
220 113 26 225 119 32 225 121 33 226 122 34 226 122 34 225 123 34
223 124 34 223 123 36 223 123 36 225 123 36 226 122 36 208 101 17
212 101 18 214 100 18 216 99 18 217 98 18 217 98 20 217 98 20
219 97 20 220 98 21 219 97 20 216 95 17 214 92 15 215 93 18 215 93 18
215 93 18 215 93 18 215 93 18 215 93 18 214 94 18 212 95 18
223 109 29 222 110 27 222 110 27 222 110 29 222 110 29 222 110 29
222 110 29 222 110 29 223 109 29 222 108 28 217 105 24 214 101 21
214 101 21 214 101 21 214 101 21 215 101 21 217 100 21 218 99 23
220 98 23 222 97 23 203 76 5 206 76 6 206 77 4 208 76 6 210 75 9
210 75 9 210 75 11 210 75 11 207 72 8 206 76 8 212 88 14 213 91 16
214 92 15 212 93 15 212 93 15 214 92 15 214 92 15 214 92 15 214 92 15
216 92 15 209 85 8 209 85 8 209 85 8 209 85 8 210 83 10 210 83 10
210 83 10 209 85 8 208 87 7 208 83 7 197 65 0 201 65 4 199 63 4
200 61 6 200 62 4 200 61 6 203 62 7 202 63 7 202 63 5 200 64 5
216 80 19 215 81 19 215 81 19 213 82 19 214 86 20 215 85 20 217 84 18
217 84 18 214 84 14 211 86 12 219 102 23 217 103 21 218 101 20
218 101 20 218 101 22 218 101 22 218 101 22 218 101 22 218 101 22
218 101 22 216 99 18 216 99 18 216 99 18 216 99 18 216 99 20
216 99 20 216 99 20 217 98 20 223 99 22 221 94 19 214 88 10 211 85 7
211 85 9 211 85 9 211 85 9 213 86 12 213 85 14 213 85 16 213 85 16
213 85 16 210 83 14 210 83 14 210 83 14 210 83 14 210 83 14 210 83 14
210 83 14 210 83 14 209 82 11 210 83 12 213 85 14 214 86 16 212 88 14
211 88 14 211 88 14 211 88 14 209 89 14 209 89 14 207 90 12 207 90 12
225 108 29 223 109 29 222 110 27 222 110 27 220 111 27 220 111 27
219 112 27 219 112 27 219 112 25 220 113 26 224 120 32 225 121 33
226 122 34 226 122 34 225 123 34 223 124 34 223 123 36 223 123 36
225 123 36 226 122 36 208 101 17 212 101 18 214 100 18 216 99 18
217 98 18 219 97 18 219 97 18 219 97 18 220 99 19 219 97 18 216 95 15
214 92 15 215 93 18 215 93 18 214 94 18 214 94 18 214 94 18 214 94 18
212 95 18 212 95 18 223 109 29 223 109 27 222 110 27 222 110 27
222 110 27 222 110 27 222 110 29 222 110 29 223 109 29 222 108 28
217 105 24 214 101 21 214 101 21 214 101 21 214 102 19 214 102 19
215 101 21 217 100 21 218 99 23 220 98 23 202 77 5 204 77 6 206 77 4
208 76 6 212 75 9 214 74 9 212 74 11 210 75 11 205 73 6 206 76 8
214 86 16 216 89 16 216 92 15 214 92 15 214 92 15 214 92 15 216 92 15
216 92 15 216 92 15 216 92 15 209 85 8 209 85 8 209 85 8 209 84 10
210 83 10 210 83 10 210 83 10 210 83 10 213 84 9 212 81 7 199 64 0
203 65 4 204 63 8 204 63 8 203 64 6 203 64 8 204 63 10 204 63 10
203 64 8 201 65 6 216 82 20 216 82 20 214 83 20 214 83 20 214 86 20
215 85 20 217 84 18 217 84 18 215 86 16 212 88 14 220 103 24
219 104 22 218 101 20 218 101 20 218 101 22 218 101 22 218 101 22
218 101 22 218 101 22 218 101 22 216 99 18 216 99 18 216 99 18
216 99 18 216 99 20 216 99 20 216 99 20 217 98 20 223 99 22 221 94 19
214 88 10 211 85 7 211 85 9 211 85 9 211 85 9 213 86 12 213 85 14
213 85 16 213 85 16 213 85 16 210 83 14 210 83 14 210 83 14 210 83 14
210 83 14 210 83 14 210 83 14 210 83 14 209 82 11 210 83 12 213 85 14
214 86 16 212 88 14 211 88 14 211 88 14 211 88 14 209 89 14 209 89 14
209 90 12 209 90 12 225 108 29 223 109 29 222 110 27 222 110 27
220 111 27 220 111 27 219 112 27 219 112 27 219 112 27 220 113 28
224 119 34 225 121 35 226 122 36 226 122 36 225 123 36 223 123 36
223 123 36 223 123 36 225 123 36 226 122 36 208 99 15 211 99 17
213 99 17 214 98 17 217 98 18 219 97 18 219 97 18 219 97 18 220 99 19
219 97 18 216 95 15 214 92 15 215 93 18 215 93 18 214 94 18 214 94 18
214 94 18 214 94 18 212 95 18 212 95 18 223 109 29 223 109 29
222 110 29 222 110 29 222 110 29 222 110 29 222 110 29 222 110 29
223 109 29 222 108 28 217 105 24 214 101 21 214 101 21 214 101 21
214 102 19 214 102 19 215 101 19 217 100 21 218 99 23 220 98 23
202 77 5 204 77 6 206 76 6 208 76 6 212 75 9 214 74 9 212 74 11
210 75 11 207 74 7 207 77 9 215 88 17 217 90 17 216 92 15 214 92 15
214 92 15 214 92 15 216 91 17 216 91 17 216 91 17 216 91 17 209 84 10
209 84 10 209 84 10 209 84 10 210 83 12 210 83 12 210 83 12 210 83 10
213 84 9 212 81 7 199 64 0 203 64 6 204 63 8 204 63 8 204 63 6
204 63 8 204 63 10 204 63 10 203 64 8 201 65 6 216 82 20 216 82 20
214 84 18 213 84 18 214 86 20 215 85 20 217 84 18 217 84 18 215 86 16
212 88 14 220 103 24 219 104 22 218 101 20 218 101 20 218 101 22
218 101 22 218 101 22 218 101 22 218 101 22 218 101 22 216 99 18
216 99 18 216 99 18 216 99 18 216 99 20 216 99 20 216 99 20 217 98 20
223 99 22 221 94 19 214 88 10 211 85 9 211 85 9 211 85 9 211 85 9
213 86 12 213 85 14 213 85 16 213 85 16 213 85 16 210 83 14 210 83 14
210 83 14 210 83 14 210 83 14 210 83 14 210 83 14 210 83 14 209 82 11
210 83 12 213 85 14 214 86 16 212 88 14 211 88 14 211 88 14 211 88 14
211 88 14 209 89 14 209 90 12 209 90 12 225 108 29 225 108 29
223 109 27 222 110 27 220 111 27 220 111 27 219 112 27 219 112 27
219 112 27 220 113 28 224 119 34 225 121 35 226 122 36 225 123 36
223 123 36 223 123 36 223 123 36 223 123 36 225 123 36 226 122 36
208 99 15 213 99 17 214 98 17 216 97 17 219 97 18 219 97 18 219 97 18
219 97 18 220 99 19 219 97 18 216 95 15 214 92 15 215 93 18 215 93 18
214 94 18 214 94 18 214 94 18 214 94 18 212 95 18 212 95 18
223 109 29 223 109 29 222 110 29 222 110 29 222 110 29 222 110 29
222 110 29 222 110 29 223 109 29 222 108 28 217 105 24 214 101 21
214 101 21 214 101 21 214 102 19 214 102 19 215 101 19 217 100 19
218 99 21 220 98 23 202 77 5 204 77 6 206 76 6 208 76 6 212 75 9
214 74 9 212 74 11 210 75 11 207 74 7 207 77 9 215 88 17 217 90 19
216 91 17 214 92 15 214 92 15 216 92 15 216 91 17 216 91 17 216 91 17
216 91 17 209 84 10 209 84 10 209 84 10 209 84 10 210 83 12 210 83 12
210 83 12 210 83 10 213 84 9 212 81 9 199 63 0 203 64 6 204 63 8
204 63 10 204 63 8 204 63 8 204 63 10 204 63 10 203 64 8 201 65 6
216 82 20 214 83 20 213 84 18 213 84 18 214 86 20 215 85 20 217 84 18
217 84 18 215 86 16 212 88 14 220 103 24 219 104 22 218 101 20
218 101 20 218 101 22 218 101 22 218 101 22 218 101 22 218 101 22
218 101 22 217 100 19 217 100 19 217 100 19 217 100 19 217 100 21
217 100 21 217 100 21 218 99 21 222 97 21 220 93 17 215 88 13
213 86 10 213 86 12 213 86 12 213 86 12 213 86 12 213 85 14 213 85 16
213 85 16 213 85 16 210 83 14 210 83 14 210 83 14 210 83 14 210 83 14
210 83 14 210 83 14 210 83 14 209 82 11 210 83 12 213 85 14 214 86 16
212 87 16 212 87 16 212 87 16 212 87 16 212 88 14 211 88 14 211 89 12
209 90 12 225 108 29 225 108 29 223 109 27 222 110 27 220 111 27
219 112 27 219 112 27 219 112 27 217 112 27 218 114 28 224 119 34
225 121 35 225 123 36 225 123 36 223 123 36 223 123 36 223 123 36
223 123 36 225 123 36 226 122 36 208 99 17 213 98 19 214 97 19
216 97 19 219 97 18 219 97 18 219 97 18 219 97 18 220 99 19 219 97 18
216 95 15 214 92 15 215 93 18 215 93 18 214 94 18 214 94 18 214 94 18
214 94 18 212 95 18 212 95 18 223 109 29 223 109 29 222 110 29
222 110 29 222 110 29 222 110 29 222 110 29 222 110 29 223 109 29
222 108 28 217 105 24 212 102 21 212 102 21 212 102 21 212 103 19
214 102 19 215 101 19 217 100 19 218 99 21 220 98 23 202 77 5
204 77 6 206 76 6 208 76 6 212 75 9 214 74 9 212 75 9 210 75 9
207 74 7 207 77 9 215 88 17 217 90 19 217 92 18 217 92 18 217 92 18
217 92 18 218 91 18 218 91 18 218 91 18 218 91 18 209 84 10 209 84 10
209 84 10 209 84 10 210 83 12 210 83 12 210 83 12 210 83 10 213 84 9
212 81 9 199 63 0 203 64 6 204 63 8 204 63 10 204 63 8 204 63 8
204 63 10 204 63 10 203 64 8 201 65 6 216 82 20 214 84 18 213 84 18
213 84 18 214 86 20 215 85 20 217 84 18 217 84 18 215 86 16 212 88 14
220 103 24 219 104 22 219 103 21 219 103 21 219 102 23 219 102 23
219 102 23 219 102 23 219 102 23 219 102 23 217 100 19 217 100 19
217 100 19 217 100 19 217 100 21 217 100 21 217 100 21 218 99 21
222 97 21 220 93 17 215 88 13 213 86 10 213 86 12 213 86 12 213 86 12
213 85 14 213 85 16 213 85 16 213 85 16 213 85 16 210 83 14 210 83 14
210 83 14 210 83 14 210 83 14 210 83 14 210 83 14 210 83 14 209 82 11
210 83 12 213 85 14 214 86 16 212 87 16 212 87 16 212 87 16 212 87 16
212 88 14 212 88 14 211 89 12 211 89 12 226 107 29 223 109 29
222 110 27 220 111 27 219 112 27 219 112 27 219 112 27 219 112 27
217 112 27 218 114 28 224 119 34 225 121 35 225 123 36 225 123 36
223 123 36 223 123 36 223 123 36 223 123 36 225 123 36 226 122 36
208 99 17 213 98 19 214 97 19 216 97 19 219 97 18 219 97 18 219 97 18
219 97 18 220 99 19 219 97 18 216 95 15 214 92 15 215 93 18 215 93 18
214 94 18 214 94 18 214 94 18 214 94 18 212 95 18 212 95 18
223 109 29 222 110 29 222 110 29 222 110 29 222 110 29 222 110 29
222 110 29 222 110 29 222 110 29 221 108 28 215 106 24 212 102 21
212 102 21 212 102 21 212 103 19 212 103 19 214 102 19 215 101 19
217 100 21 220 98 21 202 77 3 204 77 6 206 76 6 208 76 6 212 75 9
214 74 9 212 75 9 210 75 9 207 74 7 207 77 9 215 88 17 217 90 19
217 92 18 217 92 18 217 92 18 217 92 18 218 91 18 218 91 18 218 91 18
218 91 18 209 84 10 209 84 10 209 84 10 209 84 12 210 83 12 210 83 14
210 83 14 212 82 12 215 83 11 212 81 9 199 63 0 203 64 6 204 63 8
204 63 10 204 63 8 204 63 8 204 63 10 204 63 10 203 64 8 201 65 6
216 82 20 214 84 18 213 84 18 213 84 18 214 86 20 215 85 20 217 84 18
217 85 16 215 86 14 211 89 12 219 104 22 217 105 22 217 103 21
219 103 21 219 102 23 219 102 23 219 102 23 219 102 23 219 102 23
219 102 23 217 100 19 217 100 19 217 100 19 217 100 19 217 100 21
217 100 21 217 100 21 218 99 21 222 97 21 220 93 17 215 90 14
211 87 10 213 86 12 213 86 12 211 86 12 211 86 14 213 85 16 213 85 16
213 85 16 213 85 16 210 83 14 210 83 14 210 83 14 210 83 14 210 83 14
210 83 14 210 83 14 210 83 14 209 82 11 210 83 12 213 85 14 214 86 16
212 87 16 212 87 16 212 87 16 212 87 16 212 88 14 212 88 14 211 89 12
211 89 12 226 107 29 223 109 29 222 110 27 220 111 27 219 112 27
217 112 27 217 112 27 217 112 27 217 112 27 218 114 28 223 121 35
225 123 36 226 124 35 226 124 35 224 125 35 223 126 35 224 124 37
224 124 37 224 124 37 226 124 37 208 99 17 213 98 19 216 96 21
218 96 19 219 97 18 219 97 18 219 97 18 219 97 18 220 99 19 219 97 18
216 95 15 214 92 15 215 93 18 215 93 18 214 94 18 214 94 18 214 94 18
214 94 18 212 95 18 210 96 18 223 111 30 221 112 30 221 112 30
221 112 30 221 112 30 221 112 30 221 112 28 221 112 28 221 112 28
219 110 26 215 106 22 210 103 19 210 103 19 210 103 19 210 103 19
212 103 17 214 102 17 215 101 19 217 100 21 220 98 21 202 77 3
204 77 6 206 76 6 208 75 8 212 75 9 214 74 9 212 75 7 210 76 7
208 76 6 208 79 9 216 89 18 218 91 20 217 92 20 217 92 20 217 92 20
217 92 20 218 91 20 218 91 20 218 91 20 218 91 20 209 84 12 209 84 12
209 84 12 209 84 12 210 83 14 210 82 16 210 82 16 212 82 14 215 83 11
212 81 9 199 63 0 203 64 6 204 63 8 204 63 10 204 63 8 204 63 8
204 63 10 204 63 10 203 64 8 201 65 6 216 82 20 214 84 18 213 85 16
212 87 18 212 87 18 214 86 18 217 84 18 217 85 16 214 87 14 211 89 12
219 104 22 217 106 20 217 104 19 219 103 21 219 103 21 219 103 21
219 103 21 219 103 21 219 103 21 219 103 21 215 101 19 215 101 19
215 101 19 215 101 19 215 101 21 215 101 21 215 101 21 217 100 21
218 99 21 216 95 17 215 90 14 211 87 10 213 86 12 213 86 12 211 86 12
211 86 12 213 85 14 213 85 16 213 85 16 213 85 16 210 83 14 210 83 14
210 83 14 210 83 14 210 83 14 210 83 14 210 83 14 210 83 12 209 82 11
210 83 12 213 85 14 214 86 16 212 87 16 212 87 16 212 87 16 212 87 16
212 88 14 212 88 14 212 88 12 209 90 12 223 109 29 222 110 29
220 111 27 219 112 27 217 112 27 217 112 27 217 112 27 217 112 27
217 112 27 216 114 28 223 121 35 225 123 36 226 124 35 224 125 35
223 126 35 223 126 35 224 124 37 224 124 37 224 124 37 227 122 39
210 98 17 214 97 21 218 95 21 219 95 21 220 96 22 220 96 20 220 96 20
220 96 20 222 97 21 220 96 20 218 94 17 216 91 17 217 92 18 215 93 20
215 93 20 215 93 18 215 93 18 215 93 18 214 94 18 212 95 18
224 112 31 222 113 31 222 113 31 222 113 31 222 113 31 222 113 31
222 113 29 222 113 29 222 113 29 219 110 26 214 107 22 210 103 19
210 103 19 210 103 19 210 104 17 210 104 17 212 103 17 214 102 19
215 101 19 217 100 21 199 79 3 201 79 4 203 78 6 204 77 6 209 77 7
209 77 7 209 77 7 207 77 7 204 77 6 207 79 9 216 89 18 218 91 20
218 91 20 217 92 20 217 92 20 217 92 20 218 91 20 218 91 20 218 91 20
218 91 20 210 83 14 212 82 14 212 82 14 212 82 14 212 81 16 212 81 18
212 81 18 213 81 16 215 82 13 214 79 13 199 63 2 203 64 8 203 63 10
204 63 10 204 63 8 204 63 8 204 63 8 203 64 8 201 65 6 201 65 6
216 82 20 214 84 18 213 85 16 212 87 18 212 87 18 214 86 18 215 86 16
215 86 16 214 87 14 211 89 12 219 104 22 215 106 20 216 105 19
216 105 19 216 104 21 216 104 21 216 104 21 216 104 21 216 104 21
216 104 21 224 114 30 224 114 30 224 114 30 224 114 30 224 114 32
224 114 32 224 114 32 224 114 32 224 114 32 226 111 31 212 93 15
218 94 17 218 91 18 218 91 18 217 92 18 217 92 18 217 92 18 217 92 20
217 92 20 217 92 20 213 88 17 213 88 17 213 88 17 213 88 17 213 88 17
213 88 17 213 88 17 213 89 15 214 87 14 214 87 14 214 87 14 214 87 14
213 86 12 213 86 12 213 86 12 213 86 12 213 86 12 213 86 12 211 87 10
208 88 10 229 120 38 226 121 38 226 122 36 226 122 36 225 123 34
225 123 34 225 123 34 225 123 34 226 124 35 224 125 35 223 124 34
223 124 34 224 125 35 223 126 35 223 126 35 223 126 35 223 126 35
223 125 37 224 124 37 229 122 39 202 82 7 206 82 8 206 81 10
208 80 12 207 77 9 209 76 9 209 76 9 209 76 9 211 79 12 211 79 12
211 79 12 210 79 12 209 81 13 208 82 13 208 82 13 208 83 11 208 83 11
208 83 11 208 83 9 204 85 9 226 114 36 223 115 36 223 116 34
223 116 34 223 116 32 223 116 32 223 116 32 223 116 32 223 116 32
225 119 34 225 119 34 224 119 34 224 119 34 224 119 34 224 119 34
224 119 34 224 119 34 224 119 34 225 119 34 227 117 36 219 107 27
221 106 27 223 106 27 224 105 25 225 106 26 225 106 28 224 106 30
224 106 30 221 104 30 223 101 28 209 81 13 210 79 12 208 80 12
208 80 12 208 81 10 208 81 10 208 81 10 208 81 10 208 81 10 210 79 12
200 65 1 202 63 3 202 63 3 202 63 3 202 63 3 202 63 5 202 63 5
202 63 3 200 64 3 200 64 3 202 63 5 202 63 7 202 62 9 202 62 9
203 62 7 203 62 7 202 63 7 202 63 7 200 64 5 200 64 5 216 82 20
214 84 18 214 86 18 212 87 18 213 88 19 215 87 19 217 87 17 217 87 17
214 87 14 209 88 10 235 121 39 229 122 35 226 122 34 226 122 34
226 122 36 226 122 36 226 122 36 226 122 36 226 122 36 226 122 36
222 115 30 222 115 30 222 115 30 222 115 30 222 115 32 222 115 32
222 115 32 222 115 32 220 115 32 222 113 31 211 94 15 216 95 17
217 92 18 217 92 18 215 93 18 215 93 18 217 92 18 217 92 18 217 92 18
217 92 18 213 89 15 213 89 15 213 89 15 213 89 15 213 89 15 213 89 15
213 89 15 213 89 15 214 87 14 214 87 14 214 87 14 214 87 14 213 86 12
213 86 12 213 86 12 213 86 12 213 86 12 213 86 12 211 87 10 208 88 10
228 121 38 223 123 38 225 123 36 225 123 36 225 123 34 225 123 34
223 124 34 223 124 34 224 125 35 224 125 35 223 124 34 223 124 34
223 126 35 223 126 35 223 126 35 223 126 35 223 126 35 223 125 37
224 124 39 229 122 39 204 81 7 210 80 10 208 80 12 208 80 12
209 76 11 210 75 11 210 75 11 210 75 11 213 77 14 213 77 14 213 77 14
211 78 14 211 80 15 209 81 15 209 81 13 209 81 13 209 82 11 209 82 11
209 82 9 206 84 9 228 115 37 224 117 37 224 117 35 224 117 35
224 117 33 224 117 33 224 117 33 224 117 33 224 117 33 225 119 34
224 119 34 224 119 34 224 119 34 224 119 34 222 120 34 222 120 34
222 120 34 222 120 34 224 119 34 225 119 34 218 108 27 219 108 25
221 107 23 221 107 23 222 108 24 222 108 26 221 108 28 221 108 30
220 104 30 222 102 28 209 81 13 210 79 12 208 80 12 208 80 12
208 81 10 208 81 10 208 81 10 208 81 10 208 81 10 210 79 12 202 63 3
203 62 5 203 62 5 203 62 5 203 62 5 203 62 5 203 62 5 203 62 5
202 63 5 200 64 5 202 63 5 202 63 7 202 63 7 202 62 9 203 62 7
203 62 7 202 63 7 202 63 7 200 64 5 200 64 5 216 82 20 215 85 20
215 87 19 212 87 18 213 88 19 215 87 19 217 87 17 217 87 15 214 87 12
208 89 8 233 122 37 229 122 35 225 123 34 223 124 34 223 123 36
223 123 36 223 123 36 223 123 36 223 123 36 223 123 36 222 115 30
222 115 30 222 115 30 222 115 30 222 115 32 222 115 32 222 115 32
222 115 32 220 115 32 222 113 31 212 95 16 216 95 17 217 92 18
217 92 18 215 93 18 215 93 18 217 92 18 217 92 18 217 92 18 217 92 18
213 89 15 213 89 15 213 89 15 213 89 15 213 89 15 213 89 15 213 89 15
213 89 15 214 87 14 214 87 14 214 87 14 214 87 14 213 86 12 213 86 12
213 86 12 213 86 12 213 86 12 213 86 12 213 86 10 208 88 10
228 121 38 223 123 38 225 123 36 225 123 36 223 124 34 223 124 34
223 124 34 223 124 34 223 126 35 223 126 35 223 126 35 223 126 35
224 127 37 222 128 37 222 128 37 222 128 37 224 127 37 224 126 39
224 126 41 229 124 41 204 81 7 210 80 10 208 80 12 210 79 14
209 76 11 210 75 11 210 75 11 210 75 11 213 77 14 213 77 14 213 77 14
211 78 14 211 80 15 209 81 15 209 81 13 209 81 13 209 82 11 209 82 11
209 82 9 206 84 9 227 117 38 224 119 38 224 119 36 224 119 36
224 119 34 224 119 34 224 120 32 224 120 32 224 120 32 224 120 32
224 120 32 222 121 32 222 121 32 222 121 32 222 121 32 221 121 32
221 121 34 222 120 34 224 119 34 225 119 34 218 108 25 219 108 25
221 107 23 221 107 23 222 108 24 222 108 26 221 108 28 221 108 30
220 104 30 222 102 28 209 81 13 210 79 12 208 80 12 208 80 12
208 81 10 208 81 10 208 81 10 208 81 10 208 81 10 210 79 12 202 63 3
203 62 5 203 62 5 203 62 5 203 62 5 203 62 5 203 62 5 203 62 5
202 63 7 200 63 7 202 63 7 202 63 7 202 63 7 202 63 7 202 63 7
202 63 7 202 63 7 202 63 7 200 64 5 200 64 5 217 84 22 217 86 21
215 87 19 213 88 19 213 88 17 215 88 17 217 87 17 217 87 15 212 88 12
208 89 8 232 123 37 227 124 33 225 123 32 223 124 34 223 124 34
223 124 34 223 124 34 223 124 34 223 124 34 223 124 34 222 115 30
222 115 30 222 115 30 222 115 30 222 115 32 222 115 32 222 115 32
222 115 32 220 115 32 222 113 31 212 95 16 216 95 17 217 92 18
217 92 18 215 93 18 215 93 18 217 92 18 217 92 18 217 92 18 217 92 18
213 89 15 213 89 15 213 89 15 213 89 15 213 89 15 213 89 15 213 89 15
213 89 15 214 87 14 214 87 14 214 87 14 214 87 14 213 86 12 213 86 12
213 86 12 213 86 12 213 86 12 213 86 12 213 86 10 208 88 10
228 121 38 223 123 38 225 123 36 225 123 36 223 124 34 223 124 34
223 124 34 223 124 34 223 126 35 223 126 35 223 126 35 223 126 35
222 128 37 222 128 37 222 128 37 222 128 37 224 127 37 224 126 39
224 126 41 229 123 43 204 81 9 210 79 12 208 80 14 210 79 14
209 76 11 210 75 11 210 75 11 210 75 11 213 77 14 213 77 14 213 77 14
211 78 14 211 80 15 209 81 15 209 81 13 209 81 13 209 82 11 209 82 11
209 82 9 206 84 9 227 117 38 224 119 38 224 119 36 224 119 36
224 119 34 224 119 34 224 120 32 224 120 32 224 120 32 224 120 32
222 121 32 222 121 32 222 121 32 222 121 32 221 121 32 221 121 32
221 121 34 222 120 34 224 119 34 225 119 34 218 108 25 219 108 25
221 107 23 221 107 23 222 108 24 222 108 26 221 108 28 221 108 30
220 104 30 222 102 28 209 81 13 210 79 12 208 80 12 208 80 12
208 81 10 208 81 10 208 81 10 208 81 10 208 81 10 210 79 12 202 63 3
203 62 5 203 62 5 203 62 5 203 62 5 203 62 5 203 62 5 202 63 5
202 63 7 200 63 7 202 63 7 202 63 7 202 63 7 202 63 7 202 63 7
202 63 7 202 63 7 202 63 7 200 64 5 200 64 5 218 85 23 217 86 21
215 87 19 213 88 19 213 88 17 215 88 17 215 88 15 215 88 15 212 88 12
206 90 8 232 123 37 226 124 33 223 124 32 223 124 32 223 124 34
223 124 34 223 124 34 223 124 34 223 124 34 223 124 34 222 115 30
222 115 30 222 115 30 222 115 30 222 115 32 222 115 32 222 115 32
222 115 32 220 116 30 222 113 29 212 96 14 216 95 17 217 93 16
217 93 16 215 94 16 215 94 16 217 93 16 217 93 16 217 93 16 217 93 16
213 89 13 213 89 13 213 89 13 213 89 13 213 89 13 213 89 13 213 89 13
213 89 13 215 88 13 215 88 13 214 87 12 214 87 12 214 87 14 214 87 14
213 86 12 213 86 12 214 85 12 214 85 12 214 85 10 209 88 10
228 121 38 223 123 38 223 123 36 223 123 36 223 124 34 221 125 34
221 125 34 221 125 34 223 125 37 223 125 37 223 125 37 223 125 37
222 128 37 222 128 37 222 128 37 222 128 37 224 126 39 224 126 39
224 126 41 229 123 43 204 81 11 210 79 14 210 79 16 210 79 16
209 76 11 210 75 11 210 75 11 210 75 11 213 77 14 213 77 14 213 77 14
211 78 14 211 80 15 209 81 15 209 81 13 209 81 13 209 82 11 209 82 11
209 82 9 206 84 9 227 117 36 224 119 36 224 119 36 224 119 36
224 119 34 224 119 34 224 120 32 224 120 32 224 120 32 224 120 32
222 121 32 221 121 32 221 121 32 221 121 32 221 121 32 221 121 32
221 121 34 222 120 34 224 119 34 225 119 34 218 108 25 219 108 25
221 107 23 221 107 23 222 108 24 222 108 26 221 108 28 221 108 30
220 104 30 222 102 28 209 81 13 210 79 12 208 80 12 208 80 12
208 81 10 208 81 10 208 81 10 208 81 10 208 81 10 210 79 12 200 64 3
202 63 5 202 63 5 202 63 5 202 63 5 202 63 5 202 63 5 202 63 5
202 63 5 202 63 5 202 63 5 202 63 5 202 63 5 202 63 5 202 63 5
202 63 5 202 63 5 202 63 5 200 64 5 200 64 5 218 85 23 217 86 21
215 87 21 215 87 19 215 88 17 215 88 17 215 88 15 215 88 15 212 88 12
208 89 8 230 124 37 226 124 33 223 124 32 221 125 32 221 125 34
221 125 34 221 125 34 221 125 34 221 125 34 221 125 34 222 115 30
222 115 30 222 115 30 222 115 30 222 115 32 222 115 32 222 115 32
222 115 32 222 115 30 222 113 29 212 96 14 216 95 15 217 93 16
217 93 16 215 94 16 215 94 16 217 93 16 217 93 16 217 93 16 217 93 16
213 89 13 213 89 13 213 89 13 213 89 13 213 89 13 213 89 13 213 89 13
213 89 13 215 88 13 215 88 13 214 87 12 214 87 12 214 87 14 214 87 14
213 86 12 213 86 12 214 85 12 214 85 12 214 85 10 209 88 10
228 121 38 223 123 38 223 123 36 223 123 36 221 125 34 221 125 34
221 125 34 221 125 34 223 125 37 223 125 37 223 125 37 223 125 37
222 128 37 222 128 37 222 128 37 222 128 37 224 126 39 224 126 41
224 126 43 229 123 45 202 82 11 210 79 16 210 78 18 210 78 18
209 75 13 210 75 11 210 75 11 210 75 11 213 77 14 213 77 14 213 77 14
211 78 14 211 80 15 209 81 15 209 81 13 209 81 13 209 82 11 209 82 11
209 82 9 206 84 9 227 117 36 224 119 36 224 119 36 224 119 36
224 119 34 224 119 34 224 120 32 224 120 32 224 120 32 224 120 32
222 121 32 221 121 32 221 121 32 221 121 32 221 121 32 221 121 32
221 121 34 222 120 34 224 119 34 225 119 34 218 108 25 219 108 25
221 107 23 221 107 23 222 108 24 222 108 26 221 108 28 221 108 30
220 104 30 222 102 28 209 81 13 210 79 12 208 80 12 208 80 12
208 81 10 208 81 10 208 81 10 208 81 10 208 81 10 210 79 12 200 64 3
202 63 5 202 63 5 202 63 5 202 63 5 202 63 5 202 63 5 202 63 5
202 63 5 202 63 5 202 63 5 202 63 5 202 63 5 202 63 5 202 63 5
202 63 5 202 63 5 202 63 5 200 64 5 200 64 5 218 85 23 217 86 21
215 87 21 215 87 21 215 87 19 215 88 17 215 88 15 215 88 15 212 88 12
208 89 8 230 124 37 224 125 33 221 125 32 221 125 32 221 125 34
221 125 34 221 125 34 221 125 34 221 125 34 221 125 34 222 115 30
222 115 30 222 115 30 222 115 30 222 115 32 222 115 32 224 114 32
224 114 32 222 115 30 222 113 29 212 96 14 216 95 15 217 93 16
217 93 16 215 94 16 215 94 16 217 93 16 217 93 16 217 93 16 217 93 16
213 89 13 213 89 13 213 89 13 213 89 13 215 88 13 215 88 13 213 89 13
213 89 13 215 88 13 215 88 13 214 87 12 214 87 12 215 86 14 215 86 14
214 85 12 214 85 12 214 85 12 214 85 12 214 85 10 209 88 10
228 121 38 223 123 38 223 123 36 223 123 36 221 125 34 221 125 34
221 125 34 221 125 34 223 125 37 223 125 37 223 125 37 223 125 37
222 127 39 222 127 39 222 127 39 222 127 39 224 126 39 224 126 41
225 125 43 229 123 45 202 82 11 208 79 16 208 79 18 210 78 18
209 75 13 210 75 11 210 75 11 210 75 11 213 77 14 213 77 14 213 77 14
211 78 14 211 80 15 209 81 15 209 81 13 209 81 13 209 82 11 209 82 11
209 82 9 206 84 9 227 117 36 224 119 36 224 119 36 224 119 36
224 119 34 224 119 34 224 120 32 224 120 32 224 120 32 224 120 32
222 121 32 221 121 32 221 121 32 221 121 32 221 121 32 221 121 32
222 120 34 222 120 34 224 119 34 225 119 34 219 110 26 221 109 26
221 107 23 221 107 23 222 108 24 222 108 26 221 108 28 221 108 30
220 104 30 222 102 28 209 81 13 210 79 12 208 80 12 208 80 12
208 81 10 208 81 10 208 81 10 208 81 10 208 81 10 210 79 12 200 64 3
202 63 5 202 63 5 202 63 5 202 63 5 202 63 5 202 63 5 202 63 5
202 63 5 202 63 5 202 63 5 202 63 5 202 63 5 202 63 5 202 63 5
202 63 5 202 63 5 202 63 5 200 64 5 200 64 5 218 85 23 217 86 21
215 87 21 215 87 21 217 86 19 217 87 17 215 88 15 215 88 15 212 88 12
208 89 8 230 124 37 224 125 33 221 125 32 221 125 32 221 125 34
221 125 34 221 125 34 221 125 34 221 125 34 221 125 34 224 114 30
224 114 30 224 114 30 224 114 30 224 114 32 224 114 32 224 114 32
224 114 32 222 115 30 222 113 29 212 96 14 216 95 15 217 93 16
217 93 16 215 94 16 214 94 16 215 94 16 215 94 16 215 94 16 215 94 16
212 90 13 213 89 13 213 89 13 213 89 13 213 89 13 213 89 13 213 89 13
213 89 13 215 88 13 215 88 13 214 87 12 214 87 12 214 87 14 215 86 14
214 85 12 214 85 12 214 85 12 214 85 12 214 85 12 209 88 10
228 121 38 223 123 38 223 123 36 221 124 36 221 124 36 221 124 36
221 124 36 221 124 36 223 125 37 223 125 37 223 125 37 223 125 37
222 127 39 222 127 39 222 127 39 224 126 39 224 126 39 225 125 41
225 125 43 230 122 45 202 82 11 206 80 16 208 79 18 210 78 18
209 76 11 210 75 9 210 75 9 210 75 9 213 78 12 213 78 12 213 78 12
211 78 14 211 80 15 209 81 15 209 81 15 209 81 13 209 81 13 209 81 13
209 82 11 206 83 11 227 117 38 224 119 36 224 119 36 224 119 36
224 119 34 224 119 34 224 120 32 224 120 32 224 120 32 224 120 32
222 121 32 222 121 32 222 121 32 222 121 32 222 121 32 222 121 32
222 120 34 224 119 34 225 119 34 225 119 34 219 110 26 219 110 26
219 108 23 221 107 23 222 108 24 222 108 26 221 108 28 221 108 30
220 104 30 222 102 28 209 81 13 210 79 12 208 80 12 208 80 12
208 81 10 208 81 10 208 81 10 208 81 10 208 81 10 210 79 12 199 63 2
200 62 4 200 62 4 200 62 4 200 62 4 200 62 4 200 62 4 200 62 4
200 62 4 200 62 4 202 63 5 202 63 5 202 63 5 202 63 5 202 63 5
202 63 5 202 63 5 202 63 5 200 64 5 198 65 3 218 85 23 217 86 21
217 86 21 217 86 21 217 86 19 217 87 17 215 88 15 215 88 15 213 89 13
209 90 10 230 124 37 223 124 32 220 124 31 220 124 31 220 123 33
220 123 33 221 125 34 221 125 34 221 125 34 221 125 34 228 116 33
228 116 33 228 116 33 228 116 33 228 116 33 228 116 33 226 117 33
224 117 33 221 114 29 221 112 28 209 95 13 214 95 14 216 92 13
216 92 13 212 94 13 211 94 13 212 94 13 212 94 13 212 94 13 212 94 13
212 94 13 214 93 13 214 93 13 214 93 13 214 93 13 214 93 13 216 92 13
217 93 14 218 92 16 216 90 14 211 85 9 209 83 7 208 81 8 209 82 9
210 83 10 210 83 10 211 84 13 211 84 13 213 86 12 208 88 12
229 124 41 224 126 41 224 126 39 222 127 39 222 127 39 222 127 41
221 126 39 221 126 39 223 125 39 223 125 39 223 125 39 223 125 39
224 126 41 224 126 41 225 128 40 225 128 40 227 126 42 228 126 42
230 124 44 233 122 46 202 81 13 205 79 15 207 78 17 208 77 17
210 77 11 212 77 9 212 77 9 212 77 9 208 74 5 210 76 7 213 78 10
212 80 13 208 80 14 206 80 16 206 80 16 206 81 14 206 81 14 206 81 14
206 81 14 203 83 12 226 116 37 221 119 35 221 119 33 221 119 33
221 119 33 221 119 33 223 118 33 223 118 33 223 118 33 223 118 33
223 118 33 223 118 33 223 118 33 223 118 33 223 118 33 223 118 33
223 118 33 224 117 33 223 116 32 224 114 30 220 111 27 219 110 26
221 109 24 221 109 24 222 108 24 222 108 26 221 108 28 221 108 30
220 104 30 222 102 28 209 81 13 210 79 12 208 80 12 208 80 12
208 81 10 208 81 10 208 81 10 208 81 10 208 81 10 210 79 12 199 63 2
200 62 4 200 62 4 200 62 4 200 62 4 200 62 4 200 62 4 200 62 4
202 61 4 202 61 4 203 62 5 203 62 5 203 62 5 203 62 5 203 64 6
203 64 6 201 65 6 201 65 6 201 65 4 200 66 4 218 85 23 218 85 23
217 86 21 217 86 21 218 86 19 217 87 17 215 88 15 213 89 15 216 90 14
209 90 10 231 125 38 224 125 33 221 125 32 220 126 32 220 125 34
220 125 34 220 125 34 220 125 34 220 125 34 220 125 34 225 115 32
225 115 32 225 115 32 225 115 32 225 115 32 223 116 32 222 117 32
220 118 32 216 114 28 217 112 27 207 95 12 211 94 13 213 92 12
213 92 12 210 93 12 208 94 12 208 94 12 208 94 12 208 94 12 208 94 12
210 93 12 210 93 12 210 93 12 208 94 12 208 94 12 210 93 12 210 93 12
212 94 13 214 92 15 212 90 13 207 85 8 205 83 6 204 81 7 205 83 8
206 84 9 206 84 9 209 84 12 209 84 12 210 85 11 207 87 11 228 121 38
225 122 38 225 123 36 225 123 36 225 122 38 225 122 38 223 121 37
223 121 37 225 120 37 225 120 37 224 119 36 224 119 36 232 127 44
234 126 44 234 126 44 234 127 42 232 127 44 234 126 44 235 125 46
238 123 48 200 79 10 203 76 14 204 75 16 206 75 14 211 79 12
213 78 10 213 78 10 213 78 10 210 76 7 212 77 9 215 80 12 215 82 15
212 81 16 210 82 18 210 82 18 210 82 18 210 82 18 210 82 18 210 82 18
207 84 16 228 115 37 223 118 35 223 118 33 223 118 33 223 118 33
224 117 33 224 117 33 224 117 33 224 117 33 224 117 33 224 117 33
224 117 33 224 117 33 224 117 33 226 117 33 226 117 33 226 117 33
226 117 33 225 115 32 224 114 30 220 111 27 219 110 26 221 109 24
221 109 24 222 108 24 222 108 26 221 108 28 221 108 30 220 104 30
222 102 28 209 81 13 210 79 12 208 80 12 208 80 12 208 81 10
208 81 10 208 81 10 208 81 10 208 81 10 210 79 12 201 65 4 203 64 6
203 64 6 203 64 6 203 64 6 203 64 6 203 64 6 203 64 6 204 63 6
204 63 6 204 63 6 204 63 6 204 63 6 204 63 6 203 64 6 203 64 6
201 65 6 201 65 6 200 66 4 200 66 4 215 81 19 215 81 19 213 83 17
213 83 17 215 82 15 213 83 15 211 84 13 210 85 11 213 86 10 208 89 8
232 126 39 227 131 38 222 128 35 222 128 35 222 128 37 222 128 37
223 129 38 223 129 38 223 129 38 223 129 38 239 142 54 239 142 54
239 142 54 239 142 54 239 142 54 237 142 54 237 142 54 237 142 54
235 138 50 236 136 49 225 119 34 231 117 35 232 115 34 232 115 34
230 116 34 229 117 34 229 117 34 229 117 34 229 117 34 229 117 34
229 117 34 229 117 34 227 118 34 225 119 34 225 119 34 225 119 34
225 119 34 228 119 35 228 119 37 226 116 35 223 111 30 221 108 28
221 106 29 222 107 30 225 108 31 225 108 31 228 108 34 228 108 34
230 108 33 229 109 33 207 92 13 207 92 13 207 93 11 207 93 11
209 92 13 209 92 13 209 90 12 209 90 12 209 90 12 209 90 12 208 87 9
207 85 8 206 84 9 206 82 8 205 81 5 204 82 5 199 84 5 197 85 5
199 82 5 200 80 6 201 75 8 203 71 11 203 69 12 203 69 10 200 64 3
200 64 3 200 64 3 200 64 3 200 64 3 201 65 4 205 69 8 206 70 9
205 69 8 205 69 8 205 69 8 205 69 8 205 69 8 205 69 8 205 69 8
201 71 6 218 101 24 215 103 22 215 103 20 215 103 20 215 103 20
215 103 20 216 102 20 216 102 20 216 102 20 216 102 20 215 103 20
215 103 20 215 103 20 215 103 20 215 103 20 215 103 20 215 103 20
215 103 20 216 104 21 217 105 22 218 106 23 219 108 25 221 109 24
221 109 24 222 108 24 222 108 26 221 108 28 221 108 30 221 106 31
223 103 30 210 83 14 211 81 13 209 81 13 209 81 13 209 82 11
209 82 11 208 81 10 208 81 10 208 81 10 210 79 12 205 69 8 206 68 10
206 68 10 206 68 10 206 68 10 206 68 10 206 68 10 206 68 10 208 67 10
208 67 10 208 67 10 207 66 9 205 64 7 204 63 6 203 64 6 203 64 6
201 65 6 201 65 6 202 68 6 203 70 8 207 73 11 208 74 12 208 78 13
208 78 13 210 77 11 210 77 11 207 79 9 205 81 7 207 80 5 206 87 6
234 130 42 233 137 44 228 134 40 228 134 40 228 133 42 228 133 42
228 133 42 228 133 42 228 133 42 228 133 42 231 144 53 231 144 53
231 144 53 231 144 53 231 144 53 231 144 53 231 144 53 233 143 53
231 139 49 233 136 48 223 118 33 227 118 34 228 116 33 228 116 33
226 117 33 224 117 33 224 117 33 224 117 33 224 117 33 224 117 33
224 117 33 224 117 33 223 118 33 221 119 33 220 120 33 220 120 33
220 120 33 221 121 34 222 120 36 220 117 34 217 112 29 216 109 27
217 106 28 218 108 29 221 108 30 221 108 30 223 108 33 223 108 33
226 109 32 228 108 32 208 88 10 209 88 10 209 88 8 211 87 10
211 87 10 213 86 10 211 85 9 211 85 9 211 85 9 211 85 11 212 83 10
212 83 10 211 81 9 212 81 9 212 81 7 211 82 7 206 84 7 204 85 9
206 84 9 209 82 11 199 69 3 202 66 7 204 65 9 204 65 9 200 63 7
200 63 7 200 63 7 200 63 7 202 66 9 203 67 11 206 69 13 208 72 13
207 69 9 209 68 9 209 68 9 209 68 9 209 68 9 209 68 9 209 68 9
204 71 7 220 98 23 217 100 21 217 100 19 217 100 19 217 100 19
217 100 19 217 100 19 218 99 19 218 99 19 217 100 19 217 100 19
215 101 19 215 101 19 215 101 19 215 101 19 215 101 19 215 101 19
215 101 19 216 102 20 217 103 21 218 106 23 219 108 25 221 109 24
221 109 24 222 108 24 222 108 26 221 108 28 221 108 30 221 106 31
223 103 30 210 83 14 211 81 13 209 81 13 209 81 13 209 82 11
209 82 11 208 81 10 208 81 10 208 81 10 210 79 12 207 71 10 209 70 12
209 70 12 209 70 12 209 70 12 209 70 12 209 70 12 209 70 12 210 69 12
210 69 12 209 68 11 208 67 10 207 66 9 205 64 7 203 64 6 203 64 6
201 65 6 201 65 6 202 68 6 203 70 8 205 72 10 207 73 11 206 76 10
208 75 10 209 74 10 208 75 8 204 77 6 203 78 4 204 78 2 204 85 5
237 133 45 235 139 46 230 136 43 230 136 43 230 136 45 230 136 45
230 136 45 230 136 45 230 136 45 230 136 45 228 145 53 228 145 53
228 145 53 228 145 53 228 145 53 228 145 53 228 145 53 230 145 53
234 146 53 232 140 48 217 118 28 218 114 26 222 115 28 222 115 28
220 116 28 219 117 28 220 118 30 220 118 30 221 119 31 221 119 31
222 121 32 223 122 33 223 124 34 221 125 34 219 124 33 219 124 33
219 124 35 220 125 36 221 124 36 219 122 34 216 116 31 214 112 28
216 111 28 216 111 28 217 110 30 217 110 30 220 110 31 222 109 31
223 108 31 225 108 31 212 90 13 213 89 13 215 88 13 215 88 13
214 87 14 215 86 14 215 86 14 215 86 14 211 85 11 210 83 12 210 83 12
210 83 10 209 82 9 209 82 9 209 83 7 209 83 7 209 82 9 209 82 11
211 81 11 212 80 13 201 65 4 205 64 7 207 63 9 205 64 11 203 63 10
201 64 10 201 64 10 201 64 10 201 64 10 202 65 11 205 68 14 209 70 14
208 67 10 209 66 8 209 66 8 209 66 8 209 66 8 209 66 8 209 66 8
205 69 6 220 96 22 217 98 20 217 98 20 217 98 20 217 98 20 217 98 20
217 98 20 219 97 20 219 97 20 217 98 20 217 98 20 216 99 20 216 99 20
216 99 20 216 99 20 216 99 20 217 100 19 217 100 19 218 101 20
217 103 21 218 106 23 219 108 25 221 109 24 221 109 24 222 108 24
222 108 26 221 108 28 221 108 30 222 107 32 224 104 31 211 84 15
212 82 14 209 81 13 208 82 13 208 83 11 208 83 11 208 83 11 208 83 11
208 83 11 209 81 13 207 73 11 208 72 13 208 72 13 208 72 13 210 71 13
210 71 13 210 71 13 210 71 13 209 70 10 209 70 10 209 70 10 206 68 8
205 65 5 205 65 5 204 66 5 204 66 5 202 66 5 202 66 5 202 68 6
203 70 8 207 73 11 208 74 12 210 77 15 210 77 15 212 76 13 210 77 11
207 79 9 205 81 7 208 81 6 202 83 3 239 135 47 231 137 46 231 137 44
230 138 44 230 138 46 230 138 46 229 137 45 229 137 45 229 137 45
229 137 45 228 145 53 228 145 53 228 145 53 228 145 53 228 145 53
228 145 53 228 145 53 228 145 53 230 148 53 229 142 48 214 120 28
216 115 26 220 116 28 220 116 28 219 117 28 217 118 28 218 119 30
218 119 30 220 120 31 220 120 31 221 121 32 222 123 33 221 125 34
220 125 34 219 124 33 219 124 33 219 124 35 220 125 36 221 124 36
219 122 34 216 116 31 213 112 28 214 112 28 214 112 28 216 110 30
216 110 30 219 111 31 220 110 31 222 109 31 225 108 31 210 91 13
212 90 13 213 89 13 215 88 13 214 87 14 214 87 14 214 87 14 214 87 14
213 85 14 211 84 13 210 83 12 210 83 12 209 82 9 209 82 9 208 83 9
209 82 9 211 81 11 211 81 11 212 80 13 214 79 15 204 66 5 207 64 7
209 62 9 207 63 11 203 63 10 201 64 10 201 64 10 201 64 10 201 64 10
202 65 11 205 68 14 209 70 14 208 67 10 209 66 8 209 66 8 209 66 8
209 66 8 209 66 8 209 66 8 205 69 6 220 96 22 217 98 20 217 98 20
217 98 20 217 98 20 217 98 20 217 98 20 219 97 20 219 97 20 217 98 20
217 98 20 216 99 20 216 99 20 216 99 20 216 99 20 216 99 20
217 100 19 217 100 19 218 101 20 217 103 21 218 106 23 219 108 25
221 109 24 221 109 24 222 108 24 222 108 26 221 108 28 221 108 30
222 107 32 224 104 31 211 84 15 212 82 14 209 81 13 208 82 13
208 83 11 208 83 11 208 83 11 208 83 11 208 83 11 209 81 13 207 73 11
208 72 13 208 72 13 208 72 13 210 71 13 210 71 13 210 71 13 210 71 13
209 70 10 209 70 10 207 69 9 204 66 5 205 65 5 205 65 5 204 66 5
204 66 5 202 66 5 202 66 5 203 70 8 204 71 9 208 74 12 209 75 13
211 78 16 213 77 16 214 77 14 213 77 14 208 80 12 206 81 10 211 85 11
202 83 5 239 136 50 228 135 44 229 137 43 229 137 43 229 137 45
229 137 45 229 137 45 229 137 45 229 137 45 229 137 45 231 144 51
231 144 51 231 144 51 231 144 51 231 144 51 231 144 51 230 145 51
228 146 51 230 148 53 227 143 48 214 120 28 215 116 26 220 116 28
220 116 28 217 118 28 216 119 28 217 120 30 217 120 30 220 120 31
220 120 31 221 121 32 222 123 33 223 124 34 221 125 34 220 123 33
220 123 33 222 122 35 223 123 36 225 123 36 222 120 34 218 115 31
214 112 28 216 111 28 216 111 28 216 111 28 216 111 28 219 111 31
220 110 31 222 109 31 223 108 31 207 92 13 209 92 13 210 91 13
210 91 13 211 88 14 211 88 14 212 88 14 212 88 14 212 87 16 210 85 13
209 84 12 209 84 12 208 83 11 208 83 11 209 82 11 209 82 11 211 81 11
211 81 11 212 80 13 214 79 15 204 66 5 207 64 7 209 62 9 207 63 9
203 64 8 201 65 8 201 65 8 201 65 8 201 65 8 202 66 9 205 68 12
207 71 12 206 68 8 208 67 8 208 67 8 208 67 8 208 67 8 208 67 8
208 67 8 203 70 6 219 97 22 216 99 20 216 99 20 216 99 20 216 99 20
216 99 20 216 99 20 217 98 20 217 98 20 216 99 20 216 99 20 214 99 20
214 99 20 214 99 20 214 99 20 214 99 20 215 101 19 215 101 19
216 102 20 217 103 21 218 106 23 218 108 25 219 110 24 221 109 24
222 108 24 222 108 26 221 108 28 221 108 30 223 108 33 225 105 32
213 85 16 213 83 15 210 83 14 209 83 14 209 84 12 209 84 12 208 83 11
208 83 11 208 83 11 209 81 13 207 73 11 208 72 13 208 72 13 208 72 13
210 71 13 210 71 13 210 71 13 210 71 13 210 69 12 210 69 12 208 67 10
205 64 7 204 63 6 205 64 7 204 65 7 204 65 7 202 66 5 202 66 5
203 70 6 204 71 7 208 75 10 209 76 11 211 78 14 213 77 14 214 77 14
213 77 14 208 80 12 206 81 10 211 85 11 202 83 5 239 136 50
228 135 44 227 138 43 227 138 43 227 137 45 227 137 45 227 137 45
227 137 45 227 137 45 227 137 45 233 143 51 233 143 51 233 143 51
233 143 51 233 143 51 231 144 51 230 145 51 228 146 51 229 149 53
227 143 48 212 120 28 215 116 26 220 116 28 222 115 28 219 117 28
217 118 28 218 119 30 218 119 30 220 120 31 220 120 31 221 121 32
222 123 33 223 124 34 223 124 34 222 123 33 223 122 33 223 121 35
226 122 36 226 122 36 224 119 34 219 115 29 216 111 28 216 111 28
216 111 28 216 111 28 217 110 28 220 110 31 222 109 31 222 109 31
222 109 31 207 92 13 207 92 13 209 92 13 210 90 15 211 88 14
211 88 14 212 88 14 212 87 16 212 87 16 211 86 14 210 85 13 210 83 12
209 82 11 209 81 13 209 81 13 211 81 11 211 81 11 212 80 13 212 80 13
214 79 15 204 66 5 205 64 7 207 63 9 207 63 9 203 64 6 203 64 6
203 64 6 203 64 6 203 64 6 204 65 7 206 68 10 209 70 12 206 68 10
206 68 10 206 68 10 206 68 10 206 68 10 206 68 10 206 68 10 203 70 6
217 97 22 214 99 20 214 99 20 214 99 20 214 99 20 214 99 20 216 99 20
216 99 20 216 99 20 216 99 20 214 99 20 214 99 20 214 99 20 214 99 20
214 99 20 214 99 20 215 101 19 215 101 19 216 102 20 216 104 21
217 107 23 218 108 25 219 110 24 221 109 24 222 108 24 222 108 26
221 108 28 221 108 30 223 108 33 225 105 32 213 85 16 213 83 15
210 83 14 209 83 14 209 84 12 209 84 12 208 83 11 208 83 11 208 83 11
209 81 13 207 73 11 208 72 13 208 72 13 210 71 13 210 71 13 210 71 13
210 71 13 210 71 13 210 69 12 209 68 11 205 64 7 204 63 8 205 64 9
205 64 7 204 65 7 204 65 7 202 66 5 202 66 5 205 69 6 204 71 7
208 75 10 209 76 11 211 78 14 213 77 14 214 77 14 213 77 14 208 80 12
206 81 10 211 85 11 202 83 5 239 136 50 226 136 44 226 138 45
226 139 43 226 138 45 226 138 45 226 138 45 226 138 45 226 138 45
226 138 45 231 144 49 231 144 49 231 144 49 231 144 49 231 144 51
230 145 51 230 145 51 228 146 51 229 149 51 226 144 46 212 121 26
215 116 24 221 114 27 222 113 27 222 113 27 221 114 27 219 117 28
217 118 28 218 119 30 220 120 31 223 122 33 225 123 34 226 124 35
226 124 35 225 123 34 225 123 34 226 122 34 227 123 35 229 122 35
227 120 33 222 115 28 219 112 27 219 112 27 219 112 27 219 111 29
219 111 29 220 110 29 222 110 29 223 109 29 223 109 29 209 91 15
210 90 15 212 90 15 213 89 15 215 88 17 215 88 17 215 88 17 215 88 17
214 86 16 213 85 14 211 84 15 212 82 14 211 81 13 211 80 15 211 80 15
212 80 13 212 80 13 212 80 13 214 79 15 214 79 15 204 66 5 205 64 7
205 64 7 205 64 7 204 63 8 204 63 8 204 63 8 204 63 8 204 63 8
205 64 9 208 66 12 209 70 14 206 67 12 205 68 12 205 68 12 205 68 12
205 68 12 205 68 12 205 68 12 201 70 8 217 97 24 214 99 20 214 99 20
214 99 20 214 99 20 214 99 20 216 99 20 216 99 20 216 99 20 216 99 20
214 99 20 214 99 20 214 99 20 214 99 20 214 99 20 214 99 20
214 102 19 214 102 19 215 103 20 216 104 21 217 107 23 218 108 25
219 110 24 221 109 24 222 108 24 222 108 26 221 108 28 221 108 30
223 108 33 225 105 32 213 85 16 213 83 15 210 83 14 209 83 14
209 84 12 209 84 12 208 82 13 208 82 13 208 82 13 209 81 13 208 73 9
210 72 11 210 72 11 210 72 11 211 70 13 211 70 13 211 70 15 211 70 15
210 69 14 209 68 13 205 64 9 204 63 10 205 64 11 205 64 9 204 65 9
204 65 7 204 66 5 204 66 3 205 69 6 206 71 5 207 74 7 208 75 8
210 77 13 212 76 13 214 77 14 213 77 14 208 80 12 206 81 10 211 85 11
202 83 5 239 136 50 226 136 46 226 138 45 224 139 45 224 139 45
224 139 45 224 139 45 224 139 45 224 139 45 224 139 45 230 145 49
230 145 49 230 145 49 230 145 49 230 145 51 230 145 51 230 145 51
228 146 51 229 149 51 226 144 46 211 122 26 213 117 24 221 114 27
222 113 27 222 113 27 221 114 27 219 117 28 217 118 28 218 119 30
220 120 31 222 123 33 225 123 34 226 124 35 226 124 35 225 123 34
225 123 34 225 123 34 227 123 35 227 123 35 225 121 33 220 116 28
217 113 25 217 112 27 219 112 27 219 111 29 219 111 29 220 110 29
220 110 29 222 110 29 223 109 29 212 90 15 213 89 15 213 89 15
215 88 15 217 87 17 217 87 17 217 86 19 217 86 19 215 86 16 214 84 14
213 83 15 212 82 14 212 79 15 212 79 15 212 79 15 212 79 15 212 79 15
212 80 13 214 79 15 214 79 15 204 66 5 205 65 5 205 64 7 205 64 7
204 63 8 204 63 8 204 63 8 204 63 8 204 63 8 205 64 9 208 66 12
210 69 14 206 67 12 205 68 12 205 68 12 205 68 12 205 68 12 205 68 12
205 68 12 201 70 8 217 97 24 216 99 20 216 99 20 216 99 20 216 99 20
216 99 20 216 99 20 217 98 20 217 98 20 216 99 20 216 99 20 216 99 20
216 99 20 216 99 20 216 99 20 214 99 20 215 101 19 215 101 19
216 102 20 216 104 21 218 106 23 219 108 25 221 109 24 221 109 24
222 108 24 222 108 26 221 108 28 221 108 30 223 108 33 225 105 32
213 85 16 213 83 15 210 83 14 209 83 14 209 84 12 209 84 12 208 82 13
208 82 13 208 82 13 209 81 13 208 73 9 210 72 9 210 72 11 210 72 11
211 71 11 211 70 13 211 70 13 211 70 15 210 69 14 209 68 13 205 64 9
204 63 10 205 64 11 205 64 9 204 65 9 204 65 7 204 66 5 204 66 3
205 70 4 206 71 5 207 74 7 208 75 8 210 77 13 212 76 13 214 77 14
213 77 14 208 80 12 206 81 12 211 84 13 202 82 7 239 136 52
226 136 46 226 138 45 224 139 45 224 139 45 224 139 45 224 139 45
224 139 45 224 139 45 224 139 45 229 145 45 229 145 45 229 145 45
229 144 47 229 144 47 229 144 47 227 145 47 225 146 47 228 148 50
225 143 45 211 122 26 213 117 24 219 115 27 221 114 27 219 115 27
218 116 27 217 118 28 216 119 28 217 120 30 218 121 31 220 123 33
223 124 34 224 125 35 224 125 35 223 124 34 223 124 34 223 124 34
224 125 35 226 124 35 223 122 33 219 117 28 215 114 25 215 113 27
217 112 27 217 112 27 217 112 27 217 112 29 219 111 29 219 111 29
222 110 29 212 90 15 215 88 15 215 88 15 217 87 15 217 87 17
217 87 17 217 86 19 217 86 19 215 86 16 213 83 13 213 83 15 212 82 14
212 79 15 212 79 15 212 79 17 212 79 17 212 79 15 212 79 15 214 79 15
214 79 15 204 66 5 204 66 5 204 66 5 204 65 7 204 63 8 204 63 8
204 63 8 204 63 8 204 63 8 205 64 9 208 66 12 210 69 14 206 67 12
205 68 12 205 68 12 205 68 12 205 68 12 205 68 12 205 68 12 201 70 8
219 96 24 217 98 20 217 98 20 217 98 20 217 98 20 217 98 20 217 98 20
219 97 20 219 97 20 217 98 20 217 98 20 217 98 20 217 98 20 217 98 20
217 98 20 216 99 20 217 100 19 217 100 19 218 101 20 217 103 21
219 104 22 221 107 25 222 108 24 222 108 24 222 108 24 222 108 26
221 108 28 221 108 30 223 108 33 225 105 32 213 85 16 213 83 15
210 83 14 209 83 14 209 84 12 209 84 12 208 83 11 208 83 11 208 83 11
209 81 13 208 73 7 210 72 9 210 72 9 210 72 9 210 72 9 210 72 11
210 72 11 210 71 13 209 70 12 207 69 11 204 65 7 203 64 8 204 65 9
204 65 7 204 65 7 202 66 7 202 67 3 202 67 1 207 72 6 205 73 4
208 76 6 208 75 8 210 77 11 212 77 11 214 77 14 213 77 14 208 80 12
206 81 12 211 84 13 202 82 7 239 136 52 226 136 46 226 138 45
226 138 45 226 138 45 226 138 45 226 138 45 226 138 45 226 138 45
226 138 45 226 142 43 226 142 43 226 142 43 226 142 43 226 142 45
226 142 45 225 143 45 223 143 45 225 146 47 222 140 43 211 122 26
212 118 24 216 117 27 218 116 27 216 117 27 214 118 27 214 120 28
214 120 28 215 121 30 216 122 31 219 124 33 220 125 34 221 127 35
221 127 35 220 125 34 220 125 34 220 125 34 221 127 35 223 126 35
220 123 33 216 119 28 212 115 25 214 114 27 214 114 27 214 114 27
214 114 27 215 113 29 215 113 29 215 113 29 220 110 29 211 88 14
215 86 14 215 86 14 215 86 14 214 84 14 214 84 14 214 84 16 214 84 16
214 84 16 212 82 14 213 83 15 212 81 16 212 79 15 212 79 15 212 79 17
212 79 17 212 79 15 212 79 15 214 79 15 214 79 15 204 66 5 203 65 4
203 65 4 203 64 6 204 63 8 204 63 8 204 63 8 204 63 8 204 63 8
205 64 9 208 66 12 210 69 14 206 67 12 205 68 12 205 68 12 205 68 12
205 68 12 205 68 12 205 68 12 203 70 8 220 95 24 219 97 20 219 97 20
219 97 20 219 97 20 219 97 20 220 96 20 220 96 20 220 96 20 220 96 20
219 97 20 219 97 20 219 97 20 219 97 20 219 97 20 219 97 20 218 99 19
218 99 19 219 101 20 221 102 21 219 103 21 223 106 25 224 108 24
224 108 24 222 108 24 222 108 26 221 108 28 221 108 30 223 108 33
225 105 32 213 85 16 211 84 15 209 83 14 209 83 14 209 84 12
209 84 12 208 83 11 208 83 11 208 83 11 208 83 11 205 75 5 207 74 7
207 74 7 207 74 7 207 74 7 207 74 9 207 74 9 207 74 9 205 72 8
204 71 7 201 67 5 201 65 4 202 66 5 202 66 5 201 67 5 201 67 5
202 67 1 202 67 1 207 74 5 207 74 5 208 76 6 208 76 6 210 77 11
212 77 11 214 77 14 213 77 14 208 80 14 206 81 12 211 81 11 202 82 7
239 136 52 228 135 46 227 137 45 227 137 45 227 137 45 227 137 45
227 137 45 227 137 45 227 137 45 227 137 45 223 139 40 223 139 40
223 139 40 223 139 40 223 138 42 223 138 42 221 139 42 221 139 42
223 143 45 220 138 40 236 149 53 235 143 49 241 146 55 241 146 55
238 148 55 236 149 55 237 150 56 237 150 56 237 150 56 237 150 56
237 150 56 237 150 56 237 150 56 237 150 56 237 150 56 237 150 56
239 149 56 239 149 56 235 146 53 240 150 58 225 133 41 230 138 46
226 134 44 226 134 44 228 133 44 228 133 44 228 133 46 228 133 46
230 132 46 234 129 46 209 87 12 214 85 12 214 85 12 214 85 12
213 83 13 213 83 15 213 83 15 213 83 15 213 83 15 211 80 15 205 74 9
203 72 7 203 70 8 203 70 8 203 70 8 203 70 8 205 69 8 205 69 8
205 69 8 202 66 5 203 65 4 203 65 4 203 65 4 203 64 6 203 62 7
203 62 7 203 62 7 203 62 7 203 62 7 204 63 8 208 66 12 209 68 13
205 66 11 203 67 11 203 67 11 203 67 11 202 68 11 202 68 11 202 68 11
202 68 6 212 82 12 210 83 10 210 83 10 210 83 10 209 84 10 210 83 10
210 83 10 210 83 10 210 83 10 210 83 10 210 83 10 209 84 10 209 85 8
209 85 8 209 85 8 209 85 8 210 86 9 208 87 9 208 87 9 208 87 9
220 99 19 216 97 17 216 97 14 216 97 14 214 98 14 213 99 17 211 99 19
211 99 21 213 97 23 216 96 23 221 93 25 221 93 25 218 93 21 216 94 21
216 94 21 216 94 21 215 93 20 215 93 20 215 93 20 215 93 20
224 104 31 224 104 31 224 104 31 224 104 31 226 103 31 226 103 33
227 102 33 227 102 33 226 101 32 230 104 35 210 85 15 215 87 19
210 82 16 210 82 16 212 81 16 212 82 14 213 81 14 213 81 12 210 78 9
209 77 7 209 77 7 209 77 7 209 76 9 210 75 9 213 75 13 212 76 15
207 79 13 207 79 11 210 80 10 204 81 7 222 120 36 216 123 34
215 121 30 215 121 30 215 120 32 215 120 32 215 120 32 215 120 32
215 120 32 215 120 32 220 136 37 220 136 37 220 136 37 220 136 37
220 136 39 220 136 39 219 137 39 219 137 39 221 141 43 218 136 38
236 149 53 233 144 49 238 148 55 236 149 55 233 150 55 231 151 55
232 152 56 232 152 56 234 152 56 234 152 56 234 152 56 234 152 56
234 152 56 234 152 56 234 152 56 236 151 56 236 151 56 236 151 56
232 147 53 238 151 58 222 135 41 227 139 46 223 136 44 225 135 44
225 135 44 226 134 44 226 134 46 226 134 46 228 133 46 233 130 46
207 87 11 213 84 11 213 84 11 213 83 13 212 82 14 212 82 14 212 82 14
212 82 14 212 81 16 210 79 14 204 73 8 203 72 7 203 70 8 203 70 8
203 70 8 203 70 8 205 69 8 205 69 8 205 69 8 202 66 5 203 65 4
202 63 3 202 63 3 202 63 5 203 62 7 203 62 7 203 62 7 203 62 7
203 62 7 204 63 8 208 66 12 209 68 13 205 66 11 203 67 11 203 67 11
203 67 11 202 68 11 202 68 11 202 68 11 202 68 9 212 82 14 212 83 10
212 83 10 212 83 10 212 83 10 212 83 10 212 83 10 212 83 10 212 83 10
212 83 10 212 83 10 210 83 10 210 84 8 210 84 8 210 84 8 210 84 8
211 85 9 211 85 9 211 85 9 210 86 9 220 97 18 219 95 17 219 96 14
218 97 14 214 98 14 213 99 17 211 99 19 211 99 21 213 97 23 216 96 23
221 93 25 221 93 25 218 93 21 216 94 21 216 94 21 216 94 21 215 93 20
215 93 20 215 93 20 214 94 20 221 106 29 219 107 29 221 106 29
221 106 29 223 105 29 223 105 29 223 105 29 224 104 29 223 103 28
226 106 33 207 87 13 211 88 16 207 85 12 209 83 14 210 83 14
210 83 12 212 82 12 213 81 12 211 79 10 210 78 9 209 77 7 209 77 7
209 76 9 209 76 11 212 76 15 212 76 15 207 79 13 207 79 13 208 78 11
204 81 9 222 119 38 216 121 35 217 119 32 218 119 30 218 119 32
218 119 32 218 119 32 218 119 32 218 119 32 218 119 32 219 135 36
219 135 36 219 135 36 219 135 36 219 135 38 219 135 38 218 136 38
218 136 38 221 139 42 217 134 37 234 150 53 230 145 49 234 150 55
231 151 55 228 153 55 226 154 55 229 154 56 229 154 56 231 153 56
232 152 56 232 152 56 232 152 56 232 152 56 232 152 56 232 152 56
232 152 56 234 152 56 234 152 56 230 148 53 235 153 58 220 136 41
225 140 46 222 136 44 223 136 44 223 136 44 225 135 44 225 134 46
226 134 46 226 134 46 233 130 46 207 87 11 213 84 11 213 84 11
213 83 13 212 82 14 212 82 14 212 82 14 212 82 14 211 80 15 210 79 14
204 73 8 203 72 7 203 70 8 203 70 8 203 70 8 203 70 8 205 68 10
205 68 10 205 68 10 203 67 9 203 64 6 202 63 5 202 63 5 202 63 5
203 62 7 203 62 7 203 62 7 203 62 7 203 62 7 204 63 8 208 66 12
209 68 13 205 66 11 203 67 11 203 67 11 203 67 11 202 68 11 202 68 11
202 68 11 202 68 9 213 81 14 213 82 10 213 82 10 213 82 10 212 83 10
212 83 10 213 82 10 213 82 10 213 82 10 213 82 10 212 83 10 212 83 10
212 83 8 212 83 8 212 83 8 212 83 8 213 84 9 213 84 9 213 84 9
211 85 9 221 95 17 221 95 17 221 95 14 218 97 14 214 98 14 213 99 17
211 99 19 211 99 21 213 97 23 216 96 23 221 93 25 221 93 25 218 93 21
216 94 21 216 94 21 216 94 21 215 93 20 215 93 20 215 93 18 214 94 18
221 106 29 219 107 27 219 107 27 221 106 27 221 106 27 221 106 27
221 106 27 223 106 27 221 104 26 225 108 31 204 87 10 209 89 14
207 85 10 209 84 12 209 84 12 210 83 12 210 83 12 212 82 12 212 82 12
210 80 10 211 79 10 210 78 9 210 77 11 210 77 13 212 76 15 210 77 15
207 79 13 207 79 13 210 79 12 204 81 9 221 118 37 216 121 35
218 119 32 220 118 30 220 118 32 220 118 32 220 118 32 220 118 32
220 118 32 220 118 32 221 134 36 221 134 36 221 134 36 221 134 36
221 134 38 221 134 38 219 135 38 219 135 38 223 138 42 218 134 37
234 150 53 230 145 49 233 150 55 231 151 55 228 153 55 228 153 55
229 154 56 231 153 56 231 153 56 232 152 56 232 152 56 232 152 56
232 152 56 232 152 56 232 152 56 232 152 56 232 152 56 234 152 56
230 148 53 235 153 58 220 136 41 225 140 46 222 136 44 223 136 44
223 136 44 225 135 44 225 134 46 226 134 46 226 134 46 233 130 46
207 87 11 213 84 11 213 84 11 213 83 13 212 82 14 212 82 14 212 82 14
212 82 14 211 80 15 210 79 14 203 72 7 204 71 7 203 70 8 203 70 8
203 70 8 203 69 10 205 68 10 205 68 10 205 68 10 203 67 9 203 64 6
202 63 5 202 63 5 202 63 5 202 63 5 203 62 7 203 62 7 203 62 7
203 62 7 204 63 8 208 66 12 207 68 13 203 67 11 203 67 11 203 67 11
203 67 11 202 68 11 202 68 11 202 68 11 202 68 6 213 81 14 213 81 12
213 81 12 213 81 12 212 82 12 212 82 12 213 81 12 213 82 10 213 82 10
213 82 10 212 83 10 212 83 10 212 83 10 212 83 10 212 83 10 212 83 10
215 83 11 213 84 11 213 84 11 211 85 11 221 94 19 219 95 19 219 95 17
218 96 17 214 98 17 213 99 17 211 99 19 211 99 21 213 98 21 216 96 23
219 94 23 221 93 23 218 93 21 216 94 21 216 94 21 216 94 21 215 93 20
215 93 20 215 93 18 214 94 18 221 106 27 219 107 27 219 108 25
219 108 25 219 108 25 221 107 25 221 107 25 221 107 25 220 105 26
223 109 29 204 87 8 208 88 10 207 85 8 209 84 10 209 84 10 209 84 10
209 84 12 210 83 12 210 83 12 210 80 10 211 79 10 210 77 11 210 77 11
212 76 13 212 76 13 210 77 15 207 79 13 207 79 11 210 80 10 204 81 7
223 118 35 218 119 32 222 117 32 223 117 30 223 116 32 223 116 32
223 116 32 223 116 32 223 116 32 223 116 32 224 132 38 224 132 38
224 132 38 224 132 38 224 132 38 224 132 38 222 133 38 222 133 38
224 137 42 220 133 37 236 149 53 230 145 49 234 150 53 233 151 53
233 151 53 233 151 53 234 152 54 234 152 54 234 152 54 234 152 54
234 152 54 234 152 54 234 152 54 234 152 54 234 152 54 234 152 54
234 152 54 236 151 54 232 147 53 238 151 58 222 135 41 227 139 46
223 136 42 225 135 42 225 135 42 225 135 44 226 134 46 226 134 46
228 133 46 233 130 46 207 87 11 213 84 11 213 83 13 213 83 13
212 82 14 212 82 14 212 81 16 212 81 16 212 79 15 212 79 15 204 71 7
205 72 8 206 70 9 206 70 9 206 70 11 206 70 11 206 69 13 206 69 13
206 69 13 205 68 12 202 63 7 202 63 7 202 63 7 202 63 5 202 63 5
202 63 5 202 63 5 202 63 5 202 63 5 203 64 6 206 68 10 206 70 11
205 68 10 205 68 10 205 68 10 205 68 10 205 68 10 205 68 10 205 68 10
203 70 8 213 81 14 212 82 14 212 82 14 212 82 14 212 82 14 212 82 14
212 82 14 212 82 12 212 82 12 212 82 12 212 82 12 212 82 12 212 82 12
212 82 12 212 82 12 212 82 12 213 83 13 213 83 13 211 84 13 210 85 13
219 94 23 218 95 23 218 95 23 216 96 21 216 96 21 214 97 19 214 97 21
214 97 21 214 97 21 216 96 21 218 95 21 218 95 23 216 94 21 216 94 21
216 94 19 216 94 19 215 93 18 215 93 18 215 93 18 214 94 16
219 107 27 218 108 25 218 108 25 218 109 23 218 109 23 219 108 23
219 108 23 218 108 25 218 108 25 219 110 26 203 86 5 207 88 7
209 85 6 209 85 8 207 85 8 207 85 8 207 85 10 209 84 12 210 83 12
211 81 11 211 79 12 210 77 11 212 76 13 212 76 13 213 77 14 211 78 14
208 80 14 208 80 12 210 80 10 205 81 7 228 115 35 223 116 32
222 115 30 224 114 30 224 114 30 224 114 30 224 114 30 224 114 30
224 114 30 224 114 30 224 132 38 224 132 38 224 132 38 224 132 38
224 132 38 224 132 38 222 133 38 222 133 38 224 137 42 220 133 37
234 150 53 230 145 49 233 151 53 233 151 53 233 151 53 234 150 53
236 151 54 236 151 54 236 151 54 236 151 54 234 152 54 234 152 54
234 152 54 234 152 54 232 153 54 232 153 54 232 153 54 234 152 54
230 148 53 235 153 58 220 136 41 227 139 46 225 135 42 226 134 42
226 134 42 226 134 44 226 134 46 228 133 46 228 133 46 234 129 46
207 87 11 213 84 11 213 83 13 212 82 12 212 82 14 212 82 14 212 81 16
212 81 16 212 79 15 214 79 15 205 69 6 207 72 8 207 69 9 207 69 9
207 69 11 207 69 11 207 69 11 207 68 13 207 68 13 206 67 12 203 62 7
203 62 7 203 62 7 203 62 7 202 63 5 202 63 5 202 63 5 202 63 5
202 63 5 203 64 6 206 68 10 207 69 11 205 69 8 205 69 8 205 69 8
205 69 8 205 69 8 205 69 8 205 69 8 205 69 8 213 81 16 212 82 14
212 82 14 212 82 14 212 82 14 212 82 14 212 82 14 212 82 14 212 82 12
212 82 12 212 82 12 212 82 12 212 82 12 212 82 12 212 82 12 212 82 12
213 83 15 213 83 15 211 84 15 210 85 15 218 95 25 218 95 25 216 95 25
216 95 25 216 96 23 216 96 21 216 96 21 216 96 21 216 96 21 216 96 21
216 96 21 216 96 21 216 94 21 216 94 21 216 94 19 216 94 19 215 93 18
215 93 18 215 94 16 214 94 16 221 107 25 219 108 25 219 108 23
219 108 23 219 108 23 219 108 23 219 108 23 218 109 23 216 109 25
219 110 26 203 86 5 209 85 6 210 84 6 210 84 6 209 85 6 207 85 8
209 84 10 209 84 12 210 83 12 211 81 11 211 79 12 212 77 11 213 75 13
213 75 13 213 77 14 211 78 14 208 80 12 208 80 12 210 80 10 207 80 7
229 115 35 224 114 30 224 114 30 224 114 30 224 114 30 224 114 30
224 114 30 224 114 30 224 114 30 224 114 30 219 135 38 219 135 38
219 135 38 219 135 38 219 135 38 219 135 38 219 135 38 218 136 38
221 139 42 215 135 37 231 152 53 227 147 49 231 152 53 231 152 53
231 152 53 233 151 53 234 152 54 234 152 54 234 152 54 234 152 54
234 152 54 234 152 54 232 153 54 232 153 54 231 154 54 229 154 54
229 154 54 229 154 54 226 150 53 230 155 58 214 139 41 222 142 46
225 135 42 228 133 42 228 133 42 228 133 44 228 133 46 230 132 46
230 132 46 234 129 46 207 87 11 211 85 11 211 85 11 210 83 12
210 83 14 210 83 14 210 83 14 212 82 14 213 78 12 217 79 14 206 69 4
210 70 8 209 68 9 209 68 9 209 68 9 209 68 9 209 68 9 209 68 11
209 68 11 211 67 11 205 61 5 205 61 5 205 61 5 205 61 7 205 61 7
203 62 7 203 62 7 203 62 7 203 62 7 204 63 8 208 66 12 209 68 13
206 68 10 205 69 8 205 69 8 205 69 8 205 69 8 205 69 8 205 69 8
205 69 8 213 81 16 212 82 14 212 82 14 212 82 14 212 82 14 212 82 14
212 82 14 212 82 14 212 82 12 212 82 12 212 82 12 212 82 12 212 82 12
212 82 12 212 82 12 212 82 12 213 83 15 213 83 15 211 84 15 210 85 15
218 95 25 218 95 25 216 95 25 216 95 25 216 96 23 216 96 21 216 96 21
216 96 21 216 96 21 216 96 21 216 96 21 216 96 21 216 94 21 216 94 21
216 94 19 216 94 19 215 93 18 215 93 18 215 94 16 214 94 16
223 106 25 221 107 25 221 107 23 221 107 23 221 107 23 221 107 23
221 107 23 221 107 23 219 108 25 222 108 26 205 83 4 210 84 6
213 82 6 213 82 6 210 84 6 210 84 8 210 83 12 212 82 14 213 81 14
214 79 13 216 78 13 216 76 12 218 75 14 216 76 14 213 77 14 210 79 14
208 80 12 208 80 12 211 81 11 207 80 7 228 113 34 224 114 30
224 114 30 224 114 30 224 114 30 224 114 30 224 114 30 224 114 30
224 114 30 224 114 30 219 135 38 219 135 38 219 135 38 219 135 38
219 135 38 219 135 38 218 136 38 218 136 38 220 140 42 215 135 37
231 152 53 227 147 49 231 152 53 231 152 53 231 152 53 231 152 53
232 153 54 232 153 54 232 153 54 234 152 54 234 152 54 232 153 54
232 153 54 231 154 54 231 154 54 229 154 54 229 154 54 228 155 54
224 151 53 230 155 58 214 139 41 222 142 46 225 135 42 228 133 42
228 133 42 230 132 44 230 132 46 230 132 46 230 132 46 234 129 46
205 88 11 208 86 11 207 85 10 207 85 10 207 85 12 207 84 14 207 84 14
210 83 14 213 78 12 217 79 14 205 68 2 210 70 6 209 69 7 209 68 9
209 68 9 209 68 9 209 68 9 209 68 9 209 68 9 211 68 9 205 62 3
205 61 5 205 61 5 205 61 5 205 61 7 205 61 9 205 61 9 205 61 9
205 61 9 206 62 10 209 65 14 209 68 13 206 68 10 205 69 8 205 69 8
205 69 8 205 69 8 205 69 8 205 69 8 205 69 8 213 81 16 212 82 14
212 82 14 212 82 14 212 82 14 212 82 14 212 82 14 212 82 14 212 82 12
212 82 12 212 82 12 212 82 12 212 82 12 212 82 12 212 82 12 212 82 12
213 83 15 213 83 15 211 84 15 210 85 15 218 95 25 218 95 25 216 95 25
216 95 25 216 96 23 216 96 21 216 96 21 216 96 21 216 96 21 216 96 21
216 96 21 216 96 21 216 94 21 216 94 21 216 94 19 216 94 19 215 93 18
215 93 18 215 94 16 214 94 16 223 106 25 221 107 25 221 107 23
221 107 23 221 107 23 221 107 23 221 107 23 221 107 23 219 108 25
222 108 26 205 83 4 209 83 5 213 82 6 213 82 6 210 84 6 210 84 8
210 83 12 212 82 14 213 81 14 214 79 13 216 78 13 216 76 12 218 75 14
216 76 14 213 77 14 210 79 14 208 80 12 208 80 12 212 80 11 207 80 7
228 113 34 224 114 30 224 114 30 224 114 30 224 114 30 224 114 30
224 114 30 224 114 30 224 114 30 224 114 30 226 136 44 226 136 44
226 136 44 226 136 44 226 136 44 226 136 44 224 137 44 223 136 42
222 137 42 224 139 45 227 145 49 232 149 54 234 152 56 234 154 58
232 152 56 232 152 56 232 152 56 232 152 56 232 152 56 232 152 56
234 154 58 232 154 58 233 155 59 233 155 59 233 155 59 233 155 59
235 155 57 235 155 57 232 152 56 232 149 54 223 141 46 223 138 44
228 139 46 230 138 46 230 138 46 231 137 48 231 136 50 231 136 50
233 135 50 236 134 50 202 87 10 206 86 10 204 85 9 204 85 9 204 84 11
204 84 11 204 84 11 207 85 12 212 82 12 213 78 10 209 75 6 207 72 6
209 71 6 209 71 8 209 71 8 209 71 8 209 71 8 209 71 8 209 71 8
209 71 8 204 64 2 204 64 4 204 64 4 204 64 4 204 63 6 204 63 8
204 63 8 204 63 8 202 61 6 204 63 8 208 66 12 209 70 12 206 70 9
206 70 9 206 70 9 206 70 9 206 70 9 206 70 9 206 70 9 206 70 9
213 81 16 212 82 14 212 82 14 212 82 14 212 82 14 212 82 14 212 82 14
212 82 14 212 82 12 212 82 12 212 82 12 212 82 12 212 82 12 212 82 12
212 82 12 212 82 12 211 81 13 211 81 13 209 81 13 208 82 13 215 92 22
215 92 22 214 93 22 214 93 22 216 96 23 216 96 21 216 96 21 216 96 21
214 94 18 219 100 24 212 93 17 218 99 23 214 94 18 214 94 18
214 94 18 214 94 18 212 93 17 212 93 17 212 93 15 211 94 15
221 107 25 219 108 25 219 108 23 219 108 23 219 108 23 219 108 23
219 108 23 218 109 23 213 106 21 218 108 25 203 86 5 211 87 8
214 88 10 214 88 10 212 88 10 211 89 12 212 87 16 212 87 18 214 86 18
215 85 18 212 80 13 213 78 12 214 77 14 214 77 14 213 77 14 211 78 14
210 79 12 210 79 12 205 73 4 207 80 7 223 109 29 224 114 30
225 113 30 225 113 30 225 113 32 225 113 32 225 113 32 225 113 32
225 113 32 225 113 32 230 131 41 230 131 41 230 131 41 230 131 41
230 131 41 228 132 41 228 132 41 226 131 40 226 131 40 226 134 42
229 140 47 235 146 53 240 150 58 242 153 60 240 152 59 240 152 59
240 152 59 240 152 59 238 151 58 238 151 58 238 151 58 238 151 58
237 152 58 237 152 58 237 152 58 237 152 58 238 151 56 238 151 56
238 148 55 236 147 54 232 142 49 231 139 47 228 135 44 226 134 42
228 133 42 228 133 44 228 133 46 230 132 46 230 132 46 233 130 46
200 87 9 200 85 8 200 85 8 202 84 8 202 84 10 202 84 10 202 84 10
204 84 11 208 83 11 207 79 9 203 76 5 203 73 3 203 73 3 204 72 5
204 72 5 204 72 5 204 72 5 204 72 5 204 72 5 204 72 5 198 66 0
200 65 1 200 65 1 200 65 1 200 65 1 200 64 3 200 64 3 200 64 3
201 65 4 202 66 5 203 68 6 205 69 8 203 68 6 203 68 6 203 68 6
203 68 6 203 68 6 203 68 6 203 68 6 203 68 6 213 81 16 212 82 14
212 82 14 212 82 14 212 82 14 212 82 14 212 82 14 212 82 14 212 82 12
212 82 12 212 82 12 212 82 12 212 82 12 212 82 12 212 82 12 212 82 12
211 81 13 211 81 13 209 81 13 208 82 13 218 95 25 218 95 25 216 95 25
216 95 25 217 97 24 217 97 22 217 97 22 217 97 22 217 97 22 218 99 23
212 93 17 214 94 18 211 92 16 211 92 16 211 92 16 211 92 16 210 90 15
210 90 15 210 91 13 207 92 13 218 108 25 216 109 25 216 110 23
216 110 23 216 110 23 216 110 23 216 110 23 215 110 23 209 107 21
215 110 25 200 88 5 206 90 8 211 89 10 211 89 10 207 91 10 207 90 12
207 90 16 209 88 18 211 88 18 212 87 18 209 81 13 210 79 12 211 78 14
211 78 14 211 78 14 211 78 14 210 79 12 210 80 10 208 76 4 208 81 8
222 108 28 221 112 28 223 111 28 223 111 28 223 111 30 223 111 30
223 111 30 223 111 30 223 111 30 223 111 30 212 101 16 212 101 16
212 101 16 212 101 16 212 101 16 211 102 16 211 102 16 208 101 14
208 101 14 209 105 17 213 109 21 213 111 23 212 108 20 210 106 18
209 105 17 209 105 17 209 105 17 209 105 17 208 103 16 208 103 16
220 116 28 220 116 28 219 117 28 219 117 28 217 118 28 217 118 28
217 118 26 216 117 25 213 116 26 214 118 27 213 116 26 217 120 30
221 125 34 223 126 35 223 126 35 223 125 37 223 125 39 223 125 39
224 124 39 226 123 39 215 106 24 216 104 23 216 104 23 217 103 25
217 103 25 217 103 25 217 103 25 220 103 26 220 103 26 219 100 24
216 96 21 214 94 18 215 93 18 217 92 20 217 92 20 217 92 20 217 92 20
217 92 20 217 92 20 217 92 20 211 86 14 213 85 16 213 85 16 213 85 14
213 85 14 213 85 14 213 85 14 213 85 14 210 83 12 209 82 11 208 81 10
208 78 11 209 76 11 210 75 13 210 75 13 210 75 13 210 75 13 210 75 13
210 75 13 210 75 13 213 81 16 212 82 14 212 82 14 212 82 14 212 82 14
212 82 14 212 82 14 212 82 14 212 82 12 212 82 12 212 82 12 212 82 12
212 82 12 212 82 12 212 82 12 212 82 12 211 81 13 211 81 13 209 81 13
208 82 13 209 87 16 209 87 16 208 87 16 208 87 16 207 87 13 207 87 11
207 87 11 207 87 11 208 88 12 210 90 15 221 101 25 223 103 28
221 104 28 221 104 28 221 104 28 221 104 28 220 103 24 220 103 24
220 103 24 217 105 24 228 126 40 227 127 40 227 127 38 227 127 38
227 127 38 227 127 38 227 127 38 225 128 38 220 125 36 225 128 40
210 105 20 217 107 23 221 107 25 221 107 25 218 108 25 218 108 27
218 107 31 219 106 33 221 106 31 223 105 31 206 85 14 206 83 13
208 82 15 209 81 15 211 81 13 211 81 13 211 81 13 211 81 11 212 81 9
209 82 9 220 105 26 218 108 25 219 108 25 219 108 25 219 107 27
219 107 27 219 107 27 219 107 27 219 107 27 219 107 27 213 97 13
213 97 13 213 97 13 213 97 13 213 97 13 213 97 13 212 98 13 210 97 12
210 97 12 211 100 14 216 105 19 218 107 21 218 107 21 219 105 20
217 104 19 217 104 19 217 104 19 216 105 19 215 103 18 215 103 18
224 113 27 224 113 27 222 113 27 221 114 27 221 114 27 219 115 27
219 116 25 217 113 23 214 112 24 218 116 27 220 118 30 223 122 33
223 124 34 220 123 33 222 123 33 222 122 35 220 123 35 220 123 37
222 122 37 223 121 37 212 104 22 213 103 22 215 103 22 215 103 22
216 101 24 216 101 24 216 101 24 217 103 25 217 103 25 215 100 23
212 97 19 211 94 17 212 93 17 212 93 17 212 93 17 212 93 17 212 93 17
212 93 17 212 93 17 214 92 17 208 86 13 208 86 13 208 86 13 210 85 13
210 85 11 210 85 11 210 85 11 210 85 11 210 85 11 208 83 9 205 81 7
204 77 6 207 74 9 208 72 11 208 72 11 208 72 11 208 72 11 208 72 11
208 72 11 208 72 11 213 81 16 212 82 14 212 82 14 212 82 14 212 82 14
212 82 14 212 82 14 212 82 14 212 82 12 212 82 12 212 82 12 212 82 12
212 82 12 212 82 12 212 82 12 212 82 12 211 81 13 209 81 13 208 82 13
208 82 13 213 90 20 213 90 20 213 90 20 213 90 20 211 88 16 211 88 14
211 88 14 211 88 14 214 92 17 210 90 15 222 102 26 218 101 24
220 103 26 220 103 26 220 103 26 220 103 26 219 102 23 219 102 23
219 102 23 216 104 23 228 128 41 224 130 41 224 130 39 224 130 39
224 130 39 224 130 39 224 130 39 224 130 39 221 126 37 226 129 41
209 107 21 216 109 25 219 110 26 221 109 26 219 110 26 217 110 28
217 110 30 219 108 32 219 108 32 221 108 32 204 86 14 204 84 13
206 83 15 208 82 15 209 81 13 211 81 13 211 81 11 211 81 11 215 83 11
210 84 8 219 104 24 214 105 21 217 105 22 217 105 22 217 105 24
217 105 24 218 106 26 218 106 26 218 106 26 218 106 26 214 98 17
214 98 17 214 98 17 214 98 17 214 98 17 214 98 17 214 98 17 214 98 17
216 99 18 214 100 18 215 101 19 215 101 19 215 101 19 217 100 19
218 101 20 218 101 20 218 101 20 216 102 20 216 102 20 215 103 20
226 117 33 224 117 33 223 119 31 223 119 31 222 117 30 222 117 30
222 117 30 222 117 30 220 118 30 220 118 30 221 119 31 221 119 31
220 120 33 220 120 33 221 121 34 221 121 34 220 123 35 220 123 35
222 122 35 223 121 35 213 103 22 215 103 22 215 103 22 215 103 22
216 102 22 216 102 22 216 102 22 217 103 23 218 101 22 216 99 20
212 95 16 211 94 15 212 93 17 215 93 18 215 93 18 215 93 18 215 93 18
215 93 18 215 93 18 215 93 18 209 84 10 209 84 10 209 84 10 209 84 10
210 83 12 210 83 12 210 83 12 210 83 12 210 83 12 208 81 10 206 78 7
206 76 8 208 75 10 209 73 12 209 73 12 209 73 12 209 73 12 209 73 12
209 73 12 209 73 12 211 78 14 210 79 12 210 79 12 210 79 12 210 79 12
210 79 12 210 79 12 210 79 12 211 81 13 211 81 13 211 81 13 211 81 13
211 81 13 211 81 13 211 81 13 211 81 13 209 81 13 208 82 13 208 82 13
208 82 13 211 86 16 211 86 16 211 86 16 211 86 16 212 87 16 212 88 14
214 87 14 214 87 14 213 89 13 211 89 12 221 104 26 221 104 26
221 104 26 221 104 26 221 104 26 221 104 26 220 103 24 220 103 24
220 104 22 217 105 22 228 126 40 225 128 38 225 128 38 225 128 38
225 128 38 225 128 38 225 128 38 225 128 38 228 128 41 227 125 39
217 112 27 216 109 25 219 110 26 221 109 26 222 108 24 221 109 26
221 109 26 219 109 28 219 109 30 221 108 32 206 85 12 208 82 13
206 83 13 208 82 13 209 81 13 211 81 11 211 81 11 212 81 9 213 84 11
209 85 8 220 103 24 216 104 23 217 105 24 217 105 24 217 105 24
217 105 24 217 105 24 217 105 24 217 105 24 217 105 24 214 98 17
214 98 17 214 98 17 214 98 17 214 98 17 214 98 17 214 98 17 214 98 17
216 99 18 216 99 18 217 100 19 217 100 19 217 100 19 217 100 19
218 101 20 218 101 20 218 101 20 218 101 20 216 102 20 215 103 20
226 117 33 224 117 33 223 119 31 221 119 31 220 118 30 220 118 30
222 117 30 222 117 30 220 118 30 220 118 30 221 119 31 221 119 31
220 120 33 220 120 33 221 121 34 221 121 34 220 123 35 220 123 35
222 122 35 223 121 35 213 103 22 215 103 22 215 103 22 216 102 22
216 102 22 216 102 22 216 102 22 217 103 23 218 101 22 216 99 20
212 95 16 212 93 15 214 92 17 215 93 18 215 93 18 215 93 18 215 93 18
215 93 18 215 93 18 215 93 18 209 84 10 209 84 10 209 84 10 209 84 10
210 83 12 210 83 12 210 83 12 210 83 12 210 83 12 208 81 10 206 78 7
206 76 8 208 75 10 209 73 12 209 73 12 209 73 12 209 73 12 209 73 12
209 73 12 209 73 12 211 78 14 210 79 12 210 79 12 210 79 12 210 79 12
210 79 12 210 79 12 210 79 12 211 81 13 211 81 13 211 81 13 211 81 13
211 81 13 211 81 13 211 81 13 211 81 13 209 81 13 208 82 13 208 82 13
208 82 13 211 86 16 211 86 16 211 86 16 211 86 16 212 87 16 214 87 14
215 86 14 215 86 14 215 88 13 211 89 12 221 104 26 220 105 26
221 104 26 221 104 26 221 104 26 221 104 26 220 103 24 220 103 24
220 104 22 217 105 22 228 126 38 225 128 38 225 128 38 225 128 38
225 128 38 225 128 38 225 128 38 227 127 38 229 127 41 229 124 39
219 112 27 218 108 25 221 109 26 222 108 26 224 108 24 224 108 24
222 108 24 221 109 26 219 109 28 221 108 30 207 85 12 209 82 11
208 82 13 208 82 13 209 82 11 211 81 11 212 81 9 212 81 9 213 84 9
209 85 8 220 103 24 216 104 23 217 105 24 217 105 24 217 105 24
217 105 24 217 105 24 217 105 24 217 105 24 217 105 24 214 98 17
214 98 17 214 98 17 214 98 17 214 98 17 214 98 17 214 98 17 214 98 17
216 99 18 216 99 18 217 100 19 217 100 19 217 100 19 218 101 20
219 103 21 219 103 21 218 101 20 218 101 20 216 102 20 215 103 20
226 117 33 224 117 33 223 119 31 221 119 31 220 118 30 220 118 30
222 117 30 222 117 30 220 118 30 220 118 30 221 119 31 221 119 31
220 120 33 221 121 34 221 121 34 222 122 35 220 123 35 220 123 35
220 123 35 223 121 35 213 104 20 216 102 20 216 102 20 216 102 20
218 101 22 218 101 22 218 101 22 219 102 23 218 101 22 216 99 20
212 95 16 212 93 15 214 92 17 215 93 18 215 93 18 215 93 18 215 93 18
215 93 18 215 93 18 215 93 18 209 84 10 209 84 10 209 84 10 209 84 10
210 83 12 210 83 12 210 83 12 210 83 12 210 83 12 208 81 10 206 78 7
206 76 8 208 75 10 209 73 12 209 73 12 209 73 12 209 73 12 209 73 12
209 73 12 209 73 12 211 78 14 210 79 12 210 79 12 210 79 12 210 79 12
210 79 12 210 79 12 210 79 12 211 81 13 211 81 13 211 81 13 211 81 13
211 81 13 211 81 13 211 81 13 211 81 13 209 81 13 208 82 13 208 82 13
208 82 13 211 86 16 211 86 16 211 86 16 211 86 16 212 87 16 214 87 14
215 86 14 215 86 14 215 88 13 211 89 12 221 104 26 220 105 26
220 105 26 220 105 26 220 105 26 220 105 26 219 104 22 219 104 22
219 104 22 215 106 22 228 126 38 225 128 38 225 128 38 225 128 38
225 128 38 225 128 38 225 128 38 227 127 38 229 127 41 229 124 39
219 112 27 218 108 25 221 109 26 222 108 26 224 108 24 224 108 24
222 108 24 221 109 26 219 109 28 221 108 30 208 86 13 210 83 12
209 83 14 209 83 14 210 83 12 212 83 10 213 82 10 213 82 8 213 84 9
209 85 8 220 103 24 216 104 23 217 105 24 217 105 24 217 105 24
217 105 24 217 105 24 217 105 24 217 105 24 217 105 24 214 98 17
214 98 17 214 98 17 214 98 17 214 98 17 214 98 17 214 98 17 214 98 17
216 99 18 216 99 18 217 100 19 217 100 19 217 100 19 218 101 20
219 103 21 219 103 21 218 101 20 218 101 20 216 102 20 215 103 20
225 115 32 223 116 32 222 117 32 220 118 30 220 118 30 220 118 30
222 117 30 222 117 30 220 118 30 220 118 30 221 119 31 221 119 31
220 120 33 221 121 34 221 121 34 222 122 35 220 123 35 220 123 35
220 123 35 223 121 35 213 104 20 216 102 20 216 102 20 216 102 20
218 101 22 218 101 22 218 101 22 219 102 23 218 101 22 216 99 20
212 95 16 212 93 15 214 92 17 215 93 18 215 93 18 215 93 18 215 93 18
215 93 18 215 93 18 215 93 18 209 84 10 209 84 10 209 84 10 209 84 10
210 83 12 210 83 12 210 83 12 210 83 12 210 83 12 208 81 10 206 78 7
206 76 8 208 75 10 209 73 12 209 73 12 209 73 12 209 73 12 209 73 12
209 73 12 209 73 12 211 78 14 210 79 12 210 79 12 210 79 12 210 79 12
210 79 12 210 79 12 210 79 12 211 81 13 211 81 13 211 81 13 211 81 13
211 81 13 211 81 13 211 81 13 211 81 13 209 81 13 208 82 13 208 82 13
208 82 13 211 86 16 211 86 16 211 86 16 211 86 16 212 87 16 214 87 14
215 86 14 215 86 14 215 88 13 211 89 12 221 104 26 220 105 26
220 105 26 220 105 26 220 105 26 220 105 26 219 104 22 219 104 22
219 104 22 215 106 22 228 126 38 225 128 38 225 128 38 225 128 38
225 128 38 225 128 38 225 128 38 227 127 38 229 127 41 229 124 39
219 112 27 218 108 25 221 109 26 222 108 26 224 108 24 224 108 24
222 108 24 221 109 26 219 109 28 221 108 30 208 86 13 210 83 12
209 83 14 209 83 14 210 83 12 212 83 10 213 82 8 213 82 8 213 84 9
209 85 8 220 103 24 216 104 23 217 105 24 217 105 24 217 105 24
217 105 24 217 105 24 217 105 24 217 105 24 217 105 24 216 99 20
216 99 20 216 99 20 216 99 20 216 99 20 216 99 20 216 99 20 216 99 20
216 99 20 216 99 20 217 100 21 217 100 21 218 101 22 218 101 22
219 102 23 219 102 23 219 102 23 219 102 23 217 103 23 216 104 23
225 115 34 223 116 34 222 117 32 220 118 32 220 118 32 220 118 32
222 117 30 222 117 30 220 118 30 221 119 31 221 119 31 222 121 32
221 121 34 221 121 34 222 122 35 222 122 35 221 124 36 221 124 36
221 124 36 225 123 36 213 104 20 216 102 20 216 102 20 216 102 20
218 101 22 218 101 22 218 101 22 219 102 23 218 101 22 216 99 20
212 95 16 212 93 15 214 92 17 215 93 18 215 93 18 215 93 18 215 93 18
215 93 18 215 93 18 215 93 18 209 84 10 209 84 10 209 84 10 209 84 10
210 83 12 210 83 12 210 83 12 210 83 12 210 83 12 208 81 10 206 78 7
206 76 8 208 75 10 209 73 12 209 73 12 209 73 12 209 73 12 209 73 12
209 73 12 209 73 12 211 78 14 210 79 12 210 79 12 210 79 12 210 79 12
210 79 12 210 79 12 210 79 12 211 81 13 211 81 13 211 81 13 211 81 13
211 81 13 211 81 13 211 81 13 211 81 13 209 81 13 208 82 13 208 82 13
208 82 13 212 87 18 212 87 18 212 87 18 212 87 18 212 87 16 214 87 14
215 86 14 215 86 14 215 88 13 211 89 12 221 104 26 220 105 26
220 105 26 220 105 26 220 105 26 220 105 26 220 106 23 220 106 23
220 106 23 217 107 23 227 125 37 224 127 37 224 127 37 224 127 37
224 127 37 224 127 37 224 127 37 225 126 37 228 126 40 227 123 37
217 110 26 217 107 23 219 108 25 221 107 25 223 106 23 223 106 23
222 108 24 221 109 26 219 109 28 221 108 30 208 86 13 210 83 12
209 83 14 209 83 14 210 83 12 212 83 10 213 82 8 213 82 8 213 84 9
209 85 8 220 103 24 216 104 23 219 104 24 219 104 24 219 104 24
219 104 24 219 104 24 219 104 24 219 104 24 219 104 24 216 99 20
216 99 20 216 99 20 216 99 20 216 99 20 216 99 20 216 99 20 216 99 20
216 99 20 216 99 20 217 100 21 217 100 21 218 101 22 218 101 22
219 102 23 219 102 23 219 102 23 219 102 23 217 103 23 216 104 23
224 114 32 222 115 32 220 116 30 219 117 30 220 118 32 220 118 32
222 117 30 222 117 30 220 118 30 221 119 31 221 119 31 222 121 32
221 121 34 221 121 34 222 122 35 222 122 35 221 124 36 221 124 36
221 124 36 225 123 36 213 104 20 216 102 20 216 102 20 216 102 20
218 101 22 218 101 22 218 101 22 219 102 23 218 101 22 216 99 20
212 95 16 212 93 15 214 92 17 215 93 18 215 93 18 215 93 18 215 93 18
215 93 18 215 93 18 215 93 18 209 84 10 209 84 10 209 84 10 209 84 10
210 83 12 210 83 12 210 83 12 210 83 12 210 83 12 208 81 10 206 78 7
206 76 8 208 75 10 209 73 12 209 73 12 209 73 12 209 73 12 209 73 12
209 73 12 209 73 12 211 78 14 210 79 12 210 79 12 210 79 12 210 79 12
210 79 12 210 79 12 210 79 12 211 81 13 211 81 13 211 81 13 211 81 13
211 81 13 211 81 13 211 81 13 211 81 13 209 81 13 208 82 13 208 82 13
208 82 13 212 87 18 212 87 18 212 87 18 212 87 18 212 87 16 214 87 14
215 86 14 215 86 14 215 88 13 211 89 12 221 104 26 220 105 26
220 105 26 220 105 26 220 105 26 220 105 26 220 106 23 220 106 23
220 106 23 217 107 23 227 125 37 224 127 37 224 127 37 224 127 37
224 127 37 224 127 37 224 127 37 225 126 37 228 126 40 227 123 37
217 110 26 217 107 23 219 108 25 221 107 25 223 106 23 223 106 23
222 108 24 221 109 26 219 109 28 221 108 30 208 86 13 210 83 12
209 83 14 209 83 14 210 83 12 212 83 10 213 82 8 213 82 8 213 84 9
209 85 8 220 103 24 216 104 23 219 104 24 219 104 24 219 104 24
219 104 24 219 104 24 219 104 24 219 104 24 219 104 24 216 99 20
216 99 20 216 99 20 216 99 20 216 99 20 216 99 20 216 99 20 216 99 20
216 99 20 216 99 20 217 100 21 217 100 21 218 101 22 219 102 23
220 103 24 220 103 24 219 102 23 219 102 23 217 103 23 216 104 23
224 114 32 222 115 32 220 116 30 219 117 30 220 118 32 220 118 32
222 117 30 222 117 30 220 118 30 221 119 31 221 119 31 222 121 32
221 121 34 222 122 35 222 122 35 223 123 36 221 124 36 221 124 36
221 124 36 225 123 36 213 104 20 216 102 20 216 102 20 216 102 20
218 101 22 218 101 22 218 101 22 219 102 23 218 101 22 216 99 20
212 95 16 212 93 15 214 92 17 215 93 18 215 93 18 215 93 18 215 93 18
215 93 18 215 93 18 215 93 18 209 84 10 209 84 10 209 84 10 209 84 10
210 83 12 210 83 12 210 83 12 210 83 12 210 83 12 208 81 10 206 78 7
206 76 8 208 75 10 209 73 12 209 73 12 209 73 12 209 73 12 209 73 12
209 73 12 209 73 12 211 78 14 210 79 12 210 79 12 210 79 12 210 79 12
210 79 12 210 79 12 210 79 12 211 81 13 211 81 13 211 81 13 211 81 13
211 81 13 211 81 13 211 81 13 211 81 13 209 81 13 208 82 13 208 82 13
208 82 13 212 87 18 212 87 18 212 87 18 212 87 18 212 87 16 214 87 14
215 86 14 215 86 14 215 88 13 211 89 12 221 104 26 220 105 26
220 105 26 220 105 26 220 105 26 220 105 26 220 106 23 220 106 23
220 106 23 217 107 23 227 125 37 224 127 37 224 127 37 224 127 37
224 127 37 224 127 37 224 127 37 225 126 37 228 126 40 227 123 37
217 110 26 217 107 23 219 108 25 221 107 25 223 106 23 223 106 23
222 108 24 221 109 26 219 109 28 221 108 30 208 86 13 210 83 12
209 83 14 209 83 14 210 83 12 212 83 10 213 82 8 213 82 8 213 84 9
209 85 8 220 103 24 216 104 23 219 104 24 219 104 24 219 104 24
219 104 24 219 104 24 219 104 24 219 104 24 219 104 24 216 99 20
216 99 20 216 99 20 216 99 20 216 99 20 216 99 20 216 99 20 216 99 20
216 99 20 216 99 20 217 100 21 217 100 21 218 101 22 219 102 23
220 103 24 220 103 24 219 102 23 219 102 23 217 103 23 216 104 23
224 114 32 222 115 32 220 116 30 219 117 30 220 118 32 220 118 32
222 117 30 222 117 30 220 118 30 221 119 31 221 119 31 222 121 32
221 121 34 222 122 35 222 122 35 223 123 36 221 124 36 221 124 36
221 124 36 225 123 36 213 104 20 216 102 20 216 102 20 216 102 20
218 101 22 218 101 22 218 101 22 219 102 23 218 101 22 216 99 20
212 95 16 212 93 15 214 92 17 215 93 18 215 93 18 215 93 18 215 93 18
215 93 18 215 93 18 215 93 18 209 84 10 209 84 10 209 84 10 209 84 10
210 83 12 210 83 12 210 83 12 210 83 12 210 83 12 208 81 10 206 78 7
206 76 8 208 75 10 209 73 12 209 73 12 209 73 12 209 73 12 209 73 12
209 73 12 209 73 12 211 78 14 210 79 12 210 79 12 210 79 12 210 79 12
210 79 12 210 79 12 210 79 12 211 81 13 211 81 13 211 81 13 211 81 13
211 81 13 211 81 13 211 81 13 211 81 13 209 81 13 208 82 13 208 82 13
208 82 13 212 87 18 212 87 18 212 87 18 212 87 18 212 87 16 214 87 14
215 86 14 215 86 14 215 88 13 211 89 12 221 104 26 220 105 26
220 105 26 220 105 26 220 105 26 220 105 26 220 106 23 220 106 23
220 106 23 217 107 23 227 125 37 224 127 37 224 127 37 224 127 37
224 127 37 224 127 37 224 127 37 225 126 37 228 126 40 227 123 37
217 110 26 217 107 23 219 108 25 221 107 25 223 106 23 223 106 23
222 108 24 221 109 26 219 109 28 221 108 30 208 86 13 210 83 12
209 83 14 209 83 14 210 83 12 212 83 10 213 82 8 213 82 8 213 84 9
209 85 8 220 103 24 216 104 23 219 104 24 219 104 24 219 104 24
219 104 24 219 104 24 219 104 24 219 104 24 219 104 24
