P3
160 160
255
206 81 12 206 81 12 206 81 12 206 81 12 208 80 14 208 80 14 210 79 14
212 79 15 214 78 17 212 76 15 209 70 10 206 68 8 208 67 10 209 68 11
209 68 11 209 68 11 207 69 9 207 69 9 207 69 9 206 68 8 205 67 6
204 66 5 204 66 5 204 66 5 204 66 5 204 66 5 204 66 5 204 66 5
202 66 5 206 70 9 210 75 13 213 77 16 212 76 13 212 76 13 212 76 13
212 76 13 210 77 13 210 77 13 208 78 11 208 78 11 212 82 14 212 82 14
210 83 12 210 83 12 212 82 14 212 82 14 212 82 14 212 82 14 215 82 15
216 83 16 204 72 5 205 73 6 207 72 8 207 72 8 207 71 10 207 71 10
207 71 10 207 71 10 205 72 10 205 72 10 211 80 15 209 81 13 208 83 11
208 83 11 208 82 13 208 82 13 208 82 15 206 81 14 206 81 14 209 83 16
213 88 19 216 90 21 216 91 19 216 91 19 214 92 17 214 92 17 214 92 17
214 92 17 212 93 17 212 93 17 222 102 24 222 102 24 220 103 24
220 103 24 220 103 24 220 103 24 219 104 22 220 104 22 223 104 21
219 105 20 229 128 37 223 129 36 222 130 38 222 130 38 225 128 38
227 127 38 225 128 38 225 128 38 227 127 38 228 126 40 209 104 21
212 102 21 215 103 22 216 102 22 218 101 24 218 101 24 221 101 25
221 101 25 221 101 27 222 102 28 205 82 10 206 83 11 206 83 13
206 83 13 208 82 13 208 82 13 208 82 13 208 82 13 209 81 13 211 81 13
211 79 12 211 79 12 211 79 12 211 79 12 211 79 10 211 79 10 211 79 10
211 79 10 212 77 7 205 83 8 237 138 55 231 143 57 229 139 51
228 140 51 223 143 49 223 143 49 226 141 47 226 141 47 225 143 45
221 144 45 233 161 60 230 163 60 229 163 60 229 163 60 233 161 60
233 161 60 229 163 60 229 163 60 233 163 61 238 159 60 219 128 33
220 124 31 220 124 31 220 124 31 220 124 31 220 124 31 220 124 31
220 124 31 220 124 31 220 124 31 206 81 12 206 81 12 206 81 12
206 81 12 208 80 14 208 80 14 210 79 14 212 79 15 214 78 17 212 76 15
209 70 10 206 68 8 208 67 10 209 68 11 209 68 11 209 68 11 207 69 9
207 69 9 207 69 9 206 68 8 205 67 6 204 66 5 204 66 5 204 66 5
204 66 5 204 66 5 204 66 5 204 66 5 202 66 5 206 70 9 210 75 13
213 77 16 212 76 13 212 76 13 212 76 13 212 76 13 210 77 13 210 77 13
208 78 11 208 78 11 212 82 14 212 82 14 210 83 12 210 83 12 212 82 14
212 82 14 212 82 14 212 82 14 215 82 15 216 83 16 204 72 5 205 73 6
207 72 8 207 72 8 207 71 10 207 71 10 207 71 10 207 71 10 205 72 10
205 72 10 211 80 15 209 81 13 208 83 11 208 83 11 208 82 13 208 82 13
208 82 15 206 81 14 206 81 14 209 83 16 213 88 19 216 90 21 216 91 19
216 91 19 214 92 17 214 92 17 214 92 17 214 92 17 212 93 17 212 93 17
222 102 24 222 102 24 220 103 24 220 103 24 220 103 24 220 103 24
219 104 22 220 104 22 223 104 21 219 105 20 229 128 37 223 129 36
222 130 38 222 130 38 225 128 38 227 127 38 225 128 38 225 128 38
227 127 38 228 126 40 209 104 21 212 102 21 215 103 22 216 102 22
218 101 24 218 101 24 221 101 25 221 101 25 221 101 27 222 102 28
205 82 10 206 83 11 206 83 13 206 83 13 208 82 13 208 82 13 208 82 13
208 82 13 209 81 13 211 81 13 211 79 12 211 79 12 211 79 12 211 79 12
211 79 10 211 79 10 211 79 10 211 79 10 212 77 7 205 83 8 237 138 55
231 143 57 229 139 51 228 140 51 223 143 49 223 143 49 226 141 47
226 141 47 225 143 45 221 144 45 233 161 60 230 163 60 229 163 60
229 163 60 233 161 60 233 161 60 229 163 60 229 163 60 233 163 61
238 159 60 219 128 33 220 124 31 220 124 31 220 124 31 220 124 31
220 124 31 220 124 31 220 124 31 220 124 31 220 124 31 206 81 12
206 81 12 206 81 12 206 81 12 208 80 14 208 80 14 210 79 14 212 79 15
214 78 17 212 76 15 209 70 10 206 68 8 208 67 10 209 68 11 209 68 11
209 68 11 207 69 9 207 69 9 207 69 9 206 68 8 205 67 6 205 67 6
205 67 6 205 67 6 204 66 5 204 66 5 204 66 5 204 66 5 202 66 5
206 70 9 210 75 13 213 77 16 212 76 13 212 76 13 212 76 13 212 76 13
210 77 13 210 77 13 208 78 11 208 78 11 212 82 14 212 82 14 210 83 12
210 83 12 212 82 14 212 82 14 212 82 14 212 82 14 215 82 15 216 83 16
204 72 5 205 73 6 207 72 8 207 72 8 207 71 10 207 71 10 207 71 10
207 71 10 205 72 10 205 72 10 211 80 15 209 81 13 208 83 11 208 83 11
208 82 13 208 82 13 208 82 15 206 81 14 206 81 14 209 83 16 213 88 19
216 90 21 216 91 19 216 91 19 214 92 17 214 92 17 214 92 17 214 92 17
212 93 17 212 93 17 222 102 24 222 102 24 220 103 24 220 103 24
220 103 24 220 103 24 219 104 22 220 104 22 223 104 21 219 105 20
229 128 37 223 129 36 222 130 38 222 130 38 225 128 38 227 127 38
225 128 38 225 128 38 227 127 38 228 126 40 209 104 21 212 102 21
215 103 22 216 102 22 218 101 24 218 101 24 221 101 25 221 101 25
221 101 27 222 102 28 205 82 10 206 83 11 206 83 13 206 83 13
208 82 13 208 82 13 208 82 13 208 82 13 209 81 13 211 81 13 211 79 12
211 79 12 211 79 12 211 79 12 211 79 10 211 79 10 211 79 10 211 79 10
212 77 7 205 83 8 237 138 55 231 143 57 229 139 51 228 140 51
223 143 49 223 143 49 226 141 47 226 141 47 225 143 45 221 144 45
233 161 60 230 163 60 229 163 60 229 163 60 233 161 60 233 161 60
229 163 60 229 163 60 233 163 61 238 159 60 219 128 33 220 124 31
220 124 31 220 124 31 220 124 31 220 124 31 220 124 31 220 124 31
220 124 31 220 124 31 206 81 12 206 81 12 206 81 12 208 80 14
208 80 14 208 80 14 210 79 14 212 79 15 214 78 17 212 76 15 209 70 10
206 68 8 208 67 10 209 68 11 209 68 11 209 68 11 207 69 9 207 69 9
207 69 9 206 68 8 205 67 6 205 67 6 205 67 6 205 67 6 204 66 5
204 66 5 204 66 5 204 66 5 202 66 5 206 70 9 210 75 13 213 77 16
212 76 13 212 76 13 212 76 13 212 76 13 210 77 13 210 77 13 208 78 11
208 78 11 212 82 14 212 82 14 210 83 12 212 82 12 212 82 14 212 82 14
212 82 14 212 82 14 215 82 15 216 83 16 204 72 5 205 73 6 207 72 8
207 72 8 207 71 10 207 71 10 207 71 10 207 71 10 205 72 10 205 72 10
211 80 15 209 81 13 208 83 11 208 83 11 208 82 13 208 82 13 208 82 15
206 81 14 206 81 14 209 83 16 213 88 19 216 90 21 216 91 19 216 91 19
214 92 17 214 92 17 214 92 17 214 92 17 212 93 17 212 93 17
222 102 24 222 102 24 220 103 24 220 103 24 220 103 24 220 103 24
219 104 22 220 104 22 223 104 21 219 105 20 229 128 37 223 129 36
222 130 38 222 130 38 225 128 38 227 127 38 225 128 38 225 128 38
227 127 38 228 126 40 209 104 21 212 102 21 215 103 22 216 102 22
218 101 24 218 101 24 221 101 25 221 101 25 221 101 27 222 102 28
205 82 10 206 83 11 206 83 13 206 83 13 208 82 13 208 82 13 208 82 13
208 82 13 209 81 13 211 81 13 211 79 12 211 79 12 211 79 12 211 79 12
211 79 10 211 79 10 211 79 10 211 79 10 212 77 7 205 83 8 237 138 55
231 143 57 229 139 51 228 140 51 223 143 49 223 143 49 226 141 49
226 141 47 225 142 47 221 144 45 233 161 60 230 163 60 229 163 60
229 163 60 233 161 60 233 161 60 229 163 60 229 163 60 233 163 61
238 159 60 219 128 33 220 124 31 220 124 31 220 124 31 220 124 31
220 124 31 220 124 31 220 124 31 220 124 31 220 124 31 208 80 14
208 80 14 208 80 14 208 80 14 210 79 16 210 79 16 210 79 14 212 79 15
214 78 17 212 76 15 209 70 10 206 68 8 208 67 10 209 68 11 209 68 11
209 68 11 207 69 9 207 69 9 207 69 9 207 69 9 206 68 8 205 67 6
205 67 6 205 67 6 205 67 6 205 67 6 205 67 6 205 67 6 203 68 6
207 71 10 212 76 15 214 78 17 212 76 13 212 76 13 212 76 13 212 76 13
210 77 13 210 77 13 208 78 11 208 78 11 212 82 14 212 82 14 212 82 12
212 82 12 213 81 14 213 81 14 213 81 14 213 81 14 215 82 15 216 83 16
204 72 5 205 73 6 207 72 8 207 72 8 207 71 10 207 71 10 207 71 10
207 71 10 205 72 10 205 72 10 211 80 15 209 81 13 208 83 11 208 83 11
208 82 13 208 82 13 209 81 15 208 80 14 208 80 14 210 82 16 213 88 19
216 90 21 216 91 19 216 91 19 214 92 17 214 92 17 214 92 17 214 92 17
212 93 17 212 93 17 222 102 24 222 102 24 220 103 24 220 103 24
220 103 24 220 103 24 219 104 22 220 104 22 223 104 21 219 105 20
229 128 39 223 129 38 222 130 38 223 129 38 225 128 38 227 127 38
225 128 40 225 128 40 227 127 40 228 126 40 209 104 21 212 102 21
214 101 21 215 101 21 218 101 24 218 101 24 218 101 24 218 101 24
219 99 26 221 101 27 204 81 9 205 82 10 206 83 13 206 83 13 208 82 13
208 82 13 208 82 13 208 82 13 209 81 13 211 81 13 211 79 12 211 79 12
211 79 12 211 79 12 211 79 10 211 79 10 211 79 10 211 79 10 212 77 7
205 83 8 237 138 55 231 143 57 229 139 51 228 140 51 223 142 51
223 142 51 226 141 49 226 141 49 225 142 47 221 144 47 233 161 62
230 162 62 229 163 62 229 163 62 233 161 60 233 161 60 229 163 60
229 163 60 233 163 63 238 158 62 219 127 35 220 123 33 220 123 33
220 123 33 220 123 33 220 123 33 220 123 33 220 123 33 220 123 33
220 123 33 208 80 14 208 80 14 208 80 14 208 80 14 210 79 16
210 79 16 210 79 14 212 79 15 214 78 17 212 76 15 209 70 10 206 68 8
208 67 10 209 68 11 209 68 11 209 68 11 207 69 9 207 69 9 207 69 9
207 69 9 206 68 8 205 67 6 205 67 6 205 67 6 205 67 6 205 67 6
205 67 6 205 67 6 203 68 6 207 71 10 212 76 15 214 78 17 212 76 13
212 76 13 212 76 13 212 76 13 210 77 13 210 77 13 208 78 11 208 78 11
212 82 14 212 82 14 212 82 12 212 82 12 213 81 14 213 81 14 213 81 14
213 81 14 215 82 15 216 83 16 204 72 5 205 73 6 207 72 8 207 72 8
207 71 10 207 71 10 207 71 10 207 71 10 205 72 10 205 72 10 211 80 15
209 81 13 208 83 11 208 83 11 208 82 13 208 82 13 209 81 15 208 80 14
208 80 14 210 82 16 213 88 19 216 90 21 216 91 19 216 91 19 214 92 17
214 92 17 214 92 17 214 92 17 212 93 17 212 93 17 222 102 24
222 102 24 220 103 24 220 103 24 220 103 24 220 103 24 219 104 22
220 104 22 223 104 21 219 105 20 229 128 39 225 128 38 223 129 38
223 129 38 225 128 38 225 128 38 223 128 40 225 128 40 227 127 40
228 126 40 209 104 21 212 102 21 214 101 21 215 101 21 218 101 24
218 101 24 218 101 24 218 101 24 219 99 26 221 101 27 204 81 9
205 82 10 206 83 13 206 83 13 208 82 13 208 82 13 208 82 13 209 81 13
211 81 13 211 81 13 211 79 12 211 79 12 211 79 12 211 79 12 211 79 10
211 79 10 211 79 10 211 79 10 210 78 7 203 83 8 237 138 55 231 143 57
229 139 51 228 140 51 223 142 51 223 142 51 226 141 49 226 141 49
225 142 47 221 144 47 233 161 62 230 162 62 229 163 62 229 163 62
233 161 60 233 161 60 229 163 60 229 163 60 233 163 63 238 158 62
219 127 35 220 123 33 220 123 33 220 123 33 220 123 33 220 123 33
220 123 33 220 123 33 220 123 33 220 123 33 208 80 14 208 80 14
208 80 14 208 80 14 210 79 16 210 79 16 210 79 14 212 79 15 214 78 17
212 76 15 207 72 8 206 68 8 206 68 8 207 69 9 207 69 9 207 69 9
207 69 9 207 69 9 207 69 9 207 69 9 206 68 8 206 68 8 206 68 8
206 68 8 205 67 6 205 67 6 205 67 6 205 67 6 203 68 6 207 71 10
212 76 15 214 78 17 212 76 13 212 76 13 212 76 13 212 76 13 210 77 13
210 77 13 208 78 11 208 78 11 212 82 14 212 82 14 212 82 12 212 82 12
213 81 14 213 81 14 213 81 14 213 81 14 215 82 15 216 83 16 204 72 5
205 73 6 205 72 8 205 72 8 207 71 10 207 71 10 207 71 10 207 71 10
205 72 10 205 72 10 211 80 15 209 81 13 208 83 11 208 83 11 208 82 13
208 82 13 209 81 13 211 81 13 208 80 12 210 83 14 213 88 19 216 91 19
216 91 19 216 91 17 214 92 17 214 92 15 214 92 15 214 92 15 212 93 15
212 93 15 222 102 24 222 103 22 220 104 22 220 104 22 220 104 22
220 104 22 219 104 22 220 104 22 223 104 21 219 105 20 229 128 39
225 128 38 224 130 39 224 130 39 226 129 39 226 129 39 224 130 41
226 129 41 228 128 41 229 127 41 210 105 22 213 103 22 215 103 22
216 102 22 218 101 22 218 101 22 216 102 22 218 101 24 219 99 26
221 101 27 204 81 9 205 82 10 206 83 11 206 83 11 208 83 11 208 83 11
208 82 13 209 81 13 211 81 13 211 81 13 211 79 12 211 79 12 211 79 12
211 79 12 211 79 10 211 79 10 211 79 10 211 79 10 208 79 7 202 84 8
235 139 55 231 143 57 229 139 51 228 140 51 223 142 51 223 142 51
226 141 49 226 141 49 225 142 47 221 144 47 233 161 62 230 162 62
229 163 62 229 163 62 233 161 60 233 161 60 229 163 60 229 163 60
233 163 63 238 158 62 219 127 35 220 123 33 220 123 33 220 123 33
220 123 33 220 123 33 220 123 33 220 123 33 220 123 33 220 123 33
208 80 14 208 80 14 208 80 14 208 80 14 210 79 16 210 79 16 210 79 14
212 79 15 212 79 17 212 76 15 206 70 7 203 68 4 205 67 6 206 68 8
206 68 8 206 68 8 208 67 8 208 67 8 208 67 8 208 67 8 206 68 8
206 68 8 206 68 8 206 68 8 205 67 6 205 67 6 205 67 6 205 67 6
203 68 6 207 71 10 212 76 15 214 78 17 212 76 13 212 76 13 212 76 13
212 76 13 210 77 13 210 77 13 208 78 11 208 78 11 212 82 14 212 82 14
212 82 12 212 82 12 213 81 14 213 81 14 213 81 14 213 81 14 215 82 15
216 83 16 204 72 5 205 73 6 205 72 8 205 72 8 207 71 10 207 71 10
207 71 10 207 71 10 205 72 10 205 72 8 210 79 12 208 80 12 206 81 10
206 81 10 208 82 13 209 81 13 211 81 13 211 81 13 208 80 12 209 83 14
212 89 17 214 92 19 214 92 17 216 91 17 214 92 15 214 92 15 214 92 15
214 92 15 212 93 15 212 93 15 222 103 22 222 103 22 220 104 22
220 104 22 220 104 22 220 104 22 219 104 22 219 104 22 220 106 21
215 106 20 228 128 39 223 129 38 223 131 39 223 131 39 224 130 39
226 129 39 224 130 41 226 129 41 228 128 41 229 127 41 210 105 22
213 103 22 215 103 22 216 102 22 218 101 22 216 102 22 216 102 22
216 101 24 218 101 24 221 101 27 205 80 9 206 81 10 208 83 11
208 83 11 209 82 11 209 82 11 209 81 13 209 81 13 211 81 13 211 81 13
211 79 12 211 79 12 211 79 12 211 79 12 211 79 12 211 79 10 211 79 10
210 80 10 209 82 11 202 84 8 238 138 55 233 142 57 229 139 53
228 140 51 225 141 51 223 142 51 225 142 49 225 142 49 223 143 49
221 144 47 233 161 62 232 161 62 230 162 62 230 162 62 233 161 62
233 161 60 230 163 60 230 163 60 235 162 63 238 158 62 218 128 35
219 124 33 219 124 33 219 124 33 219 124 33 220 123 33 220 123 33
220 123 33 220 123 33 220 123 33 210 79 16 210 79 16 210 79 16
210 79 16 210 79 16 210 79 16 211 78 16 211 78 16 211 78 14 209 76 11
206 70 7 202 67 3 203 68 6 207 69 9 206 68 8 208 67 8 209 66 8
211 66 8 211 66 8 208 65 6 205 65 5 203 65 4 202 66 5 202 66 5
202 66 5 202 66 5 203 68 4 203 68 4 200 65 1 205 69 6 212 76 13
214 79 15 209 76 11 209 76 9 209 76 9 209 76 9 209 76 9 209 76 9
209 76 9 209 76 9 215 82 13 215 82 13 213 83 13 213 83 13 213 83 15
213 83 15 213 83 15 213 83 15 213 83 15 211 81 13 205 75 7 200 70 2
205 72 8 205 72 8 205 72 8 205 72 8 205 72 8 205 72 8 205 72 8
205 72 8 210 79 12 208 80 12 208 82 13 208 82 13 209 82 11 209 82 11
212 82 14 211 81 13 213 85 14 205 82 10 214 99 24 208 93 16 211 92 16
213 91 16 213 91 14 211 92 14 211 92 12 211 92 12 211 92 12 210 93 12
219 103 21 219 103 21 219 103 21 217 103 21 217 103 21 217 103 21
217 104 19 214 105 19 212 108 22 209 109 22 227 130 40 226 131 40
224 132 42 224 132 42 226 131 42 226 131 42 226 129 41 226 129 41
228 128 41 229 127 41 210 105 20 213 104 20 215 103 20 216 102 20
217 103 23 217 103 23 216 103 25 216 103 25 217 103 25 222 102 26
208 81 10 212 80 11 211 81 11 211 81 11 211 81 13 211 81 13 211 81 13
211 81 13 211 80 15 211 80 15 211 78 14 213 77 14 213 77 14 213 77 14
213 78 12 211 79 12 211 79 12 210 79 12 210 83 12 207 87 13
232 124 47 232 133 53 230 135 51 227 136 51 224 138 49 222 139 49
221 140 49 221 140 49 219 141 47 218 142 47 239 163 68 237 164 68
237 164 68 237 164 68 239 163 66 239 163 66 237 164 66 237 164 66
237 159 62 236 156 60 211 126 32 210 123 30 214 124 34 216 123 34
216 123 34 218 123 34 219 122 34 219 122 34 219 122 34 219 122 34
206 75 12 206 75 12 206 75 12 206 75 12 206 75 12 206 75 12 208 74 12
208 74 12 208 75 10 207 74 9 206 70 7 206 70 7 207 72 8 208 72 11
209 70 10 210 70 10 212 69 10 212 69 10 211 68 9 209 68 9 205 69 8
203 70 8 203 72 9 201 73 7 201 73 7 201 73 7 204 73 8 203 72 5
203 72 5 204 74 6 207 77 9 207 77 9 208 78 11 208 78 11 208 78 11
208 78 11 208 78 11 208 78 11 208 78 11 208 79 9 213 81 12 213 81 12
212 82 12 212 82 12 212 82 14 212 82 14 212 82 14 212 82 14 212 82 14
210 79 12 206 76 8 203 72 5 207 74 9 207 74 9 207 74 9 207 74 9
207 74 9 207 74 9 207 74 9 207 74 9 212 82 14 210 83 14 209 83 14
209 83 14 210 83 12 212 82 12 213 81 14 212 80 13 206 76 6 199 76 4
209 96 18 205 95 16 208 93 16 210 92 16 208 94 14 208 94 14 208 94 12
208 94 12 208 94 12 208 94 12 217 103 21 217 103 21 216 104 21
216 104 21 216 104 21 216 104 21 214 105 19 211 107 19 210 111 23
205 110 21 221 127 35 219 124 33 224 132 42 224 132 42 226 131 42
226 131 42 226 129 41 226 129 41 228 128 41 229 127 41 210 105 20
213 104 20 215 103 20 216 102 20 217 103 23 216 104 23 214 105 23
214 104 25 216 103 25 222 102 26 210 80 8 214 79 11 211 79 10
211 79 12 211 79 12 211 79 12 211 79 12 211 79 12 210 79 14 211 78 14
214 79 15 214 79 15 214 79 15 214 79 15 214 79 13 214 79 13 212 80 13
211 81 13 207 79 9 208 86 13 234 118 44 242 132 55 239 134 53
236 135 53 233 137 51 231 138 51 229 139 51 228 140 51 228 140 49
228 140 49 245 158 67 245 158 67 245 158 67 245 158 67 245 158 65
245 158 65 245 158 65 245 158 65 242 153 60 245 153 61 221 128 37
221 127 35 217 119 32 218 119 32 218 119 32 220 118 32 220 118 32
222 117 32 222 117 32 222 117 32 201 70 8 201 70 8 201 70 8 201 70 8
201 70 8 201 70 8 203 70 8 203 70 8 203 70 6 204 71 7 207 74 7
209 76 9 211 79 12 211 78 14 212 76 13 212 76 13 212 76 13 210 77 13
209 76 11 206 78 11 225 99 32 223 100 32 223 102 34 221 103 32
221 103 32 221 103 32 224 104 31 224 104 31 226 103 31 225 102 30
222 100 27 220 97 25 218 95 23 218 95 23 218 95 23 218 95 23
219 94 23 219 94 23 219 94 23 221 93 23 210 80 10 211 79 10 210 80 10
210 80 10 210 79 12 210 79 12 210 79 12 210 79 12 210 79 12 208 78 11
207 77 9 207 77 9 207 77 11 208 78 13 210 77 13 210 77 13 210 77 13
210 77 13 210 77 13 210 77 13 214 84 16 213 85 16 210 85 15 210 85 15
211 84 13 213 83 13 213 81 12 213 81 12 215 86 16 212 90 15
226 114 36 223 116 34 223 116 34 223 116 34 223 116 34 223 116 32
223 116 32 223 117 30 223 117 30 223 117 30 232 126 39 232 126 39
232 126 39 232 126 39 232 126 39 232 126 39 231 127 39 229 128 39
230 132 44 224 126 39 235 140 49 229 135 44 226 134 44 226 134 44
227 132 43 227 132 43 227 132 43 228 131 43 230 130 43 232 130 43
212 108 22 215 106 22 217 105 22 219 104 22 219 104 22 217 105 22
215 106 22 215 106 24 217 105 24 222 102 24 210 81 6 213 79 8
209 76 9 209 76 11 209 76 11 209 76 11 209 76 11 209 76 11 207 77 11
209 76 11 203 68 4 203 68 4 203 68 4 203 68 4 203 68 2 203 68 2
203 68 2 206 71 5 207 74 5 203 73 3 205 80 9 207 85 12 204 87 10
201 88 10 199 89 8 199 89 8 199 89 8 199 89 8 201 89 8 201 89 8
214 102 19 214 102 19 214 102 19 214 102 19 214 102 19 214 102 19
214 102 19 214 102 19 208 96 11 214 100 16 194 80 0 198 84 0 203 89 7
205 89 7 205 89 7 205 89 7 205 88 9 205 88 9 205 88 9 205 88 9
198 67 4 198 67 4 198 67 4 198 67 4 198 67 4 198 67 4 200 66 4
198 65 3 200 67 2 202 69 4 208 75 8 212 80 13 213 81 14 212 80 13
212 80 13 211 81 13 211 81 13 209 81 15 206 81 14 203 83 12
225 107 35 223 108 35 223 110 36 221 111 34 221 111 34 221 111 32
224 112 33 224 112 31 226 111 31 222 107 30 217 103 25 213 98 21
216 98 22 217 97 22 217 97 22 217 97 22 217 97 22 219 97 22 219 97 22
220 96 22 207 77 7 209 77 7 207 77 7 207 77 7 207 77 9 207 77 9
207 77 9 207 77 9 207 77 9 207 77 9 208 78 11 208 78 11 208 78 13
211 78 14 211 78 14 211 78 14 211 78 14 211 78 14 211 78 14 211 78 14
215 85 18 214 86 18 211 86 16 211 86 16 211 84 13 213 83 13 213 81 12
215 80 12 207 78 5 206 84 9 224 112 31 222 117 34 220 117 34
218 118 34 218 119 32 218 119 32 218 119 30 218 119 30 218 119 30
218 119 30 229 128 39 229 128 39 229 128 39 229 128 39 229 128 39
229 128 39 228 128 39 228 128 39 231 133 46 223 125 37 230 136 45
222 127 39 226 134 44 226 134 44 227 132 43 227 132 43 227 132 43
228 131 43 230 130 43 232 130 43 212 108 22 215 106 22 217 105 22
219 104 22 219 104 22 217 105 22 215 106 22 215 106 22 217 105 22
222 103 22 208 80 3 212 78 5 207 74 7 207 74 9 207 74 9 207 74 9
207 74 9 207 74 9 207 74 9 207 74 9 203 68 4 203 68 4 203 68 4
203 68 4 203 68 4 205 68 2 205 68 2 205 68 2 205 68 2 207 72 4
219 87 18 214 84 14 211 86 14 209 87 12 208 88 12 208 88 12 208 88 12
208 88 10 212 90 13 215 90 14 217 93 16 218 94 17 220 96 20 220 97 18
220 97 18 220 97 18 220 97 18 220 97 18 215 91 12 220 97 18 205 81 3
211 87 8 209 85 6 210 84 6 210 84 6 210 84 8 210 84 8 210 84 8
210 84 8 210 84 8 198 65 5 198 65 5 198 65 5 198 65 5 198 65 5
198 65 5 198 65 3 197 64 2 200 67 2 202 69 4 208 75 8 211 79 12
211 79 10 211 79 10 210 80 10 210 80 10 208 81 10 206 81 12 204 84 13
203 85 11 221 108 32 219 108 32 217 110 30 216 110 30 215 110 27
215 110 27 216 109 25 217 110 26 219 112 27 216 109 27 212 104 22
208 99 17 212 97 17 213 96 17 213 96 17 213 96 17 213 96 19 215 95 19
215 95 19 216 94 19 207 78 5 209 77 5 209 77 5 209 77 7 209 76 9
209 76 9 210 77 11 210 77 11 208 78 11 208 78 11 210 79 12 210 79 12
210 77 13 210 77 13 212 76 13 212 76 13 210 77 13 210 77 13 210 77 13
210 77 13 214 84 16 213 85 16 211 86 16 211 86 16 211 84 15 213 83 15
216 82 13 216 82 13 218 86 15 215 90 16 226 114 34 220 116 30
217 119 32 215 120 32 215 120 32 215 120 32 217 120 30 218 121 31
219 122 32 220 123 33 221 125 34 223 126 35 224 127 37 225 128 38
227 127 38 227 127 38 225 128 38 224 127 37 223 125 37 222 127 39
227 132 43 229 134 46 229 134 48 228 133 46 228 133 46 228 133 46
228 133 44 230 132 44 230 130 43 232 130 43 212 108 22 215 106 22
217 105 22 219 104 22 219 104 24 217 105 24 214 107 24 214 107 24
218 106 26 223 104 26 208 79 5 210 76 5 207 74 7 207 74 9 207 74 9
207 74 9 208 73 9 208 73 9 208 73 9 208 73 9 203 68 6 203 68 6
203 68 6 203 68 6 205 67 4 205 67 4 207 66 4 207 66 4 203 63 0
207 67 2 219 82 16 214 79 13 211 81 11 208 83 11 206 83 11 204 84 11
204 84 11 204 85 9 204 85 9 206 84 9 219 97 22 219 97 22 219 97 22
219 97 20 219 97 20 219 97 20 219 97 20 219 97 20 213 91 14 219 97 20
205 81 5 211 87 10 210 84 8 212 83 8 212 83 8 212 83 8 213 82 10
213 82 10 213 82 10 213 82 10 198 65 5 198 65 5 198 65 5 198 65 5
198 65 5 198 65 5 198 65 3 198 65 3 201 66 2 205 69 6 208 75 8
210 77 11 210 77 11 209 77 7 208 79 9 208 79 9 207 79 9 205 80 9
205 82 10 202 84 8 221 108 30 219 109 28 217 110 28 216 111 26
215 110 25 215 110 23 216 110 23 217 111 24 219 112 27 216 109 25
212 105 20 208 99 15 212 97 15 213 97 15 213 97 15 213 97 15
213 96 17 215 95 19 215 95 19 216 94 19 208 79 7 210 78 7 210 78 7
210 78 9 210 77 11 210 77 11 210 77 11 210 77 11 210 79 12 210 79 12
210 79 12 210 79 12 210 77 13 210 77 13 212 76 13 212 76 13 210 77 13
210 77 13 210 77 13 210 77 13 214 84 16 213 85 16 211 86 16 211 86 16
211 84 15 213 83 15 216 82 13 216 82 13 218 86 15 215 90 16
226 114 34 220 116 30 217 119 32 215 120 32 215 120 32 215 120 32
215 121 30 216 122 31 218 123 32 219 124 33 220 125 34 221 127 35
222 128 37 223 129 38 225 128 38 225 128 38 225 128 38 222 128 37
221 126 37 222 127 39 227 132 43 229 134 46 229 134 48 228 133 46
228 133 46 228 133 46 228 133 44 228 133 44 228 131 43 232 130 43
212 108 22 215 106 22 217 105 22 219 104 22 219 104 24 217 105 24
214 107 24 214 107 24 219 107 27 223 104 26 207 78 3 208 76 4
208 75 8 208 75 10 208 75 10 208 75 10 209 74 10 209 74 10 209 74 10
209 74 10 203 68 6 203 68 6 203 68 6 203 68 6 205 67 4 205 67 4
205 67 4 207 66 4 203 63 0 207 67 2 219 82 16 214 79 13 211 81 11
208 83 11 206 83 11 206 83 11 206 83 11 206 83 11 206 84 9 206 84 9
219 97 22 219 97 22 219 97 22 219 97 22 219 97 20 219 97 20 219 97 20
219 97 20 215 90 14 220 96 20 205 81 5 211 85 9 210 84 8 212 83 8
212 83 8 212 83 8 213 82 10 213 82 10 213 82 10 213 82 10 198 65 5
198 65 5 198 65 5 198 65 5 198 65 5 198 65 5 198 65 3 200 64 3
203 65 4 206 68 6 209 74 8 210 77 11 208 78 11 207 77 9 210 77 11
210 78 9 208 79 7 208 79 7 207 80 7 204 82 5 224 107 28 222 108 26
221 109 26 219 110 24 218 109 23 218 109 21 219 108 21 221 109 24
223 110 25 221 107 23 216 103 18 212 98 13 213 97 13 215 96 13
215 96 13 215 96 13 215 96 15 216 95 17 216 95 17 218 94 17 208 79 7
212 77 7 212 77 9 212 77 9 210 77 11 210 77 11 210 77 11 210 77 11
211 79 12 211 79 12 211 79 12 211 79 12 210 77 13 210 77 13 212 76 13
212 76 13 210 77 13 210 77 13 211 78 14 211 78 14 214 84 16 213 85 16
211 86 16 211 86 16 211 84 15 213 83 15 216 82 13 216 82 13 218 86 15
215 90 16 226 114 34 220 116 30 220 118 32 218 119 32 217 119 32
217 119 32 217 120 30 218 121 31 218 121 31 219 122 32 221 125 34
223 126 35 222 128 37 223 129 38 223 129 38 223 129 38 223 129 38
222 128 37 221 126 37 222 127 39 227 132 43 229 134 46 230 135 49
229 134 48 229 134 48 229 134 48 228 133 44 228 133 44 230 132 44
231 131 44 213 109 23 215 108 23 218 106 23 218 106 23 218 106 26
217 107 26 215 108 26 215 108 26 221 108 28 223 104 26 206 79 3
207 75 3 208 75 8 208 75 10 208 75 8 208 75 8 209 74 10 209 74 10
209 74 8 209 74 10 203 68 6 203 68 6 203 68 6 203 68 6 205 67 4
205 67 4 205 67 4 205 67 4 203 65 0 202 67 1 215 82 15 210 83 14
209 84 12 207 85 12 206 85 12 206 85 12 208 83 11 209 82 11 209 82 9
211 81 9 224 94 22 224 94 22 224 94 22 224 94 22 224 95 20 224 95 20
224 95 20 224 95 20 218 89 14 224 95 20 208 81 6 211 85 9 210 84 8
209 85 8 209 85 8 209 85 8 209 84 10 209 84 10 209 84 10 209 84 10
198 65 5 198 65 5 198 65 5 198 65 5 198 65 5 198 65 5 198 65 3
200 64 3 204 64 4 208 67 8 209 74 10 210 77 11 208 78 13 207 77 11
210 77 11 210 78 9 210 78 7 208 79 5 207 80 5 205 81 5 225 106 26
222 108 26 221 109 24 221 109 24 219 108 21 219 108 21 221 108 21
222 109 22 225 109 25 223 106 23 218 102 18 213 97 13 215 97 11
215 97 11 215 97 11 215 97 11 216 95 13 216 95 15 216 95 15 218 94 15
210 79 5 212 77 7 212 77 9 212 77 9 212 77 11 212 77 11 212 77 11
210 77 11 211 79 12 211 79 12 211 79 12 211 79 12 210 77 13 210 77 13
212 76 13 212 76 13 210 77 13 210 77 13 211 78 14 211 78 14 214 84 16
213 85 16 211 86 16 211 86 16 211 84 15 213 83 15 216 82 13 216 82 13
218 86 15 215 90 14 226 115 32 222 115 30 222 117 32 220 118 32
220 118 32 220 118 32 220 118 30 220 120 31 220 120 31 221 121 32
223 124 34 224 125 35 224 127 37 225 128 38 225 128 38 225 128 38
223 129 38 222 128 37 223 125 37 224 126 39 228 131 43 231 133 46
230 135 49 229 134 48 228 135 48 228 135 48 226 134 44 228 133 44
230 132 44 231 131 44 212 110 23 215 108 23 217 107 23 218 106 23
218 106 26 217 107 26 215 108 26 215 108 26 221 108 28 223 103 28
204 79 5 205 76 3 208 75 8 208 75 8 208 75 8 208 75 8 209 74 10
209 74 10 209 74 8 209 74 10 203 68 6 203 68 6 203 68 6 203 68 6
205 67 4 205 67 4 205 67 4 203 68 4 201 66 0 201 68 1 213 83 15
210 83 14 207 85 12 206 85 12 206 85 12 206 85 12 208 83 11 209 82 11
211 81 9 211 81 9 224 94 22 224 94 22 224 94 22 224 94 22 224 95 20
224 95 20 224 95 20 224 95 20 218 89 14 222 95 20 206 82 6 209 85 8
209 85 8 209 85 8 207 85 8 207 85 8 207 85 10 207 85 10 207 85 10
207 85 10 198 65 3 198 65 3 198 65 3 198 65 3 198 65 5 198 65 5
198 65 5 202 63 5 208 62 4 211 66 8 211 73 10 208 78 13 208 80 12
207 79 11 208 78 11 210 78 9 207 78 5 207 78 3 207 81 3 204 82 3
224 107 26 222 108 26 221 109 24 219 110 24 219 110 24 221 109 24
221 109 24 223 110 25 223 110 25 221 107 23 216 103 18 213 97 13
212 96 10 213 97 11 213 97 11 215 97 11 215 96 13 215 96 13 215 96 13
218 94 15 210 79 5 212 77 7 212 77 7 212 77 9 212 77 11 213 76 11
213 76 11 212 77 11 213 78 12 213 78 12 213 78 12 213 78 12 213 77 14
213 77 14 213 77 14 213 77 14 213 77 14 213 77 14 211 78 14 212 79 15
213 83 17 213 84 18 212 86 20 212 86 20 213 85 16 214 84 16 217 83 14
217 83 14 217 85 14 213 89 13 225 113 30 221 114 29 222 115 30
220 116 30 220 116 30 220 116 30 222 117 32 221 119 33 222 120 34
223 121 35 225 123 36 226 124 37 226 124 37 227 125 39 225 126 39
225 126 39 227 125 39 226 124 37 226 124 37 228 126 40 230 130 43
232 133 46 231 133 46 228 135 46 226 136 46 226 136 46 226 136 46
228 135 46 229 134 46 232 133 46 213 110 27 216 109 27 218 108 27
218 108 27 218 108 27 216 109 27 216 109 27 218 108 27 223 108 31
224 104 31 205 80 9 206 76 6 208 76 6 209 74 8 209 74 8 209 74 8
209 74 8 209 74 8 209 74 8 209 74 10 205 67 6 205 67 6 205 67 6
205 67 6 205 67 6 205 67 6 205 67 6 205 67 4 202 67 1 200 67 0
212 82 14 211 84 15 209 83 14 207 84 14 207 85 12 207 85 12 209 84 12
209 84 12 210 83 12 210 83 12 223 96 23 223 96 23 222 97 23 222 97 23
220 98 23 220 98 23 220 98 23 220 98 23 220 98 23 216 96 21 204 85 9
206 86 10 206 84 9 206 84 9 208 83 9 208 83 9 209 84 10 209 84 10
209 84 10 209 84 10 198 65 3 198 65 3 198 65 3 198 65 3 198 65 5
198 65 5 198 65 5 202 63 5 208 62 4 211 66 8 209 74 10 208 78 13
206 81 12 205 80 11 208 79 9 208 79 7 207 78 5 207 78 3 207 80 5
204 82 3 224 107 26 222 108 26 221 109 24 219 110 24 219 110 24
221 109 24 221 109 24 223 110 25 223 110 25 221 107 23 216 103 18
213 97 13 212 96 12 213 97 11 213 97 11 215 96 13 215 96 13 216 95 13
216 95 13 218 94 15 208 79 5 210 78 7 210 78 7 212 77 9 212 77 11
213 76 11 213 76 11 213 76 11 213 78 12 213 78 12 213 78 12 213 78 12
213 77 14 213 77 14 213 77 14 213 77 14 213 77 14 213 77 14 211 78 14
212 79 15 213 83 17 213 84 18 212 86 20 212 86 20 213 85 16 214 84 16
217 83 14 217 83 14 217 85 14 213 89 13 225 113 30 221 114 29
222 115 30 222 115 30 222 115 30 222 115 30 222 117 32 223 118 33
224 119 34 225 121 35 226 122 36 227 123 37 227 123 37 229 124 39
227 125 39 227 125 39 227 125 39 226 124 37 226 124 37 228 126 40
230 130 43 231 133 46 229 134 46 228 135 46 226 136 46 224 137 46
226 136 46 228 135 46 231 133 46 232 133 46 215 110 27 216 109 27
218 108 27 218 108 27 218 108 27 216 109 27 218 108 27 219 107 29
225 107 33 224 104 31 205 80 9 206 76 6 208 76 6 209 74 8 209 74 8
209 74 8 209 74 8 209 74 8 209 74 8 209 74 10 205 67 6 205 67 6
205 67 6 205 67 6 205 67 6 205 67 6 207 66 6 207 66 6 204 66 3
201 66 0 213 81 14 213 83 15 210 83 14 209 83 14 207 85 12 207 85 12
209 84 12 209 84 12 209 84 12 209 84 12 222 97 23 222 97 23 220 98 23
220 98 23 220 98 23 218 99 23 218 99 23 217 99 23 217 99 23 214 97 21
203 85 9 204 85 9 206 84 9 208 83 11 208 83 11 209 82 11 210 83 12
210 83 12 210 83 12 210 83 12 201 67 5 201 67 5 201 67 5 201 67 5
201 67 5 201 67 5 201 67 5 204 66 5 209 63 5 212 67 7 208 75 10
205 80 11 205 82 12 204 81 9 207 79 9 208 79 7 207 78 5 207 78 5
206 79 3 204 80 3 225 106 26 222 108 26 221 109 24 221 109 24
221 109 26 221 109 26 222 108 26 223 109 27 225 108 27 223 106 25
218 101 20 213 97 15 214 95 12 215 96 13 215 96 13 215 96 13
216 95 15 218 94 15 218 94 15 218 94 15 207 80 5 208 79 5 208 79 7
210 78 9 212 77 11 212 77 11 212 77 11 212 77 11 213 78 12 213 78 12
212 77 11 212 77 11 213 77 14 213 77 14 213 77 14 213 77 14 212 76 13
212 76 13 211 78 14 213 81 16 213 83 17 213 84 18 212 86 20 212 86 20
213 85 16 214 84 16 217 83 14 217 83 14 217 85 14 213 89 13
225 113 30 221 114 29 222 115 30 222 115 30 222 115 30 222 115 30
222 117 32 222 117 32 222 117 32 222 117 32 229 124 39 229 124 39
229 124 39 229 124 39 227 125 39 227 125 39 227 125 39 224 124 37
224 124 37 225 128 40 227 132 43 229 134 46 228 135 46 226 136 46
224 137 46 224 137 46 226 136 46 229 134 46 232 133 46 234 132 46
216 109 27 218 108 27 218 108 27 219 107 27 218 108 27 218 108 27
219 107 29 221 106 29 226 106 33 226 103 31 207 79 11 206 76 8
208 75 8 209 74 8 209 74 10 209 74 10 209 74 10 209 74 10 209 74 10
209 73 12 205 67 6 205 67 6 205 67 6 205 67 6 205 67 6 205 67 6
207 66 6 207 66 6 205 67 4 201 66 0 213 81 14 214 84 16 211 84 15
210 85 15 208 86 13 208 86 13 209 84 12 209 84 12 210 83 12 210 83 12
222 97 23 222 97 23 222 97 23 222 97 23 220 98 23 220 98 23 220 98 23
218 99 23 218 99 23 216 96 21 206 86 10 206 84 9 208 83 11 209 81 13
209 81 13 211 81 13 212 82 14 212 82 14 212 82 14 212 82 14 202 68 6
202 68 6 202 68 6 202 68 6 202 68 6 202 68 6 202 68 6 205 67 4
209 64 3 212 70 6 206 76 8 202 82 9 202 84 10 200 83 7 204 81 7
205 81 7 202 80 5 201 82 3 199 82 3 198 83 3 219 110 26 216 111 26
214 112 24 214 112 24 214 112 26 214 112 26 216 111 26 217 112 27
219 112 27 216 109 25 212 105 20 207 100 15 207 98 12 208 100 13
208 100 13 208 100 13 210 98 15 212 97 15 212 97 15 213 97 15
204 82 5 205 81 5 207 80 7 207 79 9 208 78 11 208 78 11 208 78 11
210 77 11 213 78 12 213 78 12 210 75 9 210 75 9 213 77 14 213 77 14
213 77 14 213 77 14 210 75 11 210 75 11 212 76 13 213 81 16 213 83 17
213 84 18 214 86 20 214 86 20 213 85 16 214 84 16 217 82 16 217 83 14
217 85 14 213 89 13 225 113 30 220 113 28 221 114 29 221 114 29
221 114 29 221 114 29 222 117 32 222 117 32 222 117 32 222 117 32
229 124 39 229 124 39 229 124 39 229 124 39 227 125 39 227 125 39
227 125 39 224 124 37 224 124 37 227 127 40 228 131 43 231 133 46
231 133 46 229 134 46 229 134 46 229 134 46 229 134 46 232 133 46
234 132 46 237 130 46 218 108 27 219 107 27 221 106 27 221 106 27
219 107 27 219 107 29 221 106 29 224 104 31 228 106 33 229 101 33
208 78 11 208 75 10 209 74 10 209 74 10 209 74 10 209 73 12 209 73 12
209 73 12 209 73 12 209 73 12 205 67 6 205 67 6 205 67 6 205 67 6
205 67 6 205 67 6 207 66 6 207 66 6 205 67 4 201 66 2 213 81 16
214 84 16 211 84 15 210 85 15 208 85 15 208 86 13 209 84 12 209 84 12
210 83 12 210 83 12 222 97 23 222 97 23 222 97 23 222 97 23 222 97 23
220 98 23 220 98 23 220 98 23 220 98 23 218 95 21 207 85 10 206 81 10
211 81 13 212 79 15 212 79 15 212 79 15 213 81 16 213 81 16 213 81 16
213 81 16 205 72 10 205 72 10 205 72 10 205 72 10 204 71 7 204 71 7
204 71 7 206 71 5 208 66 2 211 74 6 237 112 40 238 120 44 230 118 37
230 118 37 233 116 37 231 117 37 226 121 38 223 123 36 221 124 36
218 126 36 238 151 60 237 152 58 235 153 58 234 154 58 235 154 61
236 153 61 236 153 61 239 154 62 238 153 61 236 150 58 231 146 54
229 141 50 230 143 49 231 144 51 231 144 51 233 143 51 233 143 53
235 142 53 235 142 53 238 140 53 210 98 17 215 95 17 215 95 19
215 95 21 216 93 23 216 93 23 216 93 23 218 93 23 222 89 22 226 89 23
210 72 7 211 73 8 206 68 6 206 68 8 206 68 8 206 68 8 210 72 9
210 72 9 209 74 10 205 72 8 205 74 9 205 74 9 204 76 10 204 76 10
205 74 9 207 74 9 208 73 7 208 74 5 207 75 3 205 81 5 222 108 26
221 112 28 220 113 26 220 113 26 220 113 28 220 113 28 217 112 27
217 112 27 217 112 27 217 112 27 229 124 39 229 124 39 229 124 39
229 124 39 227 125 39 227 125 39 227 125 39 229 124 39 227 123 37
229 124 39 216 109 25 217 110 26 215 108 23 215 108 23 215 108 23
213 109 23 213 109 23 215 108 23 215 108 23 217 107 23 202 88 8
204 87 8 206 86 10 206 86 10 204 87 10 204 86 12 206 85 12 207 84 14
210 83 14 215 82 17 199 63 0 199 63 2 201 65 4 201 65 4 201 65 4
201 65 6 203 64 6 203 64 6 203 64 6 203 64 6 204 65 7 204 65 7
204 65 7 204 65 7 205 65 5 205 65 5 205 65 5 205 65 5 200 62 2
201 65 4 213 80 18 210 79 14 210 82 16 209 83 16 207 84 14 207 84 14
209 83 14 209 83 14 210 83 12 210 83 12 210 83 12 210 83 12 210 83 12
210 83 12 209 84 12 209 84 12 209 84 12 209 84 12 211 86 14 209 84 12
198 73 2 197 70 1 202 69 4 203 68 6 203 68 6 203 68 6 205 69 8
205 69 8 205 69 8 205 69 8 207 73 11 207 73 11 207 73 11 207 73 11
205 72 8 205 72 8 205 73 6 207 72 6 206 69 2 210 76 5 235 113 38
234 122 42 227 120 35 227 120 35 230 118 35 228 119 35 221 124 36
217 127 36 215 127 36 212 129 36 232 154 58 230 155 58 229 156 58
227 157 58 228 158 61 230 157 61 230 157 61 233 157 62 232 156 61
229 154 58 225 149 54 223 145 50 224 146 49 225 147 51 225 147 51
227 147 51 227 146 53 227 146 53 227 146 53 233 143 53 207 100 17
213 96 17 213 96 19 213 96 19 213 96 21 213 95 23 213 95 23 216 93 23
222 89 22 226 89 23 209 71 6 210 72 9 208 67 8 208 67 8 206 68 8
206 68 8 209 71 8 209 71 8 208 73 9 207 72 8 207 74 9 205 74 9
204 76 10 204 76 10 205 74 9 207 74 9 208 73 7 208 73 7 207 74 5
205 81 7 222 108 28 220 111 27 219 112 25 219 112 25 219 112 27
219 112 27 217 112 27 217 112 27 217 112 27 217 112 27 229 124 39
229 124 39 229 124 39 229 124 39 227 125 39 227 125 39 227 125 39
229 124 39 227 123 37 230 123 39 218 108 25 219 110 26 218 106 23
218 106 23 218 106 23 218 106 23 218 106 23 217 107 23 217 107 23
220 106 23 206 86 8 207 85 8 207 85 10 207 85 10 207 85 12 207 85 12
209 83 14 210 83 14 213 81 16 216 81 17 200 63 0 200 62 2 201 65 4
201 65 6 201 65 6 201 65 6 203 64 6 203 64 6 203 64 8 203 64 8
204 65 7 204 65 7 204 65 7 204 65 7 205 65 5 205 65 5 205 65 5
204 66 5 200 62 2 201 65 4 213 80 18 210 79 16 210 82 16 209 83 16
209 83 14 207 84 14 209 83 14 209 83 14 210 83 12 210 83 12 210 83 12
210 83 12 210 83 12 210 83 12 209 84 12 209 84 12 209 84 12 209 84 12
211 86 14 209 84 12 198 73 2 199 69 1 203 68 6 205 66 9 205 66 9
205 66 9 206 68 10 206 68 10 206 68 10 206 68 10 209 75 13 209 75 13
209 75 13 209 75 13 208 75 10 208 75 10 208 75 8 208 76 6 206 71 3
208 79 7 232 115 36 233 124 40 225 121 35 225 121 33 228 119 33
227 120 33 221 125 34 217 127 34 215 128 34 213 129 34 234 154 58
230 155 58 229 156 58 229 156 58 230 157 59 230 157 59 232 156 59
233 157 60 233 155 59 231 153 56 226 149 52 223 145 48 225 145 49
227 147 51 227 147 51 227 147 51 228 145 53 228 145 53 228 145 53
233 143 53 207 100 17 212 97 17 212 97 17 212 97 19 212 96 21
212 96 21 212 96 21 215 95 21 222 89 20 226 89 21 206 71 5 209 71 8
208 67 8 208 67 8 206 68 8 205 69 8 207 70 7 207 70 7 207 72 8
207 72 8 207 74 9 205 74 9 204 76 10 204 76 10 205 74 9 207 74 9
208 73 7 208 73 7 205 75 5 204 81 7 222 108 28 220 111 27 219 112 25
219 112 25 219 112 27 219 112 27 217 112 27 217 112 27 217 112 27
217 112 27 229 124 39 229 124 39 229 124 39 229 124 39 227 125 39
227 125 39 227 125 39 227 125 39 227 125 39 227 125 39 215 110 25
217 110 26 217 107 23 218 106 23 218 106 23 220 106 23 218 106 23
218 106 23 218 106 23 221 105 23 207 85 8 209 84 10 209 84 10
209 84 10 209 84 12 210 83 12 210 83 12 212 82 14 215 80 14 218 80 15
202 62 0 202 62 0 203 64 6 201 65 8 201 65 8 201 65 8 203 64 8
203 64 8 203 64 8 203 64 8 204 65 9 204 65 9 204 65 7 204 65 7
204 66 5 204 66 5 204 66 5 204 66 5 202 63 3 202 66 5 215 81 19
211 80 17 210 82 16 210 82 16 209 83 14 209 83 14 209 83 14 209 83 14
210 83 12 210 83 12 210 83 12 210 83 12 210 83 12 210 83 12 210 83 12
210 83 12 210 83 12 210 83 12 213 85 14 210 83 12 200 72 2 199 69 1
205 66 9 207 65 11 207 65 11 207 65 11 208 66 12 208 66 12 208 66 12
208 66 12 209 75 13 209 75 13 209 75 13 209 75 13 208 75 10 208 75 10
208 75 8 208 76 6 206 72 1 207 80 7 230 116 36 231 124 40 223 122 33
223 122 33 227 120 33 227 120 33 221 125 34 218 126 34 217 127 34
213 129 34 234 154 58 232 154 58 230 155 58 229 156 58 230 157 59
232 156 59 232 156 59 234 157 60 233 155 59 232 152 56 228 148 52
224 144 48 225 145 49 228 146 51 228 146 51 228 146 51 228 145 53
230 145 53 230 145 53 235 142 53 207 100 17 212 97 17 212 97 17
212 97 17 212 97 19 212 96 21 212 96 21 213 96 21 218 91 20 223 91 21
206 71 5 209 71 6 208 68 6 208 67 8 206 68 8 205 69 8 207 69 9
207 70 7 209 71 8 207 72 8 207 74 9 205 74 9 206 76 10 204 76 10
205 74 9 207 74 9 208 73 7 207 74 7 205 75 5 204 81 7 222 108 28
220 111 27 220 111 25 220 111 25 220 111 27 219 112 27 219 112 27
219 112 27 219 112 27 219 112 27 230 123 39 230 123 39 230 123 39
229 124 39 229 124 39 227 125 39 227 125 39 227 125 39 225 126 39
227 125 39 215 110 25 216 109 25 218 106 23 218 106 23 220 106 23
220 105 26 218 106 26 218 106 26 220 105 26 221 104 26 207 85 10
209 84 10 210 83 10 210 83 12 210 83 12 212 82 12 212 82 12 213 81 14
215 80 14 218 80 15 202 62 0 202 62 0 203 64 6 201 65 8 201 65 8
201 65 8 203 64 8 203 64 8 203 64 8 203 64 8 204 65 9 204 65 9
204 65 7 204 65 7 204 66 5 204 66 5 204 66 5 204 66 5 202 63 3
203 65 4 215 79 18 212 79 17 212 81 16 210 82 16 209 83 14 209 83 14
209 83 14 209 83 14 210 83 12 210 83 12 210 83 12 210 83 12 210 83 12
210 83 12 210 83 12 210 83 12 210 83 12 210 83 12 213 85 14 210 83 12
200 72 2 199 69 1 205 66 9 207 65 11 207 65 11 207 65 11 208 66 12
208 66 12 208 66 12 208 66 12 209 75 13 209 75 13 209 75 13 209 75 13
209 76 11 209 76 11 209 76 9 209 77 7 205 74 2 208 81 8 231 117 37
231 126 41 223 124 34 223 124 34 226 122 34 226 122 34 220 123 33
217 125 33 215 126 33 212 127 33 234 154 58 232 154 58 230 156 56
230 156 56 230 155 58 232 154 58 232 155 56 235 155 57 235 155 57
234 152 54 229 147 50 226 144 46 226 143 48 229 144 49 229 144 49
229 144 49 230 145 51 231 144 51 231 144 51 235 142 53 207 100 15
212 97 15 212 97 17 212 97 17 212 97 17 213 96 19 213 96 19 213 96 19
212 95 18 216 94 21 203 73 3 209 71 6 209 69 7 209 68 9 207 69 11
206 70 11 207 69 9 209 68 9 209 71 8 207 72 8 205 72 8 205 72 8
205 74 11 205 74 11 205 74 11 207 74 9 208 73 7 207 74 7 205 75 5
204 81 7 222 108 28 220 111 27 220 111 27 222 110 27 222 110 27
220 111 27 220 111 27 220 111 27 220 111 27 220 111 27 232 122 39
232 122 39 232 122 39 230 123 39 230 123 39 229 124 39 229 124 39
229 124 39 228 126 38 228 126 38 217 107 23 220 106 23 220 103 24
220 103 24 219 104 24 219 104 26 217 105 26 217 105 26 219 104 26
222 102 26 206 84 9 208 83 11 209 82 11 211 81 11 211 81 13 212 80 13
214 79 13 214 79 15 216 78 15 217 79 16 199 61 0 199 61 1 202 63 3
202 63 5 200 63 7 200 63 7 201 65 8 201 65 8 201 65 8 201 65 8
202 66 7 202 66 7 202 66 7 202 66 7 204 66 5 204 66 5 205 65 5
205 65 5 203 65 4 202 63 3 214 78 17 213 80 18 211 80 15 209 81 15
208 82 13 208 82 13 210 83 14 210 83 14 210 83 12 210 83 12 210 83 12
210 83 12 210 83 12 210 83 12 210 83 12 210 83 12 210 83 12 210 83 12
213 85 14 210 83 12 200 72 2 199 69 1 203 68 6 205 66 9 205 66 9
205 66 9 206 68 10 206 68 10 206 68 10 206 68 10 209 75 13 209 75 13
209 75 13 209 75 13 209 76 11 209 76 11 209 76 9 209 76 9 205 73 4
208 81 8 231 117 37 231 126 41 223 123 36 223 124 34 226 122 34
226 122 34 220 123 33 217 125 33 215 126 33 214 127 33 235 153 58
232 154 58 232 155 56 232 155 56 232 154 58 234 154 58 234 154 56
236 154 57 236 154 57 234 152 54 229 147 50 226 144 46 227 143 48
229 144 49 229 144 49 229 144 49 231 144 51 231 144 51 231 144 51
236 142 51 207 100 15 212 97 15 212 97 17 212 97 17 213 96 17
213 96 17 213 96 17 213 96 17 210 96 18 213 96 19 203 73 3 207 72 6
207 70 7 207 69 9 206 70 11 206 70 11 207 69 9 209 68 9 209 71 8
209 71 8 207 72 8 205 72 8 205 74 11 205 74 11 205 74 11 205 74 11
207 74 9 207 74 7 205 75 5 204 81 7 222 108 28 220 111 27 220 111 27
220 111 27 220 111 27 220 111 27 220 111 27 219 112 27 219 112 27
219 112 27 230 123 39 230 123 39 230 123 39 230 123 39 230 123 39
229 124 39 229 124 39 229 124 39 227 127 38 228 127 36 217 108 21
219 105 20 222 103 22 222 103 22 219 104 22 217 105 24 215 105 26
215 105 28 217 104 28 220 102 28 204 84 11 208 83 11 209 82 11
211 81 11 212 80 13 214 79 13 216 78 15 216 78 15 216 78 15 217 79 16
199 61 1 199 61 1 202 63 3 202 63 3 200 64 5 200 63 7 201 65 8
201 65 8 201 65 8 201 65 8 202 66 7 202 66 7 202 66 7 202 66 7
204 66 5 204 66 5 204 66 5 204 66 5 203 65 4 200 62 2 213 77 16
213 80 18 211 80 15 209 81 15 208 82 13 208 82 13 210 83 14 210 83 14
210 83 12 210 83 12 210 83 12 210 83 12 210 83 12 210 83 12 210 83 12
210 83 12 210 83 12 210 83 12 213 85 14 210 83 12 200 72 2 199 69 1
203 68 6 205 66 9 205 66 9 205 66 9 206 68 10 206 68 10 206 68 10
206 68 10 209 75 13 209 75 13 209 75 13 209 75 13 209 76 11 209 76 11
209 76 9 209 76 9 205 73 4 208 81 8 231 117 37 232 125 43 223 123 36
223 123 36 228 121 36 228 121 36 222 123 33 220 123 33 219 124 33
215 126 33 237 152 58 235 153 58 234 154 56 234 154 56 234 154 56
235 153 56 235 153 56 236 155 55 238 153 57 236 151 54 231 146 50
227 143 46 227 143 46 229 144 47 229 144 47 229 144 47 231 144 51
233 143 51 233 143 51 236 142 51 207 100 15 212 97 15 212 97 15
212 97 15 213 97 15 213 97 15 213 97 15 213 96 17 210 96 16 213 96 19
201 74 3 207 72 6 207 70 7 207 69 9 206 70 11 206 70 11 207 69 9
209 68 9 209 71 8 209 71 8 207 72 8 207 74 9 206 75 12 206 75 12
206 75 12 206 75 12 208 75 10 208 75 8 203 76 5 204 81 7 222 108 28
220 111 27 219 112 27 219 112 27 219 112 27 219 112 27 217 112 27
217 112 27 217 112 27 217 112 27 229 124 39 229 124 39 229 124 39
229 124 39 227 125 39 227 125 39 227 125 39 225 126 37 226 130 37
225 129 34 213 110 17 217 106 16 219 106 16 219 106 16 217 106 16
214 107 20 212 107 28 212 106 30 214 105 30 217 104 30 201 85 13
204 84 13 206 83 13 209 81 13 212 80 13 216 78 13 216 78 15 216 78 15
216 78 15 217 79 16 199 61 1 199 61 1 200 64 3 200 64 3 200 64 5
200 64 5 201 65 6 201 65 6 201 65 8 201 65 8 202 66 7 202 66 7
202 66 7 202 66 7 202 66 5 202 66 5 202 66 5 202 66 5 202 66 5
199 63 2 213 77 14 215 82 17 211 80 15 209 81 15 208 82 13 208 82 13
209 83 14 209 83 14 210 83 12 210 83 12 210 83 12 210 83 12 210 83 12
210 83 12 210 83 12 210 83 12 210 83 12 210 83 12 213 85 14 210 83 12
201 71 4 201 68 3 203 68 6 205 66 9 205 66 9 205 66 9 206 68 10
206 68 10 206 68 10 206 68 10 209 75 13 209 75 13 209 75 13 209 75 13
209 76 11 209 76 11 209 76 9 209 76 9 205 73 4 208 81 8 233 118 38
232 125 43 223 123 36 223 123 36 228 121 36 228 121 36 225 121 33
223 122 33 222 123 33 219 124 33 240 150 58 237 152 58 235 153 56
235 153 56 235 153 56 235 153 56 235 153 56 236 154 57 238 153 57
236 151 54 231 146 50 227 143 46 227 143 46 229 144 47 229 144 47
230 143 47 233 143 51 233 143 51 233 143 51 238 141 51 208 99 15
212 97 15 212 97 15 212 97 15 213 97 15 213 97 15 213 97 15 212 97 15
209 97 16 212 95 16 200 72 2 207 72 6 207 69 9 207 69 11 206 70 11
206 70 11 207 69 9 209 68 9 209 71 8 209 71 8 207 72 8 207 74 9
206 75 12 206 75 12 206 75 12 206 76 10 208 75 10 206 76 8 203 76 5
205 83 8 222 108 28 220 111 27 219 112 27 219 112 27 219 112 27
217 112 27 217 112 27 217 112 27 217 112 27 217 112 27 229 124 39
229 124 39 229 124 39 227 125 39 227 125 39 227 125 39 227 125 39
225 126 37 224 130 37 225 129 34 213 110 17 215 107 16 219 106 16
219 106 16 215 107 16 214 107 20 212 107 28 212 106 30 214 105 30
217 103 32 201 85 15 204 83 15 206 83 15 209 81 15 214 79 15
216 78 15 216 78 15 216 78 15 216 78 15 217 78 18 199 61 1 202 63 3
200 64 3 200 64 3 200 64 5 200 64 5 201 65 6 201 65 6 201 65 8
201 65 8 202 66 7 202 66 7 201 65 6 201 65 6 201 65 4 201 65 4
201 65 4 201 65 4 202 66 5 197 64 2 211 78 14 213 83 17 209 81 15
208 82 15 208 82 13 208 82 13 209 83 14 209 83 14 210 83 12 210 83 12
209 82 11 209 82 11 209 82 11 209 82 11 209 82 11 209 82 11 209 82 11
209 82 11 213 85 14 210 83 12 201 71 4 201 68 3 203 68 6 205 66 9
205 66 9 205 66 9 206 68 10 206 68 10 206 68 10 206 68 10 209 76 11
209 76 11 209 76 11 209 76 11 209 76 11 209 76 9 209 76 9 209 76 9
204 74 4 208 83 9 234 119 39 237 130 48 220 120 33 220 120 33
224 117 33 226 117 33 225 119 32 225 119 32 224 120 32 221 121 32
241 146 55 238 148 55 236 149 55 234 150 55 236 151 56 236 151 56
234 152 54 232 150 52 232 147 53 231 146 52 231 146 52 230 145 51
231 144 49 231 144 49 231 144 49 231 144 49 232 142 49 232 142 49
232 142 49 237 140 49 208 99 15 212 97 15 212 97 15 212 97 15
212 97 15 212 97 15 212 97 15 212 97 15 211 99 17 213 96 17 197 70 0
199 63 0 208 67 10 208 67 10 205 68 10 205 68 10 207 69 9 209 68 9
209 71 8 209 71 8 208 73 9 207 74 9 207 76 13 207 76 13 208 75 10
208 75 10 209 76 11 207 77 9 207 79 9 204 81 7 220 105 28 217 107 26
219 109 28 219 109 28 219 109 28 217 110 28 217 110 28 217 110 28
217 110 28 217 110 28 230 123 41 230 123 41 230 123 41 229 124 41
229 124 41 229 124 41 229 124 41 227 125 39 226 129 39 227 128 36
215 108 21 217 106 20 220 104 22 220 104 22 217 105 22 215 106 24
214 106 26 215 105 28 217 104 28 219 103 30 207 86 15 210 84 17
211 83 17 213 82 19 216 80 19 216 80 19 218 80 19 218 80 19 217 78 18
213 75 17 210 71 13 203 64 6 202 63 5 202 63 5 202 63 5 202 63 5
203 64 8 203 64 8 203 64 8 203 64 8 201 65 6 201 65 6 201 65 6
201 65 6 201 65 4 201 65 4 201 65 4 201 65 4 198 65 1 200 67 2
212 81 16 207 79 13 204 81 11 204 81 11 204 81 11 204 81 9 206 81 10
206 81 10 208 81 10 208 81 10 209 82 11 209 82 11 209 82 11 209 82 11
209 82 11 209 82 11 208 83 9 208 83 9 214 86 16 211 84 13 203 72 5
202 69 4 205 69 8 206 68 10 206 68 10 206 68 10 206 68 10 206 68 10
206 68 10 206 68 10 209 76 11 209 76 11 209 76 11 209 76 11 209 76 9
209 76 9 209 76 9 209 76 9 205 75 5 206 82 8 229 115 35 229 122 39
223 123 36 223 123 36 228 121 36 229 120 36 231 122 35 231 122 35
229 122 35 227 123 35 247 148 59 244 150 59 241 151 59 240 152 59
241 153 60 239 154 60 239 155 58 237 152 56 236 151 56 234 150 55
234 150 55 232 147 53 230 143 47 229 142 46 229 142 46 229 142 46
229 140 47 229 140 47 229 140 47 234 137 47 210 103 19 215 101 19
215 101 19 215 101 19 215 101 19 215 101 19 215 101 19 215 101 19
215 103 20 216 99 20 200 72 2 202 67 3 208 67 10 208 66 12 205 68 10
205 68 10 207 69 9 209 68 9 209 71 8 209 71 8 208 73 9 207 74 9
207 76 13 207 76 13 208 75 10 208 75 10 209 76 11 209 76 11 203 72 5
203 78 6 217 99 23 218 106 28 222 108 28 222 108 28 222 108 28
222 108 28 221 108 28 221 108 28 221 108 28 221 108 28 234 122 42
234 122 42 234 122 42 234 122 42 233 123 42 233 123 42 233 123 42
231 124 42 232 127 44 231 126 43 219 107 27 223 103 28 225 102 28
225 102 28 223 103 30 221 104 30 220 104 30 221 104 30 223 103 30
225 102 32 208 80 12 210 79 14 211 78 16 213 77 16 214 76 16
214 76 16 214 76 16 213 75 15 210 71 13 205 66 9 202 63 5 200 62 4
202 63 5 202 63 5 202 63 5 202 63 5 203 64 8 203 64 8 204 65 9
204 65 9 202 66 7 202 66 7 203 67 9 203 67 9 203 68 6 203 68 6
203 68 6 203 68 6 194 61 0 196 65 0 210 82 16 208 82 15 204 84 13
204 84 13 204 84 11 204 84 11 209 84 12 209 84 12 210 83 12 210 83 12
210 83 12 210 83 12 210 83 12 210 83 12 210 83 12 210 83 12 209 84 10
209 84 10 214 86 16 211 84 13 203 72 5 202 69 4 205 69 8 206 68 10
206 68 10 206 68 10 206 68 10 206 68 10 206 68 10 206 68 10 210 77 13
210 77 13 210 77 13 210 77 13 210 77 11 210 77 11 210 77 11 210 77 11
207 77 7 204 79 5 224 107 28 217 110 28 204 105 18 204 105 18
209 102 18 212 101 18 214 102 17 214 102 17 212 103 17 210 104 17
230 129 40 227 130 40 224 132 40 222 133 40 222 135 41 222 135 41
220 136 39 218 134 37 219 131 38 217 130 37 217 130 37 217 130 37
221 134 38 222 135 39 222 135 39 222 135 39 225 135 42 226 134 42
226 134 42 230 133 42 215 108 23 218 106 23 218 106 23 218 106 23
220 106 23 220 106 23 220 106 23 220 106 23 219 108 25 220 103 24
204 77 6 207 72 8 208 67 10 208 66 12 205 68 10 205 68 10 207 69 9
209 68 9 209 71 8 209 71 8 208 73 9 208 75 10 207 76 13 207 76 13
210 77 13 210 77 13 210 77 13 210 77 13 214 84 16 205 80 9 207 90 14
203 89 11 209 90 12 211 89 12 211 89 12 211 89 12 211 89 12 209 90 12
209 90 12 209 90 12 208 88 10 208 88 10 208 88 10 208 88 10 208 88 10
206 89 10 206 89 10 206 89 12 205 92 17 206 90 18 194 71 1 196 68 2
200 67 2 200 67 2 196 68 2 195 69 2 195 69 0 196 69 0 198 68 0
201 66 2 204 66 3 205 65 5 207 64 5 207 64 5 207 64 5 205 65 5
204 66 5 204 66 5 202 63 5 200 62 4 200 62 4 200 62 4 200 62 4
200 62 4 202 63 5 202 63 5 203 64 8 203 64 8 203 64 8 203 64 8
206 70 11 206 70 11 206 70 11 206 70 11 206 70 9 206 70 9 204 71 9
204 71 9 203 70 6 207 79 13 224 99 29 222 101 30 220 102 30
220 102 30 220 102 28 222 102 28 226 101 30 228 100 30 228 100 30
228 100 30 214 86 16 214 86 16 214 86 16 214 86 16 214 86 16
214 86 16 212 88 14 212 88 14 215 88 17 214 86 16 203 72 5 204 71 7
206 70 9 207 69 11 207 69 11 207 69 11 206 68 10 206 68 10 206 68 10
206 68 10 210 77 13 210 77 13 210 77 13 210 77 13 210 77 11 210 77 11
210 77 11 210 78 9 208 79 9 204 79 5 218 101 24 211 101 20 211 106 23
211 107 21 214 105 21 216 104 21 219 105 20 219 105 20 217 106 20
214 107 20 232 133 44 229 135 44 228 135 44 226 136 44 226 138 45
226 138 45 224 139 43 223 136 40 222 135 41 221 134 40 221 134 40
220 132 39 219 132 36 219 132 36 219 132 36 220 131 36 224 132 40
224 132 40 224 132 40 227 130 40 216 109 25 219 108 25 219 108 25
219 108 25 221 107 25 221 107 25 221 107 25 221 107 25 221 109 26
223 106 27 204 77 6 207 72 8 208 67 10 208 66 12 205 68 10 205 68 10
207 69 9 209 68 9 209 71 8 207 72 8 207 74 9 208 75 10 207 77 11
207 77 11 210 77 13 210 77 13 210 77 13 208 78 11 206 78 7 205 80 9
210 90 15 207 87 11 212 88 12 214 87 12 214 87 12 214 87 12 212 88 12
212 88 12 212 88 12 212 88 12 212 88 12 212 88 12 212 88 12 212 88 12
212 88 12 212 88 12 212 88 12 211 88 14 210 91 22 210 89 23 199 70 6
201 67 5 204 66 5 204 66 5 201 67 5 201 67 5 201 67 5 202 66 5
204 66 5 203 63 3 204 61 2 204 59 1 204 59 1 204 59 1 202 59 1
201 60 1 199 61 1 199 61 1 199 61 3 199 61 3 200 62 4 200 62 4
200 62 4 200 62 4 202 63 5 202 63 5 203 64 8 203 64 8 203 64 8
203 64 8 207 71 12 207 71 12 207 71 12 207 71 10 207 71 10 207 71 10
205 72 10 205 72 8 200 70 4 204 76 10 222 99 29 223 104 33 221 105 33
221 105 33 221 106 31 223 105 31 229 104 32 230 103 32 230 103 32
230 103 32 217 90 19 216 89 18 216 89 18 216 89 18 216 89 18
216 89 18 215 90 16 215 90 16 215 88 17 214 86 16 203 72 5 206 70 9
207 69 11 207 69 11 207 69 11 207 69 11 206 68 10 206 68 10 206 68 10
206 68 10 208 78 11 208 78 11 208 78 11 208 78 11 208 78 11 208 78 11
208 79 9 208 79 9 211 81 11 204 79 7 220 103 26 215 102 24 213 103 22
213 104 20 215 103 20 215 103 18 217 104 19 217 104 19 217 103 21
214 105 21 230 132 44 225 135 44 225 135 42 225 135 42 222 135 41
222 135 41 222 135 41 222 135 41 222 133 40 222 133 40 222 133 40
222 133 40 222 133 40 222 133 40 222 133 40 222 133 40 224 132 40
224 132 40 226 131 40 227 130 40 216 109 25 218 108 25 219 108 25
219 108 25 219 108 25 219 108 25 219 108 25 219 108 25 221 109 24
223 106 27 202 75 4 205 69 8 208 66 12 208 66 12 205 68 10 205 68 10
207 69 9 207 70 7 209 71 8 208 73 9 208 75 8 207 77 9 208 78 11
208 78 13 208 78 13 208 78 13 208 78 11 207 77 9 206 78 7 207 79 9
210 85 11 211 86 12 214 87 14 214 87 14 212 88 14 212 88 14 212 88 14
212 88 14 212 88 14 212 88 14 214 87 12 214 87 12 214 87 12 214 87 12
214 87 12 214 87 12 214 87 12 212 88 14 207 86 17 209 86 20 201 70 8
206 70 9 208 67 10 208 67 10 205 68 10 205 68 10 206 68 10 208 67 10
208 67 10 209 66 10 205 61 5 205 61 5 205 61 5 205 61 5 203 62 5
203 62 5 202 63 5 202 63 5 203 62 5 203 62 5 203 62 5 203 62 5
200 61 6 200 61 6 200 61 6 200 61 6 203 62 7 203 62 7 203 62 5
202 63 5 207 71 12 205 72 12 205 72 10 205 72 8 205 72 8 205 72 8
205 72 8 205 73 6 203 70 4 202 74 6 222 101 30 216 103 29 217 106 30
218 105 30 220 104 30 222 102 26 223 101 28 224 99 27 223 98 24
220 96 22 218 93 19 217 92 18 216 91 17 216 91 17 215 90 16 215 90 16
215 90 16 215 90 16 212 88 14 215 88 17 203 72 5 206 70 9 207 69 11
207 69 11 207 69 11 207 69 11 206 68 10 206 68 10 206 68 10 206 68 10
208 78 11 208 78 11 208 78 11 208 78 11 208 78 11 208 78 11 208 79 9
208 79 9 211 81 11 205 80 9 220 103 26 215 102 24 215 103 22
215 103 22 215 103 20 215 103 18 217 104 19 217 104 19 219 103 21
214 105 21 228 133 44 223 136 44 225 135 42 225 135 42 222 135 41
222 135 41 222 135 41 224 134 41 222 133 40 222 133 40 222 133 40
222 133 40 222 133 40 222 133 40 222 133 40 222 133 40 225 133 41
227 132 41 227 132 41 230 131 41 215 110 25 218 108 25 219 108 25
219 108 25 219 108 25 219 108 25 219 108 25 219 108 25 221 109 24
223 106 27 201 73 5 203 68 6 208 66 12 208 66 14 205 68 12 205 68 10
207 69 9 207 70 7 207 72 8 208 73 9 208 75 8 207 77 9 207 79 11
207 79 11 208 78 13 208 78 13 208 78 11 207 77 9 206 78 7 208 81 10
211 85 11 213 86 12 214 87 14 214 87 14 212 88 14 212 88 14 212 88 14
212 88 14 212 88 14 212 88 14 214 87 12 214 87 12 214 87 12 214 87 12
214 87 12 214 87 12 214 87 12 212 88 14 208 85 17 211 85 20 203 70 8
207 69 9 208 67 10 208 67 10 206 68 10 206 68 10 208 67 10 209 66 10
209 66 10 209 66 10 205 61 5 205 61 5 203 62 5 203 62 5 203 62 5
203 62 5 202 63 5 202 63 5 203 62 5 203 62 5 203 62 5 203 62 5
200 61 6 200 61 6 200 61 6 200 61 6 203 62 7 203 62 7 203 62 5
202 63 5 206 70 11 204 70 11 204 71 9 204 71 7 204 71 7 204 71 7
204 72 5 204 72 5 205 73 6 202 74 6 220 102 30 214 103 29 215 107 30
217 106 30 220 105 28 222 102 26 223 101 28 224 99 27 223 98 24
220 96 22 219 95 21 217 92 18 216 91 17 216 91 17 215 90 16 215 90 16
213 91 14 213 91 14 212 88 14 215 88 17 203 72 5 206 70 9 207 69 11
207 69 11 207 69 11 207 69 11 206 68 10 206 68 10 206 68 10 206 68 10
210 79 12 210 79 12 210 79 12 210 79 12 210 79 12 210 79 12 210 80 10
210 80 10 211 81 11 205 80 9 220 103 26 216 101 24 215 103 22
215 103 22 216 102 20 216 103 18 217 104 19 217 104 19 219 103 21
214 105 21 228 133 44 223 136 44 225 135 42 225 135 42 224 134 41
224 134 41 224 134 41 224 134 41 224 132 40 224 132 40 224 132 40
224 132 40 222 133 40 222 133 40 222 133 40 222 133 40 225 133 41
227 132 41 228 132 41 230 131 41 215 110 25 218 108 25 218 108 25
218 108 25 219 108 25 219 108 25 219 108 25 219 108 25 221 109 24
223 106 27 201 73 5 203 68 6 208 66 12 208 66 14 205 68 12 205 68 10
207 69 9 207 70 7 207 72 8 208 73 9 208 75 8 207 77 9 207 79 11
207 79 11 208 78 13 208 78 13 208 78 11 208 78 11 206 78 7 208 81 10
211 85 11 213 86 12 214 87 14 214 87 14 212 88 14 212 88 14 212 88 14
212 88 14 212 88 14 212 88 14 214 87 12 214 87 12 214 87 12 214 87 12
214 87 12 214 87 12 214 87 12 212 88 14 208 85 17 211 85 20 203 70 8
207 69 9 208 67 10 208 67 10 206 68 10 206 68 10 208 67 10 209 66 10
209 66 10 209 66 10 205 61 7 205 61 7 203 62 5 203 62 5 203 62 5
203 62 5 202 63 5 202 63 5 203 62 5 203 62 5 203 62 5 203 62 5
200 61 6 200 61 6 200 61 6 200 61 6 203 62 7 203 62 7 203 62 5
202 63 5 206 70 11 204 70 11 204 71 9 204 71 7 204 71 7 204 71 7
204 72 5 204 72 5 207 72 6 202 74 6 220 102 28 214 104 27 215 107 30
217 106 30 220 105 28 222 102 26 223 101 28 224 99 27 224 99 25
222 97 23 218 93 19 217 92 18 216 91 17 216 91 17 215 90 16 215 90 16
213 91 14 213 91 14 212 88 14 216 89 18 203 70 6 207 71 10 207 69 11
207 69 11 207 69 11 207 69 11 206 68 10 206 68 10 206 68 10 206 68 10
210 79 12 210 79 12 210 79 12 210 79 12 210 79 12 210 79 12 210 80 10
210 80 10 211 81 11 205 80 9 220 103 26 216 101 24 215 103 22
215 103 22 216 102 20 216 103 18 217 104 19 217 104 19 219 103 21
214 105 21 228 133 44 223 136 44 225 135 42 225 135 42 224 134 41
224 134 41 224 134 41 224 134 41 224 132 40 224 132 40 224 132 40
224 132 40 222 133 40 222 133 40 222 133 40 224 132 40 227 132 41
227 132 41 228 132 41 230 130 43 215 110 25 216 109 25 218 108 25
218 108 25 219 108 25 219 108 25 219 108 25 219 108 25 221 109 24
223 106 25 201 73 5 203 68 6 208 66 12 208 66 14 205 68 12 205 68 10
206 70 9 207 70 7 207 72 8 207 74 9 206 76 8 207 77 9 207 79 11
207 79 11 208 78 13 208 78 13 208 78 11 208 78 11 206 78 7 208 81 10
211 85 11 213 86 12 214 87 14 214 87 14 212 88 14 212 88 14 212 88 14
212 88 14 212 88 14 212 88 14 214 87 14 214 87 12 214 87 12 214 87 12
214 87 12 214 87 12 214 87 12 212 88 14 208 85 17 211 85 20 203 70 8
207 69 9 208 67 10 208 67 10 206 68 10 206 68 10 208 67 10 209 66 10
209 66 10 209 66 10 205 61 7 205 61 7 203 62 5 203 62 5 203 62 5
203 62 5 202 63 5 202 63 5 203 62 5 203 62 5 203 62 5 203 62 5
200 61 6 200 61 6 200 61 6 202 61 6 203 62 7 203 62 7 203 62 5
202 63 5 206 70 11 204 70 11 204 71 9 204 71 7 204 71 7 204 71 7
204 72 5 204 72 5 207 72 6 204 74 6 220 102 28 213 105 27 213 108 30
215 107 30 220 105 28 223 101 26 225 100 28 224 99 27 224 99 25
222 97 23 217 92 18 216 91 17 215 90 16 215 90 16 215 90 16 215 90 16
213 91 14 213 91 14 212 88 14 216 89 18 203 70 6 207 71 10 207 69 11
207 69 11 207 69 11 207 69 11 206 68 10 206 68 10 206 68 10 206 68 10
210 80 10 210 80 10 210 80 10 210 80 10 210 80 10 210 80 10 210 80 10
210 80 10 209 82 11 205 80 9 220 103 26 216 101 24 215 102 24
215 103 22 216 102 20 216 102 20 217 103 21 217 103 21 219 103 21
216 104 21 228 133 44 223 136 44 225 135 44 225 135 44 224 134 43
224 134 43 224 134 43 224 134 43 225 133 43 225 133 43 225 133 43
225 133 43 225 133 43 225 133 43 225 133 43 225 133 43 228 133 44
228 133 44 230 132 44 231 131 44 216 111 28 217 110 28 219 109 28
219 109 28 219 109 28 219 109 28 219 109 28 219 110 26 222 110 25
224 107 26 202 74 6 205 68 10 208 66 14 208 66 14 206 67 12 205 68 10
206 70 9 206 70 9 207 71 10 207 74 9 207 77 9 207 79 11 208 80 12
208 80 12 208 80 12 208 80 12 210 79 12 208 78 11 208 79 9 210 80 10
211 84 13 213 85 14 214 86 16 214 86 16 212 87 16 212 87 16 212 87 16
212 87 16 212 87 16 212 87 16 214 87 14 214 87 14 214 87 14 214 87 14
214 87 14 214 87 14 214 87 14 212 87 16 208 85 17 211 85 20 203 70 8
207 69 9 208 67 8 208 67 8 206 68 10 206 68 10 208 66 12 209 66 12
209 66 12 209 66 12 205 61 7 205 61 7 203 62 7 203 62 7 203 62 7
203 62 7 202 63 7 202 63 7 203 62 7 203 62 7 203 62 7 203 62 7
202 61 6 202 61 6 202 61 6 202 61 6 205 61 7 205 61 7 205 61 5
203 62 5 206 70 11 204 70 11 204 71 9 204 71 7 204 71 7 204 71 7
204 72 5 204 72 5 207 72 4 204 74 4 220 102 28 213 105 27 212 107 26
214 106 26 219 104 26 223 101 26 225 100 26 225 100 26 224 99 25
223 98 24 216 91 17 215 90 16 215 90 16 215 90 16 213 89 15 213 89 15
212 90 13 212 90 13 212 88 14 216 88 20 202 69 4 206 70 9 206 68 10
206 68 10 206 68 10 206 68 10 206 68 10 206 68 10 206 68 10 206 68 10
210 80 10 210 80 10 210 80 10 210 80 10 210 80 10 210 80 10 210 80 10
210 80 10 209 82 11 205 80 9 220 103 26 216 101 24 215 102 24
215 102 24 216 102 22 216 102 20 217 103 21 219 103 21 221 102 21
216 104 21 228 133 44 223 136 44 225 135 44 225 135 44 224 134 43
224 134 43 224 134 43 224 134 43 225 133 43 225 133 43 225 133 43
225 133 43 225 133 43 225 133 43 225 133 43 227 132 43 228 133 44
230 132 44 230 132 44 231 131 44 216 111 28 217 110 28 219 109 28
219 109 28 219 109 28 219 109 28 219 109 28 219 110 26 222 110 25
224 107 26 202 74 6 205 68 10 208 66 14 208 66 14 206 67 12 205 68 10
206 70 9 206 70 9 205 72 10 207 73 11 207 77 11 207 79 11 208 80 12
208 80 12 208 80 12 208 80 12 210 79 12 208 78 11 208 79 9 210 80 10
211 84 13 213 85 14 214 86 16 214 86 16 212 87 16 212 87 16 212 87 16
212 87 16 212 87 16 212 87 16 214 87 14 214 87 14 214 87 14 214 87 14
214 87 14 214 87 14 214 87 14 212 87 16 208 85 17 211 85 20 203 70 8
207 69 9 208 67 8 208 67 8 206 68 10 206 68 10 208 66 12 209 66 12
209 66 12 209 66 12 205 61 7 205 61 7 203 62 7 203 62 7 203 62 7
203 62 7 202 63 7 202 63 7 203 62 7 203 62 7 203 62 7 203 62 7
202 61 6 202 61 6 202 61 6 202 61 6 205 61 7 205 61 7 205 61 5
203 62 5 206 70 11 204 71 9 204 71 7 204 71 7 204 71 7 204 71 7
204 72 5 204 72 5 205 73 4 202 75 4 219 103 28 213 105 27 211 108 26
212 107 26 219 104 24 223 102 24 225 100 26 225 100 26 224 99 25
224 99 25 215 90 16 213 89 15 213 89 15 213 89 15 213 89 15 213 89 15
212 90 13 212 90 15 212 87 16 216 88 20 202 69 4 206 70 9 206 68 10
206 68 10 206 68 10 206 68 10 206 68 10 206 68 10 206 68 10 206 68 10
211 81 11 211 81 11 211 81 11 211 81 11 211 81 11 211 81 11 209 82 11
209 82 11 209 82 11 206 81 10 222 102 26 216 101 24 215 102 24
215 102 24 216 102 22 218 101 20 217 103 21 219 103 21 221 102 21
216 104 21 228 133 44 223 136 44 225 135 44 225 135 44 225 133 43
225 133 43 225 133 43 225 133 43 225 133 43 225 133 43 225 133 43
225 133 43 227 132 43 227 132 43 227 132 43 227 132 43 230 132 44
230 132 44 231 131 44 231 131 44 216 111 28 217 110 28 217 110 28
217 110 28 219 109 28 219 109 28 219 109 28 219 110 26 222 110 25
224 107 26 202 74 6 205 68 10 206 67 12 208 66 14 206 67 12 205 68 10
206 70 9 206 70 9 205 72 10 207 73 11 207 77 11 207 79 11 208 81 10
208 81 10 208 81 10 208 81 10 208 81 10 208 81 10 208 79 9 210 80 8
211 85 11 213 86 12 214 87 14 214 87 14 212 88 14 212 88 14 212 88 14
212 88 14 212 88 14 212 88 14 213 89 15 213 89 15 213 89 15 213 89 15
213 89 15 213 89 15 213 89 15 213 88 17 208 85 15 212 86 20 203 70 8
207 69 9 208 67 8 208 67 8 206 68 10 206 68 10 208 66 12 208 66 12
208 67 10 208 67 10 203 62 7 204 63 8 204 63 8 204 63 8 204 63 8
204 63 8 203 64 8 202 63 7 203 62 7 203 62 7 203 62 7 203 62 7
202 61 6 202 61 6 202 61 6 202 61 6 203 62 7 203 62 7 203 62 5
202 63 5 204 71 9 203 72 9 203 72 7 203 72 5 203 72 5 203 72 5
203 72 5 203 73 3 204 74 4 203 78 6 219 104 26 213 105 25 211 108 26
212 107 24 219 104 24 223 102 24 225 101 24 225 101 24 225 101 24
225 101 24 213 91 14 213 91 14 213 91 14 213 91 14 213 89 15
213 89 15 212 90 13 212 90 15 212 87 16 216 88 20 203 68 6 207 69 11
205 68 10 205 68 10 205 68 10 205 68 10 205 69 8 205 69 8 205 69 8
205 69 8 211 81 11 211 81 11 211 81 11 211 81 11 211 81 11 211 81 11
209 82 11 209 82 11 209 82 11 206 81 10 222 102 26 218 101 24
216 101 24 216 101 24 218 101 22 218 101 20 219 103 21 219 103 21
221 102 21 216 104 21 231 131 44 228 133 44 228 133 44 228 133 44
228 131 43 228 131 43 228 131 43 228 131 43 228 131 43 228 131 43
228 131 43 230 130 43 230 130 43 230 130 43 230 130 43 232 130 43
233 131 44 234 130 44 234 130 44 236 129 46 219 109 28 219 109 28
221 108 28 221 108 28 222 108 28 222 108 28 222 107 30 224 107 28
225 108 27 227 105 30 204 73 8 205 68 10 205 66 11 207 65 13
205 66 11 203 67 9 205 69 8 205 69 8 204 71 9 204 71 9 207 77 11
207 79 11 208 81 10 208 81 10 208 81 10 208 81 10 208 81 10 208 81 8
207 80 7 206 82 8 210 85 11 211 86 12 212 88 14 211 88 14 211 88 14
211 88 14 211 88 14 211 88 14 211 88 14 211 88 14 213 89 15 213 89 15
213 89 15 213 89 15 213 89 15 213 89 15 213 89 15 213 88 17 208 85 15
212 86 20 203 70 8 206 68 8 208 67 8 208 67 8 206 68 10 206 68 10
208 66 12 208 66 12 208 67 10 208 67 10 203 62 7 204 63 8 204 63 8
204 63 8 204 63 8 204 63 8 203 64 8 202 63 7 203 62 7 203 62 7
203 62 7 203 62 7 202 61 6 202 61 6 202 61 6 202 61 6 203 62 7
203 62 7 203 62 5 202 63 5 204 71 9 203 72 7 203 72 5 203 72 5
203 72 5 203 72 5 203 73 3 203 73 3 204 74 4 202 80 7 215 105 26
208 107 25 207 110 24 209 109 24 214 107 22 215 106 22 217 105 24
217 105 24 217 105 24 219 104 24 212 93 15 213 91 14 213 91 14
213 91 14 213 89 15 213 89 15 212 90 13 212 90 15 212 87 16 216 88 20
203 68 4 207 69 9 205 69 8 205 69 8 205 69 8 205 69 8 205 69 8
205 69 8 205 69 8 205 69 8 209 82 11 209 82 11 209 82 11 209 82 11
209 82 11 209 82 11 209 82 11 209 82 11 209 84 12 206 81 10 215 93 20
211 91 18 212 93 17 212 93 17 212 93 17 214 92 15 215 94 14 215 94 14
214 95 14 212 96 14 217 107 23 215 108 23 213 109 23 213 109 23
215 110 25 215 110 25 216 109 25 216 109 25 219 109 28 220 110 29
205 95 14 206 96 15 208 96 13 208 96 13 208 96 13 208 96 13 210 96 16
212 95 16 212 95 16 212 95 16 201 81 5 201 81 5 202 80 5 202 80 5
204 79 5 204 79 5 206 78 7 207 79 9 210 79 12 207 77 11 205 72 10
203 67 9 204 65 9 205 64 11 205 66 11 203 67 9 203 67 9 203 67 9
203 70 8 203 70 8 221 91 25 220 92 23 220 92 21 220 93 19 218 93 19
218 93 19 218 93 19 218 93 19 215 93 18 212 93 17 225 108 31
224 106 30 223 105 29 223 105 29 223 105 29 223 105 29 224 104 29
224 104 29 224 104 29 224 104 29 213 91 16 213 91 16 213 91 16
213 91 16 215 90 16 215 90 16 215 90 16 215 90 18 214 91 21 213 88 21
203 70 6 206 68 8 209 68 9 209 68 11 207 69 11 207 69 11 208 67 10
208 67 10 208 67 10 207 66 9 207 66 9 204 63 6 203 64 6 203 64 6
203 64 6 203 64 6 203 64 6 203 64 6 203 64 8 202 63 7 202 63 7
202 63 7 202 63 7 202 63 7 202 63 7 202 63 7 204 63 8 204 63 8
204 63 8 203 64 6 215 81 19 213 83 17 213 83 15 213 83 15 213 83 13
213 83 13 213 83 13 213 84 11 214 87 14 203 85 9 240 142 59
231 143 55 239 146 59 241 146 59 238 148 57 238 148 57 238 147 59
238 147 59 238 147 59 242 145 59 212 97 19 214 92 17 214 94 18
215 93 18 217 92 18 217 92 18 216 95 17 216 94 19 218 93 21 217 90 19
212 77 11 211 73 10 209 74 10 209 74 10 209 74 10 209 74 10 209 73 12
209 73 12 209 73 12 209 73 12 209 82 11 209 82 11 209 82 11 209 82 11
209 82 11 209 82 11 209 82 11 209 82 11 209 84 12 206 81 10 215 93 20
213 90 18 214 92 17 214 92 17 214 92 17 214 92 17 217 93 16 217 93 14
215 94 14 214 95 14 221 105 23 220 106 23 218 106 23 217 107 23
218 108 25 218 108 25 219 108 25 219 108 25 222 108 28 223 109 29
208 94 14 209 95 15 211 94 13 211 94 13 211 94 13 212 94 13 215 94 16
215 94 16 215 94 16 215 94 16 204 79 5 204 79 5 206 79 5 206 79 5
207 78 5 207 77 7 209 76 9 210 77 13 213 77 16 210 75 13 207 71 12
203 67 9 203 64 8 203 64 8 202 66 7 202 66 7 202 66 7 202 66 7
202 68 6 202 69 4 221 91 23 220 92 21 220 93 19 220 93 19 218 94 17
218 94 17 218 94 17 216 95 17 214 94 18 211 94 17 223 108 31
221 108 30 219 107 29 219 107 29 221 106 29 221 106 29 223 105 29
223 105 29 223 105 29 223 105 29 211 92 16 213 91 16 213 91 16
213 91 16 215 90 16 215 90 16 215 90 16 215 90 18 214 91 21 213 88 19
203 70 6 205 67 6 209 68 11 209 68 11 207 69 11 206 70 11 206 68 10
208 67 10 208 67 10 207 66 9 207 66 9 204 63 6 203 64 6 203 64 6
203 64 6 203 64 6 203 64 6 203 64 6 203 64 8 202 63 7 202 63 7
202 63 7 202 63 7 202 63 7 202 63 7 202 63 7 204 63 8 204 63 8
204 63 8 203 64 6 215 81 19 213 83 17 213 83 15 213 83 15 213 83 13
213 83 13 213 84 11 213 84 11 214 87 14 202 87 10 235 145 57
228 145 55 238 147 59 238 147 59 233 150 57 230 152 57 231 150 59
231 150 59 230 151 59 236 148 59 210 100 21 214 92 17 212 93 17
212 93 17 216 94 19 218 93 19 216 94 19 216 94 19 218 93 21 217 90 19
212 77 11 211 73 8 209 74 8 209 74 8 209 74 8 209 74 8 209 74 10
209 73 12 209 73 12 209 73 12 210 83 12 210 83 12 210 83 12 210 83 12
210 83 12 210 83 12 209 84 12 209 84 12 209 84 12 208 83 11 215 93 20
213 90 18 214 92 17 214 92 17 214 92 17 214 92 17 217 93 16 217 93 14
215 94 14 214 95 14 221 105 23 220 106 23 218 106 23 217 107 23
218 108 25 218 108 25 219 108 25 219 108 25 222 108 28 223 109 29
208 94 14 209 95 15 211 94 13 211 94 13 211 94 13 212 94 13 215 94 16
215 94 16 215 94 16 215 94 16 204 79 5 204 79 5 206 79 5 206 79 5
207 78 5 207 77 7 209 76 9 210 77 13 213 77 16 210 75 13 207 71 12
203 67 9 203 64 8 203 64 8 202 66 7 202 66 7 202 66 7 202 66 7
202 68 6 202 69 4 221 91 23 220 92 21 218 93 19 218 94 17 218 94 17
218 94 17 216 95 17 216 95 17 214 94 16 211 94 15 223 109 29
221 108 28 219 107 27 219 107 27 221 106 27 221 106 27 223 106 27
223 106 27 223 106 27 223 106 27 212 93 17 212 93 17 212 93 17
214 92 17 214 92 17 214 92 17 216 91 17 216 91 19 214 91 21 215 89 20
203 70 6 205 67 6 209 68 11 209 68 11 207 69 11 206 70 11 206 68 10
206 68 10 206 68 8 205 67 6 205 66 9 204 65 7 204 65 7 204 65 7
204 65 7 204 65 7 204 65 7 203 64 6 203 64 8 202 63 7 202 63 7
202 63 7 202 63 7 202 63 7 202 63 7 202 63 7 203 64 8 203 64 8
203 64 8 201 65 6 213 83 17 211 84 15 211 84 15 211 84 13 211 84 13
211 84 13 211 85 11 211 85 11 214 87 12 203 91 10 235 145 57
227 146 53 236 148 57 236 148 57 231 151 57 230 152 57 231 151 57
231 151 57 230 152 57 236 148 59 211 101 20 214 94 16 214 94 18
214 94 18 216 94 21 218 93 21 216 94 19 216 94 19 218 93 21 217 90 19
212 77 11 211 73 8 209 74 8 208 75 8 208 75 8 208 75 8 208 75 10
208 75 10 208 75 10 208 75 10 210 83 12 210 83 12 210 83 12 210 83 12
210 83 12 210 83 12 209 84 12 209 84 12 209 84 12 208 83 11 215 93 20
213 90 18 214 92 17 214 92 17 214 92 17 214 92 17 217 93 16 217 93 16
215 94 16 214 95 14 221 105 23 220 106 23 218 106 23 217 107 23
218 108 25 218 108 25 219 108 25 219 108 25 222 108 28 223 109 29
208 94 14 209 95 15 211 94 13 211 94 13 211 94 13 212 93 15 215 94 16
215 94 16 215 94 16 215 93 18 204 79 5 204 79 5 206 79 5 206 79 5
207 78 5 207 77 7 209 76 9 210 77 13 213 77 16 210 75 13 207 71 12
203 67 9 203 64 8 203 64 8 202 66 7 202 66 7 202 66 7 202 66 7
202 68 6 200 70 4 220 92 23 220 93 19 218 94 17 218 94 17 218 94 17
218 94 17 216 95 17 216 95 17 214 94 16 211 94 15 223 109 29
221 108 28 219 107 27 219 107 27 221 106 27 221 106 27 223 106 27
223 106 27 223 106 27 223 106 27 212 93 17 212 93 17 212 93 17
212 93 17 214 92 17 214 92 17 216 91 17 216 91 19 214 91 21 215 89 20
203 70 6 205 67 6 209 68 11 209 68 11 207 69 11 206 70 11 206 68 10
206 68 10 206 68 8 205 67 6 205 66 9 204 65 7 204 65 7 204 65 7
204 65 7 204 65 7 204 65 7 203 64 6 203 64 8 202 63 7 202 63 7
202 63 7 202 63 7 202 63 7 202 63 7 202 63 7 203 64 8 203 64 8
203 64 8 201 65 6 213 83 17 211 84 15 211 84 13 211 84 13 211 84 13
211 84 13 211 85 11 211 85 11 212 88 12 203 91 10 235 145 55
227 146 53 236 148 57 236 148 57 231 151 55 230 152 55 231 151 57
231 151 57 230 152 57 236 148 57 211 101 20 214 94 18 212 95 18
214 94 18 216 94 21 218 93 21 216 94 19 216 94 21 218 93 21 217 90 21
212 77 11 211 73 8 209 74 8 208 75 8 208 75 8 208 75 8 208 75 10
208 75 10 208 75 10 208 75 10 210 83 12 210 83 12 210 83 12 210 83 12
210 83 12 210 83 12 209 84 12 209 84 12 209 84 12 208 83 11 215 93 20
213 90 18 214 92 17 214 92 17 214 92 17 214 92 17 217 92 18 217 92 18
215 93 18 214 94 16 223 106 25 221 107 25 219 108 25 218 108 25
218 108 25 218 108 25 219 108 25 219 108 25 222 108 28 223 109 29
208 94 14 209 95 15 211 94 15 211 94 15 211 94 15 212 93 15 215 93 18
215 93 18 215 93 18 215 93 18 204 79 7 204 79 7 206 78 7 206 78 7
207 77 7 207 77 9 209 76 9 210 77 13 213 77 16 210 75 13 207 71 10
203 67 9 204 65 7 204 65 7 204 65 7 202 66 7 203 67 9 202 68 9
202 68 6 200 70 4 220 92 21 218 93 19 218 94 17 218 94 15 218 94 17
218 94 17 216 95 17 216 95 17 214 94 16 211 94 15 223 109 29
221 108 28 219 107 27 219 107 27 221 107 25 221 107 25 223 106 25
223 106 25 223 106 25 223 106 27 212 93 17 212 93 17 212 92 19
212 92 19 214 92 19 214 92 19 216 91 19 216 91 19 216 90 21 216 88 20
203 70 6 205 67 6 209 68 11 209 68 11 207 68 13 206 69 13 205 68 10
205 68 10 205 69 8 203 68 6 203 68 6 202 66 5 202 66 5 202 66 5
202 66 5 202 66 5 202 66 7 201 65 6 201 65 6 200 64 5 200 64 5
200 64 5 202 63 5 202 63 5 202 63 5 202 63 5 203 64 6 203 64 6
203 64 6 201 65 4 213 83 15 211 84 13 211 84 13 211 84 13 211 84 13
211 84 13 211 85 11 211 85 11 212 88 12 203 91 10 235 145 57
227 146 55 234 149 59 234 149 57 231 151 55 230 152 55 231 151 57
231 151 57 230 152 57 236 148 57 211 101 20 214 94 18 212 94 20
214 94 20 216 94 21 218 93 21 216 94 21 216 94 21 218 93 23 217 90 21
212 77 11 211 73 8 209 74 8 208 75 8 208 75 8 208 75 8 208 75 10
208 75 10 208 75 10 208 75 10 210 83 12 210 83 12 210 83 12 210 83 12
210 83 12 210 83 12 209 84 12 209 84 12 209 84 12 208 83 11 215 93 20
213 90 18 214 92 17 214 92 17 214 92 17 214 92 17 217 92 18 217 92 18
215 93 18 214 94 18 223 106 27 221 107 25 219 108 25 218 108 25
218 108 25 218 108 25 219 108 25 219 108 25 222 108 28 223 109 29
208 94 14 209 95 15 211 94 15 211 94 15 211 94 15 212 93 15 215 93 18
215 93 18 215 93 18 215 93 18 204 79 7 206 78 7 206 78 7 207 77 7
207 77 9 209 76 9 209 76 9 210 77 13 213 77 16 210 75 13 207 71 10
203 68 6 204 65 7 204 65 7 204 65 7 204 65 7 203 67 9 202 68 9
200 69 6 200 70 4 220 92 21 218 93 19 218 94 17 218 94 15 218 94 17
218 94 17 216 95 17 216 95 17 214 94 16 211 94 15 223 109 29
221 108 28 219 107 27 219 107 27 221 107 25 221 107 25 223 106 25
223 106 25 223 106 25 223 106 27 212 93 17 212 93 17 212 92 19
212 92 19 214 92 19 214 92 19 216 91 19 216 91 19 216 90 21 216 88 22
203 70 8 205 67 6 209 68 11 209 68 11 207 68 13 206 69 13 205 68 10
205 68 10 205 69 8 203 68 6 203 68 6 202 66 5 202 66 5 202 66 5
202 66 5 202 66 5 202 66 7 201 65 6 201 65 6 200 64 5 200 64 5
200 64 5 202 63 5 202 63 5 202 63 5 202 63 5 203 64 6 203 64 6
203 64 6 201 65 4 213 83 15 211 84 13 211 84 13 211 84 13 211 84 13
211 84 13 211 85 11 211 85 11 212 88 12 203 91 10 235 145 57
227 146 55 234 149 59 234 149 59 231 151 57 230 152 55 231 151 57
231 151 57 230 152 57 236 148 59 211 101 22 214 94 18 212 94 20
214 94 20 216 94 21 218 93 21 216 94 21 216 93 23 218 92 25 217 89 23
212 77 11 209 74 8 208 75 8 208 75 8 208 75 8 208 75 8 208 75 10
208 75 10 208 75 10 208 75 10 210 83 12 210 83 12 210 83 12 210 83 12
210 83 12 210 83 12 209 84 12 209 84 12 209 84 12 208 83 11 215 93 20
213 90 18 214 92 17 214 92 17 214 92 17 214 92 17 217 92 18 217 92 18
215 93 18 214 94 18 223 106 27 221 106 27 219 108 25 218 108 25
218 108 25 218 108 25 219 108 25 219 108 25 222 108 28 223 109 29
208 94 14 209 95 15 211 94 15 211 94 15 211 94 15 212 93 15 215 93 18
215 93 18 215 93 18 215 93 18 204 79 7 206 78 7 207 77 7 207 77 7
209 76 9 209 76 9 210 75 9 212 76 13 213 77 16 210 75 13 207 71 10
203 68 6 204 65 7 204 65 7 204 65 7 204 65 7 203 67 9 202 68 9
200 69 6 200 70 4 220 92 21 218 93 19 216 95 17 216 95 15 218 94 17
218 94 17 218 94 17 216 95 17 214 94 16 211 94 15 223 109 29
221 108 28 219 107 27 219 107 27 221 107 25 221 107 25 223 106 25
223 106 25 223 106 25 223 106 27 212 93 17 212 93 17 212 92 19
212 92 19 214 92 19 214 92 19 216 91 19 217 90 19 217 90 21 218 87 22
203 70 8 205 67 6 208 67 10 208 67 10 206 67 12 205 68 12 205 68 10
205 68 10 205 69 8 203 68 6 203 68 6 202 66 5 202 66 5 202 66 5
202 66 5 202 66 5 202 66 7 201 65 6 201 65 6 200 64 5 200 64 5
200 64 5 202 63 5 202 63 5 202 63 5 202 63 5 203 64 6 203 64 6
203 64 6 201 65 4 213 83 15 211 84 13 211 84 13 211 84 13 211 84 13
211 84 13 211 85 11 210 85 11 211 89 12 201 92 10 234 146 57
227 146 55 234 149 59 234 149 59 231 151 57 230 152 55 231 151 57
231 151 57 230 152 57 236 148 59 211 101 22 214 94 18 212 94 20
214 93 22 216 93 23 218 93 23 216 93 23 216 93 23 218 92 25 217 89 23
210 77 11 209 74 8 208 75 8 208 75 8 208 75 8 208 75 8 208 75 10
208 75 10 208 75 10 208 75 10 210 83 12 210 83 12 210 83 12 210 83 12
210 83 12 210 83 12 209 84 12 209 84 12 209 84 12 208 83 11 215 93 20
213 90 18 214 92 17 214 92 17 214 92 17 214 92 17 215 93 18 215 93 18
215 93 18 214 94 18 223 106 27 221 106 27 219 107 27 219 108 25
219 108 25 219 108 25 219 108 25 221 107 25 222 108 28 225 108 29
210 93 14 211 94 15 211 94 15 211 94 15 211 94 15 212 93 15 215 93 18
215 93 18 215 93 18 217 92 20 206 78 7 207 77 7 207 77 7 209 77 7
209 76 9 209 76 9 210 75 9 212 76 13 214 78 17 210 75 13 207 71 10
202 66 5 203 64 6 203 64 6 203 64 6 201 65 6 201 67 7 201 67 7
199 68 5 197 69 3 217 92 20 217 93 16 215 94 14 215 94 14 218 94 17
218 94 17 218 94 17 218 94 17 215 94 16 211 94 15 223 109 29
221 108 28 219 107 27 219 107 27 221 107 25 221 107 25 223 106 25
223 106 25 223 106 25 224 105 27 212 93 17 212 93 17 212 92 19
214 92 19 214 92 19 216 91 19 217 90 19 217 90 21 218 90 24 218 87 22
205 72 10 206 68 8 208 67 10 208 67 10 206 67 12 205 68 12 205 68 10
205 68 10 206 70 11 205 69 8 203 68 6 202 66 5 202 66 5 202 66 5
202 66 5 202 66 5 202 66 7 201 65 6 201 65 6 200 64 5 200 64 5
200 64 5 202 63 5 202 63 5 202 63 5 202 63 5 202 63 5 202 63 5
202 63 5 200 64 3 213 83 15 211 84 13 211 84 13 211 84 13 211 84 13
211 84 13 211 85 11 210 85 11 209 90 12 200 91 9 237 144 57
230 144 55 236 148 59 234 149 59 231 151 57 231 151 55 233 150 57
233 150 57 231 151 57 238 147 59 211 101 22 212 94 20 210 95 22
212 94 22 216 93 23 218 93 23 216 93 23 216 93 23 218 92 25 217 89 23
210 77 11 208 75 8 208 75 8 208 75 8 208 75 8 208 75 8 208 75 10
208 75 10 208 75 10 208 75 10 209 84 12 209 84 12 209 84 12 209 84 12
209 84 12 209 84 12 209 84 12 209 84 12 206 81 10 210 85 13 213 90 18
216 94 21 214 92 19 214 92 19 212 92 19 212 92 19 212 93 17 212 93 17
211 94 17 211 94 17 217 103 25 217 103 25 219 104 26 219 104 24
220 105 26 220 105 26 221 107 25 223 106 25 216 99 20 221 101 23
209 90 12 212 93 15 214 94 16 214 94 16 214 94 16 214 94 16 214 92 17
214 92 19 214 92 19 216 91 19 207 77 9 209 76 9 209 76 9 210 75 9
210 75 9 210 75 9 210 75 11 213 77 14 214 76 16 212 74 13 206 70 7
202 66 5 203 65 4 203 65 4 201 65 4 201 65 4 201 67 5 201 67 5
199 68 5 197 70 1 215 90 16 213 91 14 213 92 12 213 92 12 214 92 15
214 92 15 216 92 15 216 92 15 215 94 16 211 94 15 222 110 27
219 110 26 219 108 25 219 108 25 221 106 27 221 106 27 223 106 27
223 106 27 224 105 27 224 104 29 213 91 16 213 90 18 213 90 18
215 90 18 215 90 18 216 89 18 216 88 20 216 88 20 218 90 24 217 86 21
208 72 11 207 69 9 208 67 10 208 67 10 207 69 11 207 69 11 206 69 13
206 69 13 206 70 11 206 70 11 203 68 6 203 68 6 203 68 6 203 68 6
203 68 6 203 68 6 203 68 6 202 66 5 202 66 7 201 65 6 201 65 6
201 65 6 202 63 5 202 63 5 202 63 5 202 63 5 202 63 5 202 63 5
202 63 5 200 64 3 213 83 15 211 84 13 211 85 11 211 85 11 211 85 11
211 85 11 210 85 11 208 86 11 205 88 11 200 90 11 244 146 60
238 145 58 240 149 62 237 151 62 235 152 60 235 152 60 238 151 58
238 151 58 235 152 60 240 149 62 209 101 22 210 95 20 209 96 22
210 95 22 215 92 22 217 92 22 217 92 22 217 92 22 215 89 22 220 91 25
205 74 9 208 78 13 206 76 10 206 76 10 206 76 8 206 76 8 208 75 8
208 75 8 208 75 8 208 75 8 211 86 14 211 86 14 211 86 14 211 86 14
211 86 14 211 86 14 211 86 14 211 86 14 210 85 13 211 86 14 212 89 17
213 90 18 213 90 18 213 90 18 213 90 18 211 91 18 211 92 16 211 92 16
210 92 16 210 92 16 223 105 29 224 104 31 224 104 31 224 104 29
225 106 30 225 106 30 225 106 28 227 105 30 222 100 25 227 102 31
216 91 19 219 94 23 216 91 19 216 91 19 216 91 19 216 91 19 215 89 20
216 88 20 216 88 20 216 88 20 208 75 8 209 74 8 209 74 8 209 74 8
209 74 8 209 74 8 209 74 10 209 74 10 212 74 13 211 73 12 207 72 8
206 70 7 205 67 6 205 67 6 203 68 6 203 68 6 203 70 8 203 70 8
201 71 6 200 72 4 216 91 17 214 92 15 214 93 13 214 93 13 215 94 16
215 94 16 217 93 16 217 93 16 216 95 17 212 95 16 223 111 28
220 111 27 221 109 26 221 109 26 221 108 28 222 108 28 222 108 28
222 108 28 224 106 30 225 106 30 215 93 20 217 92 20 217 92 20
218 91 20 218 91 20 218 91 20 218 91 22 218 91 22 216 88 22 213 83 17
207 71 10 205 67 6 208 67 10 208 67 10 206 68 10 206 68 10 205 68 12
205 68 12 205 68 10 205 68 10 205 69 8 205 69 8 205 69 8 205 69 8
205 69 8 205 69 8 205 69 8 203 68 6 203 67 9 202 66 7 202 66 7
202 66 7 204 65 7 204 65 7 204 65 7 204 65 7 204 65 7 204 65 7
204 65 7 202 66 5 213 83 15 211 84 13 211 85 11 211 85 11 211 85 11
211 85 11 210 85 11 208 86 11 204 85 9 207 92 15 246 139 57
250 148 64 242 145 59 239 146 59 236 148 57 238 148 57 241 146 55
242 145 55 239 147 57 242 145 59 209 96 18 211 91 18 208 92 20
211 93 21 215 92 22 220 92 23 220 92 23 221 93 25 220 91 25 216 88 22
204 73 8 200 70 4 206 76 10 206 76 10 206 76 8 206 76 8 208 75 8
208 75 8 208 75 8 208 75 8 215 90 18 215 90 18 215 90 18 215 90 18
215 90 18 215 90 18 215 90 18 215 90 18 215 90 18 213 88 17 211 86 14
210 85 13 211 86 14 211 86 14 211 86 14 211 86 14 211 86 12 211 86 12
211 86 12 211 86 12 199 74 3 201 73 5 201 73 5 201 73 5 200 72 4
200 72 4 200 72 4 200 72 4 200 70 4 205 72 10 194 60 0 197 64 2
201 67 5 201 67 5 201 67 5 201 67 5 200 66 4 201 65 6 201 65 4
201 65 4 206 70 9 206 70 7 206 70 7 206 70 7 206 71 5 206 71 5
206 70 7 206 70 7 207 69 9 209 70 10 209 74 10 209 74 10 211 73 12
210 72 11 208 72 11 208 72 11 208 74 12 208 74 12 206 76 10 204 77 8
220 96 22 219 97 20 217 98 18 217 98 18 217 98 20 217 98 20 219 97 20
220 96 20 220 98 21 216 99 20 225 115 32 224 114 30 222 113 29
222 113 29 222 113 31 224 112 31 224 112 31 224 112 31 224 112 33
227 110 33 202 77 5 203 76 5 203 76 5 205 75 5 205 75 5 205 75 5
205 75 7 205 75 7 214 84 18 210 79 16 203 68 6 202 63 3 207 66 9
207 66 9 205 66 9 205 66 9 202 66 9 202 66 9 202 66 7 202 66 7
208 72 11 208 72 11 208 72 11 208 72 11 208 72 11 208 72 11 208 72 11
208 72 11 205 68 10 205 68 10 205 68 10 205 68 10 206 68 10 206 68 10
206 68 10 206 68 10 206 68 10 206 68 10 206 68 10 205 69 8 213 83 15
211 84 13 211 85 11 211 85 11 211 85 11 211 85 11 211 85 11 213 86 12
211 86 12 208 86 11 214 97 19 213 98 19 212 102 21 211 106 23
208 108 21 209 107 21 213 106 19 214 105 19 211 107 21 214 105 23
203 78 4 204 72 3 200 72 4 200 72 6 200 72 6 201 71 6 200 70 4
200 70 4 205 74 9 204 73 8 211 80 15 211 80 15 208 75 10 208 75 10
208 75 8 208 75 8 208 75 8 208 75 8 208 75 8 208 75 8 217 92 20
217 92 20 217 92 20 217 92 20 217 92 20 217 92 20 217 92 20 217 92 20
218 93 21 215 90 18 210 85 13 208 83 11 210 85 13 210 85 13 210 85 13
211 84 13 211 85 11 211 85 11 211 85 11 213 83 13 205 75 5 205 75 7
205 75 7 205 73 6 204 71 7 203 70 8 203 70 8 203 70 8 206 70 11
211 72 16 199 60 5 203 64 8 202 63 7 202 63 7 202 63 7 202 63 7
202 60 8 202 60 8 202 61 6 200 62 4 205 67 6 203 68 6 203 68 4
203 68 4 203 68 2 203 68 2 203 68 4 202 67 3 205 67 6 207 69 9
210 75 11 213 77 14 214 76 16 213 75 15 212 76 15 212 76 15 211 78 16
210 79 16 208 80 14 206 81 12 222 100 25 222 100 23 221 102 21
221 102 21 218 101 22 218 101 22 221 99 22 221 99 22 221 101 23
216 102 22 227 118 34 224 117 33 223 116 32 225 115 32 225 115 34
225 115 34 225 115 34 225 115 34 225 115 36 228 113 36 205 80 9
208 79 9 208 79 9 208 79 9 210 78 9 210 77 11 208 78 11 208 78 13
211 80 17 208 74 12 201 65 4 198 62 1 204 65 7 204 65 7 204 65 7
204 65 7 201 65 8 201 65 8 201 65 6 201 65 6 209 73 12 209 73 12
209 73 12 209 73 12 209 73 12 209 73 12 209 73 12 208 72 11 208 72 13
207 71 12 207 71 12 207 71 12 209 70 12 209 70 12 209 70 12 209 70 12
209 70 12 209 70 12 209 70 12 207 71 10 213 83 15 211 84 13 211 85 11
211 85 11 211 85 11 211 85 11 213 84 11 212 83 10 214 85 12 215 88 15
217 93 16 219 97 20 217 100 21 212 100 20 211 101 18 211 101 18
216 99 16 216 99 16 212 101 18 216 99 20 205 70 0 204 65 0 204 66 3
202 67 3 202 69 4 202 69 4 203 70 6 203 70 6 210 77 13 202 69 4
211 78 14 204 71 7 208 75 10 208 75 10 208 75 8 208 75 8 208 75 8
208 75 8 208 75 8 208 75 8 217 92 20 217 92 20 217 92 20 217 92 20
217 92 20 217 92 20 217 92 20 217 92 20 218 93 21 215 90 18 211 84 13
209 82 11 211 84 13 211 84 13 211 84 13 213 83 13 214 84 14 214 84 14
214 84 14 216 84 14 205 73 4 205 73 4 205 73 4 207 72 6 207 69 11
207 68 13 207 68 13 207 68 13 209 67 15 207 65 13 203 61 9 201 59 7
201 59 7 202 60 8 202 60 8 204 59 10 204 59 10 204 59 10 204 59 10
202 60 8 207 66 6 205 67 4 205 67 4 205 67 4 205 67 4 205 67 4
205 67 4 205 67 4 204 66 3 207 70 7 210 75 11 214 79 15 214 77 14
214 77 14 213 77 14 213 77 14 211 78 14 210 79 14 208 80 14 206 81 10
222 100 25 221 101 23 221 102 21 221 102 21 218 101 22 218 101 22
219 100 22 219 100 22 219 102 23 215 103 22 225 119 34 223 118 33
222 117 32 223 116 32 223 116 32 223 116 32 223 116 34 223 116 34
223 115 36 226 114 36 202 77 3 205 76 3 205 75 5 205 75 5 207 74 7
207 74 7 205 74 9 205 74 9 211 78 16 207 73 11 200 64 5 198 61 3
202 66 7 202 66 7 202 66 7 202 66 7 201 65 8 201 65 8 201 65 6
201 65 6 208 74 12 208 75 10 208 75 10 208 75 10 208 75 10 208 75 10
208 74 12 208 74 12 208 72 11 208 72 11 208 72 11 208 72 11 207 71 10
207 71 10 207 71 10 207 71 10 209 70 10 209 70 10 209 70 10 207 72 8
212 82 12 210 83 10 210 83 10 210 83 10 210 83 10 210 83 10 212 83 10
213 82 10 217 85 14 215 83 11 227 98 25 221 94 21 219 97 22 216 99 20
214 100 18 214 100 18 219 98 16 219 98 16 216 99 18 219 97 20
211 72 5 211 66 4 209 67 6 206 68 8 205 69 6 205 69 6 205 69 6
203 68 4 203 68 6 206 70 9 209 74 10 209 76 11 209 76 11 209 76 11
209 76 11 209 76 11 209 76 11 209 76 11 209 76 11 209 76 11 217 92 20
217 92 20 217 92 20 217 92 20 217 92 20 217 92 20 217 92 20 217 92 20
218 93 21 215 90 18 210 85 13 209 82 11 213 85 14 213 85 14 213 85 14
214 84 14 214 84 14 214 84 14 214 84 14 214 84 14 205 73 4 205 73 4
205 73 4 207 72 6 207 69 11 207 68 13 207 68 13 207 68 13 209 67 15
207 65 13 203 61 9 201 59 7 201 59 7 202 60 8 202 60 8 204 59 10
204 59 10 204 59 10 204 59 10 202 60 8 207 66 6 207 66 4 205 67 4
205 67 4 205 67 4 205 67 4 205 67 4 205 67 4 205 67 4 207 70 7
210 75 9 213 78 12 214 77 14 214 77 14 213 77 14 213 77 14 211 78 14
210 79 14 208 80 12 206 81 10 222 100 25 221 101 23 221 102 21
219 103 21 216 102 22 216 102 22 218 101 22 218 101 22 217 103 23
215 103 22 224 119 34 221 119 33 222 117 32 222 117 32 222 117 32
222 117 32 222 117 34 222 117 34 222 116 36 225 115 36 200 78 3
205 76 3 205 75 5 205 75 5 207 74 7 207 74 7 205 74 9 207 74 9
211 78 16 207 73 11 201 65 6 199 63 4 201 65 6 201 65 6 201 65 6
201 65 6 201 65 8 201 65 8 201 65 6 201 65 6 208 74 12 208 75 10
208 75 10 208 75 10 208 75 10 208 75 10 208 74 12 208 74 12 208 72 11
208 72 11 208 72 11 208 72 11 207 71 10 207 71 10 207 71 10 207 71 10
209 70 10 209 70 10 209 70 10 207 72 8 212 82 12 210 83 10 210 83 10
210 83 10 210 83 10 210 83 10 212 83 10 213 82 10 217 85 14 212 81 9
227 98 25 221 94 21 219 97 22 216 98 22 214 99 20 214 100 18
219 98 16 219 98 16 216 99 18 219 97 20 211 72 5 211 66 6 209 66 8
206 68 8 206 68 8 205 69 6 205 69 6 203 68 4 203 68 6 206 70 9
209 74 10 210 75 11 210 75 11 209 76 11 209 76 11 209 76 11 209 76 11
209 76 11 209 76 11 209 76 11 217 92 20 217 92 20 217 92 20 217 92 20
217 92 20 217 92 20 217 92 20 217 92 20 216 94 19 213 91 16 208 86 11
208 83 9 211 86 12 211 86 12 211 86 12 213 86 12 213 85 14 213 85 14
213 85 14 213 85 14 204 74 4 204 74 4 204 74 4 205 73 6 204 71 7
204 71 9 204 71 9 204 71 9 206 70 11 205 66 11 202 63 7 199 60 5
199 60 5 200 61 6 200 61 6 200 61 6 202 60 8 202 60 8 202 61 6
200 62 4 205 67 6 205 67 6 205 67 4 205 67 4 205 67 4 205 67 4
205 67 4 205 67 4 205 67 4 207 70 7 210 75 9 213 78 12 213 78 12
213 78 12 213 78 12 213 78 12 211 79 12 210 79 12 208 80 12 206 81 10
222 100 25 222 100 23 221 102 21 219 103 21 216 102 22 216 102 22
216 102 22 216 102 22 217 103 23 213 103 22 224 119 34 221 119 33
220 118 32 220 118 32 220 118 32 220 118 32 220 117 34 220 117 34
220 117 36 225 115 36 200 78 3 205 76 3 205 75 5 205 75 5 207 74 7
207 74 7 207 74 9 207 74 9 213 77 16 208 72 13 201 65 6 199 63 4
201 65 6 201 65 6 201 65 6 201 65 6 201 65 8 201 65 8 201 65 6
201 65 6 208 74 12 208 75 10 208 75 10 208 75 10 208 75 10 208 75 10
208 74 12 208 74 12 208 72 11 208 72 11 208 72 11 208 72 11 207 71 10
207 71 10 207 71 10 207 71 10 209 70 10 209 70 10 209 70 10 207 72 8
212 82 12 210 83 10 210 83 10 210 83 10 210 83 10 210 83 10 210 83 10
212 83 10 215 86 14 209 82 9 224 99 25 216 96 21 216 98 22 212 100 22
211 101 20 211 101 18 214 100 16 214 100 16 212 101 18 216 99 20
208 74 5 208 68 6 205 69 8 205 68 10 205 69 8 206 68 8 206 68 8
205 67 6 205 67 6 207 69 9 211 73 10 212 74 11 210 75 11 210 75 11
209 76 11 209 76 11 209 76 11 209 76 11 209 76 11 209 76 11 217 92 20
217 92 20 217 92 20 217 92 20 217 92 20 217 92 20 217 92 20 217 92 20
216 94 19 213 91 16 208 86 11 206 84 9 211 86 12 211 86 12 211 86 12
211 86 12 211 86 14 211 86 14 211 86 14 213 85 14 204 74 4 204 74 4
204 74 4 204 74 6 203 72 7 203 72 9 203 72 9 204 71 9 206 70 11
203 67 9 200 64 5 198 61 3 198 61 3 199 63 4 199 63 4 200 62 4
200 61 6 200 61 6 200 62 4 200 62 4 205 67 6 205 67 6 205 67 6
205 67 6 205 67 6 205 67 4 205 67 4 205 67 4 205 67 4 207 70 5
210 76 7 213 78 10 213 78 12 211 79 12 211 79 12 211 79 12 210 79 12
210 79 12 208 80 12 208 81 10 224 99 25 222 100 23 221 102 21
219 103 21 216 102 22 215 103 22 216 102 22 216 102 22 216 104 23
213 103 22 224 119 34 221 119 33 220 118 32 220 118 32 220 118 32
220 118 32 220 117 34 220 117 34 220 117 36 225 115 36 200 78 3
205 76 3 205 75 5 205 75 5 207 74 7 207 74 7 207 74 9 207 73 11
212 75 17 208 72 13 201 65 6 199 63 4 201 65 6 201 65 6 201 65 6
201 65 6 201 65 8 201 65 8 201 65 6 201 65 6 208 74 12 208 75 10
208 75 10 208 75 10 208 75 10 208 75 10 208 74 12 208 74 12 208 72 11
208 72 11 208 72 11 208 72 11 207 71 10 207 71 10 207 71 10 207 71 10
209 70 10 209 70 10 209 70 10 207 72 8 212 82 12 210 83 10 210 83 10
210 83 10 210 83 10 210 83 10 210 83 10 210 83 10 214 87 14 208 83 9
222 100 25 216 96 21 216 98 22 214 99 22 211 101 20 211 101 18
214 100 18 214 100 18 212 101 18 216 99 20 207 74 5 206 68 6
205 68 10 205 68 10 206 68 8 206 68 8 206 68 8 205 67 6 205 67 6
207 69 9 211 73 10 212 74 11 210 75 11 210 75 11 209 76 11 209 76 11
209 76 11 209 76 11 209 76 11 209 76 11 217 92 20 217 92 20 217 92 20
217 92 20 217 92 20 217 92 20 217 92 18 217 92 18 216 94 19 213 91 16
208 87 9 206 84 7 211 87 10 211 87 10 211 87 10 211 86 12 211 86 12
211 86 12 211 86 12 213 86 12 204 74 4 204 74 4 204 74 4 204 74 6
205 72 10 205 72 12 205 72 12 205 72 12 207 71 12 206 68 10 203 64 6
200 62 4 200 62 4 200 62 4 200 62 4 200 62 4 202 61 4 202 61 4
200 62 4 200 62 4 205 66 9 205 66 9 203 67 9 203 67 9 203 67 9
203 68 6 205 67 6 205 67 4 205 67 4 207 70 5 210 76 7 213 78 10
211 79 12 210 79 12 210 79 12 210 79 12 210 80 10 210 80 10 208 81 10
208 81 10 224 99 25 222 100 23 221 101 23 219 102 23 216 102 22
215 103 22 216 102 22 216 102 22 217 103 23 215 103 22 229 117 34
226 117 33 222 117 32 222 117 32 222 117 32 222 117 32 222 117 34
222 117 34 222 116 36 225 115 36 200 78 3 205 76 3 205 75 5 205 75 5
207 74 7 207 74 7 207 74 9 208 74 12 210 74 15 208 72 13 202 66 7
200 64 5 202 63 5 203 64 6 203 64 6 203 64 6 203 64 8 203 64 8
201 65 6 201 65 6 208 74 12 208 75 10 206 76 8 206 76 8 206 76 10
206 76 10 208 75 10 208 75 10 208 72 11 208 72 11 208 72 11 208 72 11
207 71 10 207 71 10 207 71 10 207 71 10 209 70 12 209 70 12 209 70 12
207 71 10 212 82 14 210 83 12 210 83 12 210 83 12 210 83 12 210 83 12
210 83 12 210 83 12 214 86 16 209 82 11 224 99 27 219 94 23 220 95 24
219 97 22 217 98 20 216 99 20 216 99 18 217 98 18 217 98 20 219 97 22
205 75 7 205 69 8 206 68 10 206 68 10 206 68 8 206 68 8 206 68 8
205 67 6 205 67 6 207 69 9 209 73 12 212 76 15 212 76 15 212 76 15
210 77 13 210 77 13 210 77 13 210 77 13 210 77 13 210 77 13 217 92 20
217 92 20 217 92 20 217 92 20 217 92 20 217 92 20 217 92 18 217 92 18
218 93 19 215 90 16 210 86 9 208 83 7 211 87 10 213 86 12 213 86 12
213 86 12 213 86 12 213 86 12 213 86 12 213 85 14 204 74 4 204 74 4
204 74 4 205 73 6 205 72 10 205 72 12 205 72 12 207 71 12 209 70 12
206 68 10 203 64 6 200 62 4 200 62 4 200 62 4 200 62 4 200 62 4
202 61 4 202 61 4 200 62 4 200 62 4 205 66 9 205 66 9 203 67 9
203 67 9 203 67 9 203 67 9 205 66 9 205 67 6 205 67 4 206 71 5
210 76 7 211 79 10 210 79 12 208 80 12 208 80 12 208 80 12 208 81 10
208 81 10 208 81 10 206 81 10 222 100 25 221 101 23 221 101 23
219 102 23 216 102 22 215 103 22 216 102 22 216 102 22 217 103 23
216 102 22 230 116 34 228 116 33 223 116 32 222 117 32 222 117 32
222 117 32 222 117 34 222 117 34 222 116 36 226 114 36 202 77 3
205 76 3 205 75 5 205 75 5 207 74 7 207 74 7 207 74 9 208 74 12
209 73 14 208 72 13 202 66 7 200 64 5 202 63 5 203 64 6 203 64 6
203 64 6 203 64 8 203 64 8 201 65 6 201 65 6 208 74 12 208 75 10
206 76 8 206 76 8 206 76 10 206 76 10 208 75 10 208 75 10 208 72 11
208 72 11 208 72 11 208 72 11 207 71 10 207 71 10 207 71 10 207 71 10
209 70 12 209 70 12 209 70 12 207 71 10 212 82 14 210 83 12 210 83 12
210 83 12 210 83 12 210 83 12 210 83 12 210 83 12 214 86 16 209 82 11
225 98 27 221 93 23 222 95 24 222 95 24 220 96 22 219 97 20 217 98 18
217 98 18 219 97 20 220 96 22 205 75 7 205 69 8 206 68 10 208 67 10
206 68 8 206 68 8 206 68 8 205 67 6 205 67 6 207 69 9 209 73 12
212 76 15 212 76 15 212 76 15 210 77 13 210 77 13 210 77 13 210 77 13
210 77 13 210 77 13 217 92 20 217 92 20 217 92 20 217 92 20 218 91 20
218 91 20 218 91 20 218 91 20 220 93 19 216 89 16 211 85 11 209 82 9
213 86 12 214 84 14 214 84 14 214 84 14 214 84 14 214 84 14 214 84 14
214 84 14 204 74 6 205 73 6 205 73 6 205 72 8 207 71 12 207 70 14
207 70 14 207 70 14 209 70 14 206 67 12 203 64 8 202 63 7 202 63 7
202 63 7 202 63 7 202 63 7 203 62 7 203 62 7 202 63 7 202 63 7
205 66 11 205 66 11 203 67 11 203 67 11 203 67 11 203 67 11 205 66 9
205 67 6 203 68 4 207 72 6 209 77 7 210 80 10 208 81 10 206 81 10
205 82 10 205 82 10 206 81 10 206 82 8 206 81 10 205 82 10 221 101 25
219 102 23 219 102 25 217 103 25 216 102 22 216 102 22 216 102 22
216 102 22 217 103 23 216 102 22 230 116 34 228 116 33 225 115 32
223 116 32 223 116 32 223 116 32 223 116 34 223 116 34 223 115 36
226 114 36 201 76 2 204 74 2 204 74 4 204 74 6 205 73 6 207 72 6
205 72 8 207 73 11 208 72 13 208 72 13 202 66 7 201 65 6 203 64 6
203 64 6 203 64 6 203 64 6 204 65 9 204 65 9 202 66 7 202 66 7
208 74 12 208 75 10 206 76 8 206 76 8 206 76 10 206 76 10 208 75 10
208 75 10 207 74 9 207 74 9 207 74 9 207 74 9 207 71 10 207 71 10
207 71 10 207 71 10 207 71 10 207 71 10 207 71 10 205 72 8 212 82 14
210 83 12 210 83 12 210 83 12 210 83 12 210 83 12 210 83 12 210 83 12
214 86 16 209 82 11 225 98 27 220 92 21 222 95 24 222 95 24 220 96 22
219 97 20 217 98 18 217 98 18 219 97 20 220 96 22 205 75 7 206 70 9
206 68 10 208 67 10 206 68 8 206 68 8 206 68 8 205 67 6 205 67 6
207 69 9 209 73 12 212 76 15 212 76 15 212 76 15 210 77 13 210 77 13
210 77 13 210 77 13 210 77 13 210 77 13 217 92 20 217 92 20 217 92 20
217 92 20 218 91 20 218 91 20 218 91 20 218 91 20 221 91 21 218 88 18
213 83 13 211 81 11 216 84 14 216 83 16 216 83 16 216 83 16 216 83 16
216 83 16 216 83 16 216 83 16 207 72 6 207 72 8 207 72 8 207 72 8
207 71 12 207 70 14 207 70 14 209 70 14 209 70 14 205 66 11 203 64 8
202 63 7 202 63 7 202 63 7 202 63 7 203 62 7 203 62 7 203 62 7
203 62 7 202 63 7 205 66 11 205 66 11 205 66 11 203 67 11 203 67 11
203 67 9 205 66 9 205 67 6 203 68 4 205 73 4 207 78 5 208 81 8
206 81 10 205 82 10 203 83 10 203 83 10 203 83 8 203 83 8 203 83 10
203 83 8 219 102 23 217 103 23 217 103 25 217 103 25 216 102 22
216 102 22 216 102 22 216 102 22 217 103 23 216 102 22 230 116 34
228 116 33 225 115 32 225 115 32 225 115 32 225 115 32 225 115 34
225 115 34 225 115 36 228 113 36 199 75 1 201 74 3 201 73 5 203 72 5
204 72 5 204 71 7 204 71 7 205 72 10 207 71 12 206 70 11 202 66 7
201 65 6 203 64 6 203 64 6 203 64 6 203 64 6 204 65 9 204 65 9
202 66 7 202 66 7 208 74 12 208 75 10 206 76 8 206 76 8 206 76 10
206 76 10 208 75 10 208 75 10 207 74 9 207 74 9 207 74 9 207 74 9
205 72 8 207 71 10 207 71 10 207 71 10 207 71 10 207 71 10 207 71 10
205 72 8 212 82 14 210 83 12 210 83 12 210 83 12 210 83 12 210 83 12
210 83 12 210 83 12 213 85 14 209 82 11 225 98 27 217 90 19 222 95 24
222 95 24 220 96 22 219 97 20 217 98 20 217 98 20 219 97 20 220 96 22
205 75 7 206 70 9 206 68 10 208 67 10 206 68 8 206 68 8 206 68 8
205 67 6 205 67 6 206 68 8 209 73 12 212 76 15 212 76 15 212 76 15
210 77 13 210 77 13 210 77 13 210 77 13 210 77 13 210 77 13 208 80 12
208 80 12 208 80 12 208 80 12 208 81 10 208 81 10 208 81 10 210 80 10
212 80 11 209 76 9 204 72 5 203 68 2 203 68 2 203 68 4 203 68 4
203 68 4 203 68 4 203 68 4 203 68 4 204 66 3 204 66 3 203 65 4
203 65 4 203 65 4 203 64 6 203 64 6 203 64 6 203 64 6 204 63 8
205 64 9 204 63 8 203 62 7 203 62 5 203 62 5 203 62 5 203 62 5
205 61 5 205 61 5 203 62 5 203 62 5 211 70 13 211 70 13 210 71 13
210 71 13 210 71 13 210 72 11 210 72 11 208 72 11 210 77 11 205 75 5
223 98 24 219 97 22 221 101 25 219 102 25 217 103 25 217 103 25
219 102 25 219 102 25 219 102 25 217 103 25 216 104 23 216 104 23
216 104 23 216 104 23 215 102 24 215 102 24 216 102 22 216 102 22
217 103 23 217 103 23 217 103 21 217 103 21 217 105 22 217 105 22
217 105 22 217 105 22 219 104 24 219 104 24 220 103 26 222 102 26
197 74 0 198 73 2 198 73 4 200 72 4 201 71 6 203 70 6 203 70 8
205 69 8 206 70 11 205 68 10 205 66 9 204 65 7 203 64 6 204 65 7
204 65 7 204 65 7 204 65 9 204 65 9 202 66 7 202 66 7 208 74 12
208 75 10 206 76 8 206 76 8 206 76 10 206 76 10 208 75 10 208 75 10
207 74 9 208 75 10 210 77 13 211 78 14 211 78 14 211 78 14 211 78 14
211 78 14 211 78 14 211 78 14 212 79 15 211 81 13 209 82 11 209 82 11
210 83 12 210 83 12 210 83 12 210 83 12 210 83 12 210 83 12 211 84 13
210 83 12 210 83 12 214 86 16 209 82 11 209 82 11 208 83 9 206 84 9
204 85 7 204 85 7 205 83 8 204 79 7 206 76 8 206 70 9 206 68 10
208 67 10 206 68 8 206 68 8 205 67 6 205 67 6 205 67 6 206 68 8
203 67 9 203 67 9 203 68 6 203 68 6 202 68 6 202 68 6 202 68 6
202 68 6 202 68 6 202 68 6 208 80 12 208 80 12 208 80 12 208 80 12
208 81 10 208 81 10 208 81 10 210 79 12 214 79 13 210 75 9 206 71 5
205 67 4 205 67 4 205 67 6 205 67 6 205 67 6 205 67 6 205 67 6
205 67 6 205 65 5 205 65 5 204 63 6 204 63 6 204 63 6 203 64 6
203 64 6 203 64 6 203 64 6 204 63 8 204 63 8 204 63 8 203 62 7
203 62 5 203 62 5 203 62 5 203 62 5 205 61 5 205 61 5 203 62 5
203 62 5 211 70 13 211 70 13 210 72 11 210 72 11 210 72 11 210 72 11
210 72 11 208 73 9 208 78 11 203 76 5 221 99 24 217 98 20 219 102 25
217 103 25 216 103 25 216 103 25 216 104 23 217 103 23 217 103 25
216 103 25 214 105 23 214 105 23 214 105 23 214 105 23 215 102 24
215 102 24 216 102 22 216 102 22 217 103 23 217 103 23 217 103 21
217 103 21 219 104 22 219 104 22 219 104 22 220 104 22 220 103 24
222 102 24 222 102 26 223 101 26 195 73 0 197 72 0 197 72 2 199 71 2
200 70 4 202 69 4 203 68 6 203 68 6 205 68 10 203 67 9 205 66 9
204 65 7 203 64 6 204 65 7 204 65 7 204 65 7 204 65 9 204 65 9
202 66 7 202 66 7 208 74 12 208 75 10 206 76 8 206 76 8 206 76 10
206 76 10 208 75 10 208 75 10 207 74 9 208 75 10 210 77 13 211 78 14
210 79 12 210 79 12 210 79 12 210 79 12 210 79 12 210 79 12 211 81 13
211 81 13 209 82 11 209 82 11 210 83 12 210 83 12 210 83 12 210 83 12
210 83 12 210 83 12 210 83 12 210 83 12 210 83 12 211 84 13 209 82 11
209 82 11 208 83 9 206 84 9 204 85 7 206 84 7 205 83 8 204 79 7
205 75 7 206 70 7 206 68 8 208 67 10 206 68 8 206 68 8 205 67 6
205 67 6 205 67 6 205 67 6 203 67 9 203 67 9 203 68 6 203 68 6
202 68 6 202 68 6 202 68 6 202 68 6 202 68 6 202 68 6 208 80 12
208 80 12 208 80 12 208 80 12 210 79 12 210 79 12 210 79 12 211 79 12
214 79 15 213 75 13 206 68 6 205 67 4 207 66 6 207 66 9 207 66 9
207 66 9 207 66 9 207 66 9 207 66 9 205 64 7 207 64 7 206 62 8
204 63 8 204 63 6 203 64 6 203 64 6 201 65 6 203 64 6 203 64 8
203 64 8 203 64 8 203 64 8 203 64 6 203 64 6 203 64 6 204 63 6
204 63 6 204 63 6 204 63 6 203 64 6 210 71 13 210 71 13 210 72 11
208 72 11 208 72 11 208 72 11 208 72 11 207 74 9 207 79 11 203 78 6
219 100 24 214 99 20 216 103 25 214 104 25 214 104 25 214 104 25
214 105 23 216 104 23 216 103 25 214 104 25 214 105 23 213 105 23
213 105 23 213 105 23 213 103 24 215 102 24 216 102 22 216 102 22
217 103 23 217 103 23 217 103 21 217 103 21 219 104 22 220 104 22
220 104 22 222 103 22 222 102 24 222 102 24 223 101 26 223 101 26
196 71 0 196 71 0 197 70 1 199 69 3 199 69 3 201 68 3 202 66 5
202 66 5 203 67 9 203 67 9 205 66 9 205 66 9 204 65 7 204 65 7
204 65 7 204 65 7 205 66 11 205 66 11 203 67 9 203 67 9 208 74 12
208 75 10 206 76 8 206 76 8 206 76 10 206 76 10 208 75 10 208 75 10
206 76 8 206 76 8 208 78 11 208 78 11 210 79 14 210 79 14 210 79 14
210 79 14 208 80 12 208 80 12 209 81 13 209 81 13 209 81 13 209 81 13
210 83 12 210 83 12 210 83 12 210 83 12 210 83 12 210 83 12 210 83 12
210 83 12 210 83 12 210 83 12 209 82 11 209 82 11 208 83 9 206 84 9
206 84 7 206 84 7 206 82 8 207 79 9 207 74 7 206 70 7 206 68 8
208 67 8 206 68 10 206 68 10 205 66 9 205 66 9 205 66 9 205 66 9
203 67 9 203 67 9 203 67 9 203 67 9 202 68 6 202 68 6 202 68 6
202 68 6 202 68 6 202 68 6 208 80 12 208 80 12 208 80 12 208 80 12
210 79 12 210 79 14 210 79 14 211 78 14 214 79 15 213 75 13 206 68 6
205 67 6 207 66 9 207 66 9 207 66 9 207 66 9 207 66 9 207 66 9
207 66 9 205 64 7 205 64 9 204 63 8 204 63 8 204 63 8 203 64 6
203 64 6 201 65 6 201 65 6 203 64 8 203 64 8 203 64 8 203 64 8
203 64 6 203 64 6 203 64 6 203 64 6 203 64 6 203 64 6 203 64 6
203 64 6 210 71 13 208 72 13 208 72 11 208 72 11 208 72 11 207 73 11
207 73 11 205 74 9 207 79 9 203 78 4 218 101 22 212 100 20 214 104 25
214 104 25 214 104 25 214 104 25 214 105 23 214 105 23 214 104 25
214 104 25 214 105 23 213 105 23 213 105 23 213 105 23 213 103 24
215 102 24 216 102 22 216 102 22 217 103 23 217 103 23 217 103 21
217 103 21 220 104 22 220 104 22 222 103 22 222 103 22 222 102 24
222 102 24 222 102 26 223 101 26 197 70 0 199 69 1 199 69 3 201 68 3
201 68 3 201 68 3 202 66 5 202 66 5 203 67 9 203 67 9 205 66 9
205 66 9 204 65 7 204 65 7 204 65 7 204 65 7 205 66 11 205 66 11
203 67 9 203 67 9 208 74 12 208 75 10 206 76 8 206 76 8 206 76 10
206 76 10 208 75 10 208 75 10 206 76 8 206 76 8 208 78 11 208 78 11
210 79 14 211 78 14 211 78 14 210 79 14 210 79 12 210 79 12 211 81 13
209 81 13 209 81 13 209 81 13 210 83 12 210 83 12 210 83 12 210 83 12
210 83 12 210 83 12 210 83 12 210 83 12 210 83 12 210 83 12 209 82 11
208 83 11 208 83 9 206 84 9 206 84 7 208 83 7 206 82 8 207 79 9
205 73 6 207 70 7 208 67 8 208 67 8 208 67 10 206 68 10 205 66 9
205 66 9 205 66 9 205 66 9 205 66 9 203 67 9 203 67 9 203 67 9
203 68 6 202 68 6 202 68 6 202 68 6 202 68 6 202 68 6 210 79 12
210 79 12 210 79 12 210 79 12 210 79 14 210 79 16 210 79 16 211 78 16
213 77 16 213 77 16 203 68 6 206 68 8 206 68 10 206 68 10 205 66 9
205 66 9 205 66 9 205 66 9 204 65 7 204 65 7 203 64 8 203 64 8
203 64 8 203 64 8 203 64 8 203 64 8 203 64 8 203 64 8 204 65 9
204 65 9 204 65 9 204 65 9 201 65 6 201 65 6 201 65 6 201 65 6
201 65 6 201 65 6 201 65 4 201 65 4 208 72 11 207 73 11 207 73 11
207 73 11 207 73 11 205 74 11 205 74 9 205 75 7 208 79 9 204 78 4
218 101 22 212 100 20 212 104 22 212 104 22 213 103 22 213 103 22
214 105 23 214 105 23 214 105 23 214 105 23 214 105 23 214 105 23
214 105 23 214 105 23 215 103 22 215 103 22 215 103 22 215 103 22
217 103 23 217 103 23 217 103 23 217 103 23 220 103 24 220 103 24
220 103 24 220 103 24 220 103 24 220 103 24 220 103 24 223 101 26
199 69 3 202 66 5 202 67 3 201 68 3 201 67 5 201 67 5 202 66 5
202 66 5 205 66 9 205 66 9 205 66 9 205 66 9 205 66 9 205 66 9
205 66 9 205 66 9 205 66 11 205 66 11 203 67 9 203 67 9 208 74 12
208 75 10 206 76 8 206 76 8 206 76 10 206 76 10 208 75 10 208 75 10
208 75 10 209 76 11 209 76 11 210 77 13 212 79 15 214 79 15 214 79 15
212 79 15 212 79 15 212 79 15 212 80 13 211 81 13 212 82 14 212 82 14
210 83 12 210 83 12 210 83 12 210 83 12 210 83 12 210 83 12 209 84 10
209 84 10 209 84 10 208 83 9 208 83 11 206 81 10 206 82 8 206 82 8
206 82 8 206 82 8 208 81 8 208 79 9 207 72 6 207 70 7 208 67 8
209 66 8 208 67 10 208 67 10 208 66 12 208 66 12 208 66 12 208 66 12
206 68 10 206 68 10 206 68 10 206 68 10 205 68 10 205 68 10 205 68 10
205 68 10 205 68 10 205 68 10 210 79 12 210 79 12 210 79 12 210 79 14
210 79 16 210 79 16 210 79 16 211 78 16 213 77 16 213 77 16 203 68 6
205 69 8 206 68 10 206 68 10 205 66 9 205 66 9 205 66 9 205 66 9
204 65 7 204 65 7 203 64 8 203 64 8 203 64 8 203 64 8 203 64 8
203 64 8 203 64 8 203 64 8 204 65 9 204 65 9 204 65 9 204 65 9
201 65 6 201 65 6 201 65 6 201 65 6 201 65 6 201 65 6 200 66 4
200 66 4 207 73 11 207 73 11 205 74 11 205 74 11 205 74 11 205 74 11
205 74 9 207 74 7 212 77 9 206 77 4 219 100 22 212 100 20 213 103 22
213 103 22 215 103 22 216 102 22 216 104 23 214 105 23 214 105 23
214 105 23 216 104 23 216 104 23 216 104 23 216 104 23 215 103 22
215 103 22 215 103 22 215 103 22 217 103 23 217 103 23 217 103 23
217 103 23 220 103 24 220 103 24 220 103 24 220 103 24 220 103 24
220 103 24 220 103 24 223 101 28 201 67 5 204 65 7 202 66 5 202 67 3
202 66 5 201 67 5 202 66 5 202 66 5 205 66 9 205 66 9 205 66 9
205 66 9 205 66 9 205 66 9 205 66 9 205 66 9 205 66 11 205 66 11
203 67 9 203 67 9 208 74 12 208 75 10 206 76 8 206 76 8 206 76 10
206 76 10 208 75 10 208 75 10 208 75 10 209 76 11 209 76 11 210 77 13
212 79 15 214 79 15 214 79 15 212 79 15 212 79 15 212 79 15 212 80 13
211 81 13 212 82 14 210 83 14 210 83 12 210 83 12 210 83 12 210 83 12
210 83 12 210 83 12 209 84 10 209 84 10 209 84 10 209 82 9 209 82 11
208 81 10 208 81 8 206 82 8 206 82 8 206 82 8 208 81 8 210 78 9
206 71 5 207 70 7 208 67 8 209 66 8 208 67 10 208 67 10 208 66 12
208 66 12 208 66 12 208 66 12 206 68 10 206 68 10 206 68 10 206 68 10
205 68 10 205 68 10 205 68 10 205 68 10 205 68 10 205 68 10 210 79 12
210 79 12 210 79 12 210 79 14 211 78 16 211 78 16 211 78 16 211 78 16
213 77 16 214 78 17 202 66 5 205 69 8 206 68 10 206 68 10 205 66 9
205 66 9 205 66 9 205 66 9 204 65 7 204 65 7 203 64 8 203 64 8
203 64 8 203 64 8 203 64 8 203 64 8 203 64 8 203 64 8 204 65 9
204 65 9 204 65 9 204 65 9 201 65 6 201 65 6 201 65 6 201 65 6
201 65 6 201 65 6 200 66 4 200 66 4 207 73 11 207 73 11 205 74 11
205 74 11 205 74 11 205 74 11 205 74 9 207 74 7 213 76 9 209 75 4
223 99 22 216 99 20 215 103 22 215 103 22 218 101 22 218 101 22
217 103 23 216 104 23 216 104 23 216 104 23 216 104 23 216 104 23
216 104 23 216 104 23 216 102 22 216 102 22 216 102 22 216 102 22
217 103 23 217 103 23 217 103 23 217 103 23 220 103 24 220 103 24
220 103 24 220 103 24 220 103 24 220 103 24 220 103 24 223 101 28
201 67 5 204 65 7 204 66 5 204 66 5 202 66 5 202 66 5 202 66 5
202 66 5 205 66 9 205 66 9 205 66 9 205 66 9 205 66 9 205 66 9
205 66 9 205 66 9 205 66 11 205 66 11 203 67 9 203 67 9 208 74 12
208 75 10 206 76 8 206 76 8 206 76 10 206 76 10 208 75 10 208 75 10
207 77 11 207 77 11 208 78 13 208 78 13 210 79 12 211 79 12 212 80 13
211 81 13 211 81 13 211 81 13 209 81 13 209 82 11 210 83 12 209 84 12
209 84 12 209 84 10 209 84 10 209 84 10 210 83 10 210 83 10 210 83 10
210 83 10 210 83 10 211 81 9 211 81 11 210 80 10 210 80 8 208 81 8
206 82 8 206 82 8 208 81 8 210 80 10 206 71 5 206 68 6 208 67 8
208 67 8 208 67 10 206 68 10 206 67 12 206 67 12 206 67 12 206 67 12
206 68 10 206 68 10 205 68 10 205 68 10 205 68 10 205 68 10 205 68 10
205 68 10 205 68 10 205 68 10 210 79 12 210 79 12 210 79 12 210 79 14
211 78 16 211 78 16 211 78 16 211 78 16 213 77 16 214 78 17 202 66 5
205 69 8 206 68 10 206 68 10 205 66 9 205 66 9 205 66 9 205 66 9
204 65 7 204 65 7 203 64 8 203 64 8 203 64 8 203 64 8 203 64 8
203 64 8 203 64 8 203 64 8 204 65 9 204 65 9 204 65 9 204 65 9
201 65 6 201 65 6 201 65 6 201 65 6 201 65 6 201 65 6 201 65 4
200 66 4 207 73 11 207 73 11 205 74 11 205 74 11 205 74 11 205 74 9
205 75 7 207 74 5 213 77 7 209 75 4 223 99 22 216 99 20 215 103 22
215 103 22 218 101 22 218 101 22 217 103 23 216 104 23 216 104 23
216 104 23 216 104 23 216 104 23 216 104 23 216 104 23 216 102 22
216 102 22 216 102 22 216 102 22 217 103 23 217 103 23 217 103 23
217 103 23 220 103 24 220 103 24 220 103 24 220 103 24 220 103 24
220 103 24 220 103 24 223 101 28 200 66 4 203 64 6 203 65 4 203 65 4
201 65 4 201 65 4 201 65 4 201 65 4 205 66 9 205 66 9 205 66 9
205 66 9 205 66 9 205 66 9 205 66 9 205 66 9 205 66 11 205 66 11
203 67 9 203 67 9 208 74 12 208 75 10 206 76 8 206 76 8 206 76 10
206 76 10 208 75 10 208 75 10 207 77 11 207 77 11 208 78 13 208 78 13
210 79 12 210 79 12 211 81 13 211 81 13 209 81 13 209 82 11 209 82 11
209 82 11 210 83 12 210 83 10 210 83 10 210 83 10 210 83 10 210 83 10
210 83 10 210 83 10 210 83 10 210 83 10 212 83 10 211 81 9 211 81 11
208 81 10 208 81 8 208 81 8 206 82 8 206 82 8 206 82 8 208 81 10
203 70 4 205 70 4 206 68 6 206 68 8 206 68 10 206 68 10 206 68 10
206 67 12 206 67 12 206 68 10 206 68 10 205 68 10 205 68 10 205 68 10
205 68 10 205 68 10 205 68 10 205 68 10 205 68 10 205 68 10 211 78 14
211 78 14 211 78 14 211 78 14 211 78 16 210 77 15 210 77 15 210 77 15
213 77 16 212 76 15 207 71 10 205 69 8 205 66 9 205 66 9 205 66 9
205 66 9 204 65 7 204 65 7 204 65 7 204 65 7 203 64 8 203 64 8
203 64 8 203 64 8 203 64 8 203 64 8 203 64 8 203 64 8 204 65 9
204 65 9 204 65 9 204 65 9 203 64 8 203 64 8 203 64 8 203 64 8
203 64 6 203 64 6 201 65 4 201 65 4 205 72 10 205 72 10 204 73 8
204 73 8 204 73 8 204 74 6 204 74 6 205 73 4 215 81 10 210 78 7
221 101 23 214 101 21 211 101 20 211 101 20 214 100 18 214 100 18
214 102 19 212 103 19 215 103 20 215 103 20 215 103 20 215 103 20
217 103 21 217 103 21 216 102 22 216 102 22 216 102 22 216 102 22
216 102 22 216 102 22 217 103 23 217 103 23 220 103 24 220 103 24
220 103 24 220 103 24 220 103 24 220 103 24 220 103 24 223 101 28
200 66 4 203 64 6 203 65 4 203 65 4 201 65 6 201 65 6 203 64 6
203 64 6 206 68 10 206 68 10 206 68 10 206 68 10 206 68 10 206 68 10
206 68 10 206 68 10 206 67 12 206 67 12 205 68 10 205 68 10 209 75 13
209 76 11 207 77 9 207 77 9 209 76 11 209 76 11 209 76 11 209 76 11
202 69 2 207 74 7 207 74 7 211 79 12 210 79 12 210 80 10 210 80 10
210 80 10 210 80 10 210 80 8 210 80 8 210 80 8 211 81 9 211 82 7
211 82 7 211 82 7 211 82 7 211 82 7 211 82 7 211 82 7 208 81 6
214 87 12 207 80 5 214 87 14 208 81 10 206 81 10 206 81 10 205 82 10
205 82 10 205 82 10 205 82 10 206 81 10 201 73 5 203 72 5 204 71 7
206 70 9 206 70 9 206 70 9 206 70 9 206 70 11 202 66 7 203 68 6
205 69 8 205 69 8 205 68 10 205 68 10 205 68 10 205 68 10 205 68 10
205 68 10 205 68 10 205 68 10 210 77 13 210 77 13 210 77 13 209 76 11
209 75 13 208 74 12 208 74 12 208 74 12 212 76 15 209 73 12 205 69 8
203 68 6 205 66 9 205 66 9 205 66 9 205 66 9 204 65 7 204 65 7
204 65 7 204 65 7 203 64 8 203 64 8 203 64 8 203 64 8 203 64 8
203 64 8 203 64 8 203 64 8 204 65 9 204 65 9 204 65 9 204 65 9
203 64 8 203 64 8 203 64 8 203 64 8 203 64 6 203 64 6 201 65 4
201 65 4 205 72 10 205 72 8 204 74 6 204 74 6 204 74 6 204 74 6
204 74 4 204 74 4 208 79 7 204 79 5 218 106 26 212 107 24 209 107 23
209 107 23 213 106 21 214 105 21 215 106 22 215 106 22 215 106 22
217 105 22 216 104 21 216 104 21 217 103 21 217 103 21 216 102 22
216 102 22 216 102 22 216 102 22 216 102 22 216 102 22 216 102 22
216 102 22 218 101 22 218 101 22 218 101 22 218 101 22 218 101 22
218 101 22 218 101 22 221 99 26 202 68 6 205 66 9 205 67 6 205 67 6
203 67 9 203 67 9 205 66 9 205 66 9 206 68 10 206 68 10 206 68 10
206 68 10 206 68 10 206 68 10 206 68 10 206 68 10 206 67 12 206 67 12
205 68 10 205 68 10 209 75 13 209 76 11 207 77 9 207 77 9 209 76 11
209 76 11 209 76 11 209 76 11 207 74 7 205 73 6 211 79 12 208 78 11
205 80 9 204 81 7 204 81 7 204 81 7 204 81 7 204 82 5 204 82 5
204 82 5 206 82 6 206 83 4 206 83 4 206 83 4 206 83 4 206 82 6
206 82 6 206 82 6 209 88 10 214 92 15 205 83 6 209 88 10 206 84 9
204 84 11 204 84 11 204 84 11 204 84 11 204 84 11 204 84 11 206 83 11
198 73 4 200 72 4 201 71 6 203 70 6 203 70 6 203 70 8 204 71 9
204 71 9 204 71 9 204 71 9 204 71 9 203 70 8 205 68 10 205 68 10
205 68 10 205 68 10 205 68 10 205 68 10 205 68 10 205 68 10 208 75 10
208 75 10 208 75 10 207 74 9 208 72 11 207 71 10 207 71 10 207 71 10
209 73 12 207 71 10 202 66 5 201 65 4 205 66 9 205 66 9 205 66 9
205 66 9 204 65 7 204 65 7 204 65 7 204 65 7 203 64 8 203 64 8
203 64 8 203 64 8 203 64 8 203 64 8 203 64 8 203 64 8 204 65 9
204 65 9 204 65 9 204 65 9 203 64 6 203 64 6 203 64 6 203 64 6
203 64 6 203 64 6 201 65 4 201 65 4 219 86 22 218 87 22 218 88 20
216 89 18 216 89 18 216 89 18 216 89 18 215 90 16 210 90 15 208 95 17
228 126 42 226 130 44 223 130 43 223 130 43 224 130 41 228 128 41
232 128 42 234 127 42 234 127 42 235 126 42 216 104 21 216 104 21
217 103 21 217 103 21 216 102 22 216 102 22 216 102 22 216 102 22
216 102 22 216 102 22 216 102 22 215 101 21 217 100 21 216 99 20
216 99 20 216 99 20 216 99 20 216 99 20 216 99 20 219 96 24 204 71 9
207 69 11 207 69 11 207 69 11 207 69 11 207 69 11 207 69 11 207 69 11
206 68 10 206 68 10 206 68 10 206 68 10 206 68 10 206 68 10 206 68 10
206 68 10 206 67 12 206 67 12 205 68 10 205 68 10 210 77 15 210 77 13
208 78 11 208 78 11 209 76 11 209 76 11 207 77 11 207 77 11 208 75 8
211 79 12 241 109 42 240 115 44 232 120 41 227 122 39 227 122 39
227 122 39 229 122 39 229 122 37 229 122 37 229 122 37 232 122 39
232 123 37 232 123 37 232 123 37 233 122 39 233 122 39 233 122 39
233 122 39 225 113 32 228 115 35 215 103 22 216 104 23 216 103 25
216 103 25 216 103 25 217 103 25 217 103 25 219 102 25 219 102 25
221 101 27 211 86 14 213 85 16 213 85 16 214 84 16 214 84 16
214 84 18 214 84 18 214 84 18 213 83 17 211 80 15 207 77 11 205 72 8
205 72 10 205 72 12 205 72 12 205 72 12 207 71 12 207 71 12 207 71 12
207 71 12 207 74 9 207 74 9 207 74 9 205 72 8 207 71 10 206 70 9
206 70 9 206 70 9 208 72 11 206 70 9 201 65 4 200 64 3 205 66 9
205 66 9 205 66 9 205 66 9 204 65 7 204 65 7 204 65 7 204 65 7
203 64 8 203 64 8 203 64 8 203 64 8 203 64 8 203 64 8 203 64 8
203 64 8 204 65 9 204 65 9 204 65 9 204 65 9 203 64 6 203 64 6
203 64 6 203 64 6 203 64 6 203 64 6 201 65 4 201 65 4 217 86 21
217 86 19 215 88 17 215 88 17 215 88 17 215 88 17 215 88 15 213 89 15
204 87 10 204 94 15 227 126 42 226 134 46 222 134 45 222 134 45
225 133 43 228 131 43 233 131 44 236 129 44 236 129 44 236 129 44
213 104 20 215 103 20 216 102 20 216 102 20 216 102 22 216 102 22
216 102 22 216 102 22 216 102 22 216 102 22 216 102 22 216 102 22
214 97 19 214 97 19 214 97 19 214 97 19 214 97 19 214 97 19 214 97 19
218 95 23 207 73 11 210 71 13 210 71 13 210 71 13 210 71 13 210 71 13
210 71 13 210 71 13 206 68 10 206 68 10 206 68 10 205 66 9 206 68 10
206 68 10 206 68 10 206 68 10 206 67 12 206 67 12 205 68 10 205 68 10
210 77 15 210 77 13 208 78 11 208 78 11 209 76 11 209 76 11 207 77 11
207 77 11 211 79 12 208 78 11 240 115 44 234 117 40 226 122 36
221 124 36 221 124 36 221 124 36 223 123 36 223 123 36 223 124 34
223 124 34 224 125 35 226 124 35 226 124 33 226 124 33 227 123 35
227 123 37 227 123 37 227 123 37 225 120 37 225 120 37 212 104 22
213 103 22 217 105 26 217 105 26 217 105 26 217 105 26 217 105 26
219 104 26 220 103 26 222 102 26 208 86 13 210 85 13 211 84 13
211 84 15 213 83 15 213 83 15 213 83 15 213 83 15 218 88 20 214 84 16
208 78 11 204 73 8 205 72 10 205 72 12 205 72 12 205 72 12 207 71 12
207 71 12 207 71 12 207 71 12 204 71 7 204 71 7 204 71 7 204 71 7
206 70 9 206 70 9 206 70 9 206 70 9 207 71 10 206 70 9 202 66 5
201 65 4 204 65 7 204 65 7 204 65 7 204 65 7 204 65 7 204 65 7
204 65 7 204 65 7 203 64 6 203 64 6 203 64 6 203 64 6 203 64 6
203 64 6 203 64 6 203 64 6 204 65 9 204 65 9 204 65 9 204 65 9
204 65 7 204 65 7 204 65 7 204 65 7 204 65 7 204 65 7 204 65 7
202 66 5 218 87 22 216 88 20 216 89 18 216 89 18 216 89 18 216 89 18
216 89 16 215 90 16 207 87 11 207 94 16 229 127 43 229 134 48
221 131 43 221 131 43 224 130 41 226 129 41 230 128 42 232 128 42
232 128 42 234 127 42 213 104 20 215 103 20 216 102 20 216 102 20
216 102 22 216 102 22 216 102 22 216 102 22 216 102 22 215 101 21
213 98 19 212 97 17 214 97 19 214 97 19 214 97 19 214 97 19 214 97 19
214 97 19 214 97 19 218 95 23 205 74 11 208 72 13 208 72 13 208 72 13
208 72 13 208 72 13 208 72 13 208 72 13 210 71 13 207 69 11 205 66 9
205 66 9 205 66 9 205 66 9 205 66 9 205 66 9 206 67 12 206 67 12
205 68 10 205 68 10 210 77 15 210 77 13 208 78 13 208 78 13 210 77 13
210 77 13 208 78 11 208 78 11 208 78 11 204 79 7 231 118 40
225 121 35 222 123 33 220 123 33 220 123 33 220 123 33 220 123 33
220 123 33 220 123 33 220 123 33 221 125 34 223 124 34 223 124 32
223 124 32 223 124 34 223 124 34 223 124 34 223 123 36 223 123 36
225 123 36 214 105 21 217 103 23 218 101 24 218 101 24 216 101 24
215 102 24 215 102 24 216 101 24 218 101 24 219 100 24 210 85 13
211 84 13 211 84 13 211 84 13 211 84 13 211 84 13 211 84 13 211 84 13
214 84 14 215 86 16 204 74 4 203 72 5 204 71 9 206 70 11 206 70 11
206 70 11 206 70 11 206 70 11 206 70 11 206 70 11 204 71 7 204 71 7
204 71 7 204 71 7 206 70 9 206 70 9 206 70 9 206 70 9 207 71 10
206 70 9 202 66 5 201 65 4 204 65 7 204 65 7 204 65 7 204 65 7
204 65 7 204 65 7 204 65 7 204 65 7 203 64 6 203 64 6 203 64 6
203 64 6 203 64 6 203 64 6 203 64 6 203 64 6 204 65 9 204 65 9
204 65 9 204 65 9 204 65 7 204 65 7 204 65 7 204 65 7 204 65 7
204 65 7 204 65 7 202 66 5 218 87 22 216 88 20 216 89 18 216 89 18
216 89 18 216 89 18 216 89 16 215 90 16 207 87 11 207 94 16
229 127 43 229 134 48 221 131 43 221 131 43 224 130 41 226 129 41
229 129 42 230 128 42 232 128 42 234 127 42 212 103 19 215 101 19
215 101 19 215 101 19 216 102 22 216 102 22 216 102 22 216 102 22
216 102 22 215 101 21 213 98 19 212 97 17 214 97 19 214 97 19
214 97 19 214 97 19 214 97 19 214 97 19 214 97 19 218 95 23 205 74 11
208 72 13 208 72 13 208 72 13 208 72 13 208 72 13 208 72 13 208 72 13
210 71 13 207 69 11 205 66 9 204 65 7 205 66 9 205 66 9 205 66 9
205 66 9 206 67 12 206 67 12 205 68 10 205 68 10 210 77 15 210 77 13
208 78 13 208 78 13 210 77 13 210 77 13 208 78 11 208 78 11 208 79 9
202 80 5 226 121 38 220 123 35 220 123 33 220 124 31 220 124 31
220 124 31 220 123 33 220 123 33 220 123 33 220 123 33 221 125 34
221 125 34 221 125 32 221 125 34 221 125 34 221 125 34 221 125 34
221 125 34 221 124 36 225 123 36 214 105 21 219 103 21 219 100 22
219 100 24 218 101 24 216 101 24 215 102 24 216 101 24 218 101 24
219 100 24 210 85 13 211 84 13 211 85 11 211 85 11 211 84 13
211 84 13 211 84 13 211 84 13 214 84 14 215 86 16 204 74 4 203 72 5
204 71 9 206 70 11 206 70 11 206 70 11 206 70 11 206 70 11 206 70 11
206 70 11 204 71 7 204 71 7 204 71 7 204 71 7 206 70 9 206 70 9
206 70 9 206 70 9 207 71 10 206 70 9 202 66 5 201 65 4 204 65 7
204 65 7 204 65 7 204 65 7 204 65 7 204 65 7 204 65 7 204 65 7
203 64 6 203 64 6 203 64 6 203 64 6 203 64 6 203 64 6 203 64 6
203 64 6 204 65 7 204 65 7 204 65 7 204 65 7 204 65 7 204 65 7
204 65 7 204 65 7 204 65 7 204 65 7 204 65 7 202 66 5 216 88 20
215 90 18 215 90 18 215 90 18 215 90 16 215 90 16 215 90 16 213 91 16
207 87 9 207 94 14 229 127 43 229 134 48 221 131 41 221 131 41
224 130 41 226 129 41 229 129 42 230 128 42 230 128 42 232 128 42
214 102 19 215 101 19 217 100 19 217 100 19 218 101 22 218 101 22
218 101 22 218 101 22 218 101 22 217 100 21 214 97 19 213 96 17
214 97 19 214 97 19 214 97 19 214 97 19 214 97 19 214 97 19 214 97 19
218 95 23 205 74 11 208 72 13 208 72 13 208 72 13 208 72 13 208 72 13
208 72 13 208 72 13 210 71 13 207 69 11 205 66 9 204 65 7 205 66 9
205 66 9 205 66 9 205 66 9 206 67 12 206 67 12 205 68 10 205 68 10
211 78 16 211 78 14 210 79 14 210 79 14 210 77 13 210 77 13 208 78 11
207 79 11 208 79 9 202 80 5 226 121 38 220 123 35 222 123 33
222 123 31 222 123 31 222 123 31 222 123 33 222 123 33 222 123 33
220 123 33 221 125 34 220 125 34 220 125 34 220 125 34 220 125 36
220 125 36 220 125 36 220 125 36 221 124 36 225 123 36 214 105 21
219 103 21 219 100 22 219 100 22 218 101 22 216 102 22 216 102 22
216 102 22 218 101 22 221 99 24 210 85 11 211 85 11 213 84 11
213 84 11 211 84 13 211 84 13 211 84 13 211 84 13 213 85 14 214 86 16
202 75 4 203 72 5 204 71 9 204 70 11 204 70 11 204 70 11 204 71 9
204 71 9 204 71 9 204 71 9 204 71 7 204 71 7 204 71 7 204 71 7
206 70 9 206 70 9 206 70 9 206 70 9 207 71 10 206 70 9 202 66 5
201 65 4 204 65 7 204 65 7 204 65 7 204 65 7 204 65 7 204 65 7
204 65 7 204 65 7 203 64 6 203 64 6 203 64 6 203 64 6 203 64 6
203 64 6 203 64 6 203 64 6 204 65 7 204 65 7 204 65 7 204 65 7
204 65 7 204 65 7 204 65 7 204 65 7 204 65 7 204 65 7 204 65 7
202 66 5 216 88 20 215 90 18 215 90 18 215 90 18 215 90 16 215 90 16
215 90 16 213 91 16 207 87 9 207 94 14 229 127 43 229 134 48
221 131 41 221 131 41 224 130 41 226 129 41 229 129 42 229 129 42
230 128 42 232 128 42 214 102 19 215 101 19 217 100 19 217 100 19
218 101 22 218 101 22 218 101 22 218 101 22 218 101 22 217 100 21
214 97 19 213 96 17 214 97 19 214 97 19 214 97 19 214 97 19 214 97 19
214 97 19 214 97 19 218 95 23 207 73 11 208 72 13 208 72 13 208 72 13
208 72 13 208 72 13 208 72 13 208 72 13 210 71 13 207 69 11 205 66 9
204 65 7 205 66 9 205 66 9 205 66 9 205 66 9 206 67 12 206 67 12
205 68 10 205 68 10 211 78 16 211 78 14 210 79 14 210 79 14 210 77 13
210 77 13 208 78 11 208 78 11 208 79 9 202 80 5 226 121 38 220 123 35
222 123 33 222 123 31 222 123 31 222 123 31 222 123 33 222 123 33
222 123 33 222 123 33 220 125 34 220 125 34 220 125 34 220 125 34
220 125 36 220 125 36 220 125 36 220 125 36 221 124 36 225 123 36
214 105 21 219 103 21 219 100 22 219 100 22 218 101 22 216 102 22
216 102 22 218 101 22 219 100 22 221 99 22 210 85 11 211 85 11
213 84 11 213 84 11 211 84 13 211 84 13 211 84 13 211 84 13 213 85 14
214 86 16 202 75 4 201 73 5 203 72 9 204 70 11 204 70 11 204 70 11
204 71 9 204 71 9 204 71 9 204 71 9 204 71 7 204 71 7 204 71 7
204 71 7 206 70 9 206 70 9 206 70 9 206 70 9 207 71 10 206 70 9
203 68 6 202 66 5 204 65 7 204 65 7 204 65 7 204 65 7 204 65 7
204 65 7 204 65 7 204 65 7 203 64 6 203 64 6 203 64 6 203 64 6
203 64 6 203 64 6 203 64 6 203 64 6 204 65 7 204 65 7 204 65 7
204 65 7 205 64 7 205 64 7 205 64 7 205 64 7 205 64 7 205 64 7
205 64 7 202 66 5 216 88 20 215 90 18 215 90 18 215 90 18 215 90 16
215 90 16 215 90 16 213 91 16 207 87 9 208 94 14 229 127 43
229 134 48 221 131 43 221 131 43 224 129 43 226 128 43 227 130 44
229 129 44 230 128 44 232 127 44 214 101 21 215 101 21 217 100 21
218 99 21 218 101 22 218 101 22 218 101 22 218 101 22 218 101 22
217 100 21 214 97 19 213 96 17 216 97 19 216 97 19 216 97 19
216 97 19 216 96 21 216 96 21 216 96 21 219 94 23 207 73 11 210 71 13
210 71 13 210 71 13 210 71 13 210 71 13 210 71 13 210 71 13 210 71 13
207 69 11 205 66 9 204 65 7 205 66 9 205 66 9 205 66 9 205 66 9
206 68 10 206 68 10 205 68 10 205 68 10 213 77 16 211 78 14 210 79 14
210 79 14 211 78 14 211 78 14 210 79 14 210 79 12 211 79 10 204 81 7
227 122 39 221 124 36 222 123 33 223 122 31 223 122 33 223 122 33
223 122 33 223 122 33 223 122 33 222 123 33 220 125 34 218 126 34
218 127 32 218 126 34 218 126 34 218 126 34 218 126 34 220 125 34
221 124 36 225 123 36 214 105 21 219 103 21 221 102 21 221 102 21
219 103 21 217 103 21 217 103 21 219 103 21 221 102 21 222 100 23
211 87 10 213 86 10 214 85 10 214 85 12 213 86 12 213 86 12 213 86 12
213 86 12 211 85 11 213 86 12 199 75 1 200 72 2 203 72 9 204 70 11
204 70 11 204 70 11 204 71 9 204 71 9 204 71 9 204 71 9 204 71 7
204 71 7 204 71 7 204 71 7 206 70 9 206 70 9 206 70 9 206 70 9
207 71 10 206 70 9 205 69 8 203 68 6 205 66 9 205 66 9 205 66 9
205 66 9 205 66 9 205 66 9 205 66 9 205 66 9 204 65 7 204 65 7
203 64 6 203 64 6 203 64 6 203 64 6 203 64 6 203 64 6 204 65 7
204 65 7 204 65 7 204 65 7 205 64 7 205 64 7 205 64 7 205 64 7
205 64 7 205 64 7 205 64 7 204 66 5 218 88 20 215 90 18 215 90 18
215 90 18 215 90 16 215 90 16 215 90 16 215 90 16 208 87 9 207 92 13
229 127 43 229 134 48 221 131 43 221 131 43 224 129 43 226 128 43
227 130 44 229 129 44 230 128 44 232 127 44 214 101 21 217 100 21
218 99 21 218 99 21 219 100 22 218 101 22 218 101 22 218 101 22
218 101 22 217 100 21 214 97 19 213 96 17 216 97 19 216 97 19
216 97 19 216 97 19 216 96 21 216 96 21 216 96 21 219 94 23 207 73 11
210 71 13 210 71 13 210 71 13 210 71 13 210 71 13 210 71 13 210 71 13
209 70 12 207 69 11 205 66 9 204 65 7 205 66 9 205 66 9 205 66 9
205 66 9 206 68 10 206 68 10 205 68 10 205 68 10 212 76 15 212 76 13
210 77 13 210 77 13 212 76 13 212 76 13 210 77 13 208 78 13 210 77 11
205 81 7 229 122 39 223 123 36 223 122 33 223 122 31 223 122 33
223 122 33 223 122 33 223 122 33 223 122 33 222 123 33 220 125 34
218 126 34 218 127 32 218 127 32 218 126 34 218 126 34 218 126 34
218 126 34 220 125 36 225 123 36 214 105 21 219 103 21 221 102 21
221 102 21 219 103 21 217 103 21 217 103 21 219 103 21 221 102 21
222 101 21 211 87 10 213 86 10 214 85 10 214 85 10 213 86 12
213 86 12 213 86 12 213 86 12 211 85 11 213 86 12 199 75 1 200 72 2
203 72 9 204 70 11 204 70 11 204 70 11 204 71 9 204 71 9 204 71 9
204 71 9 203 70 6 203 70 6 203 70 6 203 70 6 205 69 8 205 69 8
206 70 9 205 69 8 206 70 9 206 70 9 206 70 9 206 70 9 207 69 11
206 68 10 206 68 10 206 68 10 206 68 10 206 68 10 206 68 10 206 68 10
204 65 7 204 65 7 204 65 7 204 65 7 204 65 7 204 65 7 204 65 7
204 65 7 204 65 7 204 65 7 204 65 7 204 65 7 205 64 7 205 64 7
205 64 7 205 64 7 205 64 7 205 64 7 205 64 7 204 66 5 217 86 19
213 88 17 213 88 17 213 88 17 213 89 15 213 89 15 213 89 15 213 89 15
208 87 9 207 92 13 229 127 43 229 134 48 221 131 43 221 131 43
224 129 43 226 128 43 227 130 44 229 129 44 230 128 44 232 127 44
214 101 21 217 100 21 218 99 21 220 98 21 219 100 22 219 100 22
219 100 22 219 100 22 219 100 22 218 99 21 216 97 19 215 95 17
216 97 19 216 97 19 216 97 19 216 97 19 216 96 21 216 96 21 216 96 21
219 94 23 205 72 10 209 70 12 209 70 12 209 70 12 209 70 12 209 70 12
209 70 12 209 70 12 209 70 12 206 68 10 205 66 9 204 65 7 205 66 9
205 66 9 205 66 9 205 66 9 206 68 10 206 68 10 205 68 10 205 68 10
212 76 15 212 76 13 210 77 13 210 77 13 212 76 13 212 76 13 210 77 13
208 78 13 210 77 11 204 79 5 229 122 39 223 123 36 223 122 33
225 121 31 225 121 33 225 121 33 225 121 33 225 121 33 225 121 33
222 123 33 220 125 34 217 127 34 217 127 32 217 127 32 217 127 34
217 127 34 217 127 34 218 126 34 220 125 36 223 123 36 214 105 21
219 103 21 221 102 21 221 102 21 219 103 21 217 103 21 217 103 21
219 103 21 221 102 21 222 101 21 211 87 10 213 86 10 214 85 10
214 85 10 213 86 12 213 86 12 213 86 12 213 86 12 211 85 11 213 86 12
199 75 1 200 72 2 203 72 9 203 71 11 203 71 11 203 71 11 203 72 9
203 72 7 203 72 7 203 72 7 203 70 6 203 70 6 203 70 6 203 70 6
205 69 8 205 69 8 206 70 9 205 69 8 206 70 9 206 70 9 207 71 10
207 71 10 209 70 12 207 69 11 207 69 11 207 69 11 207 69 11 207 69 11
207 69 11 207 69 11 205 66 9 205 66 9 204 65 7 204 65 7 204 65 7
204 65 7 204 65 7 204 65 7 204 65 7 204 65 7 204 65 7 204 65 7
205 64 7 205 64 7 205 64 7 205 64 7 205 64 7 205 64 7 205 64 7
204 66 5 217 86 19 213 88 17 213 88 17 213 88 17 213 89 15 213 89 15
213 89 15 213 89 15 208 86 11 207 90 12 232 125 43 234 131 48
226 128 43 226 128 43 228 128 43 229 127 43 230 128 44 230 128 44
232 127 44 235 126 44 215 101 21 218 99 21 220 98 21 220 98 21
219 100 22 219 100 22 219 100 22 219 100 22 219 100 22 218 99 21
216 97 19 215 95 17 216 97 19 216 97 19 216 97 19 216 97 19 216 96 21
216 96 21 216 96 21 219 94 23 205 72 10 209 70 12 209 70 12 209 70 12
209 70 12 209 70 12 209 70 12 209 70 12 207 69 11 206 68 10 205 66 9
204 65 7 205 66 9 205 66 9 205 66 9 205 66 9 206 68 10 206 68 10
205 68 10 205 69 8 210 75 13 210 75 11 209 76 11 209 76 11 210 75 11
210 75 11 209 76 11 207 77 11 209 76 9 204 79 5 229 122 39 225 123 36
225 121 33 225 121 31 225 121 33 225 121 33 225 121 33 225 121 33
225 121 33 223 122 33 220 125 34 217 127 34 217 127 32 217 127 32
217 127 34 217 127 34 217 127 34 217 127 34 218 126 36 221 124 36
211 107 21 214 105 21 216 104 21 216 104 21 214 105 21 213 106 21
213 106 21 214 105 21 216 104 21 217 103 21 208 88 10 209 88 10
209 88 10 209 88 10 209 87 12 209 87 12 208 88 12 208 88 12 208 86 11
209 87 12 199 75 1 200 72 2 203 72 7 203 72 9 203 72 9 203 72 7
203 72 7 203 72 7 203 72 7 203 72 7 203 68 6 203 68 6 205 69 8
205 69 8 205 69 8 205 69 8 205 69 8 205 69 8 205 69 8 206 70 9
207 71 10 208 72 11 208 72 11 208 72 11 209 73 12 209 73 12 207 71 10
207 71 10 207 71 10 206 70 9 205 69 8 203 68 6 203 68 6 203 68 6
203 68 6 203 68 6 203 68 6 203 68 6 205 67 6 205 67 6 205 67 6
205 67 6 205 66 9 205 66 9 205 66 9 205 66 9 207 66 9 207 66 9
207 66 9 205 67 6 217 86 19 213 88 17 213 88 17 213 88 17 212 87 16
212 87 16 212 87 16 212 87 16 209 87 12 209 89 14 220 103 26
217 103 25 216 104 23 214 105 23 214 105 23 214 105 23 214 105 23
214 105 23 216 104 23 217 103 23 210 93 14 211 92 14 213 91 14
213 91 14 210 91 13 210 91 13 210 91 13 210 91 13 210 90 15 209 89 14
207 87 11 206 86 10 208 86 11 208 86 11 208 86 11 208 86 11 208 86 11
208 86 11 208 86 11 210 85 13 204 71 9 207 69 11 207 69 11 207 69 11
207 69 11 207 69 11 207 69 11 207 69 11 207 69 11 206 68 10 205 66 9
205 66 9 205 66 9 205 66 9 205 66 9 205 66 9 205 66 9 205 66 9
205 67 6 205 67 6 210 75 13 210 75 13 209 75 13 209 75 13 210 75 11
210 75 11 209 75 13 207 77 11 209 76 9 203 78 6 218 106 26 214 107 22
213 106 19 213 106 19 213 106 19 213 106 19 213 106 21 213 106 21
213 106 19 209 108 19 240 146 52 236 147 52 236 147 52 236 147 52
236 147 52 236 147 52 235 148 52 236 147 54 235 146 53 239 147 55
228 135 44 231 137 46 231 137 48 231 137 48 231 137 48 231 137 48
231 137 48 233 136 48 235 135 48 236 134 48 224 117 33 226 117 33
226 117 33 228 115 35 228 115 35 226 116 35 224 117 35 224 117 35
226 116 37 231 117 39 209 87 12 213 86 12 215 86 14 215 86 16
215 86 16 215 86 16 215 85 18 215 85 18 215 85 18 215 85 18 203 68 6
203 68 6 205 69 8 205 69 8 205 69 8 205 69 8 205 69 8 205 69 8
205 69 8 206 70 9 208 72 11 209 73 12 209 73 12 209 73 12 210 75 13
210 75 13 208 72 11 208 72 11 208 72 11 207 71 10 206 70 9 205 69 8
203 68 6 203 68 6 203 68 6 203 68 6 203 68 6 203 68 6 205 67 6
205 67 6 205 67 6 205 67 6 205 66 9 205 66 9 205 66 9 205 66 9
207 66 9 207 66 9 207 66 9 205 67 6 217 86 19 213 88 17 213 88 17
213 88 17 212 87 16 212 87 16 212 87 16 212 87 16 209 87 12 209 87 12
223 101 26 222 100 25 221 101 23 219 102 23 217 103 23 216 104 23
216 104 23 217 103 23 219 102 23 219 102 23 211 92 14 213 91 14
213 91 14 213 91 14 212 90 13 210 91 13 210 91 13 210 91 13 210 90 15
209 89 14 207 87 11 206 86 10 208 86 11 208 86 11 208 86 11 208 86 11
208 86 11 208 86 11 208 86 11 211 84 13 206 70 9 207 69 11 207 69 11
207 69 11 207 69 11 207 69 11 207 69 11 207 69 11 206 68 10 206 68 10
205 66 9 205 66 9 205 66 9 205 66 9 205 66 9 205 66 9 205 66 9
205 66 9 205 67 6 205 67 6 209 73 12 209 73 12 208 74 12 209 73 12
211 73 10 209 74 10 208 74 12 206 75 12 208 75 10 204 77 6 220 105 26
215 106 22 213 106 19 213 106 19 213 106 19 213 106 19 213 106 21
213 106 21 213 106 19 209 108 19 240 146 52 236 147 52 236 147 52
236 147 52 236 147 52 236 147 52 235 148 52 235 148 52 234 146 53
236 149 55 224 137 44 227 139 46 227 139 48 227 139 48 227 139 48
227 139 48 228 138 48 230 137 48 231 137 48 233 136 48 220 120 33
221 119 33 223 118 33 223 118 33 224 117 35 223 118 35 221 119 35
221 119 35 223 117 37 230 117 39 208 88 12 211 86 12 214 87 12
215 86 12 215 86 12 215 86 14 215 86 16 215 85 18 215 85 18 215 85 18
202 66 5 202 66 5 203 68 6 203 68 6 203 68 6 203 68 6 205 69 8
203 68 6 203 68 6 206 70 9 209 73 12 212 76 15 212 76 15 210 75 13
210 75 13 210 75 13 210 75 13 210 75 13 209 73 12 208 72 11 206 70 9
205 69 8 205 69 8 205 69 8 205 69 8 205 69 8 205 69 8 205 69 8
205 67 6 205 67 6 205 67 6 205 67 6 205 66 9 205 66 9 205 66 9
205 66 9 207 66 9 207 66 9 207 66 9 205 67 6 215 85 18 212 87 16
212 87 16 212 87 16 211 86 14 211 86 14 211 86 14 211 86 14 209 87 12
209 87 12 223 101 26 222 100 25 221 101 23 219 102 23 217 103 23
216 104 23 216 104 23 217 103 23 219 102 23 219 102 23 211 92 14
213 91 14 215 90 14 215 90 14 212 90 13 212 90 13 212 90 13 212 90 13
212 90 15 211 88 14 208 86 11 207 85 10 208 86 11 208 86 11 208 86 11
208 86 11 208 86 11 208 86 11 208 86 11 211 84 13 205 69 8 206 68 10
206 68 10 206 68 10 206 68 10 206 68 10 206 68 10 206 68 10 206 68 10
205 66 9 205 66 9 205 66 9 205 66 9 205 66 9 205 66 9 205 66 9
205 66 9 205 66 9 205 67 6 205 67 6 209 73 12 209 73 12 209 73 12
209 73 12 211 73 10 209 74 10 208 74 12 206 75 12 208 75 10 203 76 5
220 105 26 215 106 22 214 105 19 214 105 19 214 105 19 214 105 19
214 105 21 214 105 21 214 105 19 211 107 19 238 146 52 235 148 52
235 148 52 235 148 52 235 148 52 235 148 52 235 148 52 235 148 52
234 146 53 236 149 55 224 137 44 227 139 46 227 139 48 227 139 48
227 139 48 227 139 48 228 138 48 230 137 48 231 137 48 233 136 48
220 120 33 221 119 33 223 118 33 223 118 33 224 117 35 223 118 35
221 119 35 221 119 35 223 117 37 230 117 39 208 88 12 211 86 12
214 87 12 214 87 12 214 87 12 214 87 14 214 86 16 214 86 16 214 86 16
214 86 16 202 66 5 202 66 5 203 68 6 203 68 6 203 68 6 203 68 6
205 69 8 203 68 6 203 68 6 206 70 9 210 75 13 213 77 16 213 77 16
212 76 15 212 76 15 212 76 15 212 76 15 212 76 15 210 75 13 209 73 12
207 71 10 206 70 9 205 69 8 205 69 8 205 69 8 205 69 8 205 69 8
205 69 8 205 67 6 205 67 6 205 67 6 205 67 6 205 66 9 205 66 9
205 66 9 205 66 9 207 66 9 207 66 9 207 66 9 205 67 6 215 85 18
212 87 16 212 87 16 212 87 16 211 86 14 211 86 14 211 86 14 211 86 14
209 87 12 208 86 11 223 101 26 222 100 25 221 101 23 219 102 23
217 103 23 216 104 23 216 104 23 217 103 23 219 102 23 221 101 23
213 91 14 213 91 14 215 90 14 215 90 14 212 90 13 212 90 13 212 90 13
212 90 13 212 90 15 211 88 14 208 86 11 207 85 10 208 86 11 210 85 11
210 85 11 210 85 11 210 85 13 210 85 13 210 85 13 211 84 15 205 69 8
206 68 10 206 68 10 206 68 10 206 68 10 206 68 10 206 68 10 206 68 10
205 66 9 205 66 9 205 66 9 205 66 9 205 66 9 205 66 9 205 66 9
205 66 9 205 66 9 205 66 9 205 67 6 205 67 6 208 72 11 208 72 11
208 72 11 208 72 11 210 72 11 208 72 11 207 73 11 207 73 11 207 74 9
203 76 5 220 105 26 215 106 22 214 105 21 214 105 21 214 105 21
214 105 21 214 105 21 214 105 21 214 105 21 211 107 19 238 146 54
235 148 52 235 148 52 235 148 52 235 148 52 235 148 52 235 148 52
235 148 52 232 147 53 234 150 55 224 137 44 227 139 46 227 139 48
227 139 48 227 139 48 227 139 48 228 138 48 230 137 48 231 137 48
233 136 48 220 120 33 221 119 33 223 118 33 223 118 33 224 117 35
223 118 35 221 119 35 221 119 35 223 117 37 230 117 39 208 88 12
211 86 12 214 87 12 214 87 12 214 87 12 214 87 14 214 86 16 214 86 16
214 86 16 214 86 16 202 66 5 202 66 5 202 66 5 202 66 5 203 68 6
203 68 6 203 68 6 202 66 5 202 66 5 205 69 8 209 73 12 213 77 16
213 77 14 213 77 14 213 77 14 213 77 14 213 77 16 213 77 16 213 77 16
212 76 15 208 72 11 205 69 8 205 69 8 205 69 8 205 69 8 205 69 8
205 69 8 205 69 8 206 68 8 206 68 8 206 68 8 206 68 8 206 68 10
206 68 10 206 68 10 206 68 10 208 67 10 208 67 10 208 67 10 206 68 8
214 84 16 211 86 14 211 86 14 211 86 14 211 86 14 211 86 14 211 86 14
211 86 14 211 86 12 210 85 11 223 101 26 222 100 25 221 101 25
219 102 25 217 103 25 217 103 25 217 103 25 217 103 25 219 102 25
221 101 25 212 90 15 212 90 15 213 89 15 213 89 15 212 90 13
212 90 13 212 90 13 212 90 13 212 90 15 211 88 14 208 86 11 207 85 10
210 85 13 211 84 13 211 84 13 211 84 13 211 84 15 211 84 15 211 84 15
213 83 17 205 69 8 208 67 8 208 67 8 208 67 8 208 67 10 208 67 10
208 67 10 208 67 10 205 66 9 205 66 9 205 66 9 205 66 9 205 66 9
205 66 9 205 66 9 205 66 9 205 66 9 205 66 9 206 68 10 206 68 10
206 68 10 206 68 10 206 70 11 206 70 11 209 70 10 207 71 10 205 72 12
205 72 12 207 71 10 202 74 6 219 104 26 214 105 23 217 105 24
217 105 24 217 105 24 217 105 24 217 105 24 217 105 24 217 105 22
212 108 22 238 146 54 233 148 54 233 149 52 233 149 52 233 149 52
233 149 52 233 149 52 233 149 52 232 147 53 234 150 55 224 137 44
227 139 46 227 139 46 227 139 46 227 139 46 227 139 46 228 139 46
230 138 46 231 137 46 233 136 46 220 120 31 221 119 31 223 119 31
223 118 33 224 117 33 223 118 33 221 119 33 221 119 35 223 118 35
230 118 37 208 88 10 211 87 10 214 87 14 214 87 14 214 87 14
214 87 14 214 86 16 214 86 16 214 86 16 214 86 16 202 66 5 202 66 5
202 66 5 202 66 5 203 68 6 203 68 6 203 68 6 202 66 5 202 66 5
205 69 8 209 73 12 213 77 16 213 77 14 213 77 14 213 77 14 213 77 14
213 77 16 213 77 16 213 77 16 212 76 15 208 72 11 205 69 8 205 69 8
205 69 8 205 69 8 205 69 8 205 69 8 205 69 8 206 68 8 206 68 8
206 68 8 206 68 8 206 68 10 206 68 10 206 68 10 206 68 10 208 67 10
208 67 10 208 67 10 206 68 8 214 84 16 211 86 14 211 86 14 211 86 14
211 86 14 211 86 14 211 86 14 211 86 14 211 86 12 210 85 11
223 101 26 222 100 25 221 101 25 219 102 25 217 103 25 217 103 25
217 103 25 217 103 25 219 102 25 221 101 25 212 90 15 212 90 15
213 89 15 213 89 15 212 90 13 212 90 13 212 90 13 212 90 13 212 90 15
211 88 14 208 86 11 209 84 10 211 84 13 211 84 13 211 84 13 211 84 15
211 83 17 211 83 17 211 83 17 213 83 17 206 68 8 208 67 8 208 67 8
208 67 8 208 67 10 208 67 10 208 67 10 208 67 10 205 66 9 205 66 9
205 66 9 205 66 9 205 66 9 205 66 9 205 66 9 205 66 9 205 66 9
205 66 9 206 68 10 206 68 10 206 68 10 206 68 10 206 70 11 206 70 11
209 70 10 209 70 12 207 70 14 205 71 14 207 71 12 204 73 8 220 103 26
214 105 23 217 105 24 217 105 24 217 105 24 217 105 24 217 105 24
217 105 24 217 105 22 212 108 22 238 146 54 233 148 54 233 149 52
233 149 52 233 149 52 233 149 52 233 149 52 233 149 52 232 147 53
234 150 55 224 137 44 227 139 46 227 139 46 227 139 46 227 139 46
227 139 46 228 139 46 230 138 46 231 137 46 233 136 46 220 120 31
221 119 31 223 119 31 223 119 31 224 117 33 223 118 33 221 119 33
221 119 33 223 118 35 230 118 37 208 88 10 211 87 10 214 87 14
214 87 14 214 87 14 214 87 14 214 86 16 214 86 16 214 86 16 214 86 16
202 66 5 202 66 5 202 66 5 202 66 5 203 68 6 203 68 6 203 68 6
202 66 5 202 66 5 205 69 8 209 73 12 213 77 16 213 77 14 213 78 12
213 78 12 213 77 14 213 77 14 213 77 14 213 77 16 212 76 15 208 72 11
205 69 8 205 69 8 205 69 8 205 69 8 205 69 8 205 69 8 205 69 8
206 68 10 206 68 10 206 68 10 206 68 10 206 68 10 206 68 10 206 68 10
206 68 10 208 67 10 208 67 10 208 66 12 206 68 10 214 84 16 211 86 14
211 86 14 211 86 14 211 86 14 211 86 14 211 86 14 211 86 14 211 86 12
210 85 11 223 101 26 222 100 25 221 101 23 219 102 23 217 103 23
217 103 23 217 103 23 217 103 23 219 102 23 221 101 23 212 90 13
212 90 13 213 89 13 213 89 13 212 90 13 212 90 13 213 89 13 213 89 13
212 90 15 211 88 14 210 85 11 209 84 10 211 84 13 211 84 13 211 84 13
211 84 15 211 83 17 211 83 17 211 83 17 213 83 17 206 68 8 208 67 8
208 67 8 208 67 8 208 67 10 208 67 10 208 67 10 208 67 10 205 66 9
205 66 9 205 66 9 205 66 9 205 66 9 205 66 9 205 66 9 205 66 9
205 66 9 205 66 9 206 68 10 206 68 10 206 68 10 206 68 10 207 69 11
207 69 11 209 70 10 209 70 12 207 70 14 205 71 14 207 71 12 204 73 8
220 103 26 214 105 23 217 105 24 219 104 24 219 104 24 219 104 24
219 104 24 219 104 24 219 104 22 214 107 22 238 146 54 233 148 54
233 149 52 233 149 52 233 149 52 233 149 52 233 149 52 233 149 52
232 147 53 234 150 55 224 137 44 227 139 46 227 139 46 227 139 46
227 139 46 227 139 46 228 139 46 230 138 46 231 137 46 233 136 46
220 120 31 221 119 31 223 119 31 223 119 31 224 117 33 223 118 33
221 119 33 221 119 33 223 118 35 230 118 37 208 88 10 211 87 10
214 87 14 214 87 14 214 87 14 214 87 14 214 86 16 214 86 16 214 86 16
214 86 16 202 66 5 202 66 5 202 66 5 202 66 5 203 68 6 203 68 6
203 68 6 203 65 4 204 64 4 208 67 8 211 73 12 213 77 14 213 78 12
213 78 12 213 78 12 213 78 12 213 78 12 213 77 14 213 77 14 212 76 15
208 72 11 205 69 8 205 69 8 205 69 8 205 69 8 203 70 8 203 70 8
203 70 8 205 68 10 206 68 10 208 67 10 208 67 10 206 68 10 206 68 10
206 68 10 206 68 10 208 67 10 208 67 10 208 66 12 205 68 10 213 85 16
211 86 14 211 86 14 211 86 14 211 86 14 211 86 14 211 86 14 211 86 14
211 86 12 210 85 11 223 101 26 222 100 25 221 101 23 219 102 23
217 103 23 217 103 23 217 103 23 217 103 23 219 102 23 219 102 23
210 91 13 212 90 13 212 90 13 212 90 13 212 90 13 212 90 13 212 90 13
212 90 13 212 90 15 211 88 14 210 85 11 210 83 10 211 84 13 211 84 13
211 84 13 211 84 15 211 83 17 211 83 17 211 83 17 213 83 17 206 68 8
208 67 8 208 67 8 208 67 8 208 67 10 208 67 10 208 67 10 208 67 10
205 66 9 205 66 9 205 66 9 205 66 9 205 66 9 205 66 9 205 66 9
205 66 9 205 66 9 205 66 9 206 68 10 206 68 10 206 68 10 206 68 10
207 69 11 207 69 11 209 70 10 209 70 12 207 70 14 207 70 14 207 71 12
204 73 8 220 103 26 217 103 23 219 104 24 220 103 24 220 103 24
220 103 24 220 103 24 220 103 24 220 103 24 214 107 22 238 146 56
233 148 54 233 148 54 233 149 52 233 149 52 233 149 52 233 149 52
233 148 54 230 148 53 234 150 55 224 137 44 228 139 46 228 139 46
228 139 46 228 139 46 227 139 46 227 139 46 228 139 46 230 138 46
231 137 46 220 120 31 221 119 31 223 119 31 223 119 31 224 117 33
223 118 33 221 119 33 221 119 33 223 118 35 230 118 37 208 88 10
211 87 10 214 87 14 214 87 14 214 87 14 214 87 14 214 86 16 214 86 16
214 86 16 214 86 16 202 66 5 202 66 5 202 66 5 202 66 5 203 68 6
203 68 6 203 67 9 205 64 7 212 61 7 214 64 8 213 70 11 213 77 14
211 79 12 209 77 7 212 75 7 212 75 7 209 77 7 209 76 9 209 76 9
208 75 10 204 71 7 201 68 3 201 68 3 201 68 3 201 67 5 199 68 5
196 70 5 198 72 8 205 74 13 206 68 10 209 63 7 203 55 0 207 66 9
205 66 9 205 66 9 205 66 9 205 66 9 205 66 9 205 66 9 203 68 6
211 84 15 210 85 13 210 85 13 210 85 13 209 87 12 209 87 12 209 87 12
209 87 12 209 87 12 208 87 9 223 102 24 222 100 23 221 101 23
219 102 23 217 103 23 217 103 23 217 103 23 217 103 23 217 103 23
219 102 23 209 92 13 209 92 13 209 92 13 209 92 13 210 91 13
210 91 13 207 92 13 207 92 13 211 92 14 208 87 9 211 82 7 209 77 5
213 83 13 211 84 15 211 84 15 211 84 15 211 83 17 211 83 17 211 83 17
213 83 17 207 69 9 209 68 9 209 68 9 209 68 9 209 68 11 209 68 11
209 68 11 209 68 11 206 68 10 206 68 10 206 68 10 206 68 10 206 68 10
206 68 10 206 68 10 206 68 10 205 66 9 205 66 9 206 68 10 206 68 10
206 68 10 206 68 10 207 69 11 207 69 11 207 71 10 209 70 12 209 70 14
209 70 14 207 71 12 204 73 8 223 101 28 221 101 25 222 102 24
222 102 24 222 102 26 222 102 26 222 102 26 222 102 26 222 102 24
215 106 24 240 148 58 236 150 58 236 151 56 236 151 56 236 151 56
236 151 56 236 151 56 234 152 56 229 148 55 232 152 58 227 139 48
233 141 51 235 140 51 235 140 51 233 141 51 232 142 51 229 143 51
229 143 51 232 142 51 233 141 51 217 119 32 220 118 32 220 118 32
222 117 32 223 116 32 222 117 32 220 118 32 220 118 32 222 117 32
229 117 34 207 88 7 210 86 9 213 86 12 213 85 14 214 86 16 214 86 16
214 86 16 214 86 16 214 86 16 214 86 16 202 66 5 202 66 5 202 66 5
202 66 5 203 68 6 203 68 6 203 67 9 208 67 10 214 64 10 213 62 9
211 73 12 205 75 7 204 79 7 206 81 10 210 80 8 210 80 8 205 83 8
203 83 10 203 83 10 201 80 9 195 75 4 190 70 0 190 70 0 190 69 1
192 69 1 192 69 1 189 70 1 189 70 3 195 72 6 206 75 14 207 64 7
212 66 11 205 64 7 204 65 7 204 65 7 204 65 7 204 65 7 202 66 7
202 66 7 201 67 5 211 84 15 210 85 13 210 85 13 210 85 13 209 87 12
209 87 12 209 87 12 209 87 12 209 88 10 208 87 9 223 102 24
222 100 23 219 100 22 219 100 22 218 101 22 216 102 22 216 102 22
216 102 22 216 102 22 216 102 22 207 90 12 207 90 12 206 91 12
206 91 12 207 90 12 207 90 12 204 92 12 204 92 12 206 89 10 212 90 13
212 83 8 217 85 14 211 81 11 209 81 13 209 81 13 209 81 13 209 81 15
209 81 15 209 81 15 211 80 15 205 67 6 207 66 6 207 66 6 207 66 6
207 66 9 207 66 9 207 66 9 207 66 9 204 65 7 204 65 7 204 65 7
204 65 7 204 65 7 204 65 7 204 65 7 204 65 7 204 65 7 204 65 7
205 66 9 205 66 9 205 66 9 205 66 9 206 68 10 206 68 10 206 70 9
207 69 11 209 68 13 209 68 13 207 69 11 204 71 7 224 99 27 221 99 24
221 101 23 221 101 23 221 101 25 221 101 25 221 101 25 221 101 25
221 101 23 216 104 23 237 142 54 231 146 54 231 146 52 231 146 52
231 146 52 231 146 52 231 146 52 231 146 52 231 151 57 234 151 58
228 135 46 232 135 47 235 133 47 235 133 47 232 135 47 230 135 47
227 137 47 227 137 47 229 136 47 232 135 47 218 119 32 222 117 32
222 117 32 222 117 32 223 116 32 222 117 32 220 118 32 220 118 32
222 117 32 229 117 34 207 88 7 210 86 9 211 85 11 211 84 13 213 85 14
213 85 14 213 85 14 213 85 14 213 85 14 213 85 14 203 68 6 203 68 6
203 68 6 203 68 6 203 68 6 203 68 6 203 67 9 205 66 9 213 69 13
211 72 14 240 114 50 235 117 46 232 119 44 232 120 41 235 118 39
234 119 39 227 122 39 224 124 39 224 124 41 225 125 43 228 127 47
228 127 47 228 127 47 229 126 47 232 124 49 234 123 49 231 125 49
231 125 49 235 124 52 239 120 53 211 80 17 213 77 16 217 82 20
217 82 20 217 82 20 217 82 20 217 82 20 216 82 20 216 82 20 214 84 18
211 84 15 211 84 15 210 85 13 210 85 13 209 87 12 209 87 12 209 87 12
209 87 12 209 88 10 209 88 10 223 102 24 222 100 23 216 97 17
216 97 17 214 98 17 213 99 17 213 99 17 213 99 17 213 99 17 213 99 17
221 107 25 221 107 25 221 107 25 221 107 25 223 106 27 221 106 27
219 107 27 219 107 27 221 106 27 226 104 27 206 77 2 207 75 3
207 77 7 206 78 9 206 78 9 206 78 9 206 78 11 206 78 11 206 78 11
207 77 11 202 63 3 203 63 3 203 63 3 203 63 3 203 62 5 203 62 5
203 62 5 203 62 5 200 62 4 200 62 4 200 62 4 200 62 4 200 62 4
200 62 4 200 62 4 200 62 4 200 62 4 200 62 4 202 63 5 202 63 5
202 63 5 202 63 5 203 64 6 203 64 6 202 66 5 204 65 7 205 64 9
205 64 9 204 65 7 201 68 3 220 95 24 218 95 21 217 98 20 217 98 20
217 97 22 217 97 22 217 97 22 217 97 22 217 98 20 212 100 20
230 135 47 226 138 47 226 138 45 226 138 45 226 138 45 226 138 45
226 138 45 226 138 45 222 134 43 222 132 42 213 113 26 213 109 23
217 107 23 217 107 23 213 109 23 212 110 23 210 111 23 210 111 23
212 110 23 213 109 23 223 116 32 225 115 32 226 115 32 225 115 32
223 116 32 222 117 32 220 118 32 220 118 32 222 117 32 229 117 34
207 88 7 210 86 9 211 85 11 213 83 13 213 83 13 213 83 13 213 83 15
213 83 15 213 83 15 213 83 15 203 68 6 203 68 6 203 68 6 203 68 6
203 68 6 203 68 6 203 67 9 203 67 9 212 75 17 204 73 10 235 117 48
220 111 36 228 125 44 228 126 42 233 124 40 231 124 40 225 128 38
222 130 38 222 129 40 222 129 40 222 129 42 221 128 41 221 128 41
222 127 41 225 125 43 225 125 43 222 127 43 222 126 45 223 122 44
239 128 54 206 83 13 218 91 22 213 83 15 215 82 15 215 82 15
215 82 17 215 82 17 213 83 17 213 83 17 213 83 17 211 84 15 211 84 15
210 85 13 210 85 13 209 87 12 209 87 12 209 87 12 209 87 12 208 87 9
209 88 10 223 102 24 221 99 22 215 95 17 215 96 15 213 97 15
212 97 15 212 97 15 212 97 15 212 97 15 212 97 15 220 106 23
220 106 23 220 106 23 220 106 23 221 104 26 220 105 26 218 106 26
218 106 26 219 104 24 229 107 30 206 77 2 215 83 11 205 75 5 203 76 7
203 76 7 205 74 9 205 74 9 205 74 9 205 74 9 207 74 9 199 61 1
201 60 1 201 60 1 201 60 1 201 60 3 201 60 3 201 60 3 201 60 3
198 59 2 198 59 2 198 59 2 198 59 2 198 59 2 198 59 2 198 59 2
198 59 2 199 61 3 199 61 3 200 62 4 200 62 4 200 62 4 200 62 4
202 63 5 202 63 5 201 65 6 203 64 6 204 63 8 204 63 8 203 64 6
200 67 2 219 94 23 216 94 19 216 96 21 216 96 21 216 96 21 216 96 21
216 96 21 216 96 21 216 96 21 211 99 19 226 130 44 221 133 42
221 133 42 221 134 40 221 134 40 221 134 40 221 134 40 221 134 40
226 136 46 227 130 42 213 109 23 215 103 20 216 102 20 216 102 20
215 103 20 213 104 20 213 104 20 213 104 20 213 104 20 215 103 20
225 113 30 227 113 30 227 113 30 225 113 30 225 115 32 222 117 32
220 118 32 220 118 32 222 117 32 229 117 34 207 88 7 210 86 9
211 84 13 213 83 13 213 83 13 213 83 13 213 83 15 213 83 15 213 83 15
213 83 15 205 69 8 205 69 8 205 69 8 205 69 8 205 69 8 205 69 8
205 68 10 205 68 10 207 73 11 199 73 9 226 113 42 222 119 40
223 125 39 223 125 37 227 123 37 227 123 35 226 124 33 224 125 33
224 125 33 224 125 33 225 126 37 225 126 37 225 126 37 225 126 37
224 126 39 222 127 39 219 129 41 219 129 41 223 128 44 227 122 41
209 91 17 212 87 16 213 85 14 214 84 14 214 84 14 214 84 16 214 84 16
213 85 16 213 85 16 213 85 16 213 85 16 211 86 14 211 86 14 211 86 14
209 87 12 209 87 12 209 87 12 209 87 12 208 86 11 209 87 12 218 95 21
220 98 23 215 95 17 215 95 17 215 95 17 213 96 17 213 97 15 213 97 15
212 97 15 212 97 15 222 108 26 222 108 26 222 108 26 222 108 26
223 106 27 221 106 27 219 107 27 219 107 27 222 108 28 226 104 27
207 78 3 208 76 4 205 75 7 205 74 9 205 74 9 207 74 9 207 73 11
207 73 11 207 73 11 208 72 11 199 63 2 200 62 2 200 62 2 200 62 2
200 62 4 200 62 4 202 61 4 202 61 4 199 61 3 199 61 3 199 61 3
199 61 3 199 61 3 199 61 3 199 61 3 199 61 3 199 60 5 199 60 5
200 61 6 200 61 6 200 61 6 200 61 6 202 63 7 202 63 7 201 65 6
203 64 6 204 63 8 204 63 8 203 64 6 200 66 4 219 94 25 216 94 21
215 93 18 215 93 18 215 93 20 215 93 20 215 93 20 215 93 20 215 93 18
209 96 18 229 134 48 224 136 48 224 137 46 224 137 46 224 137 46
224 137 46 224 137 46 226 136 46 226 134 44 233 134 47 213 104 20
219 104 22 222 103 22 222 103 22 219 104 22 219 104 22 220 104 22
220 104 22 220 104 22 220 104 22 228 112 30 227 113 30 227 113 30
225 113 30 224 114 30 220 116 30 219 116 32 219 116 32 222 115 30
228 116 33 206 86 8 209 84 10 210 83 12 212 82 14 212 82 14 212 82 14
212 82 14 212 82 14 212 82 14 212 82 14 205 69 8 205 69 8 205 69 8
205 69 8 205 69 8 205 69 8 205 68 10 205 68 10 203 70 8 201 74 10
226 113 42 222 119 40 223 125 39 223 125 37 227 123 35 227 124 33
226 125 31 224 126 31 224 126 29 224 126 31 225 127 33 225 127 33
225 127 33 225 126 35 224 127 35 222 128 37 219 129 37 219 129 39
223 128 40 227 122 39 209 92 13 211 88 14 211 86 12 213 86 12
213 86 12 213 85 14 213 85 14 213 85 14 213 85 14 211 86 14 211 86 14
211 86 14 211 86 14 211 86 14 209 87 12 209 87 12 209 87 12 209 87 12
207 85 10 209 87 12 218 95 21 219 97 22 216 97 19 216 97 19 216 97 19
216 97 19 214 98 17 214 98 17 214 98 17 214 100 18 222 108 26
222 108 26 222 108 26 222 108 26 223 106 27 221 106 27 219 107 27
219 107 27 222 108 28 226 104 27 207 78 3 209 75 4 208 75 8 206 76 10
208 75 10 208 74 12 208 74 12 208 74 12 209 73 12 209 73 12 199 63 2
199 63 2 200 62 2 200 62 4 200 62 4 200 62 4 202 61 4 202 61 4
199 61 3 199 61 3 199 61 3 199 61 3 199 61 3 199 61 3 199 61 3
199 61 3 199 60 5 199 60 5 200 61 6 200 61 6 200 61 6 200 61 6
202 63 7 202 63 7 201 65 6 203 64 8 204 63 10 204 63 10 203 64 8
200 66 4 219 94 25 216 94 21 215 93 18 215 93 18 215 93 20 215 93 20
215 93 20 215 93 20 215 93 18 210 96 18 231 133 48 224 136 48
224 137 46 224 137 46 224 137 46 224 137 46 224 137 46 226 136 46
226 134 44 233 134 47 213 104 20 219 104 22 222 103 22 222 103 22
219 104 22 219 104 22 222 103 22 222 103 22 222 103 22 220 104 22
226 111 29 224 112 29 222 113 29 222 113 29 222 115 30 220 116 30
219 116 32 219 116 32 222 115 30 228 116 33 206 86 8 209 84 10
210 83 12 212 82 14 212 82 14 212 82 14 212 82 14 212 82 14 212 82 14
212 82 14 206 70 9 206 70 9 206 70 9 206 70 9 205 69 8 205 69 8
205 68 10 205 68 10 206 68 8 204 73 10 230 111 42 227 117 40
227 122 39 227 123 37 231 122 35 229 123 33 224 126 31 223 127 29
223 127 27 223 127 27 224 128 31 224 128 31 224 128 31 224 128 31
225 127 33 225 127 33 222 128 35 222 128 37 227 127 38 231 122 35
212 90 11 214 87 12 211 87 10 211 87 10 211 86 12 211 86 12 211 86 12
211 86 12 211 86 12 211 86 14 211 86 14 211 86 14 211 86 14 211 86 14
209 87 12 209 87 12 209 87 12 209 87 12 208 86 11 211 88 14 218 95 21
219 97 22 216 97 19 216 97 19 216 97 19 216 97 19 216 97 17 216 97 17
216 99 18 216 99 18 221 107 25 221 107 25 222 108 26 222 108 26
223 106 27 221 106 27 219 107 27 219 107 27 222 108 28 226 104 27
207 78 3 209 75 4 208 75 10 206 75 12 208 74 12 208 74 12 208 74 14
208 74 14 209 73 14 209 73 14 199 63 4 199 63 4 200 62 4 200 62 4
200 61 6 200 61 6 202 61 6 202 61 6 199 61 3 199 61 3 199 61 3
199 61 3 199 61 3 199 61 3 199 61 3 199 61 3 199 60 5 199 60 5
200 61 6 200 61 6 200 61 6 200 61 6 202 63 7 202 63 7 201 65 6
203 64 8 204 63 10 204 63 10 203 64 8 200 66 4 219 94 25 216 94 21
215 93 18 215 93 18 215 93 20 215 93 20 215 93 20 215 93 20 215 93 18
210 96 18 231 133 48 224 136 48 224 137 46 224 137 46 224 137 46
224 137 46 224 137 46 224 137 46 225 135 42 232 135 45 210 106 18
217 106 20 219 105 20 219 105 20 217 106 20 217 106 20 220 104 20
222 103 20 220 104 20 220 106 21 223 112 26 221 114 27 219 115 27
219 115 27 222 115 30 220 116 30 219 116 32 220 115 32 222 115 30
228 116 33 204 87 8 207 85 10 210 83 12 210 83 14 210 83 14 210 83 14
212 82 14 212 82 14 212 82 14 212 82 14 206 70 9 206 70 9 206 70 9
206 70 9 205 69 8 205 69 8 205 68 10 205 68 10 206 68 8 205 72 8
230 111 40 227 117 40 229 122 39 229 122 35 231 122 33 231 122 31
226 125 31 223 127 29 223 127 27 223 127 27 222 129 31 222 129 31
222 129 31 224 128 31 225 127 33 225 127 33 224 127 35 224 127 35
228 127 36 231 122 35 212 90 11 215 87 10 213 86 8 211 87 10
211 87 10 211 86 12 211 87 10 211 87 10 211 86 12 211 86 12 211 86 14
211 86 14 211 86 14 211 86 14 209 87 12 209 87 12 209 87 12 209 87 12
208 86 11 211 88 14 218 95 21 219 97 22 216 97 19 216 97 19 216 97 19
216 97 19 216 97 17 216 97 17 217 98 18 217 100 19 221 107 25
221 107 25 221 109 26 222 108 26 223 106 27 221 106 27 219 107 27
219 107 27 222 108 28 226 104 27 207 78 3 209 75 4 208 75 10
208 74 12 208 74 12 208 74 12 208 74 14 209 73 14 209 73 14 209 73 14
199 63 4 200 62 4 200 62 4 200 61 6 200 61 6 200 61 6 202 61 6
202 61 6 199 60 5 199 61 3 199 61 3 199 61 3 199 61 3 199 61 3
199 61 3 199 61 3 199 60 5 199 60 5 200 61 6 200 61 6 200 61 6
200 61 6 202 63 7 202 63 7 201 65 6 203 64 8 204 63 10 204 63 10
203 64 8 200 66 4 219 94 25 216 94 21 215 93 18 215 93 18 215 93 20
215 93 20 215 93 20 215 93 20 215 93 18 210 96 18 231 133 48
224 136 48 224 137 46 224 137 46 224 137 46 224 137 46 224 137 46
226 136 46 225 135 42 230 136 45 210 106 18 217 106 20 219 105 20
219 105 20 217 106 20 217 106 20 219 105 20 220 104 20 219 105 20
218 107 21 221 112 26 221 114 27 219 115 27 219 115 29 222 115 30
222 115 30 220 115 32 220 115 32 224 114 32 228 115 35 204 87 8
207 85 10 209 84 12 210 83 14 210 83 14 210 83 14 212 82 14 212 82 14
212 82 14 212 82 14 206 70 9 206 70 9 206 70 9 206 70 9 206 70 9
206 70 9 206 70 9 206 70 9 207 69 9 205 74 9 226 115 41 223 121 39
226 122 36 228 121 34 228 122 30 228 122 30 226 123 30 225 124 30
226 125 31 224 126 31 224 127 35 222 128 35 223 129 36 223 129 36
223 129 36 225 128 36 225 128 36 227 128 36 228 128 39 230 123 39
213 92 12 217 88 11 213 86 10 211 87 10 211 87 10 211 87 10 211 86 12
211 86 12 211 86 12 211 86 12 211 86 14 211 86 14 211 86 14 211 86 14
209 87 14 209 87 14 209 87 14 208 86 13 208 86 11 212 90 15 216 94 19
219 97 22 217 97 22 217 97 22 217 98 20 217 98 20 219 97 20 219 97 20
220 99 19 218 99 19 221 105 23 219 108 25 219 110 26 221 109 26
222 108 26 222 108 26 219 110 26 219 110 26 223 109 27 227 106 26
210 79 3 210 76 5 209 76 11 209 75 13 210 74 15 210 74 15 210 74 15
210 74 15 212 73 18 212 73 18 200 61 6 200 61 6 202 61 6 202 60 8
202 60 8 202 60 8 202 60 8 202 60 8 202 61 6 202 61 6 200 62 4
200 62 4 200 62 4 200 62 4 200 62 4 200 62 4 200 61 6 200 61 6
200 61 6 200 61 6 202 63 7 202 63 7 200 64 5 200 64 5 201 65 6
203 64 8 204 63 10 204 63 10 203 64 8 200 66 4 221 93 25 218 93 21
215 93 18 215 93 18 217 92 20 217 92 20 217 92 20 217 92 20 217 92 18
210 96 18 231 133 48 226 136 48 226 136 46 226 136 46 226 136 46
226 136 46 226 136 46 226 136 46 226 134 42 233 134 45 213 104 18
220 104 20 222 103 20 222 103 20 219 105 20 217 106 20 219 105 20
219 105 20 218 106 23 218 106 23 223 111 28 221 112 28 222 113 29
222 113 31 224 114 32 222 115 32 222 115 32 222 115 32 224 114 32
229 114 37 204 87 10 207 85 10 209 84 12 209 84 12 210 83 12
210 83 12 212 82 12 212 82 12 212 82 12 212 82 12 206 70 9 206 70 9
206 70 9 206 70 9 206 70 9 206 70 9 206 70 9 206 70 9 207 69 9
203 75 9 224 116 41 222 121 39 226 122 36 228 122 32 226 123 30
226 123 28 228 122 30 228 122 30 227 124 33 226 124 33 225 126 37
224 127 37 223 129 38 222 130 38 222 130 38 223 129 38 225 128 36
227 127 38 226 129 41 229 124 39 213 92 12 217 88 11 213 86 10
211 87 10 211 87 10 211 87 10 211 86 12 211 86 12 213 86 12 213 86 12
211 86 14 211 86 14 211 86 14 211 86 14 209 87 14 209 87 14 209 87 14
208 86 13 208 86 11 212 90 15 216 94 19 219 97 22 217 97 22 217 97 22
217 98 20 217 98 20 219 97 20 219 97 20 220 99 19 219 101 20
220 106 23 219 108 25 217 110 26 217 110 26 222 108 26 222 108 26
219 110 26 219 110 26 223 109 27 227 106 26 210 79 3 212 76 3
210 75 9 209 76 11 210 75 13 210 75 13 210 75 13 210 74 15 212 73 15
212 73 18 200 61 6 200 61 6 202 60 8 202 60 8 202 60 8 202 60 8
202 60 8 202 60 8 202 61 6 202 61 6 200 62 4 200 62 4 200 62 4
200 62 4 200 62 4 200 62 4 200 61 6 200 61 6 200 61 6 200 61 6
202 63 7 202 63 7 200 64 5 200 64 5 201 65 6 203 64 8 204 63 10
204 63 10 203 64 8 200 66 4 221 93 25 218 93 21 215 93 18 215 93 18
217 92 20 217 92 20 217 92 20 217 92 20 217 92 18 210 96 18
231 133 48 226 136 48 226 136 46 226 136 46 226 136 46 226 136 46
226 136 46 226 136 46 226 134 44 232 135 47 213 104 20 220 104 22
222 103 22 222 103 22 219 104 22 217 105 22 217 105 22 215 106 22
217 107 23 218 106 23 223 111 28 223 111 30 224 112 31 224 112 31
224 114 32 224 114 32 224 114 32 224 114 32 225 113 35 229 114 37
204 87 10 207 85 10 209 84 12 210 83 12 210 83 12 210 83 12 212 82 12
212 82 12 212 82 12 212 82 12 207 71 10 207 71 10 207 71 10 207 71 10
207 71 10 207 71 10 207 71 10 207 71 10 209 70 10 204 76 10
224 116 41 222 121 39 226 122 36 228 122 32 226 123 30 226 123 28
228 122 30 228 122 32 227 124 33 226 124 33 225 126 37 224 127 37
223 129 38 222 130 38 222 130 38 223 129 38 225 128 38 227 127 38
226 129 41 229 124 41 213 91 14 217 88 13 213 86 10 213 86 10
213 86 10 213 86 10 213 86 12 213 86 12 213 86 12 213 86 12 211 86 14
211 86 14 211 86 14 211 86 14 209 87 14 209 87 14 209 87 14 208 86 13
209 87 12 211 88 14 219 97 22 220 98 23 218 99 23 218 99 23 218 99 21
218 99 21 220 98 21 220 98 21 221 102 21 218 101 20 217 105 22
215 108 23 216 111 26 216 111 26 221 109 26 222 108 26 221 109 26
221 109 26 223 109 29 227 105 28 212 78 5 212 76 3 210 76 5 210 76 7
210 75 9 210 75 11 210 75 11 210 75 13 210 75 13 210 74 15 200 62 4
200 61 6 200 61 6 200 61 6 200 61 6 200 61 6 200 61 6 200 61 6
200 61 6 200 61 6 202 63 5 202 63 5 202 63 5 202 63 5 202 63 5
202 63 5 202 63 7 202 63 7 202 63 7 202 63 7 203 64 8 203 64 8
201 65 6 201 65 6 201 65 6 203 64 8 204 63 10 204 63 10 204 65 9
200 66 4 221 93 25 217 92 20 214 92 17 214 92 17 216 91 19 216 91 19
216 91 19 216 91 19 216 91 17 210 96 18 231 133 48 224 136 48
224 137 46 224 137 46 224 137 46 224 137 46 224 137 46 224 137 46
225 135 44 230 135 49 210 105 22 217 105 24 220 103 24 220 103 24
217 105 24 215 106 24 214 107 24 214 107 24 215 108 26 218 108 27
220 110 29 221 111 32 222 112 33 222 112 33 225 113 35 225 113 35
225 113 32 225 113 32 225 113 35 229 114 39 204 87 10 207 85 10
210 85 13 210 83 12 212 82 12 212 82 12 212 82 12 212 82 12 212 82 12
212 82 12 208 72 11 208 72 11 208 72 11 208 72 11 208 72 11 208 72 11
208 72 11 208 72 11 210 72 11 204 76 10 224 116 41 220 119 37
224 119 34 225 119 30 225 122 29 225 122 29 225 120 28 225 119 30
227 124 33 226 124 33 225 126 37 224 127 37 223 129 38 222 130 38
222 130 38 223 129 38 225 128 38 227 127 40 226 128 43 229 124 41
212 90 13 217 88 13 213 86 10 213 86 10 213 86 10 213 86 10 213 86 12
213 86 12 213 86 12 213 86 12 211 86 14 211 86 14 211 86 14 211 86 14
209 87 14 209 87 14 209 87 14 208 86 13 208 86 11 208 86 11 220 98 23
220 98 23 219 100 24 219 100 24 219 100 24 219 100 22 219 100 22
219 100 22 219 103 21 217 105 22 214 107 22 212 110 23 213 113 26
213 113 26 216 111 26 217 110 26 214 112 26 214 112 26 219 111 29
222 108 28 205 81 5 207 78 3 206 79 5 204 79 5 204 79 7 204 79 9
204 79 9 204 78 11 204 78 11 206 78 11 197 64 2 199 63 2 199 63 4
199 63 4 199 63 4 200 62 4 200 62 4 200 62 4 200 61 6 200 61 6
203 64 6 202 63 5 202 63 5 202 63 5 202 63 5 202 63 5 202 63 7
202 63 7 202 63 7 202 63 7 203 64 8 203 64 8 201 65 6 201 65 6
201 65 6 203 64 8 204 63 10 204 63 10 204 65 9 200 66 4 220 92 23
216 91 19 213 91 16 215 90 16 215 90 18 215 90 18 215 90 18 215 90 18
215 90 16 210 92 16 236 131 48 231 133 48 231 133 48 231 133 46
231 133 46 231 133 48 231 133 48 231 133 48 228 133 46 233 133 51
213 103 24 220 103 26 223 101 26 223 101 26 220 103 26 219 104 26
217 105 26 217 105 26 220 105 28 221 106 29 223 108 31 224 109 34
226 110 35 226 111 33 228 111 35 228 111 35 228 111 35 228 111 35
228 111 37 231 113 39 206 86 10 207 85 10 211 84 13 210 83 12
212 82 12 212 82 12 212 82 12 212 82 12 212 82 12 212 82 12 210 75 13
210 75 13 210 75 13 210 75 13 210 75 13 210 75 13 210 75 13 210 75 13
211 73 10 204 76 10 223 115 38 218 118 34 223 118 33 224 118 29
223 119 27 223 119 27 224 119 27 224 119 27 222 118 28 220 119 28
231 132 42 230 133 42 228 133 42 226 134 42 226 134 42 228 133 42
230 133 42 231 131 44 231 133 48 237 132 49 211 89 12 217 88 13
213 86 10 213 86 10 213 86 10 213 86 10 213 86 12 213 86 12 213 85 14
213 85 14 208 83 11 208 83 11 208 83 11 208 83 11 206 83 11 206 83 11
206 83 11 206 83 11 207 85 12 207 85 12 221 99 26 221 99 26
221 101 27 221 101 27 221 101 25 221 101 25 220 103 24 219 104 24
217 105 22 215 108 23 240 138 51 237 139 51 235 140 51 233 141 51
233 141 51 232 142 51 229 143 51 229 143 51 228 138 48 234 137 49
222 115 30 226 116 35 224 117 35 224 117 37 224 117 37 224 116 39
224 116 39 224 116 39 224 116 41 228 114 41 209 83 14 213 81 14
213 81 16 213 81 16 212 79 15 214 79 15 214 78 17 214 78 17 212 75 17
209 73 14 202 66 7 201 65 6 202 63 5 202 63 5 203 64 6 203 64 6
203 64 8 203 64 8 203 64 8 203 64 8 203 64 8 203 64 8 201 65 6
201 65 6 202 66 7 204 65 9 205 64 11 205 64 11 205 66 11 200 66 4
218 91 22 213 88 17 212 88 14 212 88 14 214 86 16 214 86 16 214 86 16
214 86 16 215 88 15 213 89 15 210 92 16 209 94 17 210 96 16 210 96 16
210 96 16 210 96 18 210 96 18 210 96 18 206 96 17 210 97 21 191 66 0
198 66 0 205 68 0 205 68 0 202 70 0 200 70 0 199 71 0 199 71 0
200 72 2 201 74 3 203 76 5 204 77 8 204 77 8 204 77 6 203 78 6
203 78 6 202 77 5 201 76 4 201 76 4 203 78 6 208 83 11 211 84 13
211 84 13 213 83 13 213 83 13 213 83 13 213 83 13 213 83 13 213 83 13
213 83 13 212 76 15 212 76 15 212 76 15 212 76 15 212 76 15 212 76 15
212 76 15 212 76 13 212 74 11 204 77 8 223 115 38 217 117 32
222 117 32 223 117 30 222 118 28 222 118 26 223 117 26 223 117 26
222 118 28 220 119 28 231 132 42 230 133 42 228 133 42 226 134 42
226 134 42 228 133 42 230 133 42 231 131 44 231 133 48 237 132 49
209 88 10 217 88 13 213 86 10 213 86 10 213 86 10 213 86 10 213 86 12
213 86 12 213 85 14 213 85 14 208 83 11 208 83 11 208 83 11 208 83 11
206 83 11 206 83 11 206 83 11 206 83 11 206 83 11 205 82 10
222 100 27 221 99 26 222 102 28 222 102 28 222 102 26 220 103 26
220 105 26 218 106 26 215 108 23 215 110 25 238 138 51 235 140 51
233 141 51 232 142 51 229 143 51 225 145 51 222 147 51 222 147 51
222 141 48 228 140 49 216 118 30 221 119 33 220 120 33 218 120 35
218 120 35 218 120 37 218 120 37 218 120 37 218 120 37 223 117 39
206 85 12 210 83 12 210 83 14 212 82 14 211 81 13 211 81 13 211 80 15
212 79 15 210 77 15 209 73 14 203 67 9 201 65 6 202 63 5 202 63 5
203 64 6 203 64 6 203 64 8 203 64 8 204 65 9 204 65 9 203 64 8
203 64 8 201 65 6 201 65 6 202 66 7 202 66 9 204 65 11 205 64 11
205 66 11 200 66 4 217 90 21 212 87 16 211 86 12 211 86 12 213 85 14
213 85 14 213 85 14 213 85 14 214 87 14 214 87 14 215 90 16 216 91 17
217 93 16 217 92 18 217 92 18 217 92 18 217 92 18 215 93 20 211 93 19
215 95 21 194 65 0 202 64 0 208 66 2 208 66 2 205 68 2 203 68 4
203 68 4 202 69 4 203 70 6 204 72 5 207 74 7 208 75 8 208 75 8
208 75 8 208 75 8 208 76 6 207 74 5 204 74 4 204 74 4 206 76 6
211 81 11 213 83 13 213 83 13 213 83 13 213 83 13 213 83 13 213 83 13
213 83 13 213 83 13 213 83 13 213 77 14 213 77 14 213 77 14 213 77 14
213 77 14 213 77 14 213 77 14 213 78 12 213 76 11 206 78 9 223 115 38
217 117 32 222 117 32 223 117 30 222 118 28 222 118 28 223 117 28
223 117 28 222 118 28 220 119 28 231 132 42 230 133 42 228 133 42
226 134 42 226 134 42 228 133 42 230 133 42 231 131 44 231 133 48
237 132 49 209 88 10 217 88 13 213 86 10 213 86 10 213 86 10
213 86 10 213 86 12 213 86 12 213 85 14 213 85 14 208 83 11 208 83 11
208 83 11 208 83 11 206 83 11 206 83 11 206 83 11 206 83 11 206 84 9
204 81 7 225 102 28 222 100 25 223 103 28 223 103 28 221 104 28
221 104 26 219 107 27 218 108 27 215 110 25 213 111 25 237 139 51
233 141 51 232 142 51 230 143 51 229 143 51 225 145 51 224 146 51
224 146 51 222 141 48 228 140 49 217 118 30 221 119 33 220 120 33
220 120 33 220 120 33 220 119 35 220 119 35 220 119 35 220 119 35
223 117 37 204 87 10 209 84 10 209 84 12 209 83 14 209 81 13
209 81 13 209 81 15 211 80 15 210 77 15 208 74 12 205 68 10 202 66 7
203 64 6 203 64 6 204 65 7 204 65 7 204 65 9 204 65 9 205 66 11
205 66 11 204 65 9 202 66 9 201 67 7 201 67 7 201 67 7 202 66 9
204 65 11 205 64 11 206 67 12 200 66 4 217 90 21 211 86 14 210 85 11
210 85 11 211 84 13 211 84 13 211 84 13 211 84 13 213 86 12 214 87 14
215 90 16 216 91 17 217 92 18 217 92 18 217 92 20 217 92 20 217 92 20
215 92 22 209 94 21 213 95 23 193 65 0 200 65 1 207 66 4 207 66 4
203 68 4 202 68 6 200 69 6 200 69 6 201 70 8 203 72 7 205 74 9
206 76 10 206 76 10 208 75 10 208 75 8 209 74 8 208 73 7 207 72 6
207 72 4 209 75 6 212 80 11 215 82 13 214 84 14 211 84 13 213 83 13
213 83 13 213 83 13 213 83 13 213 83 13 213 83 13 213 77 14 213 77 14
213 77 14 213 77 14 213 77 14 213 77 14 213 78 12 211 79 12 210 77 11
202 80 7 222 116 36 216 118 32 220 118 32 222 117 30 222 118 28
222 118 28 223 117 28 223 117 30 222 117 30 218 119 30 230 133 42
228 133 42 226 134 42 226 134 42 228 133 42 230 133 42 230 133 42
230 132 44 231 133 48 237 132 49 209 88 10 217 88 13 213 86 10
213 86 10 213 86 10 213 86 12 213 86 12 213 86 12 213 85 14 213 85 14
208 83 11 208 83 11 208 83 11 208 83 11 206 83 11 206 83 11 206 83 11
206 83 11 206 84 9 204 81 7 225 102 28 222 100 25 223 103 28
223 103 28 221 104 26 220 105 26 219 107 27 216 109 27 215 110 25
211 112 25 235 140 51 233 141 51 232 142 51 230 143 51 229 143 51
227 144 51 225 145 51 225 145 51 223 141 48 228 140 49 216 118 30
221 119 33 221 119 31 221 119 31 221 119 31 223 119 31 223 119 31
223 119 31 223 118 33 226 116 35 203 85 9 206 83 11 206 83 13
208 82 13 208 82 13 209 81 13 209 81 15 211 80 15 210 77 15 209 73 12
205 68 10 204 65 7 203 64 6 203 64 6 204 65 7 205 64 7 205 64 9
204 65 9 205 66 11 205 66 11 202 66 9 202 66 9 201 67 7 199 68 7
201 67 7 202 66 9 204 65 11 205 64 11 205 66 11 198 65 3 216 88 20
210 85 13 210 85 11 210 85 11 211 84 13 211 84 13 211 84 13 211 84 13
213 86 12 214 87 14 215 90 16 216 91 17 217 92 18 217 92 18 217 92 20
218 91 20 218 91 22 215 92 22 211 93 21 215 94 23 193 65 0 200 65 1
205 67 4 205 67 4 202 68 6 200 69 6 200 69 6 200 69 6 201 70 8
203 72 9 207 74 9 208 75 10 208 75 10 208 75 10 209 74 8 209 74 8
208 73 7 209 71 6 209 72 4 211 74 6 216 79 11 216 82 13 213 83 13
210 83 12 210 83 12 210 83 12 211 84 13 211 84 13 211 84 13 211 84 13
211 79 12 211 79 12 211 79 12 211 79 12 211 79 12 211 79 12 211 79 12
210 80 10 205 80 9 198 82 7 218 118 36 214 119 32 215 120 32
217 120 30 222 117 30 223 117 30 223 117 30 223 116 32 222 117 32
218 119 32 230 132 44 228 133 44 226 134 44 228 133 44 231 131 44
231 131 44 228 133 44 226 134 46 229 134 48 237 132 49 208 88 12
215 88 15 213 86 12 213 86 12 213 86 12 213 85 14 213 85 14 213 85 14
213 85 14 213 85 14 208 83 11 208 83 11 208 83 11 208 83 11 206 84 9
206 84 9 206 84 9 206 84 9 206 84 9 204 81 7 225 102 28 222 100 25
223 104 26 223 104 26 223 104 26 221 104 26 219 108 25 216 109 25
215 110 25 211 112 25 235 140 51 233 141 51 232 142 51 230 143 51
230 143 51 230 143 51 230 143 51 230 143 51 227 139 48 229 139 49
212 120 28 218 121 31 223 119 31 226 117 29 226 117 29 228 117 29
228 117 29 228 117 29 229 116 29 231 114 33 203 83 10 205 81 14
206 81 12 206 81 12 208 80 12 208 80 12 210 79 14 211 78 14 210 75 11
210 72 11 205 67 6 204 64 4 204 64 4 204 64 4 204 63 6 206 63 6
207 64 7 205 64 7 204 65 9 202 66 9 201 67 9 199 67 9 199 67 9
199 67 9 201 67 9 202 66 9 204 65 11 205 64 11 204 65 9 197 64 2
215 87 19 209 84 12 210 85 11 210 85 11 211 84 13 211 84 13 211 84 13
211 84 13 213 85 14 214 86 16 216 89 16 217 90 17 218 91 20 218 91 20
218 91 20 220 90 20 220 90 22 218 91 22 217 90 21 220 92 23 194 64 0
198 65 1 202 67 3 202 67 3 202 66 5 201 67 7 202 68 9 202 68 9
203 70 8 206 70 9 208 72 11 209 73 12 210 75 11 210 75 11 211 73 10
211 73 10 211 73 8 210 72 7 211 71 7 214 74 9 218 79 12 217 83 14
211 84 13 207 85 12 207 85 12 206 85 12 206 85 12 206 85 12 206 85 12
206 85 12 211 79 12 211 79 12 211 79 12 211 79 12 211 79 12 211 79 12
211 79 10 210 80 10 204 81 9 198 83 5 220 117 34 214 119 32
214 121 32 215 121 30 218 119 30 222 117 30 223 117 30 222 117 30
220 118 30 218 119 30 230 133 42 228 133 42 226 134 42 228 133 42
231 132 42 231 132 42 225 135 44 225 135 44 229 134 46 237 132 47
208 88 10 215 88 13 213 86 12 213 85 14 213 85 14 213 85 14 213 85 14
213 85 14 213 85 14 213 85 14 208 83 11 208 83 11 208 83 11 208 83 11
206 84 9 206 84 9 206 84 9 206 84 9 206 84 9 204 81 7 225 102 28
222 100 25 223 104 26 223 104 26 223 104 26 221 104 26 219 108 25
218 108 25 215 110 25 213 111 25 237 139 51 233 141 51 232 142 51
232 142 51 232 142 51 232 142 51 232 142 51 232 142 51 228 138 48
229 139 49 211 121 28 216 122 31 223 119 29 228 117 29 228 117 27
228 117 27 229 116 27 229 116 29 231 115 29 232 114 31 204 81 9
205 80 11 207 79 11 207 79 9 210 80 10 210 79 12 211 79 12 211 78 14
210 75 13 210 72 11 205 66 9 203 64 6 203 64 6 203 64 6 204 63 6
204 63 6 207 64 7 207 64 7 205 64 9 204 65 9 201 67 9 199 67 9
201 67 9 201 67 9 201 67 9 202 66 9 204 65 11 205 64 9 203 64 6
196 63 1 214 86 18 208 83 11 210 85 11 210 85 11 211 84 13 211 84 13
211 84 13 211 84 13 213 85 14 214 86 16 216 89 16 217 90 17 218 91 20
218 91 20 220 90 20 220 90 20 220 90 22 220 90 22 220 88 21 223 90 23
196 63 0 198 65 1 202 67 3 202 67 3 202 66 5 202 66 7 203 67 9
203 67 9 205 69 8 206 70 9 210 72 11 211 73 12 212 74 11 212 74 11
211 73 10 211 73 8 211 73 8 210 72 7 210 72 7 212 75 7 217 80 12
217 83 14 210 83 12 208 83 11 206 83 11 204 84 11 206 85 12 206 85 12
206 85 12 206 85 12 214 77 10 214 77 10 214 77 10 214 77 10 214 77 10
214 77 10 214 77 10 213 79 8 208 79 7 202 80 5 225 115 34 219 116 32
217 119 32 215 121 30 217 120 30 218 119 30 222 117 30 222 118 28
220 119 28 218 119 28 230 133 40 228 134 40 226 135 40 226 135 40
228 134 40 226 135 40 223 136 40 225 136 40 231 134 42 238 132 43
209 89 4 217 88 11 213 86 12 213 85 16 213 85 16 213 85 16 213 85 16
213 85 16 213 85 14 213 85 14 208 83 11 208 83 11 208 83 11 208 83 11
206 84 9 206 84 9 206 84 9 206 84 9 206 84 7 204 82 5 225 103 26
222 100 23 223 104 26 223 104 23 223 104 23 221 105 23 221 107 25
218 108 25 216 109 25 215 110 25 238 138 51 235 140 51 233 141 51
233 141 51 233 141 51 233 141 51 233 141 51 233 141 51 228 138 48
229 139 49 211 121 28 216 122 31 223 119 29 226 117 29 226 117 29
226 117 29 226 117 29 226 117 31 226 117 31 229 115 33 207 80 5
210 78 7 210 78 7 210 78 7 211 79 8 211 79 10 211 79 12 211 78 14
209 75 15 207 72 15 202 68 11 200 65 8 200 65 8 200 65 8 201 65 8
203 64 8 205 64 9 207 63 9 207 63 9 207 63 9 204 65 7 204 65 7
202 66 7 202 66 7 202 66 7 202 66 9 204 65 9 205 64 9 203 64 6
196 63 1 215 85 18 209 82 11 210 85 11 210 85 11 211 84 13 211 84 13
211 84 13 211 84 13 213 85 14 214 86 16 216 89 16 217 90 17 218 91 20
218 91 20 220 90 20 220 90 20 220 90 22 220 90 22 220 88 21 223 90 23
196 63 0 198 65 1 202 67 3 202 67 3 202 66 5 202 66 5 203 68 6
203 68 6 205 69 8 206 70 9 208 73 9 209 74 10 210 75 11 210 75 11
209 74 8 209 75 6 209 75 6 208 74 5 208 74 5 210 76 5 215 81 10
216 84 12 212 83 10 211 81 9 209 82 9 209 82 9 210 83 10 210 83 10
210 83 10 210 83 10 214 77 10 214 77 10 214 77 10 214 77 10 214 77 10
214 77 10 214 78 8 213 79 8 208 79 7 204 79 5 230 113 34 224 114 32
222 117 32 218 119 32 218 119 32 218 119 30 220 118 30 220 119 28
218 119 28 217 120 28 228 134 40 226 135 40 225 136 40 225 136 40
226 135 40 225 136 40 223 136 40 225 136 40 231 134 42 240 131 43
209 89 4 215 89 11 213 86 12 213 85 16 213 85 16 213 85 16 213 85 16
213 85 16 213 85 14 213 85 14 208 83 11 206 81 10 206 81 10 206 81 10
205 83 8 205 83 8 205 83 8 205 83 8 204 82 5 204 82 5 225 103 26
225 103 26 224 105 25 224 105 25 224 105 25 223 106 25 221 107 25
219 108 25 218 108 25 215 110 25 238 138 51 237 139 51 235 140 51
233 141 51 233 141 51 233 141 51 233 141 51 233 141 51 230 137 48
229 139 49 211 121 28 216 122 31 220 121 29 223 119 29 223 119 29
223 119 29 223 119 31 223 119 31 223 119 31 228 116 33 207 81 3
212 78 3 212 78 3 212 78 5 213 79 6 213 79 8 213 78 10 211 79 12
209 75 13 207 73 13 202 68 11 200 65 8 200 66 6 200 66 6 200 66 6
201 65 6 204 65 7 205 64 7 207 64 7 207 64 7 204 63 6 204 64 4
203 65 4 203 65 4 201 65 6 203 64 6 203 64 8 203 64 8 200 64 5
196 63 1 214 84 16 209 82 11 211 86 12 211 86 14 213 85 14 213 85 14
213 85 14 213 85 14 213 85 14 214 86 16 216 89 18 217 90 19 218 91 20
220 90 20 220 90 20 220 90 22 220 90 22 220 90 22 220 88 21 222 89 22
196 63 0 198 65 1 202 67 3 202 67 3 202 66 5 202 66 5 203 68 6
203 68 6 205 69 8 206 70 9 208 73 9 209 74 10 210 75 11 210 75 9
209 75 6 208 76 6 208 76 6 207 74 5 207 75 3 209 77 5 213 82 10
214 85 12 212 83 10 211 81 9 209 82 9 209 82 9 210 83 10 210 83 10
210 83 10 210 83 10 210 76 5 210 76 5 210 76 5 210 76 5 210 76 5
210 76 5 209 77 5 207 78 5 204 78 4 202 80 5 229 109 33 228 111 32
228 113 34 225 115 34 223 116 34 222 117 34 220 118 32 220 118 30
218 119 30 217 120 30 230 136 45 229 137 45 227 137 45 227 137 45
229 137 45 229 137 45 227 137 47 229 136 47 228 128 41 232 126 41
203 89 9 208 87 9 212 88 14 214 86 16 214 86 16 214 86 16 214 86 16
214 86 16 214 86 18 214 86 16 206 81 10 206 82 8 206 82 8 206 82 8
205 83 8 205 83 8 205 83 8 205 83 8 200 78 1 206 84 7 222 100 23
228 106 29 225 106 26 225 106 26 225 106 26 224 107 26 222 108 26
221 109 26 219 110 26 216 111 26 236 136 49 234 137 49 233 138 49
231 139 49 233 138 49 233 138 49 233 138 49 233 138 49 236 144 52
233 141 49 209 117 25 217 125 33 213 117 24 213 117 24 216 118 23
216 117 25 218 116 25 218 116 25 219 117 26 224 115 28 210 85 4
217 81 4 217 81 4 217 81 6 218 82 9 218 81 11 218 81 11 216 82 13
209 74 8 216 81 17 202 66 5 208 72 11 203 68 6 202 68 6 201 67 5
201 67 5 202 66 5 202 66 5 201 65 4 203 65 4 203 65 2 203 65 2
203 65 2 203 65 2 204 66 5 204 65 7 204 65 9 204 65 9 199 63 4
203 70 6 213 83 15 217 90 19 213 88 17 213 88 17 215 87 19 217 86 19
217 86 19 217 86 19 218 88 20 218 88 20 217 86 19 217 86 19 217 86 19
217 86 19 218 86 19 218 85 21 218 85 21 218 85 21 225 92 28 218 85 21
204 71 7 198 65 1 202 66 5 202 66 5 202 66 5 202 66 5 203 68 6
203 68 6 205 69 8 205 69 8 204 71 7 205 72 8 207 74 7 207 74 7
205 73 4 204 74 4 204 74 4 206 76 6 207 78 5 200 71 0 208 81 8
202 77 3 206 82 8 208 86 11 208 86 11 208 86 11 209 87 12 209 87 12
209 87 12 209 87 12 207 80 7 207 80 7 207 80 7 207 80 7 207 80 7
207 80 7 205 81 7 204 81 7 199 82 5 204 87 10 224 104 29 230 108 33
232 110 32 230 111 32 228 111 35 227 112 35 225 113 35 224 113 35
222 114 35 220 115 35 233 130 48 231 131 48 230 132 48 231 131 48
234 129 48 234 129 48 234 129 48 236 128 48 239 129 50 233 121 43
205 87 13 211 91 18 211 86 14 213 85 14 213 85 14 213 85 14 213 85 14
213 85 14 213 85 16 211 84 15 210 85 13 209 84 10 209 84 10 209 84 10
207 85 10 207 85 10 207 85 10 207 85 10 202 81 3 208 87 9 220 98 21
227 105 28 225 106 26 225 106 26 225 106 26 225 106 26 223 106 25
219 108 25 218 108 25 215 110 25 239 140 53 238 140 53 236 141 53
236 141 53 236 141 53 236 141 53 236 141 53 236 141 53 238 146 54
229 137 45 211 119 27 210 118 26 215 121 28 215 121 28 215 121 26
217 121 26 218 121 29 218 121 29 218 121 29 223 119 29 199 83 0
204 81 0 204 81 0 204 81 0 205 81 3 205 81 5 205 81 5 205 81 7
208 83 9 211 86 14 194 69 0 198 73 4 196 71 1 196 71 1 193 70 0
193 70 0 195 69 0 195 69 0 195 69 0 196 69 0 201 69 0 202 68 0
203 69 0 203 68 2 206 68 6 206 68 8 206 68 10 206 68 10 202 66 5
205 72 8 211 81 13 214 86 16 213 85 14 213 85 14 214 84 16 214 84 16
214 84 16 214 84 16 215 85 18 217 86 19 218 88 20 219 89 21 220 90 22
220 90 22 222 89 24 222 89 24 222 89 24 222 89 24 218 85 21 213 81 16
203 70 6 200 67 2 202 66 5 202 66 5 202 66 5 202 66 5 203 68 6
203 68 6 205 69 8 205 69 8 204 71 7 203 72 7 204 74 6 204 74 6
201 74 3 201 74 3 201 74 3 199 74 3 204 79 5 197 73 0 209 87 12
202 82 7 204 87 10 202 87 10 202 87 10 202 87 10 203 89 11 203 89 11
203 89 11 203 89 11 222 107 30 222 107 30 222 107 30 222 107 30
222 107 30 222 107 30 222 107 30 221 108 30 219 114 33 215 109 29
204 87 10 204 79 5 210 79 5 210 79 5 208 79 7 208 79 9 208 78 11
208 78 13 207 79 13 205 79 13 199 76 8 197 76 8 196 77 8 197 76 8
204 73 8 205 72 8 205 72 8 204 73 8 196 68 2 203 75 9 203 77 10
210 84 17 210 83 14 210 83 14 210 83 14 210 83 14 210 83 14 210 83 14
211 84 15 211 84 15 210 85 13 210 85 11 211 86 12 211 86 12 209 87 12
209 87 12 209 87 12 209 87 12 209 88 10 211 89 12 218 96 19 220 98 21
219 101 20 219 101 20 219 101 20 219 101 20 218 101 20 215 103 20
213 104 20 212 105 20 220 118 32 217 119 32 215 120 32 215 120 32
217 119 32 217 119 32 217 119 32 215 120 32 217 125 33 210 118 26
224 134 41 226 134 42 223 131 37 223 131 37 223 132 35 224 131 35
223 130 34 223 130 34 222 130 34 223 129 36 245 148 56 245 148 56
245 148 56 245 148 58 246 149 59 246 149 61 246 149 61 246 149 61
240 141 54 242 140 54 221 119 33 221 119 35 223 121 37 223 121 37
222 120 36 224 119 36 225 118 36 227 117 36 228 115 35 231 114 35
199 77 2 202 75 2 205 76 3 207 74 5 208 73 9 208 72 11 211 72 14
211 72 14 208 72 11 208 75 10 208 78 11 210 80 10 207 79 9 207 79 9
208 78 11 208 78 11 208 78 11 208 78 11 208 78 11 206 76 8 205 75 7
204 74 6 204 74 6 204 74 6 205 72 8 205 72 8 205 72 8 205 72 8
209 76 11 208 75 10 201 68 3 202 69 4 203 68 6 202 66 5 202 66 5
202 66 5 203 68 6 203 68 6 203 68 6 202 68 6 224 93 28 222 94 28
222 94 26 222 94 26 219 94 23 219 95 21 219 95 21 218 95 21 221 99 24
216 97 19 231 117 37 228 115 35 228 121 38 226 121 38 225 122 38
225 122 38 226 123 39 226 123 39 226 123 39 226 123 39 221 111 32
221 111 32 221 111 32 221 111 32 221 111 32 221 111 32 221 111 32
220 112 32 217 117 35 218 115 33 199 82 5 204 78 4 210 77 3 212 75 5
210 76 5 210 76 7 212 74 11 212 74 13 212 74 13 210 75 13 203 70 8
201 70 10 201 70 10 203 69 10 209 66 10 211 65 10 211 65 10 209 66 8
206 68 8 203 70 8 207 76 13 206 77 13 208 80 14 208 80 14 208 80 14
208 80 14 208 80 12 208 80 12 208 80 12 208 80 12 212 87 16 212 88 14
212 88 14 212 88 14 211 88 14 211 88 14 211 88 14 212 90 15 213 91 14
213 91 14 215 94 16 215 94 16 215 96 15 215 96 15 215 96 15 215 96 15
214 98 17 213 99 17 211 99 17 208 101 17 221 119 33 220 120 33
218 121 33 218 121 33 218 121 33 218 121 33 218 121 33 218 121 33
222 128 37 210 118 26 226 134 42 218 128 35 228 136 42 228 136 42
228 136 40 228 136 40 226 135 38 225 136 38 225 136 38 223 137 38
233 149 52 232 150 52 232 150 52 230 150 52 231 151 55 231 151 55
231 151 55 233 150 55 236 151 54 238 148 53 214 122 30 214 118 27
220 123 33 220 123 33 218 123 32 218 123 32 219 122 32 221 121 32
221 119 33 226 117 33 199 82 3 204 79 5 206 79 5 207 77 7 210 77 13
212 76 15 213 75 17 213 75 17 210 75 13 210 75 11 208 75 8 206 76 6
204 74 4 204 74 4 204 74 6 204 74 6 204 74 6 204 74 6 205 75 7
205 75 7 205 75 7 205 75 7 206 76 8 206 76 10 208 75 10 208 75 10
208 75 10 207 74 9 203 70 6 203 70 6 201 68 3 202 68 6 203 68 6
202 66 5 202 66 5 202 66 5 203 68 6 203 68 6 203 68 6 202 68 6
221 93 27 221 93 25 221 93 25 219 94 23 216 94 19 216 94 19 216 94 19
216 94 19 217 98 20 216 99 20 233 123 42 230 125 42 228 126 42
225 127 42 225 127 42 223 128 42 224 129 43 224 129 43 224 129 43
224 129 43 221 112 30 221 112 30 221 112 30 221 112 30 221 111 32
221 111 32 221 112 30 220 112 30 220 117 36 222 114 35 202 82 7
207 78 5 212 77 7 212 77 7 208 79 9 208 79 9 212 77 11 212 76 13
212 76 13 212 76 13 206 70 7 206 70 9 206 70 9 207 69 9 209 68 9
211 68 9 211 68 9 209 69 7 206 70 7 204 71 7 208 78 13 207 79 13
208 80 14 208 80 14 208 80 14 208 80 14 208 80 12 208 80 12 209 81 13
209 81 13 213 88 17 213 89 15 213 89 15 213 89 15 212 90 13 212 90 13
212 90 13 212 90 13 211 92 14 212 93 15 214 94 16 214 94 16 214 94 16
212 95 16 214 94 16 214 94 16 214 97 19 213 98 19 211 99 19
208 101 19 223 118 33 221 119 33 220 120 33 220 120 33 220 120 31
220 120 31 220 120 31 218 121 31 214 120 28 216 122 31 223 131 37
229 137 43 225 134 39 225 134 39 224 134 39 224 134 39 225 136 40
223 136 40 223 136 40 222 137 40 235 153 56 234 154 56 234 154 56
232 155 56 231 154 54 231 154 54 229 154 54 231 154 54 234 154 56
237 150 54 218 121 29 220 117 26 224 118 31 224 118 31 221 119 31
220 121 29 218 121 29 218 121 31 218 121 31 223 118 33 202 81 3
207 78 5 206 78 7 207 77 7 210 77 13 212 76 15 213 75 15 213 75 15
212 76 15 210 75 11 208 75 8 208 75 8 206 76 8 206 76 8 208 75 8
208 75 8 208 75 8 208 75 8 208 75 8 207 74 7 207 74 9 205 72 8
205 72 8 205 72 8 205 72 10 205 72 10 205 72 10 205 72 10 206 70 9
207 71 10 202 66 5 203 68 6 203 67 9 203 67 9 203 67 9 203 67 9
203 67 9 203 67 9 205 67 6 202 68 6 222 94 28 220 95 26 220 95 24
220 96 22 216 96 21 216 96 21 218 96 19 218 96 19 218 99 21
215 101 21 232 125 43 229 127 43 228 128 43 226 128 43 226 128 43
226 128 43 226 128 43 226 128 43 226 128 43 226 128 43 221 112 30
221 112 30 221 112 30 221 112 30 221 111 32 221 111 32 221 112 30
220 112 30 222 116 36 224 113 35 204 81 7 207 78 5 210 78 7 210 78 7
207 79 9 207 79 9 210 77 11 212 77 11 212 77 11 212 77 11 206 70 7
206 70 7 207 70 7 207 70 7 209 69 7 209 69 7 209 69 7 207 70 7
206 70 7 204 71 7 208 78 13 207 79 13 209 81 15 209 81 15 209 81 15
209 81 15 209 81 13 209 81 13 209 81 13 209 81 13 213 88 17 213 89 15
213 89 15 213 89 15 212 90 13 212 90 13 212 90 13 212 90 13 211 92 14
212 93 15 214 94 16 214 94 16 213 96 17 213 96 17 215 95 17 215 95 17
214 97 19 213 98 19 211 99 19 210 100 19 223 118 33 221 119 33
221 119 33 221 119 33 221 119 31 220 120 31 220 120 31 220 120 31
216 119 28 216 122 31 223 131 37 229 137 43 225 134 39 225 134 39
224 134 39 224 134 39 223 136 40 223 136 40 222 137 40 222 137 40
235 153 56 234 154 56 234 154 56 232 155 56 229 154 54 229 154 54
228 155 54 229 154 54 232 155 56 237 150 54 220 121 29 222 115 28
228 116 31 228 116 31 223 119 31 221 120 29 220 121 29 218 121 29
216 122 31 223 118 33 202 81 3 209 77 7 207 77 7 207 77 9 210 77 11
212 76 13 213 75 15 213 75 15 210 75 11 210 75 11 209 76 9 209 76 9
208 75 8 208 75 8 208 75 8 208 75 8 208 75 8 208 75 8 208 75 8
207 74 7 207 74 9 205 72 8 205 72 8 205 72 8 205 72 10 205 72 10
205 72 10 205 72 10 206 70 9 207 71 10 203 68 6 203 68 6 203 67 9
203 67 9 203 67 9 203 67 9 203 67 9 203 67 9 205 67 6 202 68 6
220 95 28 219 96 26 220 95 24 219 97 22 216 96 21 216 96 21 218 96 19
218 96 19 218 99 21 214 101 21 231 126 43 228 128 43 226 128 43
226 128 43 226 128 43 226 128 43 226 128 43 226 128 43 226 128 43
226 128 43 221 112 30 221 112 30 221 112 30 221 112 30 221 111 32
221 111 32 221 112 30 220 112 30 222 116 36 224 113 35 204 81 7
207 78 5 210 78 7 210 78 7 207 79 9 207 79 9 210 77 11 212 77 11
212 77 11 212 77 11 206 70 7 206 70 7 207 70 7 207 70 7 209 69 7
209 69 7 209 69 7 207 70 7 206 70 7 204 71 7 208 78 13 207 79 13
209 81 15 209 81 15 209 81 15 209 81 15 209 81 13 209 81 13 209 81 13
209 81 13 213 88 17 213 89 15 213 89 15 213 89 15 212 90 13 212 90 13
212 90 13 212 90 13 211 92 14 212 93 15 214 94 16 214 94 16 213 96 17
213 96 17 215 95 17 215 95 17 214 97 19 213 98 19 211 99 19
210 100 19 224 117 33 223 118 33 223 118 33 223 118 33 221 119 31
221 119 31 221 119 31 220 120 31 216 119 28 216 122 31 223 131 37
229 137 43 225 134 39 225 134 39 225 134 39 224 134 39 223 136 40
223 136 40 222 137 40 222 137 40 235 153 56 235 153 56 234 154 56
232 155 56 229 154 56 229 154 56 228 155 56 229 154 56 232 154 58
237 150 56 220 120 31 222 115 28 228 116 33 228 116 33 223 119 31
221 119 31 220 121 29 218 121 29 216 122 31 223 118 33 202 80 5
209 77 7 207 77 9 207 77 9 210 77 11 212 76 13 213 75 13 213 75 13
210 75 11 210 75 11 209 76 9 209 76 9 208 75 8 208 75 8 208 75 8
208 75 8 208 75 8 208 75 8 208 75 8 207 74 7 207 74 9 205 72 8
205 72 8 205 72 8 205 72 10 205 72 10 205 72 10 205 72 10 206 70 9
207 71 10 203 68 6 205 69 8 205 68 10 203 67 9 203 67 9 203 67 9
203 67 9 203 67 9 205 67 6 202 68 6 220 95 28 219 96 26 220 95 24
219 97 22 216 97 19 216 97 19 218 96 19 218 96 17 218 99 19
214 102 19 229 127 41 226 129 41 226 129 41 226 129 41 226 129 41
226 129 41 226 129 41 226 129 41 226 129 41 226 129 41 221 112 30
221 112 30 221 112 30 221 112 30 221 111 32 221 111 32 221 112 30
220 112 30 222 116 36 222 114 35 202 82 7 207 78 5 210 78 7 210 78 9
207 79 9 207 79 9 210 77 11 212 77 11 212 77 11 212 77 11 206 70 7
206 70 7 207 70 7 207 70 7 209 69 7 209 69 7 209 69 7 207 70 7
206 70 7 204 71 7 208 78 13 207 79 13 209 81 15 209 81 15 209 81 15
209 81 15 209 81 13 209 81 13 209 81 13 209 81 13 213 88 17 213 89 15
213 89 15 213 89 15 212 90 13 212 90 13 212 90 13 212 90 13 211 92 14
212 93 15 214 94 16 214 94 16 215 95 17 215 95 17 215 95 17 215 95 17
216 97 19 214 97 19 213 98 19 210 100 19 224 117 33 223 118 33
223 118 33 223 118 33 221 119 31 221 119 31 221 119 31 221 119 31
217 118 28 218 121 31 224 130 39 228 136 42 225 134 39 225 134 39
225 134 39 225 134 39 225 136 40 223 136 40 222 137 40 222 137 40
235 153 56 235 153 56 234 154 56 234 154 56 231 153 56 229 154 56
228 155 56 229 154 56 232 154 58 237 150 56 220 120 31 222 115 28
228 116 33 228 116 33 223 119 31 220 120 31 218 121 29 218 121 29
216 122 31 223 118 33 202 80 5 209 77 7 207 77 9 207 77 9 210 77 11
212 77 11 213 75 13 213 75 13 210 75 11 210 75 11 209 76 9 209 76 9
209 74 8 209 74 8 208 75 8 208 75 8 208 75 8 208 75 8 208 75 8
207 74 9 207 74 9 205 72 10 205 72 10 205 72 10 205 72 10 205 72 10
205 72 10 207 71 10 206 70 9 207 71 10 203 68 6 205 69 8 205 68 10
203 67 9 203 67 9 203 67 9 203 67 9 203 67 9 205 67 6 203 68 6
220 95 28 219 96 24 220 96 22 219 97 22 216 97 19 216 97 19 218 96 17
218 96 17 217 98 18 212 101 18 228 126 40 225 128 40 226 129 41
226 129 41 226 129 41 226 129 41 226 129 41 226 129 41 226 129 41
226 129 41 221 112 28 221 112 28 221 112 28 221 112 30 221 112 30
221 112 30 221 112 30 220 112 30 220 117 36 222 114 35 202 82 9
206 78 7 210 78 9 208 79 9 205 80 11 205 80 11 210 77 11 212 77 11
212 77 11 212 77 11 206 70 7 206 70 7 207 70 7 207 70 7 209 69 7
209 69 7 209 69 7 207 70 7 206 70 7 204 71 7 208 78 13 207 79 13
209 81 15 209 81 15 209 81 15 209 81 15 209 81 13 209 81 13 209 81 13
209 81 13 213 88 17 213 89 15 213 89 15 213 89 15 212 90 15 212 90 15
212 90 15 212 90 15 213 91 16 214 92 17 215 93 18 215 93 18 215 95 19
215 95 19 216 94 19 216 94 19 218 95 21 216 96 21 213 98 19
210 100 19 224 117 35 223 118 35 223 118 33 223 118 33 223 118 33
223 118 33 223 119 31 221 119 31 218 119 32 219 122 34 224 130 39
228 135 44 226 134 42 226 134 42 226 134 42 226 134 42 225 135 42
223 136 42 222 137 42 222 137 42 235 153 56 235 153 56 234 154 56
234 154 56 232 154 58 230 155 58 229 156 58 230 155 58 233 155 59
238 151 58 221 121 32 223 117 30 228 116 33 228 116 33 223 119 31
220 120 31 218 121 29 216 122 29 216 122 31 221 119 33 202 80 5
207 77 7 207 77 9 207 77 9 210 77 11 212 77 11 212 76 13 212 76 13
212 77 11 212 77 11 209 76 9 209 76 9 210 75 11 210 75 11 209 74 10
209 74 10 209 74 10 209 74 10 209 74 10 208 73 9 208 72 11 207 71 12
207 71 12 207 71 12 207 71 12 207 71 12 207 71 12 207 71 12 207 69 11
209 70 12 205 66 9 206 68 10 206 68 10 205 66 9 205 66 9 205 66 9
203 67 9 203 67 9 205 67 6 203 68 6 222 94 28 219 96 24 220 96 22
219 97 20 217 98 20 217 98 18 219 97 18 219 97 18 217 98 18
212 101 18 228 126 40 225 128 40 223 128 40 223 128 40 223 128 40
223 128 40 224 130 41 224 130 41 224 130 41 224 130 41 221 112 28
221 112 28 221 112 28 221 112 28 221 112 30 221 112 30 221 112 30
220 112 30 220 117 36 220 115 35 200 83 9 206 78 7 208 79 9 208 79 9
205 80 11 205 80 11 210 77 11 212 77 11 212 77 11 212 77 11 206 70 7
206 70 7 207 70 7 207 70 7 209 69 7 209 69 7 209 69 7 207 70 7
206 70 7 204 71 7 208 78 13 207 79 13 209 81 15 209 81 15 209 81 15
209 81 15 209 81 13 209 81 13 209 81 13 209 81 13 213 88 17 213 89 15
213 89 15 213 89 15 212 90 15 212 90 15 212 90 15 212 90 15 213 91 16
214 92 17 215 93 18 215 93 18 215 95 19 216 94 19 216 94 19 216 94 19
218 95 21 216 96 21 213 98 19 211 99 19 224 117 35 223 118 35
223 118 35 223 118 33 223 118 33 223 118 33 223 119 31 221 119 31
218 119 32 219 122 34 224 130 39 226 134 42 226 134 42 226 134 42
226 134 42 226 134 42 225 135 42 223 136 42 222 137 42 222 137 42
235 153 56 234 154 56 234 154 56 232 155 56 230 155 58 230 155 58
229 156 58 230 155 58 233 155 59 237 152 58 219 122 32 223 117 30
228 116 33 228 116 33 223 119 31 220 120 31 218 121 29 216 122 29
215 123 31 221 119 33 201 81 5 207 77 7 206 78 9 207 77 9 210 77 11
212 77 11 212 77 11 212 77 11 212 77 11 212 77 11 209 76 9 209 76 9
210 75 11 210 75 11 209 74 10 209 74 10 209 74 10 209 74 10 209 74 10
208 72 11 208 72 13 207 71 12 207 71 12 207 71 12 207 71 12 207 71 12
207 71 12 207 71 12 207 69 11 209 70 12 205 66 9 206 68 10 206 68 10
205 66 9 205 66 9 205 66 9 203 67 9 203 67 9 205 67 6 203 68 6
222 94 28 219 96 24 220 96 22 220 96 20 219 97 18 217 98 18 219 97 18
219 97 18 216 97 17 211 99 17 227 125 39 224 126 39 223 128 40
223 128 40 223 128 40 223 128 40 224 130 41 224 130 41 224 130 41
224 130 41 221 112 26 221 112 26 221 112 26 221 112 28 221 112 28
221 112 28 221 112 28 220 112 30 218 118 34 220 115 35 200 83 7
204 79 5 208 79 7 207 79 9 204 81 9 205 80 9 210 78 9 212 77 9
212 77 9 212 77 11 206 70 7 206 70 7 207 70 7 207 70 7 209 69 7
209 69 7 209 69 7 207 70 7 206 70 7 204 71 7 210 79 14 208 80 14
208 82 13 208 82 13 209 81 13 209 81 13 209 81 13 209 81 13 209 81 13
209 81 13 213 88 17 213 89 15 213 89 15 213 89 15 212 90 15 212 90 15
212 90 15 212 90 15 213 91 16 214 92 17 215 93 18 215 93 18 216 94 19
216 94 19 218 93 19 218 93 19 219 95 21 218 95 21 214 97 19 211 99 19
226 116 37 224 117 37 223 118 35 223 118 35 224 117 33 224 117 33
224 118 31 223 119 31 218 119 32 219 122 34 224 130 39 226 134 42
226 134 42 226 134 42 226 134 42 226 134 42 225 135 42 223 136 42
222 137 42 220 138 42 235 155 57 233 156 57 233 156 57 233 156 57
232 156 59 232 156 59 230 157 59 232 156 59 234 157 58 238 153 57
219 123 30 223 117 30 228 116 31 228 116 31 223 119 31 220 121 29
216 122 29 215 123 29 215 123 31 220 120 33 201 81 5 206 78 7
206 78 9 206 78 9 210 78 9 210 78 9 210 78 9 210 77 11 210 77 11
210 77 11 209 76 9 209 76 9 209 76 9 208 75 8 208 75 8 208 75 8
208 75 10 208 75 10 208 75 10 207 73 11 208 72 13 207 71 12 207 71 12
207 71 12 207 71 12 207 71 12 207 71 12 207 71 12 207 69 11 209 70 12
205 66 9 206 68 10 206 68 10 205 66 9 205 66 9 205 66 9 203 67 9
203 67 9 205 67 6 203 68 6 222 94 28 219 96 24 220 96 22 220 96 20
219 97 18 217 98 18 219 97 18 219 97 18 216 97 17 211 99 17
227 125 39 224 126 39 223 129 38 222 130 38 222 130 38 222 130 38
223 131 39 223 131 39 223 131 39 223 131 39 218 114 26 218 114 26
218 114 26 218 114 26 218 114 28 218 114 28 218 114 28 216 114 28
217 119 34 219 116 32 199 84 7 202 80 5 207 80 7 207 80 7 204 81 9
204 81 9 207 79 9 208 79 9 208 79 9 208 79 9 203 72 5 203 72 5
204 72 5 204 72 5 206 71 5 206 71 5 206 71 5 204 72 5 203 72 5
201 73 5 208 80 12 206 81 12 208 82 13 208 82 13 209 81 13 209 81 13
209 81 13 209 81 13 209 81 13 209 81 13 213 88 17 213 89 15 213 89 15
213 89 15 213 89 15 213 89 15 213 89 15 212 90 15 213 91 16 212 90 15
215 93 18 215 93 18 216 94 19 218 93 19 218 93 19 218 93 19 219 95 21
219 95 21 216 96 21 214 97 21 229 114 37 228 115 37 228 115 37
228 115 37 229 114 37 229 114 37 231 114 35 229 115 35 225 115 34
224 119 36 228 128 41 230 133 42 231 132 42 231 132 42 231 132 42
230 133 42 230 133 42 228 133 42 228 133 42 225 135 42 235 155 57
233 156 57 233 156 57 233 156 57 232 156 59 232 156 59 231 158 60
233 157 60 234 157 58 236 154 57 216 124 30 218 119 28 221 119 31
221 119 31 218 121 29 216 122 29 215 123 29 215 123 29 213 123 31
220 120 33 199 82 5 206 78 7 204 79 9 206 78 9 208 79 9 210 78 9
210 78 9 210 78 9 210 77 11 210 77 11 208 75 8 208 75 8 208 75 8
208 75 8 208 75 8 208 75 8 208 75 10 208 75 10 208 75 10 207 73 11
208 72 13 207 71 12 207 71 12 207 71 12 207 71 12 207 71 12 207 71 12
207 71 12 206 68 10 207 69 11 204 65 7 205 66 9 205 66 9 205 66 9
205 66 9 205 66 9 203 67 9 203 67 9 205 67 6 202 68 6 221 93 27
218 95 23 219 95 21 218 96 19 218 96 19 216 97 17 216 95 15 215 96 15
215 96 15 209 97 14 225 126 39 221 128 39 222 130 38 222 130 38
222 130 38 222 130 38 223 131 39 223 131 39 223 131 39 223 131 39
230 138 46 230 138 46 230 138 46 230 138 46 230 137 48 230 137 48
230 137 48 230 137 48 231 136 50 235 133 49 214 101 21 217 98 20
222 97 21 222 97 23 218 99 23 218 99 23 218 99 23 220 98 23 220 98 23
220 98 23 220 98 23 220 98 23 220 98 23 220 98 23 220 98 23 220 98 23
222 97 23 222 97 23 220 97 25 221 99 26 205 82 10 208 83 11 208 82 13
208 82 13 208 82 13 208 82 13 208 82 13 208 82 13 209 81 13 209 81 13
213 88 17 213 89 15 213 89 15 213 89 15 213 89 15 215 88 15 215 88 15
213 89 15 213 89 15 212 88 14 209 84 10 206 82 8 205 80 9 208 81 10
208 81 10 208 81 10 209 82 11 209 82 11 209 82 11 209 82 11 200 72 2
198 73 4 198 73 4 200 72 6 200 71 8 201 70 8 205 69 8 203 70 6
204 74 4 197 75 0 214 100 18 210 100 17 211 99 17 211 99 17 211 99 17
211 99 17 211 100 14 211 100 14 211 100 14 205 103 14 239 154 60
233 157 60 233 157 60 233 157 60 233 158 58 233 158 58 234 159 59
234 159 59 235 158 59 235 155 57 233 151 53 230 148 51 231 146 50
232 148 51 232 148 51 232 148 49 235 146 49 235 146 51 235 146 53
240 143 55 212 95 18 217 92 20 217 92 22 217 92 22 221 91 21
221 91 21 221 92 19 221 91 21 220 90 20 221 91 21 205 75 5 205 75 5
208 75 8 208 75 8 208 75 8 208 75 8 208 75 10 208 75 10 208 75 10
208 74 12 202 66 7 204 65 7 204 65 7 204 65 7 204 65 7 204 65 7
204 65 7 204 65 7 205 66 9 206 68 10 203 64 6 205 66 9 205 66 9
204 65 7 204 65 7 204 65 7 204 65 7 204 65 7 202 66 5 201 67 5
220 91 25 218 93 21 215 93 18 215 93 18 216 95 17 216 95 17 214 94 16
214 94 16 214 94 16 206 96 15 235 142 53 229 143 51 231 144 53
233 143 53 233 143 51 233 143 51 234 144 52 234 144 52 234 144 52
234 144 52 225 140 46 225 140 46 225 140 46 225 140 46 225 140 48
225 140 48 225 140 48 227 139 48 230 137 50 233 133 49 214 101 21
217 98 20 222 97 21 222 97 21 218 99 23 217 99 23 217 99 23 217 99 23
217 99 23 217 99 23 217 100 21 217 100 21 217 100 21 217 100 21
217 100 21 217 100 21 218 99 21 218 99 21 218 99 23 219 100 24
205 83 8 206 84 9 208 83 11 208 82 13 208 82 13 208 82 13 208 82 13
208 82 13 209 81 13 209 81 13 213 88 17 213 89 15 213 89 15 213 89 15
215 88 15 215 88 15 215 88 15 215 88 15 213 89 15 211 86 12 209 84 10
208 81 8 207 79 9 208 81 10 208 81 10 208 81 10 209 82 11 211 81 11
212 80 11 212 80 13 203 70 4 203 70 6 203 70 8 203 69 10 205 68 12
206 67 12 209 66 12 209 66 10 210 70 6 203 71 0 217 98 20 214 98 17
216 97 17 216 97 17 216 97 17 216 97 17 216 97 14 216 97 14 216 97 14
208 101 14 239 154 60 233 157 60 234 159 61 234 159 61 234 159 59
234 159 59 235 160 60 235 160 60 237 159 60 233 156 57 228 153 53
226 151 51 226 149 50 227 150 51 227 150 49 229 150 49 234 147 49
235 146 51 234 146 53 240 143 55 210 96 18 217 92 20 215 92 22
217 92 22 220 92 21 221 91 21 221 92 19 221 92 19 220 90 20 221 91 21
204 74 4 204 74 4 208 75 8 208 75 8 208 75 8 208 75 8 208 75 10
208 75 10 208 75 10 208 74 12 202 66 7 204 65 7 204 65 7 204 65 7
204 65 7 204 65 7 204 65 7 204 65 7 204 65 7 205 66 9 202 63 5
204 65 7 204 65 7 204 65 7 204 65 7 204 65 7 204 65 7 204 65 7
202 66 5 201 67 5 218 90 24 217 92 22 215 93 20 215 93 18 214 92 17
214 92 15 212 93 15 212 93 15 212 93 15 205 95 14 233 142 55
227 144 51 230 145 53 231 144 53 231 144 51 231 144 51 233 145 52
233 145 52 233 145 52 233 145 52 225 141 44 225 141 44 225 141 44
225 140 46 225 140 46 225 140 46 225 140 46 227 139 48 228 138 48
233 134 47 212 103 19 216 99 18 220 99 19 220 98 21 217 100 21
215 101 21 217 100 21 217 100 21 217 100 21 217 100 21 217 100 21
217 100 21 217 100 21 217 100 21 217 100 21 217 100 21 218 99 21
218 99 21 218 99 21 219 100 22 206 84 7 207 85 10 206 83 11 206 83 11
208 83 11 208 83 11 208 82 13 208 82 13 209 81 13 209 81 13 213 88 17
213 89 15 213 89 15 213 89 15 215 88 15 215 88 15 215 88 15 215 88 15
215 88 15 213 86 12 210 83 10 208 81 8 208 79 9 210 80 10 210 80 10
210 80 10 211 81 13 211 81 13 212 80 13 212 80 13 203 70 6 203 70 6
203 70 8 203 69 10 205 68 12 206 67 12 209 66 12 209 66 10 210 70 6
203 71 0 217 97 22 214 97 19 216 97 17 216 97 17 216 97 17 216 97 17
216 97 14 216 97 14 216 97 14 208 101 14 240 155 61 232 159 61
233 161 62 233 161 62 235 160 60 235 160 60 236 161 61 236 161 61
236 161 61 233 158 58 228 153 53 226 151 51 226 149 50 227 150 51
227 150 51 229 149 51 232 148 49 234 147 51 234 146 53 238 144 55
210 96 18 215 93 20 215 92 22 215 92 22 220 92 21 220 93 19 220 93 19
220 93 19 218 91 18 220 93 19 201 74 3 204 74 4 206 76 6 206 76 6
206 76 8 206 76 8 206 76 8 206 76 8 206 76 10 208 74 12 202 66 7
204 65 7 204 65 7 204 65 7 204 65 7 204 65 7 204 65 7 204 65 7
204 65 7 205 66 9 202 63 5 204 65 7 204 65 7 204 65 7 204 65 7
204 65 7 204 65 7 204 65 7 202 66 5 199 68 5 218 90 24 217 92 22
217 92 20 217 92 20 216 91 19 214 92 17 212 93 17 211 94 17 212 93 17
205 95 16 233 142 55 227 144 53 230 145 53 230 145 53 230 145 51
230 145 51 231 146 52 231 146 52 231 146 52 231 146 52 225 141 44
225 141 44 225 141 44 225 140 46 225 140 46 225 140 46 225 140 46
227 139 46 228 138 48 232 135 47 212 103 19 216 99 18 220 99 19
220 99 19 217 100 21 215 101 21 217 100 21 217 100 21 217 100 21
217 100 21 217 100 21 217 100 21 217 100 21 217 100 21 217 100 21
217 100 21 218 99 21 218 99 21 218 99 21 219 100 22 206 84 7
207 85 10 206 83 11 206 83 11 208 83 11 208 83 11 208 82 13 208 82 13
209 81 13 209 81 13 213 88 17 213 89 15 213 89 15 213 88 17 215 88 17
215 88 17 215 88 17 215 88 15 215 88 15 213 86 12 210 83 10 210 80 10
208 79 9 210 80 10 210 80 10 210 79 12 211 81 13 212 79 15 212 79 15
212 79 15 203 70 6 203 70 8 203 70 8 203 69 10 205 68 12 206 67 12
209 66 12 209 66 10 210 70 8 203 71 2 217 97 24 214 97 21 216 97 19
216 97 17 216 97 17 216 97 17 216 97 17 216 97 14 216 97 14
208 101 14 240 155 61 232 159 61 233 161 62 233 161 62 235 160 60
235 160 60 236 161 61 236 161 61 236 161 61 233 158 58 228 153 53
226 151 51 226 149 50 227 150 51 227 150 51 229 149 51 232 148 49
234 147 51 232 147 53 238 144 55 209 96 18 215 93 20 214 93 22
215 93 20 218 93 19 220 93 19 220 93 19 220 93 19 218 91 18 220 93 19
201 74 3 202 75 4 206 76 6 206 76 6 206 76 8 206 76 8 206 76 8
206 76 8 206 76 10 208 74 12 202 66 7 204 65 7 204 65 7 204 65 7
204 65 7 204 65 7 204 65 7 204 65 7 204 65 7 205 66 9 202 63 5
204 65 7 204 65 7 204 65 7 204 65 7 204 65 7 204 65 7 204 65 7
202 66 5 199 68 5 218 90 24 217 92 22 217 92 20 217 92 20 216 91 19
214 92 19 212 93 17 211 94 17 212 93 17 205 95 16 233 142 55
225 145 53 228 145 53 230 145 53 230 145 51 230 145 51 231 146 52
231 146 52 231 146 52 231 146 52 225 140 46 225 140 46 225 140 46
225 140 46 225 140 48 225 140 48 225 140 48 227 139 48 228 138 48
232 135 47 212 103 19 216 99 18 220 99 19 220 99 19 217 100 21
215 101 21 217 100 21 217 100 21 217 100 21 217 100 21 217 100 21
217 100 21 217 100 21 217 100 21 217 100 19 217 100 19 218 99 19
218 99 19 218 99 21 219 100 22 206 84 7 207 85 10 206 83 11 206 83 11
208 83 11 208 83 11 208 83 11 208 83 11 209 81 13 209 81 13 213 88 17
213 88 17 213 88 17 213 88 19 215 87 19 217 86 19 217 86 19 217 87 17
217 87 17 214 84 14 212 82 12 210 80 10 211 79 12 211 79 12 211 79 12
211 79 12 212 79 15 214 78 17 214 78 17 214 78 17 206 70 9 206 70 9
206 70 11 206 70 11 206 69 13 207 68 13 209 68 13 211 67 11 211 71 9
204 72 5 218 98 25 216 98 22 217 98 20 217 98 20 217 98 20 217 98 20
217 98 18 217 98 18 217 98 18 209 102 18 240 155 61 232 159 61
232 159 61 233 161 62 236 161 61 236 161 61 236 161 63 236 161 63
236 161 61 233 158 58 228 153 53 226 151 51 226 149 50 227 150 51
227 150 51 229 149 51 230 149 49 232 148 51 232 147 53 237 144 55
209 97 16 214 94 20 214 94 20 214 94 20 218 93 19 220 93 19 220 93 19
220 93 19 218 91 18 220 93 19 201 74 1 202 75 2 206 76 6 206 76 6
206 76 8 206 76 8 206 76 8 206 76 8 206 76 10 208 74 12 202 66 7
204 65 7 204 65 7 204 65 7 204 65 7 204 65 7 204 65 7 204 65 7
204 65 7 205 66 9 202 63 5 204 65 7 204 65 9 204 65 9 204 65 7
204 65 7 204 65 7 204 65 7 202 66 5 201 67 5 220 90 24 218 91 22
217 92 20 217 92 20 218 91 20 217 92 20 214 94 20 212 94 20 214 94 18
206 96 17 234 144 56 227 146 55 228 145 53 228 145 53 228 146 51
228 146 51 229 147 52 229 147 52 229 147 52 229 147 52 225 140 46
225 140 46 225 140 46 225 140 46 225 140 48 225 140 48 225 140 48
227 139 48 228 138 48 232 135 47 212 103 19 216 99 18 220 99 19
220 99 19 217 100 21 215 101 21 217 100 21 217 100 21 217 100 21
217 100 21 217 100 21 217 100 21 217 100 21 217 100 21 217 100 19
217 100 19 218 99 19 218 99 19 218 99 21 219 100 22 206 84 7 207 85 8
206 84 9 206 83 11 208 83 11 208 83 11 208 83 11 209 82 11 209 81 13
209 81 13 215 88 17 213 88 17 213 88 19 215 87 19 217 86 19 217 86 19
217 86 19 217 86 19 217 87 17 214 84 14 212 82 12 210 80 10 211 79 12
211 79 12 211 79 12 211 78 14 214 78 17 214 78 17 214 78 17 214 78 17
206 70 9 206 70 9 206 70 11 206 70 11 206 69 13 207 68 13 209 68 13
211 67 11 211 71 11 204 71 7 218 98 27 216 98 24 217 97 22 217 98 20
217 98 20 217 98 20 217 98 18 217 98 18 217 98 18 209 102 18
240 155 61 232 159 61 233 161 62 235 162 63 236 161 61 236 161 61
236 161 63 236 161 63 236 161 61 233 158 58 228 153 53 226 151 51
226 149 50 227 150 51 227 150 51 229 149 51 230 148 51 232 148 51
230 148 53 237 144 55 207 98 16 214 94 18 212 94 20 214 94 20
218 93 19 220 93 19 220 93 19 220 93 19 218 91 18 220 93 19 201 74 1
202 75 2 206 76 6 206 76 6 206 76 8 206 76 8 206 76 8 206 76 8
206 76 10 208 74 12 202 66 7 204 65 7 204 65 7 204 65 7 204 65 7
204 65 7 204 65 7 204 65 7 204 65 7 205 66 9 202 63 5 204 65 7
204 65 9 204 65 9 204 65 7 204 65 7 204 65 7 204 65 7 202 66 5
201 67 5 220 90 24 220 90 24 218 91 22 217 92 20 218 91 20 217 92 20
214 94 20 212 94 20 214 94 18 206 96 17 234 144 56 227 146 55
228 145 53 228 145 53 228 146 51 228 146 51 229 147 52 229 147 52
229 147 52 229 147 52 225 140 46 225 140 46 225 140 46 225 140 46
225 140 48 225 140 48 225 140 48 227 139 48 228 138 48 232 135 47
212 103 19 216 99 18 220 99 19 220 99 19 217 100 21 215 101 21
215 101 21 217 100 21 218 99 21 218 99 21 217 100 21 217 100 21
217 100 21 217 100 21 217 100 19 217 100 19 218 99 19 218 99 19
218 99 19 219 101 20 206 85 5 207 85 8 206 84 9 206 83 11 208 83 11
208 83 11 209 82 11 211 81 11 211 81 13 211 81 13 215 88 17 215 88 17
215 87 19 215 87 19 217 86 19 217 86 19 217 86 19 217 86 19 217 87 17
214 84 14 212 82 12 210 80 10 210 79 12 210 79 12 210 79 12 211 78 14
214 78 17 214 78 17 214 78 17 214 78 17 206 70 9 206 70 9 206 70 11
206 70 11 206 69 13 207 68 13 209 68 13 211 67 11 211 71 11 204 71 7
218 98 27 216 98 24 217 97 22 217 98 20 217 98 20 217 98 20 217 98 18
217 98 18 217 98 18 209 102 18 240 155 61 232 159 61 233 161 62
235 162 63 236 161 63 236 161 63 236 161 63 236 161 63 236 161 63
233 157 60 228 153 55 226 150 53 226 149 52 227 150 53 227 150 53
229 149 53 230 148 51 232 148 51 230 148 53 237 144 55 207 98 16
212 95 18 214 94 20 215 93 20 218 93 19 220 93 19 220 93 19 220 93 19
218 91 18 220 93 19 201 74 1 202 75 2 206 76 6 206 76 6 206 76 8
206 76 8 206 76 8 206 76 8 206 76 10 208 74 12 202 66 7 204 65 7
204 65 7 204 65 7 204 65 7 204 65 7 204 65 7 204 65 7 204 65 7
205 66 9 202 63 5 204 65 7 204 65 9 204 65 9 204 65 7 204 65 7
204 65 7 204 65 7 202 66 5 201 67 5 220 90 24 220 90 24 218 91 22
218 91 22 218 91 22 217 92 22 214 94 20 212 94 20 214 94 18 206 96 17
234 144 56 227 146 55 228 145 53 228 145 53 228 146 51 228 146 51
229 147 52 229 147 52 229 147 52 229 147 52 223 141 46 223 141 46
223 141 46 223 141 46 223 141 48 223 141 48 223 141 48 225 140 48
228 138 48 236 136 49 212 103 19 216 99 18 220 99 19 220 99 19
217 100 21 215 101 21 215 101 21 217 100 21 218 99 21 220 98 21
217 100 21 217 100 21 218 99 21 218 99 21 217 100 19 217 100 19
215 101 19 217 100 19 217 100 19 219 101 20 208 84 5 209 85 8
208 83 9 208 83 11 209 82 11 209 82 11 211 81 11 211 81 11 212 80 13
211 81 13 217 87 17 215 88 17 215 87 19 215 87 19 217 86 19 217 86 19
217 86 19 217 86 19 217 87 17 214 84 14 212 82 12 210 80 10 210 79 12
210 79 12 210 79 12 211 79 12 214 79 15 214 78 17 214 78 17 214 78 17
206 70 9 206 70 9 206 70 11 206 70 11 206 69 13 207 68 13 209 68 13
209 68 11 210 72 11 204 71 7 222 96 29 217 97 24 217 97 22 217 98 20
217 98 20 217 98 20 217 98 18 217 98 18 217 98 18 209 102 18
239 156 63 233 160 64 235 161 65 235 162 63 235 162 63 236 161 63
236 161 63 236 161 63 236 161 63 233 157 60 228 153 55 227 150 53
226 149 52 227 150 53 227 150 53 229 149 53 229 149 53 230 148 53
232 147 53 237 144 55 207 98 16 212 95 18 214 94 20 215 93 20
218 93 19 220 93 19 220 93 19 220 93 19 218 91 18 220 93 19 201 74 1
202 75 4 206 76 6 206 76 8 206 76 8 206 76 8 206 76 8 206 76 8
206 76 10 208 74 12 202 66 7 204 65 7 204 65 7 204 65 7 204 65 7
204 65 7 204 65 7 204 65 7 204 65 7 205 66 9 202 63 5 204 65 7
204 65 9 204 65 9 204 65 7 204 65 7 204 65 7 202 66 7 202 66 5
201 67 5 222 89 24 220 90 24 220 90 22 218 91 22 217 92 22 215 92 22
212 94 20 212 94 20 214 94 18 206 96 17 234 144 56 228 145 55
228 145 53 228 145 53 228 146 51 228 146 51 229 147 52 229 147 52
229 147 52 229 147 52 223 143 49 223 143 49 223 143 49 223 143 49
223 143 49 223 143 49 223 143 49 225 142 49 235 145 57 236 136 51
214 101 21 216 97 19 222 98 19 222 98 19 218 99 21 215 101 21
215 101 21 215 101 21 220 98 21 219 97 20 214 99 20 213 98 19
218 96 17 218 96 17 214 98 17 211 99 17 210 101 14 210 101 14
211 99 17 218 99 19 212 83 6 216 85 8 212 81 7 212 81 9 212 81 9
212 81 9 211 81 11 211 81 11 211 81 11 211 81 11 212 82 14 213 83 15
213 83 15 213 83 15 213 83 15 213 83 15 213 83 15 213 83 15 211 84 15
210 83 14 208 80 12 207 79 11 208 79 9 210 80 10 210 80 10 211 79 12
212 76 13 212 76 15 212 76 15 212 76 15 206 70 11 206 70 11 206 70 11
206 70 11 207 68 13 207 68 13 209 68 11 209 68 11 203 65 4 206 70 9
219 86 22 224 93 26 219 97 20 217 98 18 217 98 18 217 98 18 217 98 18
217 98 18 217 98 18 209 102 18 237 155 62 231 159 65 232 161 66
232 161 64 232 161 64 233 160 64 233 160 64 233 160 64 235 160 62
232 156 59 228 151 54 226 149 52 230 150 56 231 151 57 231 151 57
230 152 57 230 152 55 231 151 55 234 149 57 241 146 57 207 98 16
212 95 18 215 93 18 218 93 19 220 93 19 220 93 17 220 93 17 220 93 17
218 92 16 220 93 19 201 74 1 202 75 4 207 77 9 207 77 9 207 77 11
207 77 11 207 77 11 207 77 11 207 77 11 209 75 13 201 65 6 203 64 6
203 64 6 203 64 6 203 64 8 203 64 8 203 64 8 203 64 8 204 65 9
204 65 9 203 64 8 204 65 9 204 65 9 204 65 9 204 65 9 204 65 9
202 66 7 202 66 7 202 66 5 202 66 5 219 86 22 219 86 22 218 87 22
215 89 22 211 91 20 208 92 20 207 93 20 207 94 18 210 92 16 204 94 15
233 141 53 226 143 50 230 148 55 230 148 53 230 148 55 229 146 54
229 146 54 228 145 53 228 145 53 228 145 53 227 142 50 227 142 50
227 142 50 227 142 50 227 142 50 227 142 50 227 142 50 229 141 50
229 136 49 232 132 48 212 100 20 217 98 20 222 98 19 222 98 19
218 99 21 217 100 21 215 101 21 215 101 21 218 99 21 216 99 20
208 103 20 205 102 19 210 100 17 210 100 17 208 101 17 205 103 17
200 106 14 200 106 14 204 105 18 211 101 18 201 80 0 204 78 0
209 83 7 211 82 7 211 82 7 209 83 7 209 82 9 209 82 11 209 82 11
210 83 12 214 86 18 218 88 20 218 88 20 218 88 20 218 88 20 218 88 20
218 88 20 218 88 20 214 86 18 211 84 15 209 81 13 208 80 12 210 80 10
211 81 11 211 81 11 212 80 13 213 77 14 213 77 16 213 77 16 213 77 16
203 67 9 203 67 9 203 67 9 203 67 9 205 66 11 205 66 11 207 66 9
207 66 9 207 69 9 210 72 11 223 85 22 224 89 23 220 93 19 216 95 17
216 95 17 216 95 17 216 95 17 216 95 17 216 95 17 210 98 17
243 150 63 236 155 64 237 156 65 237 156 65 239 155 65 239 156 63
239 156 63 240 155 63 240 155 61 238 151 58 234 146 53 231 144 51
235 145 55 236 146 56 235 147 56 233 148 56 230 150 56 232 149 56
236 146 56 241 144 58 207 97 18 212 95 18 215 93 18 218 93 19
220 93 17 220 93 17 220 93 17 220 93 17 218 92 16 220 93 19 201 74 3
202 75 4 207 77 9 207 77 9 207 77 11 207 77 11 207 77 11 207 77 11
207 77 11 209 75 13 201 65 6 203 64 6 203 64 6 203 64 6 203 64 8
203 64 8 203 64 8 203 64 8 204 65 9 204 65 9 203 64 8 204 65 9
204 65 9 204 65 9 204 65 9 204 65 9 202 66 7 202 66 7 202 66 5
202 66 5 220 88 23 220 88 23 219 88 23 217 89 23 212 92 23 211 93 21
209 94 21 209 94 21 214 92 19 210 92 16 239 139 55 232 142 51
234 144 52 233 145 52 233 145 54 231 144 53 231 144 53 230 143 51
230 143 51 230 143 51 214 117 29 214 117 29 214 117 29 214 117 29
214 117 29 214 117 29 214 117 29 213 118 29 220 125 38 225 125 41
210 98 17 218 99 21 222 98 19 222 98 19 218 99 21 217 100 21
217 100 21 217 100 21 217 100 21 212 102 21 245 154 66 238 157 66
240 157 64 241 156 64 240 157 64 238 158 64 235 160 62 235 160 62
242 161 68 243 153 63 229 127 41 229 120 36 226 111 29 227 111 29
227 111 29 227 110 31 227 110 33 229 109 35 229 109 35 230 108 35
197 72 2 200 72 4 200 72 4 200 72 4 201 71 6 201 71 6 201 71 6
203 72 7 204 74 6 203 72 5 200 70 2 199 69 1 199 69 1 200 70 2
200 70 2 202 69 2 202 67 3 202 66 5 202 66 5 202 66 5 201 65 6
201 65 6 201 65 6 201 65 6 203 64 8 203 64 8 204 63 6 204 63 6
198 60 0 198 60 0 207 69 9 207 72 8 205 72 8 204 74 6 204 74 6
204 74 6 202 74 6 202 74 6 201 76 4 199 76 4 216 103 27 214 106 26
215 107 28 215 107 28 213 108 28 213 109 26 213 109 23 215 108 23
215 108 23 212 105 20 208 99 15 206 97 13 208 99 15 208 101 17
206 102 17 203 104 17 200 105 17 198 106 19 200 105 19 204 101 17
208 98 19 212 95 18 216 94 19 218 93 19 220 93 17 220 93 17 220 93 17
220 93 17 218 92 16 220 93 19 202 75 4 202 75 4 207 77 9 207 77 9
207 77 11 207 77 11 207 77 11 207 77 11 207 77 11 209 75 13 201 65 6
203 64 6 203 64 6 203 64 6 203 64 8 203 64 8 203 64 8 203 64 8
204 65 9 204 65 9 203 64 8 204 65 9 204 65 9 204 65 9 204 65 9
204 65 9 202 66 7 202 66 7 202 66 5 202 66 5 202 69 4 202 69 4
202 68 6 200 69 6 199 71 4 199 71 4 197 72 2 199 71 2 202 70 0
197 71 0 227 117 36 221 119 33 217 118 28 217 118 28 217 118 30
216 116 29 216 116 29 215 115 28 215 115 28 215 115 28 220 116 30
220 116 30 220 116 30 220 116 30 220 116 30 220 116 30 220 116 30
219 117 30 213 116 30 220 117 34 210 98 17 219 100 22 222 98 19
222 98 19 218 99 21 217 100 21 217 100 21 217 100 21 217 100 21
209 104 21 239 159 67 230 163 67 230 164 65 231 163 65 235 161 65
235 161 65 231 163 63 231 163 63 239 166 70 239 156 63 220 125 36
218 116 29 220 116 30 222 115 30 222 115 30 222 115 32 224 113 35
225 112 37 225 112 37 228 111 37 200 77 7 204 77 8 204 77 8 206 76 10
206 76 10 206 76 10 206 76 10 206 76 10 205 74 9 204 71 7 202 69 4
201 68 3 201 68 3 202 69 4 202 69 4 202 69 4 202 66 5 202 66 5
202 66 5 201 65 4 201 65 6 200 64 5 200 64 5 200 64 5 202 63 7
202 63 7 203 62 5 203 62 5 204 65 7 202 63 3 209 70 10 207 69 9
207 69 9 206 70 9 206 70 9 206 70 9 204 71 9 204 71 7 204 71 7
201 73 5 223 100 30 223 103 30 223 105 31 223 105 29 223 105 29
221 106 29 221 106 27 221 107 25 221 107 25 217 103 21 214 98 17
212 96 14 214 98 17 214 100 18 212 101 18 209 102 18 206 103 20
206 103 20 206 103 20 208 101 19 210 98 19 212 95 18 215 93 18
217 92 18 220 93 17 220 93 17 220 93 17 220 93 17 218 92 16 217 90 17
202 75 4 202 75 4 207 77 9 207 77 9 207 77 11 207 77 11 207 77 11
207 77 11 207 77 11 209 76 11 201 65 4 203 64 6 203 64 6 203 64 6
203 64 8 203 64 8 203 64 8 203 64 8 204 65 9 204 65 9 203 64 8
204 65 9 204 65 9 204 65 9 204 65 9 204 65 9 202 66 7 202 66 7
203 68 6 203 68 6 203 68 4 202 69 4 203 70 8 203 70 8 205 69 6
205 69 6 203 70 6 205 70 4 208 68 2 203 69 0 233 116 37 227 118 34
221 114 27 221 114 27 221 114 29 220 113 28 220 113 28 219 112 27
219 112 27 219 112 27 225 115 34 225 115 34 225 115 34 225 115 34
225 115 34 225 115 34 225 115 34 223 116 34 217 117 32 216 114 30
215 101 21 220 98 21 223 97 19 223 97 19 220 98 21 218 99 21
218 99 21 218 99 21 217 100 21 207 105 21 235 161 67 225 166 67
223 167 65 227 165 65 236 161 63 239 159 63 236 161 63 236 161 63
238 158 64 244 157 65 214 114 27 218 114 28 218 116 29 218 116 29
218 116 29 218 115 31 218 115 33 219 114 33 219 114 35 222 112 35
201 75 6 205 75 7 205 74 9 205 72 8 205 72 10 204 71 9 204 71 9
204 71 9 204 71 9 206 70 9 206 70 9 206 70 9 205 69 8 205 69 8
205 69 8 205 69 8 203 68 6 205 66 9 205 66 9 205 66 9 202 63 5
202 63 5 202 63 5 202 63 5 202 63 5 202 63 5 202 63 5 202 63 5
205 64 7 203 62 5 210 69 12 209 68 11 209 68 11 207 69 11 207 69 11
207 69 11 209 68 11 209 68 9 209 68 9 204 71 7 218 98 27 216 101 28
217 102 27 217 102 27 217 103 25 216 103 25 216 104 23 216 104 23
215 103 20 215 103 20 213 104 20 213 104 20 212 103 19 212 103 19
212 103 19 210 103 19 210 103 21 212 102 21 211 101 20 211 99 19
213 96 17 214 94 16 215 94 16 217 93 16 218 92 16 218 92 16 218 91 18
220 93 19 218 91 18 216 89 16 203 76 5 202 75 4 208 79 9 208 78 11
208 78 11 208 78 11 208 78 11 208 78 11 208 78 13 210 77 13 202 66 5
204 66 5 204 66 5 204 65 7 204 65 7 204 65 7 204 65 7 204 65 7
202 66 9 202 66 9 202 66 9 202 66 9 202 65 11 202 65 11 202 66 9
202 66 9 204 65 7 204 65 7 204 66 5 204 66 5 205 67 6 203 68 6
202 68 6 203 68 6 206 68 6 208 68 6 206 68 6 206 68 6 213 69 4
205 66 0 232 110 32 221 109 26 223 112 26 223 112 26 223 111 28
223 111 28 223 111 28 223 111 28 223 111 28 223 111 28 225 115 34
225 115 34 225 115 34 225 115 34 225 115 34 225 115 34 225 115 34
223 116 34 217 117 32 215 113 29 215 103 22 220 98 21 223 97 19
223 97 19 220 98 21 218 99 21 218 99 21 218 99 21 217 100 21
207 105 21 235 161 67 225 166 67 223 167 65 228 165 65 238 160 63
241 159 63 238 161 61 238 161 61 240 157 62 246 156 65 215 113 27
220 113 28 219 115 29 218 116 29 218 116 29 218 115 31 218 115 33
219 114 33 219 114 35 222 112 35 201 75 6 205 75 7 205 74 9 205 72 8
205 72 10 204 71 9 204 71 9 204 71 9 206 70 9 206 70 9 206 70 9
206 70 9 205 69 8 205 69 8 205 69 8 205 69 8 205 66 9 205 66 9
205 66 9 205 66 9 202 63 5 202 63 5 202 63 5 202 63 5 202 63 5
202 63 5 202 63 5 202 63 5 205 64 9 203 62 7 210 69 12 209 68 11
209 68 11 207 69 11 207 69 11 207 69 11 209 68 11 209 68 9 209 68 9
206 70 7 220 97 27 218 100 28 219 101 27 219 101 27 219 102 25
217 103 25 217 103 23 216 104 23 215 103 20 213 104 20 213 104 20
213 104 20 212 103 19 212 103 19 212 103 19 214 102 19 215 101 21
215 101 21 216 99 20 214 97 19 215 95 17 214 94 16 214 92 15
214 92 15 217 93 16 218 92 16 218 91 18 220 93 19 218 91 18 215 88 15
204 77 6 202 75 4 208 79 9 208 79 9 208 78 11 208 78 11 208 78 11
208 78 11 208 78 13 210 77 13 202 66 5 204 66 5 204 66 5 204 65 7
204 65 7 204 65 7 204 65 7 204 65 7 202 66 9 202 66 9 202 66 9
202 66 9 202 65 11 202 65 11 202 66 9 202 66 9 204 65 7 204 65 7
204 66 5 204 66 5 205 67 6 205 67 6 203 68 6 203 68 6 206 68 8
208 67 8 206 68 8 206 68 6 213 69 6 205 66 0 232 109 35 221 108 28
223 111 28 223 112 26 223 111 28 223 111 28 223 111 28 223 111 28
223 111 28 223 111 28 222 117 34 222 117 34 222 117 34 222 117 34
222 117 34 222 117 34 222 117 34 220 117 34 217 117 32 215 113 29
215 103 22 218 99 21 222 98 19 223 97 19 220 98 21 218 99 21
217 100 19 217 100 19 217 100 19 209 104 19 239 159 65 231 163 65
231 163 65 235 162 63 239 159 63 239 159 63 236 161 61 236 161 61
238 158 62 244 157 63 214 114 25 220 113 26 221 114 29 221 114 29
221 114 29 221 114 31 222 112 33 224 112 33 224 111 35 227 109 35
199 76 4 203 76 7 203 76 7 204 73 8 205 72 10 206 70 9 206 70 9
206 70 9 206 70 9 206 70 9 206 70 9 206 70 9 206 68 10 206 68 10
206 68 10 206 68 10 205 66 9 205 66 9 205 66 9 205 66 9 202 63 5
202 63 5 202 63 5 202 63 5 202 63 5 202 63 5 202 63 5 202 63 5
204 65 7 202 63 5 209 70 12 207 69 11 207 69 11 206 70 9 206 70 9
206 70 9 206 70 9 206 70 7 204 71 7 204 72 5 223 95 27 223 98 26
224 99 27 224 99 25 224 99 25 222 100 25 221 101 23 219 102 23
216 102 22 215 103 22 215 103 22 215 103 22 214 101 21 214 101 21
215 101 21 217 100 21 218 99 21 218 99 21 217 98 20 216 97 19
216 95 17 215 94 16 214 92 15 214 92 15 217 93 16 217 93 16 217 92 18
218 93 19 218 91 18 215 88 15 206 78 7 202 75 4 207 79 9 207 79 9
207 79 9 208 79 9 208 78 11 210 77 11 210 77 11 210 77 13 202 66 5
204 65 7 204 65 7 204 65 7 204 65 9 204 65 9 204 65 9 204 65 9
202 66 9 202 66 9 202 66 9 202 66 9 202 66 9 202 66 9 202 66 9
202 66 7 204 65 7 204 65 7 204 66 5 204 66 5 205 67 6 205 67 6
205 67 6 203 68 6 205 69 8 205 69 8 203 70 8 203 70 6 210 70 6
202 68 0 228 111 35 217 110 28 220 113 28 220 113 26 220 113 28
220 113 28 220 113 28 220 113 28 220 113 28 220 113 28 222 117 34
222 117 34 222 117 34 222 117 34 222 117 34 222 117 34 220 117 34
220 117 34 217 117 32 215 113 29 213 103 22 215 101 21 220 99 19
222 98 19 220 98 21 218 99 21 215 101 19 215 101 19 215 101 19
209 104 19 241 158 65 235 161 65 236 161 63 236 161 63 239 159 63
238 160 63 235 162 61 233 163 61 235 160 62 243 158 63 212 115 25
218 114 26 221 114 29 222 113 29 222 113 29 224 112 31 226 111 33
226 111 33 227 109 35 229 109 35 199 76 4 202 77 5 203 76 7 204 74 6
205 72 8 206 70 9 206 70 9 206 70 9 206 70 9 206 70 9 206 70 9
206 70 9 206 68 10 206 68 10 206 68 10 206 68 10 205 66 9 205 66 9
205 66 9 205 66 9 202 63 5 202 63 5 202 63 5 202 63 5 202 63 5
202 63 5 202 63 5 202 63 5 204 65 7 202 63 5 209 70 12 207 69 11
206 70 9 206 70 9 204 71 7 204 71 7 204 71 7 204 71 7 203 72 5
203 72 5 225 95 25 224 97 26 225 98 25 225 98 25 225 98 25 224 99 25
222 100 23 221 101 23 218 101 22 216 102 22 216 102 22 216 102 22
215 101 21 215 101 21 217 100 21 218 99 21 218 99 21 220 98 21
219 97 20 218 96 19 216 95 17 215 94 16 214 92 15 214 92 15 215 94 16
217 93 16 217 92 18 218 93 19 217 92 18 215 88 15 206 78 7 202 75 4
207 79 9 208 79 9 208 79 9 208 79 9 210 77 11 210 77 11 210 77 11
212 76 13 204 66 5 204 65 7 204 65 7 204 65 7 204 65 9 204 65 9
204 65 9 204 65 9 202 66 9 202 66 9 202 66 9 202 66 9 202 66 9
202 66 9 202 66 7 202 66 7 204 65 7 204 65 7 204 66 5 204 66 5
205 67 6 205 67 6 205 67 6 205 66 9 205 68 10 203 69 10 201 70 10
203 70 6 209 71 6 201 69 0 227 112 35 216 111 28 218 114 28
218 114 26 218 114 28 218 114 28 218 114 28 218 114 28 218 114 28
218 114 28 223 116 34 223 116 34 223 116 34 223 116 34 223 116 34
223 116 34 222 117 34 220 117 34 217 117 32 215 113 29 212 104 22
214 101 21 217 100 19 218 99 19 220 99 19 218 99 19 215 101 19
214 102 19 215 101 17 209 105 17 241 159 63 235 162 63 235 162 63
236 161 63 236 161 61 236 161 61 231 164 61 231 164 61 233 161 62
239 159 63 209 117 25 216 115 26 221 114 29 222 113 29 222 113 29
224 112 31 226 111 33 226 111 33 227 110 33 229 109 33 199 76 4
202 77 5 203 76 5 205 75 7 205 72 8 207 72 8 206 70 7 206 70 7
206 70 9 206 70 9 205 69 8 205 69 8 206 68 10 206 68 10 206 68 10
206 68 10 206 68 10 206 68 10 206 68 10 206 68 10 202 63 5 202 63 5
202 63 5 202 63 5 202 63 5 202 63 5 202 63 5 202 63 5 204 65 7
202 63 5 207 71 10 206 70 9 206 70 9 206 70 9 204 71 7 203 72 5
203 72 5 203 72 5 203 72 5 201 74 3 223 96 25 223 98 26 224 99 25
224 99 25 224 99 25 222 100 25 222 100 23 221 101 23 221 101 23
219 102 23 219 102 23 219 102 23 218 101 22 218 101 22 219 100 22
219 100 22 219 100 22 219 100 22 220 98 21 219 97 20 215 95 17
214 94 16 212 93 15 212 93 15 214 94 16 215 94 16 215 94 16 215 94 16
214 92 17 212 88 14 205 81 7 202 77 3 208 79 7 210 78 7 210 78 9
210 78 9 212 77 9 212 77 9 212 77 11 212 76 13 204 65 7 204 65 9
204 65 9 204 65 9 204 65 7 204 65 7 204 65 7 204 65 7 202 66 7
202 66 7 202 66 7 202 66 7 204 65 7 204 65 7 204 65 7 204 65 7
204 66 5 204 66 5 204 66 5 204 66 5 207 66 6 207 66 6 207 66 9
205 66 9 206 67 12 205 68 12 203 69 10 205 69 8 210 70 6 202 68 0
228 111 35 217 110 28 217 112 27 217 112 27 217 112 27 217 112 27
218 114 28 218 114 28 218 114 28 218 114 28 226 114 34 226 114 34
226 114 34 226 114 34 226 114 34 225 115 34 223 116 34 222 117 34
219 116 32 215 113 29 210 105 22 212 102 21 215 101 19 217 100 19
218 99 19 217 100 19 214 102 19 212 103 19 214 102 17 207 105 17
239 159 63 233 163 63 235 162 63 235 162 63 236 161 61 235 162 61
230 165 61 230 165 61 232 161 62 239 159 63 209 117 25 215 116 26
219 115 29 221 114 29 221 114 29 222 113 29 222 113 31 224 112 33
224 112 33 227 110 33 199 76 4 203 76 5 203 76 5 205 75 5 205 73 6
207 72 8 206 70 7 206 70 7 206 70 9 206 70 9 205 69 8 205 69 8
206 68 10 206 68 10 206 68 10 206 68 10 206 68 10 206 68 10 206 68 10
206 68 10 202 63 5 202 63 5 202 63 5 202 63 5 202 63 5 202 63 5
202 63 5 202 63 5 204 65 7 202 63 5 207 71 10 206 70 9 206 70 9
206 70 9 204 71 7 203 72 5 203 72 5 203 72 5 201 74 3 201 74 3
222 97 25 223 98 26 222 100 25 222 100 25 222 100 25 222 100 25
221 101 23 221 101 23 221 101 23 221 101 23 221 101 23 221 101 23
219 100 22 219 100 22 219 100 22 219 100 22 219 100 22 219 100 22
220 98 21 219 97 20 215 95 17 214 94 16 212 93 15 212 93 15 214 94 16
214 94 16 215 94 16 215 94 16 214 92 17 211 88 14 204 81 7 202 77 3
210 78 7 212 77 7 212 77 9 212 77 9 212 77 9 212 77 9 212 77 11
212 76 13 204 65 7 204 65 9 204 65 9 204 65 9 204 65 7 204 65 7
204 65 7 204 65 7 202 66 7 202 66 7 202 66 7 202 66 7 204 65 7
204 65 7 204 65 7 204 65 7 204 66 5 204 66 5 204 66 5 204 66 5
207 66 6 207 66 6 207 66 9 207 66 9 206 67 12 206 67 12 205 68 10
205 69 8 212 70 6 202 68 0 228 111 35 219 109 28 219 112 27
219 112 27 219 112 27 219 112 27 220 113 28 220 113 28 220 113 28
220 113 28 228 113 34 228 113 34 228 113 34 228 113 34 228 113 34
226 114 34 225 115 34 223 116 34 222 115 32 217 112 29 210 105 22
210 103 21 214 102 19 215 101 19 217 100 19 217 100 19 214 102 17
212 103 17 214 102 17 207 106 15 239 160 61 233 163 61 235 162 61
235 162 61 236 161 61 235 162 61 230 165 61 230 165 61 232 161 62
239 159 63 209 117 25 215 116 26 218 116 29 219 115 29 219 115 29
219 115 29 219 114 31 219 114 31 219 114 31 224 112 33 201 76 4
205 75 5 205 75 5 207 74 5 208 73 7 207 72 6 207 72 8 207 72 8
206 70 7 206 70 7 206 70 9 205 69 8 206 68 8 206 68 8 206 68 10
206 68 10 206 68 10 206 68 10 206 68 10 206 68 10 202 63 5 202 63 5
202 63 5 202 63 5 203 64 6 203 64 6 203 64 6 203 64 6 205 66 9
203 64 6 208 72 11 207 71 10 207 71 10 207 71 10 205 72 8 204 74 6
204 74 6 204 74 6 202 75 4 202 75 4 222 97 25 223 98 26 222 100 25
222 100 25 222 100 25 222 100 25 221 101 23 221 101 23 221 101 23
221 101 23 221 101 23 221 101 23 219 100 22 219 100 22 219 100 22
219 100 22 219 100 22 219 100 22 217 98 20 216 97 19 215 95 17
214 94 16 214 94 16 214 94 16 215 95 17 215 95 17 215 95 17 215 95 17
214 94 18 210 90 15 203 83 8 203 78 4 208 79 7 210 78 7 210 78 7
210 78 7 210 78 9 210 78 9 210 78 9 212 77 11 202 66 5 202 66 7
202 66 7 202 66 7 202 66 7 202 66 7 202 66 7 202 66 7 202 66 5
202 66 5 203 68 6 202 66 5 204 66 5 204 66 5 204 66 5 204 66 5
204 66 5 204 66 5 204 66 5 204 66 5 207 66 6 207 66 6 208 65 9
207 66 9 206 67 12 206 67 12 205 68 10 206 68 8 210 70 6 202 68 0
228 111 35 219 109 28 220 111 27 220 111 27 220 111 27 220 111 27
221 112 28 221 112 28 221 112 28 221 112 28 230 113 34 230 113 34
230 113 34 230 113 34 230 113 34 230 113 34 228 113 34 226 114 34
224 114 32 220 110 29 212 104 22 210 103 21 212 103 19 214 102 19
214 102 19 214 102 19 212 103 17 212 103 17 212 103 15 206 107 15
239 160 61 233 163 61 233 163 61 235 162 61 235 162 61 233 163 61
230 165 61 230 165 61 232 161 62 238 160 63 207 118 25 213 116 26
216 116 29 216 116 29 216 116 29 216 116 29 216 116 31 216 116 31
216 116 31 221 113 33 201 76 4 207 74 5 207 74 5 207 74 7 208 73 7
207 72 6 207 72 8 207 72 8 206 70 7 206 70 7 206 70 9 205 69 8
206 68 8 206 68 8 206 68 10 206 68 10 206 68 10 206 68 10 206 68 10
206 68 10 202 63 5 202 63 5 202 63 5 202 63 5 203 64 6 203 64 6
203 64 6 203 64 6 205 66 9 203 64 6 208 72 11 207 71 10 207 71 10
205 72 10 204 73 8 204 74 6 204 74 6 204 74 6 202 75 4 202 75 4
222 97 25 223 98 26 222 100 25 222 100 25 222 100 25 222 100 25
221 101 23 221 101 23 221 101 23 221 101 23 221 101 23 221 101 23
219 100 22 219 100 22 219 100 22 219 100 22 219 100 22 219 100 22
215 95 17 215 95 17 215 95 17 214 94 16 215 95 17 215 95 17 215 95 17
215 95 17 216 97 19 216 97 19 215 95 19 211 92 16 204 85 9 202 80 5
207 80 7 208 79 7 208 79 7 208 79 7 210 78 9 210 78 9 210 78 9
210 77 11 201 67 5 202 66 7 202 66 7 202 66 7 202 66 7 202 66 7
202 66 7 202 66 7 202 66 5 202 66 5 203 68 6 202 66 5 204 66 5
204 66 5 204 66 5 204 66 5 204 66 5 204 66 5 204 66 5 205 65 5
207 66 6 207 66 6 208 65 9 207 66 9 206 67 12 206 67 12 205 68 10
206 68 8 209 69 5 202 68 0 228 111 35 219 109 28 222 110 29
223 109 27 223 109 27 223 109 27 224 110 28 224 110 28 224 110 28
224 110 28 207 85 10 207 85 10 207 85 10 207 85 10 207 85 10
207 85 10 207 85 10 206 86 10 202 85 6 201 89 8 226 116 35 225 118 36
225 119 34 225 119 34 225 119 34 225 119 34 225 119 32 225 119 32
225 119 30 219 123 30 249 172 73 243 175 73 243 175 73 245 175 73
245 175 73 243 175 73 240 177 73 240 177 73 245 177 77 251 176 79
221 134 40 227 132 41 228 133 42 230 133 42 230 133 42 230 132 44
230 132 46 230 132 46 230 132 46 234 129 48 200 78 5 207 74 5
208 75 8 208 75 8 208 73 9 209 74 10 209 74 10 210 75 11 210 75 13
209 73 12 206 70 9 206 70 9 207 69 9 207 69 9 207 69 11 207 69 11
207 69 11 207 69 11 206 70 9 205 69 8 205 69 8 203 68 6 203 68 6
203 68 6 203 64 6 203 64 6 203 64 6 203 64 6 205 66 9 203 64 6
208 72 11 207 71 10 205 72 10 205 72 10 204 73 8 204 74 6 204 74 6
205 75 7 206 78 7 207 79 9 208 83 11 209 84 12 211 86 12 212 88 14
211 88 14 211 88 14 211 88 14 211 88 14 211 88 14 211 88 14 211 88 14
211 88 14 209 87 12 209 87 12 209 87 12 209 87 12 209 88 10 209 88 10
215 94 16 215 94 16 214 94 16 215 95 17 216 97 19 216 97 19 216 97 19
216 97 19 217 98 20 217 98 20 218 95 21 214 92 17 207 85 10 204 81 7
212 88 14 214 87 14 214 87 14 214 87 14 215 86 16 215 86 16 215 86 16
215 85 18 210 79 14 211 78 16 211 78 16 211 78 16 211 78 16 211 78 16
211 78 16 211 78 16 213 77 16 210 75 13 205 69 8 203 68 6 205 67 6
205 67 6 205 67 6 205 67 6 207 66 6 207 66 6 207 66 6 207 66 6
208 65 6 208 65 6 208 65 9 207 66 9 206 67 12 205 68 12 205 68 12
206 68 10 209 69 7 203 69 0 211 94 17 207 94 16 209 95 15 211 94 15
211 94 13 211 94 13 212 96 14 212 96 14 212 96 14 212 96 14 210 83 10
210 83 10 210 83 10 210 83 10 210 83 10 210 83 10 210 83 10 209 84 10
205 83 6 204 87 8 228 115 35 227 117 36 224 119 34 222 120 34
222 120 34 222 120 34 224 120 32 224 120 32 225 119 30 219 123 30
248 173 73 241 176 73 243 175 73 243 175 73 245 175 73 243 175 73
238 178 73 238 178 73 244 178 77 251 176 79 221 134 40 225 133 41
226 134 42 226 134 42 226 134 42 226 134 42 226 134 44 226 134 46
226 134 46 233 130 46 200 78 5 207 74 5 207 74 7 207 74 7 208 73 9
210 75 11 209 74 10 210 75 11 210 75 13 209 73 12 206 70 9 206 70 9
207 69 9 207 69 9 207 69 11 207 69 11 207 69 11 207 69 11 206 70 9
205 69 8 205 69 8 203 68 6 203 68 6 203 68 6 203 64 6 203 64 6
203 64 6 203 64 6 205 66 9 203 64 6 208 72 11 207 71 10 205 72 10
205 72 10 204 73 8 204 74 6 204 74 6 205 75 7 206 78 7 206 78 7
208 83 11 210 85 13 211 86 12 212 88 14 211 88 14 211 88 14 211 88 14
211 88 14 211 88 14 211 88 14 211 88 14 211 88 14 209 87 12 209 87 12
209 87 12 209 87 12 209 88 10 209 88 10 213 91 14 214 92 15 215 95 17
215 95 17 217 98 20 217 98 20 217 98 20 217 98 20 218 99 21 218 99 21
219 97 22 216 94 19 208 86 11 206 84 9 212 88 14 212 88 14 212 88 14
212 88 14 214 86 16 215 86 16 215 86 16 215 85 18 210 79 14 210 79 16
210 79 16 210 79 16 211 78 16 211 78 16 211 78 16 211 78 16 213 77 16
210 75 13 205 69 8 203 68 6 205 67 6 205 67 6 205 67 6 205 67 6
207 66 6 207 66 6 207 66 6 207 66 6 208 65 6 208 65 6 208 65 9
207 66 9 206 67 12 205 68 12 205 68 12 206 68 10 208 68 6 203 68 2
211 93 19 207 94 16 211 94 15 214 92 15 214 93 13 214 93 13 215 94 14
215 94 14 215 94 14 215 94 14 212 83 10 212 83 10 212 83 10 212 83 10
212 83 10 212 83 10 212 83 10 212 83 10 208 81 6 207 85 8 231 114 35
227 117 36 224 119 34 222 120 34 219 122 34 221 121 34 222 121 32
224 120 32 225 119 30 219 123 30 248 173 73 241 176 73 243 175 73
243 175 73 243 175 73 241 176 73 238 178 73 238 178 73 244 178 77
251 176 79 221 134 40 225 133 41 225 135 42 225 135 42 225 135 42
225 135 42 225 135 44 225 135 44 225 135 44 231 131 46 200 78 5
207 74 7 207 74 7 207 74 7 209 74 10 210 75 11 210 75 11 210 75 11
210 75 13 209 73 12 207 71 10 206 70 9 207 69 9 207 69 9 207 69 11
207 69 11 207 69 11 207 69 11 206 70 9 205 69 8 205 69 8 203 68 6
203 68 6 203 68 6 204 65 7 204 65 7 204 65 7 204 65 7 206 68 10
204 65 7 211 73 12 208 72 11 207 73 11 207 73 11 205 74 9 205 75 7
205 75 7 206 76 8 206 78 7 207 79 9 208 83 11 210 85 13 212 88 14
212 88 14 211 88 14 211 88 14 211 88 14 211 88 14 211 88 14 211 88 14
211 88 14 211 88 14 209 87 12 209 87 12 209 87 12 209 87 12 209 88 10
209 88 10 212 90 13 212 90 13 215 95 17 216 97 19 218 99 21 218 99 21
218 99 21 218 99 21 219 100 22 219 100 22 220 98 23 218 95 21
209 87 12 207 85 10 211 88 14 211 88 14 211 88 14 212 88 14 212 87 16
214 86 16 214 86 16 214 86 16 208 80 12 208 80 14 208 80 14 210 79 14
210 79 14 210 79 14 210 79 14 211 78 14 211 78 14 209 76 11 204 71 7
203 68 4 205 67 6 205 67 6 205 67 6 205 67 6 207 66 6 207 66 6
207 66 6 207 66 6 208 65 9 208 65 9 208 65 9 207 66 9 205 66 9
203 67 9 205 66 9 205 67 6 208 68 6 202 69 2 211 93 19 207 94 16
212 93 15 216 92 15 216 92 13 216 92 13 217 93 14 217 93 14 217 93 14
217 93 14 212 83 10 212 83 10 212 83 10 212 83 10 212 83 10 212 83 10
213 82 10 212 83 10 210 81 6 209 85 8 231 114 35 227 117 36
224 119 34 222 120 34 221 121 34 221 121 34 224 120 32 225 119 32
225 119 30 219 123 30 249 172 73 243 175 73 243 175 73 243 175 73
241 176 73 240 177 73 237 179 73 237 179 73 242 179 77 248 178 79
218 135 40 224 134 41 225 135 42 225 135 42 225 135 42 225 135 42
225 135 44 225 135 44 225 135 44 231 131 46 200 78 5 207 74 7
207 74 7 207 74 7 209 74 10 209 74 10 210 75 11 210 75 11 210 75 13
209 73 12 207 71 10 206 70 9 207 69 9 207 69 9 207 69 11 207 69 11
207 69 11 207 69 11 206 70 9 205 69 8 205 69 8 203 68 6 203 68 6
203 68 6 204 65 7 204 65 7 204 65 7 204 65 7 206 68 10 204 65 7
211 73 12 210 72 11 208 72 11 207 74 9 205 75 7 205 75 7 205 75 7
206 76 8 206 78 7 206 78 7 208 83 11 211 86 14 212 88 14 212 88 14
211 88 14 211 88 14 211 88 14 211 88 14 211 88 14 211 88 14 211 88 14
211 88 14 209 87 12 209 87 12 209 87 12 209 87 12 209 88 10 209 88 10
212 90 13 212 90 13 216 97 19 216 97 19 218 99 21 218 99 21 218 99 21
218 99 21 219 100 22 219 100 22 220 98 23 219 97 22 209 87 12
208 86 11 211 88 14 211 88 14 211 88 14 211 88 14 212 87 16 212 87 16
212 87 16 212 87 16 208 80 12 208 80 12 208 80 12 208 80 12 210 79 14
210 79 14 210 79 14 210 79 14 211 78 14 209 76 11 204 71 7 203 68 4
205 67 6 205 67 6 205 67 6 205 67 6 207 66 6 207 66 6 207 66 6
207 66 6 207 66 9 207 66 9 207 66 9 207 66 9 205 66 9 203 67 9
205 66 9 205 67 6 208 68 6 202 69 2 211 93 19 208 93 16 214 92 15
216 92 15 216 92 13 216 92 13 217 93 14 217 93 14 217 93 14 217 93 14
213 81 12 213 81 12 213 81 12 213 81 12 213 81 12 213 81 12 212 83 10
212 83 10 210 80 8 210 83 10 231 114 35 227 117 36 224 119 34
224 119 34 225 119 34 225 119 34 225 119 32 225 119 32 227 118 32
221 121 32 249 172 73 243 175 73 245 175 73 243 175 73 238 178 73
235 179 73 232 181 73 232 181 73 237 182 75 245 180 77 214 137 38
220 136 39 226 134 42 228 133 42 228 133 42 228 133 42 228 133 44
228 133 44 228 133 44 234 129 46 200 78 5 207 74 7 205 72 8 208 75 10
210 75 11 210 75 11 210 75 13 210 75 13 210 75 13 209 73 12 207 71 12
206 70 11 207 69 11 207 69 11 206 70 9 206 70 9 206 70 9 206 70 9
206 70 9 205 69 8 205 67 6 204 66 5 204 66 5 204 66 5 204 66 5
204 66 5 204 66 5 204 66 5 208 67 8 205 65 5 211 73 12 210 72 9
208 73 9 207 74 9 205 75 7 205 75 7 203 76 7 203 76 7 204 77 8
206 78 9 215 88 17 213 85 14 212 87 16 213 88 17 213 88 17 213 88 17
212 90 15 212 90 15 212 90 15 212 90 15 212 90 15 212 90 15 211 88 14
211 88 14 212 88 14 212 88 14 211 88 14 211 88 14 211 88 14 212 90 15
216 96 21 217 97 22 218 99 23 218 99 23 219 100 24 219 100 24
221 99 24 221 99 24 220 98 23 219 97 22 209 87 12 208 86 11 212 87 16
212 87 16 212 87 16 212 87 16 212 87 16 212 87 16 212 87 16 212 87 16
208 81 10 208 81 10 208 81 10 208 80 12 208 80 12 208 80 12 208 80 12
210 79 12 210 79 14 207 77 11 204 71 7 203 68 4 205 67 6 205 66 9
207 66 9 207 66 9 205 66 9 205 66 9 205 66 9 205 66 9 205 66 9
205 66 9 205 66 9 205 66 9 203 67 9 203 67 9 205 67 6 205 67 4
208 68 4 202 69 2 212 92 19 208 93 16 214 92 15 217 91 15 217 91 15
217 91 15 218 92 16 218 92 16 218 92 16 218 92 16 213 81 12 213 81 12
213 81 12 213 81 12 213 81 12 213 81 12 212 83 10 212 83 10 210 80 8
209 84 10 228 115 35 224 119 36 222 120 34 222 120 34 225 119 34
227 118 34 225 119 32 224 120 32 225 119 32 219 122 32 248 173 73
241 176 73 243 175 73 241 176 73 238 178 73 235 179 73 232 181 73
232 181 73 237 182 75 245 180 77 214 137 38 220 136 39 226 134 42
228 133 42 228 133 42 228 133 42 228 133 44 228 133 44 228 133 44
234 129 46 200 78 5 205 73 6 207 74 9 208 75 10 210 75 11 210 75 11
210 75 13 210 75 13 210 75 13 209 73 12 207 71 12 206 70 11 207 69 11
207 69 11 206 70 9 206 70 9 206 70 9 206 70 9 206 70 9 205 69 8
205 67 6 204 66 5 204 66 5 204 66 5 204 66 5 204 66 5 204 66 5
204 66 5 208 67 8 205 65 5 211 73 10 210 72 9 208 73 9 207 74 9
205 75 7 205 75 7 203 76 7 203 76 7 204 77 8 204 77 8 215 88 17
214 86 16 212 87 16 213 88 17 213 88 17 213 88 17 212 90 15 212 90 15
212 90 15 212 90 15 212 90 15 212 90 15 211 88 14 211 88 14 212 88 14
212 88 14 211 88 14 211 88 14 211 88 14 212 90 15 217 97 22 217 97 22
218 99 23 218 99 23 219 100 24 219 100 24 221 99 24 221 99 24
220 98 23 220 98 23 209 87 12 209 87 12 212 87 16 212 87 16 212 87 16
212 87 16 212 87 16 212 87 16 212 87 16 212 87 16 208 81 10 210 80 10
210 80 10 210 80 10 210 79 12 210 79 12 210 79 12 210 79 12 210 79 14
209 75 13 204 71 9 203 68 6 205 66 9 207 66 9 207 66 9 207 66 9
207 66 9 205 66 9 205 66 9 205 66 9 205 66 9 205 66 9 205 66 9
203 67 9 203 67 9 203 68 6 205 67 4 205 67 4 208 68 4 202 69 2
212 92 19 208 93 18 214 92 17 216 92 15 216 92 15 216 92 15 217 93 16
217 93 16 217 93 16 217 93 16 212 82 12 212 82 12 212 82 12 212 82 12
212 82 12 212 82 12 212 83 10 212 83 10 208 81 8 206 86 10 224 117 35
221 121 36 219 122 34 219 122 34 222 120 34 224 119 34 222 121 32
221 121 32 222 121 32 216 124 32 245 175 73 238 178 73 240 177 73
240 177 73 241 176 73 240 177 73 237 179 73 237 179 73 242 179 75
248 178 77 218 136 38 224 134 39 225 135 42 225 135 42 225 135 42
225 135 42 225 135 42 225 135 42 225 135 42 231 131 46 200 78 5
205 72 8 208 75 10 209 76 11 210 75 11 210 75 11 210 75 13 210 75 13
210 75 13 209 73 12 207 71 12 206 70 11 207 69 11 207 69 11 206 70 9
206 70 9 206 70 9 206 70 9 206 70 9 205 69 8 203 68 6 202 66 5
202 66 5 202 66 5 204 66 5 204 66 5 204 66 5 204 66 5 206 68 8
204 66 5 211 73 10 210 72 9 208 73 9 207 74 9 205 75 7 205 75 7
203 76 7 203 76 7 203 76 7 204 77 8 215 88 17 214 86 16 213 88 17
213 88 17 213 88 17 213 88 17 212 90 15 212 90 15 212 90 15 212 90 15
212 90 15 212 90 15 211 88 14 211 88 14 212 88 14 212 88 14 211 88 14
211 88 14 211 88 14 211 88 14 217 97 22 218 99 23 218 99 23 218 99 23
219 100 24 219 100 24 221 99 24 221 99 24 220 98 23 220 98 23
209 87 12 209 87 12 212 87 16 212 87 16 212 87 16 212 87 16 212 87 16
212 87 16 212 87 16 214 86 16 210 80 10 211 79 10 211 79 10 211 79 10
211 79 10 211 79 10 211 79 10 211 79 12 211 78 16 210 74 15 206 70 11
205 66 9 207 65 11 208 64 11 208 64 11 208 64 11 208 65 9 207 66 9
207 66 9 207 66 9 207 66 6 207 66 6 207 66 6 205 67 6 202 66 5
202 66 5 204 66 3 205 65 3 206 69 4 202 69 2 212 92 19 208 93 18
212 93 17 214 92 15 214 92 15 214 92 15 215 94 16 215 94 16 215 94 16
215 94 16 213 83 15 213 83 15 213 83 15 213 83 15 213 83 15 213 83 13
213 83 13 211 85 11 206 82 8 206 86 10 224 117 35 221 121 36
219 122 34 219 122 34 222 120 34 222 120 34 221 121 34 221 121 32
222 121 32 216 124 32 245 174 75 238 178 73 240 177 73 240 177 73
241 176 73 241 176 73 238 178 73 238 178 73 244 179 75 250 177 77
219 135 38 224 134 39 225 135 42 225 135 42 225 135 42 225 135 42
225 135 42 225 135 42 225 135 42 231 131 46 200 77 7 208 75 10
209 76 11 210 77 15 212 76 15 212 76 15 212 76 15 212 76 15 212 76 15
209 73 12 207 71 12 206 70 11 207 69 11 207 69 11 206 70 9 206 70 9
206 70 9 206 70 9 206 70 9 205 69 8 203 68 6 202 66 5 202 66 5
202 66 5 202 66 5 204 66 5 204 66 5 204 66 5 206 68 8 204 66 5
211 73 10 208 73 9 207 74 9 207 74 9 205 75 7 205 75 7 203 76 7
203 76 7 203 76 7 203 76 7 215 88 17 215 88 17 213 88 17 213 88 17
213 88 17 213 88 17 212 90 15 212 90 15 212 90 15 212 90 15 212 90 15
212 90 15 211 88 14 211 88 14 212 88 14 212 88 14 212 88 14 211 88 14
211 88 14 211 88 14 218 99 23 218 99 23 218 99 23 218 99 23
219 100 24 219 100 24 221 99 24 221 99 24 220 98 23 221 99 24
209 87 12 211 88 14 212 87 16 212 87 16 212 87 16 212 87 16 212 87 16
212 87 16 212 87 16 214 86 16 210 80 10 211 79 10 211 79 10 211 79 10
211 79 10 211 79 10 211 79 10 211 79 12 211 78 16 210 74 15 206 70 11
205 66 11 207 65 11 208 64 11 208 64 11 208 65 9 208 65 9 208 65 9
207 66 9 207 66 6 207 66 6 207 66 6 207 66 6 205 67 6 202 66 5
202 66 5 204 66 3 205 65 3 205 68 2 202 69 2 214 94 20 208 93 18
211 94 17 211 94 15 211 94 15 211 94 15 212 95 16 212 95 16 212 95 16
212 95 16 215 82 17 215 82 17 215 82 17 215 82 17 215 82 17 215 82 15
213 83 15 213 83 13 206 78 7 205 83 8 228 115 35 225 120 37
222 122 37 222 122 37 225 121 35 227 120 35 225 121 35 225 121 35
225 121 35 219 124 35 251 176 81 245 179 79 245 179 79 244 178 77
243 177 76 240 177 75 237 178 75 237 178 75 243 180 79 241 171 72
221 139 44 218 128 35 225 133 41 227 132 41 228 133 42 228 133 42
228 133 42 228 133 42 229 135 44 236 131 48 201 78 8 209 76 11
210 77 15 210 76 17 212 75 17 212 75 17 212 75 17 212 75 17 214 76 18
212 73 15 207 69 11 205 66 9 205 66 9 205 66 9 203 68 6 203 68 6
203 68 6 203 68 6 202 69 4 201 68 3 200 67 2 198 65 1 200 67 2
200 67 2 201 67 5 202 66 5 203 68 6 202 66 5 202 66 5 203 68 6
206 70 7 205 72 8 205 72 8 204 73 8 204 74 6 204 74 6 203 76 7
203 76 7 203 76 7 203 76 7 215 88 17 215 88 17 215 88 17 215 88 17
213 88 17 213 88 17 213 88 17 213 88 17 213 88 17 213 88 17 213 88 17
213 88 17 212 87 16 212 87 16 212 87 16 212 87 16 212 88 14 212 88 14
212 88 14 211 88 14 218 99 23 218 99 23 218 99 23 218 99 23
219 100 24 219 100 24 221 99 24 221 99 24 221 99 24 215 93 18
211 88 14 211 88 14 212 87 16 212 87 16 212 87 16 212 87 16 212 87 16
212 87 16 212 87 16 212 87 16 207 79 9 208 79 9 208 78 11 208 78 11
208 78 11 208 78 11 208 78 11 208 78 13 210 79 14 213 80 18 205 69 8
209 70 12 208 67 10 208 67 10 208 67 10 208 67 8 208 67 8 208 67 8
208 67 8 206 68 6 205 67 4 205 67 4 205 67 4 205 67 4 205 69 6
205 69 6 206 68 6 208 68 4 205 68 2 203 70 4 217 97 24 215 102 26
207 92 15 207 92 15 207 92 13 207 92 13 208 94 14 208 94 14 208 94 14
208 94 14 212 79 15 212 79 15 212 79 15 212 79 15 212 79 15 212 79 15
211 81 13 212 80 13 215 80 12 213 83 13 231 111 36 226 114 34
223 116 34 223 116 34 226 115 32 228 114 32 226 114 34 226 114 34
226 115 32 220 118 32 254 171 78 247 174 78 247 175 76 246 173 75
245 172 74 244 171 73 241 173 73 241 173 73 247 175 76 246 166 70
230 138 46 230 131 41 235 133 45 235 133 45 235 133 45 233 131 42
232 130 41 232 128 40 232 128 40 237 125 44 201 75 6 207 73 11
208 74 14 208 74 14 209 73 14 209 73 14 209 73 14 209 73 14 212 73 15
211 72 14 209 70 12 206 68 10 205 66 9 204 65 7 202 66 5 202 66 5
202 66 5 202 66 5 201 68 3 200 67 2 198 65 1 197 64 0 197 64 0
197 64 0 198 65 3 198 65 3 198 65 3 198 65 3 202 68 6 204 71 9
207 74 9 208 75 10 206 76 10 206 76 10 206 76 8 206 76 8 204 77 8
204 77 8 204 77 8 204 77 8 215 88 17 215 88 17 215 88 17 215 88 17
213 88 17 213 88 17 213 88 17 213 88 17 213 88 17 213 88 17 213 88 17
213 88 17 212 87 16 212 87 16 212 87 16 212 87 16 214 87 14 214 87 14
212 88 14 212 88 14 221 99 24 219 100 24 219 100 24 219 100 24
221 101 25 221 101 25 222 100 25 222 100 25 218 95 21 213 91 16
211 88 14 211 88 14 212 87 16 212 87 16 212 87 16 212 87 16 212 87 16
212 87 16 212 87 16 212 87 16 206 81 10 206 81 10 206 81 10 206 81 12
206 81 12 206 81 12 206 81 12 206 81 12 206 81 12 210 83 14 200 70 4
204 71 7 203 68 4 205 67 4 205 67 4 205 67 4 205 67 4 205 67 4
203 68 4 203 68 4 205 69 6 205 69 6 205 69 6 205 69 6 204 71 7
206 70 7 207 70 5 209 69 5 205 68 2 203 72 5 218 100 26 216 103 27
210 98 19 210 98 19 210 98 17 210 98 17 211 99 19 211 99 19 211 99 19
211 99 19 209 76 11 209 76 11 209 76 11 209 76 11 209 76 11 209 76 11
207 77 9 210 75 9 207 65 0 205 63 0 218 88 16 209 88 10 208 88 10
208 88 10 211 87 8 211 87 8 209 88 10 209 88 10 211 87 8 205 91 8
216 123 34 210 127 34 211 126 32 212 124 31 214 122 30 214 120 28
211 121 28 211 121 28 216 122 31 219 117 28 208 94 10 209 90 8
205 91 6 205 91 6 206 92 8 206 92 8 207 93 9 210 94 10 211 95 11
214 92 15 200 72 4 203 72 9 204 70 11 204 70 11 206 70 11 206 70 11
206 70 11 206 70 11 207 69 11 209 70 12 209 73 12 210 75 13 219 80 22
219 80 22 217 82 20 217 82 20 217 82 20 217 82 20 216 83 18 215 82 17
213 81 16 212 79 15 212 79 15 212 79 15 210 79 14 210 79 14 210 79 14
210 79 14 205 74 9 207 77 11 210 79 14 211 80 15 211 80 15 210 79 14
210 79 12 210 79 12 208 80 12 208 80 12 208 80 12 208 80 12 213 88 17
213 88 17 213 88 17 215 90 18 215 90 18 215 90 18 215 90 18 215 90 18
215 90 18 213 88 17 213 88 17 213 88 17 212 87 16 212 87 16 212 87 16
212 87 16 212 88 14 212 88 14 212 88 14 212 88 14 211 88 14 209 89 14
209 89 14 209 89 14 210 90 15 210 90 15 212 90 15 212 90 15 215 93 18
211 88 14 211 88 14 211 88 14 212 87 16 212 87 16 212 87 16 212 87 16
212 87 16 212 87 16 212 87 16 211 88 16 220 102 28 220 102 28
220 102 28 220 102 28 220 102 28 220 102 28 220 102 28 220 102 28
219 99 26 223 101 28 213 88 17 217 90 19 217 87 17 217 87 17
217 87 17 217 87 17 217 86 19 217 86 19 217 86 19 215 87 19 206 78 9
206 78 9 206 78 9 207 77 9 208 78 11 210 77 11 213 76 11 213 76 11
209 74 8 207 79 11 224 106 32 220 110 33 219 109 30 219 109 30
219 109 28 219 109 28 220 111 27 220 111 27 220 111 27 220 111 27
205 72 8 205 72 8 205 72 8 205 72 8 205 72 8 205 72 8 204 74 6
207 72 6 212 70 4 207 65 0 220 86 15 209 83 7 208 83 7 209 83 7
211 82 7 211 82 7 209 83 7 209 83 7 209 83 5 204 85 5 220 118 32
214 121 32 214 122 30 216 119 28 218 116 27 218 114 26 216 115 26
216 115 26 221 114 27 226 112 27 217 93 12 220 94 13 213 92 10
211 93 10 211 93 10 210 92 9 212 91 9 211 90 8 211 90 8 212 88 12
199 69 3 201 67 7 201 67 7 202 66 7 202 66 7 202 66 7 202 66 7
202 66 7 205 66 9 207 69 11 210 75 13 214 78 17 216 80 19 215 82 17
215 82 17 215 82 17 215 82 17 216 80 19 215 82 17 213 81 16 212 79 15
211 78 14 210 77 13 210 77 13 208 78 13 208 78 13 207 77 11 207 77 11
207 77 11 210 79 14 212 81 16 213 83 17 213 83 17 212 81 16 212 82 14
212 82 14 210 83 14 211 84 15 211 84 15 213 85 16 211 86 14 212 87 16
212 87 16 215 90 18 215 90 18 215 90 18 215 90 18 215 90 18 215 90 18
213 88 17 213 88 17 212 87 16 212 87 16 212 87 16 212 87 16 212 87 16
212 88 14 212 88 14 212 88 14 211 88 14 211 88 14 209 89 14 209 89 14
209 89 14 210 90 15 210 90 15 212 90 15 212 90 15 212 90 15 211 88 14
211 88 14 211 88 14 212 87 16 212 87 16 212 87 16 212 87 16 212 87 16
212 87 16 212 87 16 211 88 16 220 104 30 218 105 30 218 106 28
218 106 28 218 106 28 218 106 28 218 106 28 220 105 28 215 100 23
219 102 25 212 90 15 216 91 17 215 88 15 215 88 15 215 88 15
215 88 15 215 88 17 215 88 17 213 88 17 213 88 17 206 81 10 206 81 10
206 81 10 206 81 10 208 80 12 211 79 12 214 77 12 214 77 12 210 75 9
208 80 12 223 108 33 221 111 34 222 114 35 222 114 35 222 115 32
222 115 32 223 116 32 223 116 32 223 116 32 223 116 32 205 72 8
205 72 8 205 72 8 205 72 8 205 72 8 205 72 8 205 73 6 204 72 5
206 71 5 208 74 5 212 80 11 212 83 10 210 83 10 212 83 10 212 83 10
212 83 8 210 84 8 209 85 8 207 85 8 204 87 8 222 113 29 218 116 29
216 116 29 216 116 29 218 116 29 218 116 29 219 115 29 222 113 29
227 113 30 230 111 30 216 95 15 219 95 17 214 93 13 214 93 13
212 94 13 212 94 13 211 92 12 211 92 12 211 92 12 215 90 16 198 67 4
202 66 7 202 66 7 204 65 7 204 65 7 204 65 7 204 65 7 204 65 7
202 66 5 201 65 4 216 80 19 213 81 16 213 83 15 211 84 13 210 85 11
210 85 11 213 83 15 215 82 17 215 82 17 213 81 16 211 80 15 210 79 14
210 79 14 210 79 14 210 79 14 210 79 14 210 79 14 210 79 14 209 81 15
209 81 15 209 81 13 209 81 13 210 83 14 210 83 14 210 83 14 210 83 14
210 83 12 209 84 12 209 84 12 209 84 12 216 91 19 216 91 17 216 91 17
215 90 16 213 91 16 213 91 16 213 91 16 213 91 16 213 91 16 213 91 16
211 88 14 211 88 14 211 86 14 212 87 16 212 87 16 212 87 16 212 88 14
212 88 14 211 88 14 211 88 14 211 88 14 211 88 14 211 88 14 211 88 14
212 90 15 212 90 15 212 90 15 212 90 15 212 90 15 212 90 15 212 90 15
212 90 15 213 88 17 213 88 17 213 88 17 213 88 17 213 88 17 213 88 17
213 89 15 212 90 15 218 101 24 216 101 24 217 103 25 217 103 25
217 103 25 217 103 25 219 104 26 219 104 26 217 103 25 219 102 25
209 87 12 212 88 14 215 88 17 215 88 17 213 88 17 213 88 17 213 88 17
213 88 17 213 88 17 213 88 17 206 81 10 206 81 10 206 81 10 206 81 10
208 80 12 210 79 12 213 78 12 214 77 12 209 77 7 206 81 10 223 108 33
220 112 32 219 111 31 219 111 29 219 111 29 219 112 27 220 113 28
220 113 28 220 113 28 220 113 28 205 72 8 205 72 8 205 72 8 205 72 8
205 72 8 205 72 8 205 73 6 204 72 5 204 72 5 207 74 7 211 81 11
212 82 12 212 83 10 212 83 10 212 83 10 212 83 10 210 84 8 209 85 8
207 85 8 204 87 8 224 112 29 221 114 29 219 115 29 218 116 29
216 116 29 218 116 29 221 114 29 224 112 29 228 112 30 230 111 30
216 95 15 218 96 17 214 93 13 214 93 13 212 94 13 212 94 13 211 92 12
211 92 12 211 92 12 215 90 16 201 67 5 204 65 9 204 65 7 204 65 7
204 65 7 204 65 7 204 65 7 204 65 7 202 66 5 201 65 4 215 82 17
212 82 14 211 84 13 210 85 11 208 87 9 208 87 9 213 83 15 215 82 17
215 82 17 213 81 16 211 80 15 210 79 14 210 79 14 210 79 14 210 79 14
210 79 14 210 79 14 210 79 14 209 81 15 209 81 15 209 81 13 209 81 13
210 83 14 210 83 14 210 83 14 210 83 14 209 84 12 209 84 12 209 84 12
209 84 12 216 91 17 216 91 17 216 91 17 215 90 16 213 91 16 213 91 16
213 91 16 213 91 16 213 91 16 213 91 16 211 88 14 209 87 12 211 86 14
212 87 16 212 87 16 212 87 16 212 88 14 212 88 14 211 88 14 211 88 14
211 88 14 211 88 14 211 88 14 211 88 14 212 90 15 212 90 15 212 90 15
212 90 15 212 90 15 212 90 15 212 90 15 212 90 15 213 88 17 213 88 17
213 88 17 213 88 17 213 88 17 213 88 17 213 89 15 212 90 15
218 101 24 216 101 24 217 103 25 217 103 25 217 103 25 217 103 25
219 104 26 219 104 26 216 103 25 217 103 25 209 87 12 214 87 14
217 87 17 215 88 17 213 88 17 212 89 17 213 88 17 213 88 17 213 88 17
213 88 17 206 81 10 206 81 10 206 81 10 206 81 10 208 80 12 210 79 12
213 78 12 213 78 12 209 77 7 206 81 10 221 108 30 220 112 32
219 111 29 219 111 29 219 112 27 219 112 27 220 113 28 220 113 28
220 113 28 220 113 28 205 72 8 205 72 8 205 72 8 205 72 8 205 72 8
205 72 8 205 73 6 204 72 5 204 72 5 207 74 7 211 81 11 212 82 12
212 83 10 212 83 10 212 83 10 212 83 10 210 84 8 209 85 8 207 85 8
204 87 8 224 112 29 221 114 29 219 115 29 218 116 29 216 116 29
218 116 29 221 114 29 224 112 29 228 112 30 230 111 30 216 95 15
218 96 17 214 93 13 214 93 13 212 94 13 212 94 13 211 92 14 211 92 14
211 92 14 215 90 18 202 66 5 205 64 9 205 64 7 205 64 7 204 65 7
204 65 7 204 65 7 204 65 7 202 66 5 201 65 4 215 82 17 212 82 14
211 84 13 210 85 11 208 87 9 208 87 9 213 83 15 215 82 17 215 82 17
213 81 16 211 80 15 210 79 14 210 79 14 210 79 14 210 79 12 210 79 12
210 79 12 210 79 12 209 81 13 209 81 13 209 81 13 209 81 13 210 83 14
210 83 14 210 83 14 210 83 14 209 84 12 209 84 12 209 84 12 209 84 12
214 92 17 214 92 17 214 92 17 214 92 17 214 92 17 214 92 17 214 92 17
214 92 17 214 92 17 213 91 16 211 88 14 209 87 12 211 86 14 212 87 16
212 87 16 212 87 16 211 88 14 211 88 14 211 88 14 211 88 14 211 88 14
211 88 14 211 88 14 211 88 14 212 90 15 212 90 15 212 90 15 212 90 15
212 90 15 212 90 15 212 90 15 212 90 15 213 88 17 213 88 17 213 88 17
213 88 17 213 88 17 213 88 17 213 89 15 212 90 15 218 101 24
216 101 24 217 103 23 217 103 23 217 103 23 217 103 23 219 104 24
219 104 24 216 103 25 217 103 25 209 87 12 214 87 14 217 87 17
215 88 17 213 88 17 212 89 17 213 88 17 213 88 17 213 88 17 213 88 17
206 81 12 206 81 12 206 81 12 206 81 12 206 81 12 208 80 12 211 79 12
213 78 12 207 77 7 205 82 10 221 108 30 220 112 32 219 111 29
220 110 29 220 111 27 220 111 27 221 112 26 221 112 26 221 112 26
221 112 26 205 72 8 205 72 8 205 72 8 205 72 8 205 72 8 205 72 8
205 72 8 204 72 5 204 72 5 207 74 7 211 81 13 212 82 12 212 82 12
212 83 10 212 83 10 212 83 10 210 83 10 209 85 8 207 85 8 204 87 8
224 112 31 221 114 29 219 115 29 218 116 29 216 116 29 218 116 29
221 114 29 224 112 29 228 112 30 230 111 30 216 95 15 218 96 17
214 93 13 214 93 13 212 94 13 212 94 13 211 92 14 211 92 14 211 92 14
215 90 18 202 66 5 205 64 9 205 64 7 205 64 7 204 65 7 204 65 7
204 65 7 204 65 7 202 66 5 201 65 4 215 82 17 212 82 14 211 84 13
210 85 11 208 87 9 208 87 9 213 83 15 215 82 17 215 82 17 213 81 16
211 80 15 210 79 14 210 79 14 210 79 14 210 79 12 210 79 12 210 79 12
210 79 12 209 81 13 209 81 13 209 81 13 209 81 13 210 83 14 210 83 14
210 83 14 210 83 14 209 84 12 209 84 12 209 84 12 209 84 12 214 92 17
214 92 17 214 92 17 214 92 17 214 92 17 214 92 17 214 92 17 214 92 17
214 92 17 213 91 16 211 88 14 209 87 12 211 86 14 212 87 16 212 87 16
212 87 16 211 88 14 211 88 14 211 88 14 211 88 14 211 88 14 211 88 14
211 88 14 211 88 14 212 90 15 212 90 15 212 90 15 212 90 15 212 90 15
212 90 15 212 90 15 212 90 15 213 88 17 213 88 17 213 88 17 213 88 17
213 88 17 213 88 17 213 89 15 212 90 15 218 101 24 216 101 24
217 103 23 217 103 23 217 103 23 217 103 23 219 104 24 219 104 24
216 103 25 217 103 25 209 87 12 214 87 14 217 87 17 215 88 17
213 88 17 212 89 17 213 88 17 213 88 17 213 88 17 213 88 17 206 81 12
206 81 12 206 81 12 206 81 12 206 81 12 208 80 12 211 79 12 211 79 12
207 77 7 205 82 10 219 109 30 220 112 32 220 110 29 220 110 29
220 111 27 220 111 27 221 112 26 221 112 26 221 112 26 221 112 26
207 71 10 207 71 10 207 71 10 207 71 10 207 71 10 207 71 10 205 72 8
204 71 7 204 71 7 207 74 9 211 81 13 212 82 14 212 82 12 212 82 12
212 82 12 212 82 12 210 83 10 209 84 10 207 85 10 204 87 10
224 112 31 221 114 31 219 114 31 218 115 31 216 116 31 218 115 31
221 114 31 224 112 31 228 111 32 230 111 32 216 95 17 218 96 19
214 92 15 214 92 15 212 93 15 212 93 15 212 93 15 212 93 15 212 93 15
216 91 19 203 68 6 207 65 11 207 65 11 207 65 11 207 65 11 207 65 11
207 65 11 205 66 9 203 68 6 202 66 5 216 83 18 213 83 15 211 84 13
210 85 11 208 87 9 208 87 9 213 83 15 215 82 17 215 82 17 213 81 16
211 80 15 210 79 14 210 79 14 210 79 14 210 79 12 210 79 12 210 79 12
210 79 12 209 81 13 209 81 13 209 81 13 209 81 13 210 83 14 210 83 14
210 83 14 210 83 14 209 84 12 209 84 12 209 84 12 209 84 12 214 92 17
214 92 17 214 92 17 214 92 17 214 92 17 214 92 17 214 92 17 214 92 17
214 92 17 213 91 16 211 88 14 209 87 12 211 86 14 212 87 16 212 87 16
212 87 16 211 88 14 211 88 14 211 88 14 211 88 14 211 88 14 211 88 14
211 88 14 211 88 14 212 90 15 212 90 15 212 90 15 212 90 15 212 90 15
212 90 15 212 90 15 212 90 15 213 88 17 213 88 17 213 88 17 213 88 17
213 88 17 213 88 17 213 89 15 212 90 15 218 101 24 216 101 24
216 102 22 216 102 22 217 103 23 217 103 23 217 103 23 217 103 23
217 105 26 219 104 26 211 88 14 215 88 15 217 87 17 215 88 17
213 88 17 212 89 17 213 88 17 213 88 17 213 88 17 213 88 17 206 81 12
206 81 12 206 81 12 206 81 12 206 81 12 208 80 12 211 79 12 211 79 12
207 77 7 205 82 10 219 109 30 220 112 32 220 110 29 220 110 29
220 111 27 220 111 27 221 112 26 221 112 26 221 112 26 221 112 26
207 71 10 207 71 10 207 71 10 207 71 10 207 71 10 207 71 10 205 72 8
204 71 7 204 71 7 207 74 9 211 81 13 212 82 14 212 82 12 212 82 12
212 82 12 212 82 12 210 83 10 209 84 10 207 85 10 204 87 10
224 112 31 221 114 31 219 114 31 218 115 31 216 116 31 218 115 31
221 114 31 224 112 31 228 111 32 230 111 32 216 95 17 218 96 19
214 92 15 214 92 15 212 93 15 212 93 15 212 93 15 212 93 15 212 93 15
216 91 19 203 68 6 207 65 11 207 65 11 207 65 11 207 65 11 207 65 11
207 65 11 207 65 11 205 66 9 202 66 5 216 83 18 213 83 15 211 84 13
210 85 11 208 87 9 208 87 9 213 83 15 215 82 17 215 82 17 213 81 16
211 80 15 210 79 14 210 79 14 210 79 14 210 79 12 210 79 12 210 79 12
210 79 12 209 81 13 209 81 13 209 81 13 209 81 13 210 83 14 210 83 14
210 83 14 210 83 14 209 84 12 209 84 12 209 84 12 209 84 12 214 92 17
214 92 17 214 92 17 214 92 17 214 92 17 214 92 17 214 92 17 214 92 17
214 92 17 213 91 16 211 88 14 209 87 12 211 86 14 212 87 16 212 87 16
212 87 16 211 88 14 211 88 14 211 88 14 211 88 14 211 88 14 211 88 14
211 88 14 211 88 14 212 90 15 212 90 15 212 90 15 212 90 15 212 90 15
212 90 15 212 90 15 212 90 15 213 88 17 213 88 17 213 88 17 213 88 17
213 88 17 213 88 17 213 89 15 212 90 15 218 101 24 216 101 24
216 102 22 216 102 22 217 103 23 217 103 23 217 103 23 217 103 23
217 105 26 219 104 26 211 88 14 215 88 15 217 87 17 215 88 17
213 88 17 212 89 17 213 88 17 213 88 17 213 88 17 213 88 17 206 81 12
206 81 12 206 81 12 206 81 12 206 81 12 208 80 12 211 79 12 211 79 12
207 77 7 205 82 10 219 109 30 220 112 32 220 110 29 220 110 29
220 111 27 220 111 27 221 112 26 221 112 26 221 112 26 221 112 26
207 71 10 207 71 10 207 71 10 207 71 10 207 71 10 207 71 10 205 72 8
204 71 7 204 71 7 207 74 9 211 81 13 212 82 14 212 82 12 212 82 12
212 82 12 212 82 12 210 83 10 209 84 10 207 85 10 204 87 10
224 112 31 221 114 31 219 114 31 218 115 31 216 116 31 218 115 31
221 114 31 224 112 31 228 111 32 230 111 32 216 95 17 218 96 19
214 92 15 214 92 15 212 93 15 212 93 15 212 93 15 212 93 15 212 93 15
216 91 19 203 68 6 207 65 11 207 65 11 207 65 11 207 65 11 207 65 11
207 65 11 207 65 11 205 66 9 202 66 5 216 83 18 213 83 15 211 84 13
210 85 11 208 87 9 208 87 9 213 83 15 215 82 17 215 82 17 213 81 16
211 80 15 210 79 14 210 79 14 210 79 14 210 79 12 210 79 12 210 79 12
210 79 12 209 81 13 209 81 13 209 81 13 209 81 13 210 83 14 210 83 14
210 83 14 210 83 14 209 84 12 209 84 12 209 84 12 209 84 12 214 92 17
214 92 17 214 92 17 214 92 17 214 92 17 214 92 17 214 92 17 214 92 17
214 92 17 213 91 16 211 88 14 209 87 12 211 86 14 212 87 16 212 87 16
212 87 16 211 88 14 211 88 14 211 88 14 211 88 14 211 88 14 211 88 14
211 88 14 211 88 14 212 90 15 212 90 15 212 90 15 212 90 15 212 90 15
212 90 15 212 90 15 212 90 15 213 88 17 213 88 17 213 88 17 213 88 17
213 88 17 213 88 17 213 89 15 212 90 15 218 101 24 216 101 24
216 102 22 216 102 22 217 103 23 217 103 23 217 103 23 217 103 23
217 105 26 219 104 26 211 88 14 215 88 15 217 87 17 215 88 17
213 88 17 212 89 17 213 88 17 213 88 17 213 88 17 213 88 17 206 81 12
206 81 12 206 81 12 206 81 12 206 81 12 208 80 12 211 79 12 211 79 12
207 77 7 205 82 10 219 109 30 220 112 32 220 110 29 220 110 29
220 111 27 220 111 27 221 112 26 221 112 26 221 112 26 221 112 26
207 71 10 207 71 10 207 71 10 207 71 10 207 71 10 207 71 10 205 72 8
204 71 7 204 71 7 207 74 9 211 81 13 212 82 14 212 82 12 212 82 12
212 82 12 212 82 12 210 83 10 209 84 10 207 85 10 204 87 10
224 112 31 221 114 31 219 114 31 218 115 31 216 116 31 218 115 31
221 114 31 224 112 31 228 111 32 230 111 32 216 95 17 218 96 19
214 92 15 214 92 15 212 93 15 212 93 15 212 93 15 212 93 15 212 93 15
216 91 19 203 68 6 207 65 11 207 65 11 207 65 11 207 65 11 207 65 11
207 65 11 207 65 11 205 66 9 202 66 5 216 83 18 213 83 15 211 84 13
210 85 11 208 87 9 208 87 9 213 83 15 215 82 17 215 82 17 213 81 16
211 80 15 210 79 14 210 79 14 210 79 14 210 79 12 210 79 12 210 79 12
210 79 12 209 81 13 209 81 13 209 81 13 209 81 13 210 83 14 210 83 14
210 83 14 210 83 14 209 84 12 209 84 12 209 84 12 209 84 12 214 92 17
214 92 17 214 92 17 214 92 17 214 92 17 214 92 17 214 92 17 214 92 17
214 92 17 213 91 16 211 88 14 209 87 12 211 86 14 212 87 16 212 87 16
212 87 16 211 88 14 211 88 14 211 88 14 211 88 14 211 88 14 211 88 14
211 88 14 211 88 14 212 90 15 212 90 15 212 90 15 212 90 15 212 90 15
212 90 15 212 90 15 212 90 15 213 88 17 213 88 17 213 88 17 213 88 17
213 88 17 213 88 17 213 89 15 212 90 15 218 101 24 216 101 24
216 102 22 216 102 22 217 103 23 217 103 23 217 103 23 217 103 23
217 105 26 219 104 26 211 88 14 215 88 15 217 87 17 215 88 17
213 88 17 212 89 17 213 88 17 213 88 17 213 88 17 213 88 17 206 81 12
206 81 12 206 81 12 206 81 12 206 81 12 208 80 12 211 79 12 211 79 12
207 77 7 205 82 10 219 109 30 220 112 32 220 110 29 220 110 29
220 111 27 220 111 27 221 112 26 221 112 26 221 112 26 221 112 26
